; generated by Slic3r 0.9.8-dev on 2012-12-30 at 12:08:17

; layer_height = 0.4
; perimeters = 3
; top_solid_layers = 3
; bottom_solid_layers = 3
; fill_density = 0.4
; perimeter_speed = 30
; infill_speed = 60
; travel_speed = 130
; scale = 1
; nozzle_diameter = 0.5
; filament_diameter = 3
; extrusion_multiplier = 1
; perimeters extrusion width = 0.53mm
; infill extrusion width = 0.53mm
; first layer extrusion width = 0.80mm

M107 ; disable fan
M190 S60 ; wait for bed temperature to be reached
M104 S185 ; set temperature
M104 S185 ; set extruder temperature
G28 ; home all axes
M109 S185 ; wait for temperature to be reached
G90 ; use absolute coordinates
G21 ; set units to millimeters
G92 E0 ; reset extrusion distance
M82 ; use absolute distances for extrusion
G1 F1800.000 E-1.00000 ; retract
G92 E0 ; reset extrusion distance
G1 Z0.400 F7800.000 ; move to next layer (0)
G1 X122.750 Y112.350 ; move to first skirt point
G1 F1800.000 E1.00000 ; compensate retraction
G1 X122.290 Y113.390 F540.000 E1.04734 ; skirt
G1 X121.960 Y114.010 E1.07658 ; skirt
G1 X121.670 Y114.490 E1.09992 ; skirt
G1 X121.030 Y115.410 E1.14657 ; skirt
G1 X120.520 Y116.020 E1.17967 ; skirt
G1 X120.150 Y116.420 E1.20235 ; skirt
G1 X119.720 Y116.850 E1.22767 ; skirt
G1 X118.840 Y117.610 E1.27607 ; skirt
G1 X118.400 Y117.940 E1.29897 ; skirt
G1 X117.810 Y118.340 E1.32864 ; skirt
G1 X117.340 Y118.620 E1.35141 ; skirt
G1 X116.300 Y119.140 E1.39981 ; skirt
G1 X115.590 Y119.440 E1.43190 ; skirt
G1 X115.070 Y119.620 E1.45481 ; skirt
G1 X114.060 Y119.900 E1.49844 ; skirt
G1 X113.330 Y120.050 E1.52946 ; skirt
G1 X112.790 Y120.130 E1.55218 ; skirt
G1 X112.160 Y120.200 E1.57857 ; skirt
G1 X111.240 Y120.240 E1.61690 ; skirt
G1 X89.260 Y120.240 E2.53188 ; skirt
G1 X88.340 Y120.200 E2.57021 ; skirt
G1 X87.170 Y120.050 E2.61931 ; skirt
G1 X86.470 Y119.910 E2.64903 ; skirt
G1 X85.930 Y119.770 E2.67225 ; skirt
G1 X84.870 Y119.420 E2.71872 ; skirt
G1 X84.200 Y119.140 E2.74895 ; skirt
G1 X83.700 Y118.900 E2.77204 ; skirt
G1 X83.160 Y118.620 E2.79736 ; skirt
G1 X82.690 Y118.340 E2.82013 ; skirt
G1 X82.100 Y117.940 E2.84980 ; skirt
G1 X81.660 Y117.610 E2.87270 ; skirt
G1 X81.190 Y117.220 E2.89812 ; skirt
G1 X80.780 Y116.850 E2.92111 ; skirt
G1 X80.350 Y116.420 E2.94643 ; skirt
G1 X79.980 Y116.020 E2.96911 ; skirt
G1 X79.530 Y115.490 E2.99805 ; skirt
G1 X79.200 Y115.050 E3.02095 ; skirt
G1 X78.770 Y114.400 E3.05339 ; skirt
G1 X78.490 Y113.920 E3.07652 ; skirt
G1 X78.020 Y113.000 E3.11953 ; skirt
G1 X77.700 Y112.240 E3.15385 ; skirt
G1 X77.520 Y111.720 E3.17676 ; skirt
G1 X77.220 Y110.590 E3.22543 ; skirt
G1 X77.090 Y109.960 E3.25221 ; skirt
G1 X77.010 Y109.410 E3.27534 ; skirt
G1 X76.960 Y108.860 E3.29833 ; skirt
G1 X75.450 Y84.460 E4.31599 ; skirt
G1 X75.370 Y82.700 E4.38933 ; skirt
G1 X75.370 Y82.080 E4.41514 ; skirt
G1 X75.450 Y80.330 E4.48806 ; skirt
G1 X75.520 Y79.640 E4.51693 ; skirt
G1 X75.780 Y77.900 E4.59017 ; skirt
G1 X75.910 Y77.250 E4.61776 ; skirt
G1 X76.340 Y75.550 E4.69076 ; skirt
G1 X76.530 Y74.930 E4.71775 ; skirt
G1 X77.120 Y73.280 E4.79069 ; skirt
G1 X77.370 Y72.680 E4.81775 ; skirt
G1 X78.120 Y71.090 E4.89093 ; skirt
G1 X78.420 Y70.510 E4.91812 ; skirt
G1 X79.320 Y69.000 E4.99129 ; skirt
G1 X79.710 Y68.430 E5.02004 ; skirt
G1 X80.760 Y67.020 E5.09322 ; skirt
G1 X81.170 Y66.510 E5.12046 ; skirt
G1 X82.350 Y65.210 E5.19355 ; skirt
G1 X82.810 Y64.750 E5.22063 ; skirt
G1 X84.110 Y63.570 E5.29371 ; skirt
G1 X84.620 Y63.160 E5.32095 ; skirt
G1 X86.030 Y62.110 E5.39413 ; skirt
G1 X86.600 Y61.720 E5.42288 ; skirt
G1 X88.110 Y60.820 E5.49606 ; skirt
G1 X88.690 Y60.520 E5.52324 ; skirt
G1 X90.280 Y59.770 E5.59642 ; skirt
G1 X90.880 Y59.520 E5.62348 ; skirt
G1 X92.530 Y58.930 E5.69643 ; skirt
G1 X93.150 Y58.740 E5.72342 ; skirt
G1 X94.850 Y58.310 E5.79642 ; skirt
G1 X95.500 Y58.180 E5.82401 ; skirt
G1 X97.240 Y57.920 E5.89725 ; skirt
G1 X97.930 Y57.850 E5.92612 ; skirt
G1 X99.680 Y57.770 E5.99904 ; skirt
G1 X100.300 Y57.770 E6.02485 ; skirt
G1 X102.060 Y57.850 E6.09819 ; skirt
G1 X102.750 Y57.920 E6.12706 ; skirt
G1 X104.490 Y58.180 E6.20030 ; skirt
G1 X105.140 Y58.310 E6.22789 ; skirt
G1 X106.840 Y58.740 E6.30089 ; skirt
G1 X107.460 Y58.930 E6.32788 ; skirt
G1 X109.110 Y59.520 E6.40082 ; skirt
G1 X109.710 Y59.770 E6.42788 ; skirt
G1 X111.300 Y60.520 E6.50106 ; skirt
G1 X111.880 Y60.820 E6.52825 ; skirt
G1 X113.390 Y61.720 E6.60142 ; skirt
G1 X113.960 Y62.110 E6.63017 ; skirt
G1 X115.370 Y63.160 E6.70335 ; skirt
G1 X115.880 Y63.570 E6.73059 ; skirt
G1 X117.180 Y64.750 E6.80368 ; skirt
G1 X117.640 Y65.210 E6.83076 ; skirt
G1 X118.820 Y66.510 E6.90384 ; skirt
G1 X119.230 Y67.020 E6.93108 ; skirt
G1 X120.280 Y68.430 E7.00426 ; skirt
G1 X120.670 Y69.000 E7.03301 ; skirt
G1 X121.570 Y70.510 E7.10619 ; skirt
G1 X121.870 Y71.090 E7.13337 ; skirt
G1 X122.620 Y72.680 E7.20655 ; skirt
G1 X122.870 Y73.280 E7.23361 ; skirt
G1 X123.460 Y74.930 E7.30656 ; skirt
G1 X123.650 Y75.550 E7.33355 ; skirt
G1 X124.080 Y77.250 E7.40655 ; skirt
G1 X124.210 Y77.900 E7.43414 ; skirt
G1 X124.470 Y79.640 E7.50738 ; skirt
G1 X124.540 Y80.330 E7.53625 ; skirt
G1 X124.620 Y82.090 E7.60959 ; skirt
G1 X124.620 Y82.670 E7.63373 ; skirt
G1 X123.580 Y108.270 E8.70027 ; skirt
G1 X123.550 Y108.810 E8.72279 ; skirt
G1 X123.490 Y109.410 E8.74789 ; skirt
G1 X123.410 Y109.960 E8.77103 ; skirt
G1 X123.150 Y111.120 E8.82051 ; skirt
G1 X122.940 Y111.830 E8.85133 ; skirt
G1 X122.788 Y112.246 E8.86979 ; skirt
G1 X122.750 Y112.350 E8.87438 ; skirt
G1 F1800.000 E7.87438 ; retract
G92 E0 ; reset extrusion distance
G1 X115.725 Y109.048 F7800.000 ; move to first perimeter point
G1 F1800.000 E1.00000 ; compensate retraction
G1 X115.599 Y109.314 F540.000 E1.01226 ; perimeter
G1 X115.448 Y109.567 E1.02451 ; perimeter
G1 X115.273 Y109.803 E1.03677 ; perimeter
G1 X115.075 Y110.022 E1.04903 ; perimeter
G1 X114.857 Y110.219 E1.06129 ; perimeter
G1 X114.620 Y110.395 E1.07354 ; perimeter
G1 X114.368 Y110.546 E1.08580 ; perimeter
G1 X114.101 Y110.672 E1.09806 ; perimeter
G1 X113.824 Y110.771 E1.11032 ; perimeter
G1 X113.539 Y110.843 E1.12257 ; perimeter
G1 X113.247 Y110.886 E1.13483 ; perimeter
G1 X112.953 Y110.900 E1.14709 ; perimeter
G1 X112.659 Y110.886 E1.15935 ; perimeter
G1 X112.368 Y110.843 E1.17160 ; perimeter
G1 X112.082 Y110.771 E1.18386 ; perimeter
G1 X111.805 Y110.672 E1.19612 ; perimeter
G1 X111.539 Y110.546 E1.20837 ; perimeter
G1 X111.286 Y110.395 E1.22063 ; perimeter
G1 X111.050 Y110.219 E1.23289 ; perimeter
G1 X110.832 Y110.022 E1.24515 ; perimeter
G1 X110.634 Y109.803 E1.25740 ; perimeter
G1 X110.458 Y109.567 E1.26966 ; perimeter
G1 X110.307 Y109.314 E1.28192 ; perimeter
G1 X110.181 Y109.048 E1.29418 ; perimeter
G1 X110.082 Y108.771 E1.30643 ; perimeter
G1 X110.010 Y108.485 E1.31869 ; perimeter
G1 X109.967 Y108.194 E1.33095 ; perimeter
G1 X109.953 Y107.900 E1.34321 ; perimeter
G1 X109.967 Y107.606 E1.35546 ; perimeter
G1 X110.010 Y107.315 E1.36772 ; perimeter
G1 X110.082 Y107.029 E1.37998 ; perimeter
G1 X110.181 Y106.752 E1.39224 ; perimeter
G1 X110.307 Y106.486 E1.40449 ; perimeter
G1 X110.458 Y106.233 E1.41675 ; perimeter
G1 X110.634 Y105.997 E1.42901 ; perimeter
G1 X110.832 Y105.778 E1.44127 ; perimeter
G1 X111.050 Y105.581 E1.45352 ; perimeter
G1 X111.286 Y105.405 E1.46578 ; perimeter
G1 X111.539 Y105.254 E1.47804 ; perimeter
G1 X111.805 Y105.128 E1.49029 ; perimeter
G1 X112.082 Y105.029 E1.50255 ; perimeter
G1 X112.368 Y104.957 E1.51481 ; perimeter
G1 X112.659 Y104.914 E1.52707 ; perimeter
G1 X112.953 Y104.900 E1.53932 ; perimeter
G1 X113.247 Y104.914 E1.55158 ; perimeter
G1 X113.539 Y104.957 E1.56384 ; perimeter
G1 X113.824 Y105.029 E1.57610 ; perimeter
G1 X114.101 Y105.128 E1.58835 ; perimeter
G1 X114.368 Y105.254 E1.60061 ; perimeter
G1 X114.620 Y105.405 E1.61287 ; perimeter
G1 X114.857 Y105.581 E1.62513 ; perimeter
G1 X115.075 Y105.778 E1.63738 ; perimeter
G1 X115.273 Y105.997 E1.64964 ; perimeter
G1 X115.448 Y106.233 E1.66190 ; perimeter
G1 X115.599 Y106.486 E1.67416 ; perimeter
G1 X115.725 Y106.752 E1.68641 ; perimeter
G1 X115.824 Y107.029 E1.69867 ; perimeter
G1 X115.896 Y107.315 E1.71093 ; perimeter
G1 X115.939 Y107.606 E1.72319 ; perimeter
G1 X115.954 Y107.900 E1.73544 ; perimeter
G1 X115.939 Y108.194 E1.74770 ; perimeter
G1 X115.896 Y108.485 E1.75996 ; perimeter
G1 X115.762 Y108.944 E1.77986 ; perimeter
G1 X115.725 Y109.048 E1.78445 ; perimeter
G1 X116.173 Y109.632 F7800.000 ; move inwards before travel
G1 F1800.000 E0.78445 ; retract
G92 E0 ; reset extrusion distance
G1 X105.782 Y112.029 F7800.000 ; move to first perimeter point
G1 F1800.000 E1.00000 ; compensate retraction
G1 X106.315 Y111.140 F540.000 E1.04313 ; perimeter
G1 X106.603 Y110.530 E1.07121 ; perimeter
G1 X106.831 Y109.895 E1.09929 ; perimeter
G1 X106.995 Y109.241 E1.12737 ; perimeter
G1 X107.094 Y108.574 E1.15544 ; perimeter
G1 X107.127 Y107.900 E1.18352 ; perimeter
G1 X107.094 Y107.226 E1.21160 ; perimeter
G1 X106.995 Y106.559 E1.23968 ; perimeter
G1 X106.831 Y105.905 E1.26776 ; perimeter
G1 X106.603 Y105.270 E1.29584 ; perimeter
G1 X106.315 Y104.660 E1.32392 ; perimeter
G1 X105.782 Y103.771 E1.36704 ; perimeter
G1 X111.020 Y103.771 E1.58505 ; perimeter
G1 X110.115 Y104.442 E1.63192 ; perimeter
G1 X109.790 Y104.737 E1.65020 ; perimeter
G1 X109.495 Y105.062 E1.66847 ; perimeter
G1 X109.234 Y105.415 E1.68675 ; perimeter
G1 X109.008 Y105.791 E1.70503 ; perimeter
G1 X108.820 Y106.188 E1.72330 ; perimeter
G1 X108.672 Y106.601 E1.74157 ; perimeter
G1 X108.566 Y107.027 E1.75985 ; perimeter
G1 X108.501 Y107.462 E1.77812 ; perimeter
G1 X108.480 Y107.900 E1.79640 ; perimeter
G1 X108.501 Y108.338 E1.81467 ; perimeter
G1 X108.566 Y108.773 E1.83295 ; perimeter
G1 X108.672 Y109.199 E1.85122 ; perimeter
G1 X108.867 Y109.710 E1.87401 ; perimeter
G1 X109.008 Y110.009 E1.88775 ; perimeter
G1 X109.234 Y110.385 E1.90602 ; perimeter
G1 X109.495 Y110.738 E1.92430 ; perimeter
G1 X109.790 Y111.063 E1.94258 ; perimeter
G1 X110.115 Y111.358 E1.96085 ; perimeter
G1 X111.020 Y112.029 E2.00772 ; perimeter
G1 X105.893 Y112.029 E2.22114 ; perimeter
G1 X105.782 Y112.029 E2.22573 ; perimeter
G1 X105.293 Y111.394 F7800.000 ; move to first perimeter point
G1 X105.666 Y110.793 F540.000 E2.25515 ; perimeter
G1 X105.923 Y110.249 E2.28022 ; perimeter
G1 X106.126 Y109.681 E2.30529 ; perimeter
G1 X106.272 Y109.097 E2.33036 ; perimeter
G1 X106.361 Y108.502 E2.35543 ; perimeter
G1 X106.390 Y107.900 E2.38050 ; perimeter
G1 X106.361 Y107.298 E2.40557 ; perimeter
G1 X106.272 Y106.703 E2.43064 ; perimeter
G1 X106.126 Y106.119 E2.45571 ; perimeter
G1 X105.923 Y105.551 E2.48078 ; perimeter
G1 X105.666 Y105.007 E2.50585 ; perimeter
G1 X105.356 Y104.490 E2.53092 ; perimeter
G1 X104.997 Y104.007 E2.55600 ; perimeter
G1 X104.117 Y103.036 E2.61055 ; perimeter
G1 X111.225 Y103.036 E2.90645 ; perimeter
G1 X111.730 Y103.060 E2.92748 ; perimeter
G1 X112.202 Y103.130 E2.94735 ; perimeter
G1 X112.665 Y103.246 E2.96722 ; perimeter
G1 X113.114 Y103.407 E2.98708 ; perimeter
G1 X114.916 Y104.259 E3.07006 ; perimeter
G1 X112.953 Y104.163 E3.15187 ; perimeter
G1 X112.587 Y104.181 E3.16714 ; perimeter
G1 X112.224 Y104.235 E3.18240 ; perimeter
G1 X111.868 Y104.324 E3.19767 ; perimeter
G1 X111.592 Y104.423 E3.20991 ; perimeter
G1 X111.192 Y104.604 E3.22819 ; perimeter
G1 X110.877 Y104.793 E3.24345 ; perimeter
G1 X110.582 Y105.011 E3.25872 ; perimeter
G1 X110.311 Y105.258 E3.27399 ; perimeter
G1 X110.064 Y105.529 E3.28925 ; perimeter
G1 X109.846 Y105.824 E3.30452 ; perimeter
G1 X109.657 Y106.138 E3.31979 ; perimeter
G1 X109.501 Y106.470 E3.33505 ; perimeter
G1 X109.402 Y106.747 E3.34729 ; perimeter
G1 X109.288 Y107.171 E3.36557 ; perimeter
G1 X109.234 Y107.534 E3.38084 ; perimeter
G1 X109.216 Y107.900 E3.39610 ; perimeter
G1 X109.234 Y108.266 E3.41137 ; perimeter
G1 X109.288 Y108.629 E3.42663 ; perimeter
G1 X109.377 Y108.985 E3.44190 ; perimeter
G1 X109.501 Y109.330 E3.45717 ; perimeter
G1 X109.657 Y109.662 E3.47243 ; perimeter
G1 X109.846 Y109.976 E3.48770 ; perimeter
G1 X110.064 Y110.271 E3.50297 ; perimeter
G1 X110.311 Y110.542 E3.51823 ; perimeter
G1 X110.582 Y110.789 E3.53350 ; perimeter
G1 X110.877 Y111.007 E3.54876 ; perimeter
G1 X111.192 Y111.196 E3.56403 ; perimeter
G1 X111.523 Y111.353 E3.57930 ; perimeter
G1 X111.869 Y111.476 E3.59457 ; perimeter
G1 X112.154 Y111.548 E3.60680 ; perimeter
G1 X112.587 Y111.619 E3.62508 ; perimeter
G1 X112.953 Y111.637 E3.64035 ; perimeter
G1 X114.916 Y111.541 E3.72216 ; perimeter
G1 X113.114 Y112.393 E3.80514 ; perimeter
G1 X112.665 Y112.554 E3.82500 ; perimeter
G1 X112.202 Y112.670 E3.84487 ; perimeter
G1 X111.730 Y112.740 E3.86474 ; perimeter
G1 X111.225 Y112.764 E3.88577 ; perimeter
G1 X104.117 Y112.764 E4.18167 ; perimeter
G1 X104.997 Y111.793 E4.23623 ; perimeter
G1 X105.228 Y111.482 E4.25234 ; perimeter
G1 X105.293 Y111.394 E4.25693 ; perimeter
G1 X104.703 Y110.956 F7800.000 ; move to first perimeter point
G1 X105.016 Y110.446 F540.000 E4.28184 ; perimeter
G1 X105.243 Y109.967 E4.30391 ; perimeter
G1 X105.421 Y109.468 E4.32597 ; perimeter
G1 X105.533 Y109.020 E4.34517 ; perimeter
G1 X105.628 Y108.429 E4.37008 ; perimeter
G1 X105.654 Y107.900 E4.39214 ; perimeter
G1 X105.628 Y107.371 E4.41420 ; perimeter
G1 X105.550 Y106.846 E4.43626 ; perimeter
G1 X105.438 Y106.399 E4.45546 ; perimeter
G1 X105.243 Y105.833 E4.48037 ; perimeter
G1 X105.016 Y105.354 E4.50244 ; perimeter
G1 X104.744 Y104.900 E4.52450 ; perimeter
G1 X104.469 Y104.529 E4.54370 ; perimeter
G1 X104.072 Y104.081 E4.56861 ; perimeter
G1 X103.679 Y103.725 E4.59067 ; perimeter
G1 X103.254 Y103.410 E4.61273 ; perimeter
G1 X102.799 Y103.137 E4.63479 ; perimeter
G1 X101.029 Y102.300 E4.71631 ; perimeter
G1 X111.243 Y102.300 E5.14151 ; perimeter
G1 X111.802 Y102.327 E5.16479 ; perimeter
G1 X112.346 Y102.408 E5.18767 ; perimeter
G1 X112.879 Y102.542 E5.21054 ; perimeter
G1 X113.396 Y102.727 E5.23342 ; perimeter
G1 X113.893 Y102.962 E5.25629 ; perimeter
G1 X114.364 Y103.244 E5.27917 ; perimeter
G1 X114.805 Y103.572 E5.30204 ; perimeter
G1 X115.213 Y103.941 E5.32492 ; perimeter
G1 X115.582 Y104.348 E5.34779 ; perimeter
G1 X115.909 Y104.789 E5.37067 ; perimeter
G1 X116.192 Y105.260 E5.39354 ; perimeter
G1 X116.426 Y105.757 E5.41642 ; perimeter
G1 X116.612 Y106.275 E5.43929 ; perimeter
G1 X116.745 Y106.808 E5.46217 ; perimeter
G1 X116.826 Y107.351 E5.48504 ; perimeter
G1 X116.853 Y107.900 E5.50792 ; perimeter
G1 X116.826 Y108.449 E5.53079 ; perimeter
G1 X116.745 Y108.992 E5.55367 ; perimeter
G1 X116.612 Y109.525 E5.57654 ; perimeter
G1 X116.426 Y110.043 E5.59942 ; perimeter
G1 X116.192 Y110.540 E5.62229 ; perimeter
G1 X115.909 Y111.011 E5.64516 ; perimeter
G1 X115.582 Y111.452 E5.66804 ; perimeter
G1 X115.213 Y111.859 E5.69091 ; perimeter
G1 X114.806 Y112.228 E5.71379 ; perimeter
G1 X114.364 Y112.556 E5.73666 ; perimeter
G1 X113.893 Y112.838 E5.75954 ; perimeter
G1 X113.396 Y113.073 E5.78241 ; perimeter
G1 X112.879 Y113.258 E5.80529 ; perimeter
G1 X112.346 Y113.392 E5.82816 ; perimeter
G1 X111.802 Y113.473 E5.85104 ; perimeter
G1 X111.243 Y113.500 E5.87432 ; perimeter
G1 X101.029 Y113.500 E6.29953 ; perimeter
G1 X102.799 Y112.663 E6.38104 ; perimeter
G1 X103.254 Y112.390 E6.40310 ; perimeter
G1 X103.679 Y112.075 E6.42516 ; perimeter
G1 X104.072 Y111.719 E6.44722 ; perimeter
G1 X104.428 Y111.326 E6.46929 ; perimeter
G1 X104.637 Y111.044 E6.48389 ; perimeter
G1 X104.703 Y110.956 E6.48849 ; perimeter
G1 X105.437 Y110.997 F7800.000 ; move inwards before travel
G1 F1800.000 E5.48849 ; retract
G92 E0 ; reset extrusion distance
G1 X90.496 Y108.485 F7800.000 ; move to first perimeter point
G1 F1800.000 E1.00000 ; compensate retraction
G1 X90.412 Y108.805 F540.000 E1.01378 ; perimeter
G1 X90.325 Y109.048 E1.02451 ; perimeter
G1 X90.199 Y109.314 E1.03677 ; perimeter
G1 X90.048 Y109.567 E1.04902 ; perimeter
G1 X89.873 Y109.803 E1.06128 ; perimeter
G1 X89.675 Y110.022 E1.07354 ; perimeter
G1 X89.457 Y110.219 E1.08580 ; perimeter
G1 X89.220 Y110.395 E1.09805 ; perimeter
G1 X88.968 Y110.546 E1.11031 ; perimeter
G1 X88.701 Y110.672 E1.12257 ; perimeter
