; generated by Slic3r 0.9.8-dev on 2013-01-13 at 10:50:28

; layer_height = 0.4
; perimeters = 3
; top_solid_layers = 3
; bottom_solid_layers = 3
; fill_density = 0.40
; perimeter_speed = 30
; infill_speed = 60
; travel_speed = 130
; scale = 1
; nozzle_diameter = 0.5
; filament_diameter = 3
; extrusion_multiplier = 1
; perimeters extrusion width = 0.53mm
; infill extrusion width = 0.53mm
; first layer extrusion width = 0.80mm

M190 S60 ; wait for bed temperature to be reached
M104 S175 ; set temperature
G28 ; home all axes
G92 E0 ;reset extruder
M109 S175 ; wait for temperature to be reached
G90 ; use absolute coordinates
G21 ; set units to millimeters
G92 E0 ; reset extrusion distance
M82 ; use absolute distances for extrusion
G1 F1800.000 E-1.00000 ; retract
G1 Z1.400 ; move to next layer (0) and lift
G92 E0 ; reset extrusion distance
G1 X109.470 Y97.760 F7800.000 ; move to first skirt point
G1 Z0.400 ; restore layer Z
G1 F1800.000 E1.00000 ; compensate retraction
G1 X109.070 Y98.210 F900.000 E1.02506 ; skirt
G1 X108.640 Y98.620 E1.04980 ; skirt
G1 X107.370 Y99.640 E1.11760 ; skirt
G1 X107.080 Y99.860 E1.13276 ; skirt
G1 X106.470 Y100.250 E1.16289 ; skirt
G1 X105.820 Y100.570 E1.19305 ; skirt
G1 X104.060 Y101.320 E1.27269 ; skirt
G1 X103.470 Y101.510 E1.29849 ; skirt
G1 X102.560 Y101.690 E1.33711 ; skirt
G1 X100.770 Y101.920 E1.41224 ; skirt
G1 X100.410 Y101.960 E1.42731 ; skirt
G1 X100.050 Y101.970 E1.44231 ; skirt
G1 X99.680 Y101.970 E1.45771 ; skirt
G1 X98.960 Y101.910 E1.48778 ; skirt
G1 X97.340 Y101.680 E1.55590 ; skirt
G1 X96.680 Y101.550 E1.58390 ; skirt
G1 X96.350 Y101.460 E1.59814 ; skirt
G1 X95.710 Y101.230 E1.62645 ; skirt
G1 X94.360 Y100.670 E1.68729 ; skirt
G1 X93.740 Y100.380 E1.71578 ; skirt
G1 X93.450 Y100.210 E1.72977 ; skirt
G1 X92.880 Y99.820 E1.75852 ; skirt
G1 X90.760 Y98.050 E1.87349 ; skirt
G1 X90.520 Y97.820 E1.88733 ; skirt
G1 X90.090 Y97.330 E1.91446 ; skirt
G1 X89.890 Y97.080 E1.92779 ; skirt
G1 X89.040 Y95.900 E1.98833 ; skirt
G1 X88.730 Y95.380 E2.01353 ; skirt
G1 X88.460 Y94.830 E2.03904 ; skirt
G1 X87.820 Y93.340 E2.10654 ; skirt
G1 X87.590 Y92.720 E2.13407 ; skirt
G1 X87.420 Y92.080 E2.16163 ; skirt
G1 X87.360 Y91.760 E2.17519 ; skirt
G1 X87.100 Y89.460 E2.27154 ; skirt
G1 X87.050 Y88.770 E2.30034 ; skirt
G1 X87.080 Y88.090 E2.32867 ; skirt
G1 X87.120 Y87.750 E2.34292 ; skirt
G1 X87.300 Y86.500 E2.39549 ; skirt
G1 X87.420 Y85.880 E2.42178 ; skirt
G1 X87.500 Y85.570 E2.43511 ; skirt
G1 X87.710 Y84.970 E2.46157 ; skirt
G1 X88.310 Y83.460 E2.52921 ; skirt
G1 X88.440 Y83.160 E2.54282 ; skirt
G1 X88.750 Y82.560 E2.57093 ; skirt
G1 X89.110 Y82.000 E2.59865 ; skirt
G1 X90.520 Y80.230 E2.69285 ; skirt
G1 X90.920 Y79.780 E2.71791 ; skirt
G1 X91.350 Y79.370 E2.74264 ; skirt
G1 X92.620 Y78.350 E2.81045 ; skirt
G1 X92.910 Y78.130 E2.82560 ; skirt
G1 X93.520 Y77.740 E2.85574 ; skirt
G1 X94.170 Y77.420 E2.88590 ; skirt
G1 X95.920 Y76.680 E2.96499 ; skirt
G1 X96.210 Y76.570 E2.97791 ; skirt
G1 X96.790 Y76.410 E3.00295 ; skirt
G1 X97.390 Y76.300 E3.02834 ; skirt
G1 X99.180 Y76.060 E3.10352 ; skirt
G1 X100.130 Y76.000 E3.14315 ; skirt
G1 X100.440 Y76.010 E3.15606 ; skirt
G1 X101.070 Y76.080 E3.18245 ; skirt
G1 X103.010 Y76.370 E3.26410 ; skirt
G1 X103.660 Y76.530 E3.29197 ; skirt
G1 X103.970 Y76.640 E3.30566 ; skirt
G1 X105.630 Y77.320 E3.38034 ; skirt
G1 X106.250 Y77.610 E3.40883 ; skirt
G1 X106.540 Y77.780 E3.42282 ; skirt
G1 X107.110 Y78.170 E3.45157 ; skirt
G1 X109.230 Y79.940 E3.56654 ; skirt
G1 X109.470 Y80.170 E3.58037 ; skirt
G1 X109.900 Y80.660 E3.60751 ; skirt
G1 X110.100 Y80.910 E3.62084 ; skirt
G1 X110.950 Y82.090 E3.68138 ; skirt
G1 X111.260 Y82.610 E3.70658 ; skirt
G1 X111.530 Y83.160 E3.73208 ; skirt
G1 X112.170 Y84.650 E3.79959 ; skirt
G1 X112.400 Y85.270 E3.82712 ; skirt
G1 X112.570 Y85.910 E3.85468 ; skirt
G1 X112.630 Y86.230 E3.86823 ; skirt
G1 X112.890 Y88.530 E3.96459 ; skirt
G1 X112.940 Y89.220 E3.99339 ; skirt
G1 X112.910 Y89.900 E4.02172 ; skirt
G1 X112.870 Y90.240 E4.03597 ; skirt
G1 X112.690 Y91.490 E4.08854 ; skirt
G1 X112.570 Y92.110 E4.11483 ; skirt
G1 X112.490 Y92.420 E4.12816 ; skirt
G1 X112.280 Y93.020 E4.15462 ; skirt
G1 X111.680 Y94.530 E4.22226 ; skirt
G1 X111.550 Y94.830 E4.23587 ; skirt
G1 X111.240 Y95.430 E4.26398 ; skirt
G1 X110.880 Y95.990 E4.29169 ; skirt
G1 X109.539 Y97.674 E4.38130 ; skirt
G1 X109.470 Y97.760 E4.38590 ; skirt
G1 F1800.000 E3.38590 ; retract
G1 Z1.400 ; move to next layer (0) and lift
G92 E0 ; reset extrusion distance
G1 X94.016 Y90.684 F7800.000 ; move to first perimeter point
G1 Z0.400 ; restore layer Z
G1 F1800.000 E1.00000 ; compensate retraction
G1 X94.656 Y92.176 F720.000 E1.06755 ; perimeter
G1 X95.339 Y93.106 E1.11561 ; perimeter
G1 X96.949 Y94.455 E1.20306 ; perimeter
G1 X98.300 Y95.015 E1.26392 ; perimeter
G1 X99.914 Y95.250 E1.33184 ; perimeter
G1 X101.700 Y95.015 E1.40682 ; perimeter
G1 X103.170 Y94.387 E1.47337 ; perimeter
G1 X104.217 Y93.556 E1.52900 ; perimeter
G1 X105.422 Y92.040 E1.60960 ; perimeter
G1 X106.024 Y90.533 E1.67715 ; perimeter
G1 X106.206 Y89.287 E1.72957 ; perimeter
G1 X105.984 Y87.316 E1.81216 ; perimeter
G1 X105.344 Y85.824 E1.87972 ; perimeter
G1 X104.661 Y84.894 E1.92778 ; perimeter
G1 X103.051 Y83.545 E2.01522 ; perimeter
G1 X101.700 Y82.985 E2.07608 ; perimeter
G1 X100.086 Y82.750 E2.14400 ; perimeter
G1 X98.300 Y82.985 E2.21898 ; perimeter
G1 X96.830 Y83.613 E2.28553 ; perimeter
G1 X95.783 Y84.444 E2.34116 ; perimeter
G1 X94.578 Y85.960 E2.42176 ; perimeter
G1 X93.976 Y87.467 E2.48931 ; perimeter
G1 X93.794 Y88.713 E2.54174 ; perimeter
G1 X94.016 Y90.684 E2.62433 ; perimeter
G1 F1800.000 E1.62433 ; retract
G1 Z1.800 ; move to next layer (1) and lift
G92 E0 ; reset extrusion distance
G1 X94.432 Y90.492 F7800.000 ; move to first perimeter point
G1 Z0.800 ; restore layer Z
G1 F1800.000 E1.00000 ; compensate retraction
G1 X94.235 Y89.000 F1440.000 E1.04425 ; perimeter
G1 X94.296 Y88.539 E1.05793 ; perimeter
G1 X94.432 Y87.508 E1.08850 ; perimeter
G1 X95.008 Y86.118 E1.13276 ; perimeter
G1 X95.924 Y84.924 E1.17701 ; perimeter
G1 X96.748 Y84.291 E1.20758 ; perimeter
G1 X97.118 Y84.008 E1.22126 ; perimeter
G1 X98.508 Y83.432 E1.26551 ; perimeter
G1 X100.000 Y83.235 E1.30977 ; perimeter
G1 X101.492 Y83.432 E1.35402 ; perimeter
G1 X102.882 Y84.008 E1.39827 ; perimeter
G1 X104.076 Y84.924 E1.44252 ; perimeter
G1 X104.992 Y86.118 E1.48677 ; perimeter
G1 X105.568 Y87.508 E1.53103 ; perimeter
G1 X105.765 Y89.000 E1.57528 ; perimeter
G1 X105.568 Y90.492 E1.61953 ; perimeter
G1 X104.992 Y91.882 E1.66378 ; perimeter
G1 X104.709 Y92.252 E1.67747 ; perimeter
G1 X104.076 Y93.076 E1.70804 ; perimeter
G1 X102.882 Y93.992 E1.75229 ; perimeter
G1 X101.492 Y94.568 E1.79654 ; perimeter
G1 X100.461 Y94.704 E1.82711 ; perimeter
G1 X100.000 Y94.765 E1.84079 ; perimeter
G1 X98.508 Y94.568 E1.88504 ; perimeter
G1 X97.118 Y93.992 E1.92930 ; perimeter
G1 X95.924 Y93.076 E1.97355 ; perimeter
G1 X95.008 Y91.882 E2.01780 ; perimeter
G1 X94.461 Y90.564 E2.05976 ; perimeter
G1 X94.432 Y90.492 E2.06205 ; perimeter
G1 X93.936 Y90.336 F7800.000 ; move inwards before travel
G1 F1800.000 E1.06205 ; retract
G1 Z1.800 ; lift plate during travel
G92 E0 ; reset extrusion distance
G1 X103.368 Y94.833 F7800.000 ; move to first perimeter point
G1 Z0.800 ; restore layer Z
G1 F1800.000 E1.00000 ; compensate retraction
G1 X101.743 Y95.506 F1800.000 E1.05170 ; perimeter
G1 X101.234 Y95.573 E1.06681 ; perimeter
G1 X100.000 Y95.735 E1.10340 ; perimeter
G1 X98.257 Y95.506 E1.15511 ; perimeter
G1 X96.632 Y94.833 E1.20681 ; perimeter
G1 X95.237 Y93.763 E1.25851 ; perimeter
G1 X94.480 Y92.775 E1.29511 ; perimeter
G1 X94.167 Y92.368 E1.31021 ; perimeter
G1 X93.494 Y90.743 E1.36191 ; perimeter
G1 X93.265 Y89.000 E1.41362 ; perimeter
G1 X93.494 Y87.257 E1.46532 ; perimeter
G1 X93.971 Y86.107 E1.50191 ; perimeter
G1 X94.167 Y85.632 E1.51702 ; perimeter
G1 X95.237 Y84.237 E1.56872 ; perimeter
G1 X96.632 Y83.167 E1.62042 ; perimeter
G1 X97.107 Y82.971 E1.63553 ; perimeter
G1 X98.257 Y82.494 E1.67212 ; perimeter
G1 X100.000 Y82.265 E1.72383 ; perimeter
G1 X101.743 Y82.494 E1.77553 ; perimeter
G1 X102.218 Y82.691 E1.79063 ; perimeter
G1 X103.368 Y83.167 E1.82723 ; perimeter
G1 X104.763 Y84.237 E1.87893 ; perimeter
G1 X105.833 Y85.632 E1.93063 ; perimeter
G1 X106.506 Y87.257 E1.98234 ; perimeter
G1 X106.735 Y89.000 E2.03404 ; perimeter
G1 X106.506 Y90.743 E2.08574 ; perimeter
G1 X105.833 Y92.368 E2.13744 ; perimeter
G1 X104.763 Y93.763 E2.18914 ; perimeter
G1 X103.429 Y94.785 E2.23855 ; perimeter
G1 X103.368 Y94.833 E2.24085 ; perimeter
G1 X104.584 Y93.383 F7800.000 ; move to first fill point
G1 X103.632 Y93.887 F1200.000 E2.26016 ; fill
G1 X102.827 Y94.692 E2.28060 ; fill
G1 X102.594 Y94.477 E2.28629 ; fill
G1 X102.061 Y95.009 E2.29980 ; fill
G1 X101.828 Y94.794 E2.30550 ; fill
G1 X101.376 Y95.246 E2.31698 ; fill
G1 X101.268 Y94.906 E2.32339 ; fill
G1 X100.859 Y95.314 E2.33377 ; fill
G1 X100.752 Y94.974 E2.34018 ; fill
G1 X100.343 Y95.382 E2.35055 ; fill
G1 X100.236 Y95.041 E2.35696 ; fill
G1 X99.844 Y95.433 E2.36690 ; fill
G1 X99.448 Y95.381 E2.37407 ; fill
G1 X99.808 Y95.021 E2.38321 ; fill
G1 X99.412 Y94.969 E2.39038 ; fill
G1 X99.051 Y95.329 E2.39952 ; fill
G1 X98.655 Y95.277 E2.40669 ; fill
G1 X99.015 Y94.917 E2.41582 ; fill
G1 X98.619 Y94.864 E2.42299 ; fill
G1 X98.259 Y95.225 E2.43213 ; fill
G1 X97.942 Y95.093 E2.43829 ; fill
G1 X98.279 Y94.756 E2.44685 ; fill
G1 X97.962 Y94.624 E2.45300 ; fill
G1 X97.625 Y94.962 E2.46157 ; fill
G1 X97.308 Y94.831 E2.46772 ; fill
G1 X97.645 Y94.493 E2.47628 ; fill
G1 X97.328 Y94.362 E2.48244 ; fill
G1 X96.991 Y94.699 E2.49100 ; fill
G1 X96.685 Y94.557 E2.49706 ; fill
G1 X97.013 Y94.229 E2.50538 ; fill
G1 X96.759 Y94.034 E2.51112 ; fill
G1 X96.431 Y94.362 E2.51944 ; fill
G1 X96.178 Y94.167 E2.52518 ; fill
G1 X96.506 Y93.839 E2.53350 ; fill
G1 X96.252 Y93.645 E2.53924 ; fill
G1 X95.924 Y93.973 E2.54756 ; fill
G1 X95.670 Y93.778 E2.55330 ; fill
G1 X95.998 Y93.450 E2.56162 ; fill
G1 X95.745 Y93.255 E2.56736 ; fill
G1 X95.417 Y93.583 E2.57568 ; fill
G1 X95.222 Y93.330 E2.58142 ; fill
G1 X95.550 Y93.002 E2.58974 ; fill
G1 X95.355 Y92.748 E2.59547 ; fill
G1 X95.027 Y93.076 E2.60380 ; fill
G1 X94.833 Y92.822 E2.60953 ; fill
G1 X95.161 Y92.494 E2.61786 ; fill
G1 X94.966 Y92.241 E2.62359 ; fill
G1 X94.638 Y92.569 E2.63192 ; fill
G1 X94.443 Y92.315 E2.63765 ; fill
G1 X94.771 Y91.987 E2.64598 ; fill
G1 X94.638 Y91.672 E2.65212 ; fill
G1 X94.301 Y92.009 E2.66068 ; fill
G1 X94.169 Y91.692 E2.66683 ; fill
G1 X94.507 Y91.355 E2.67540 ; fill
G1 X94.376 Y91.038 E2.68155 ; fill
G1 X94.038 Y91.375 E2.69011 ; fill
G1 X93.907 Y91.058 E2.69627 ; fill
G1 X94.244 Y90.720 E2.70483 ; fill
G1 X94.136 Y90.381 E2.71123 ; fill
G1 X93.775 Y90.741 E2.72037 ; fill
G1 X93.723 Y90.345 E2.72754 ; fill
G1 X94.083 Y89.985 E2.73668 ; fill
G1 X94.031 Y89.588 E2.74384 ; fill
G1 X93.671 Y89.949 E2.75298 ; fill
G1 X93.619 Y89.552 E2.76015 ; fill
G1 X93.979 Y89.192 E2.76929 ; fill
G1 X93.567 Y89.156 E2.77671 ; fill
G1 X93.959 Y88.764 E2.78665 ; fill
G1 X93.618 Y88.657 E2.79307 ; fill
G1 X94.027 Y88.248 E2.80344 ; fill
G1 X93.686 Y88.140 E2.80985 ; fill
G1 X94.094 Y87.732 E2.82022 ; fill
G1 X93.754 Y87.624 E2.82664 ; fill
G1 X94.206 Y87.172 E2.83812 ; fill
G1 X93.991 Y86.939 E2.84381 ; fill
G1 X94.523 Y86.406 E2.85732 ; fill
G1 X94.308 Y86.173 E2.86302 ; fill
G1 X95.114 Y85.368 E2.88346 ; fill
G1 X95.616 Y84.416 E2.90276 ; fill
G1 X96.368 Y84.113 E2.91729 ; fill
G1 X97.173 Y83.308 E2.93773 ; fill
G1 X97.406 Y83.523 E2.94343 ; fill
G1 X97.939 Y82.991 E2.95694 ; fill
G1 X98.172 Y83.206 E2.96263 ; fill
G1 X98.624 Y82.754 E2.97411 ; fill
G1 X98.732 Y83.094 E2.98053 ; fill
G1 X99.140 Y82.686 E2.99090 ; fill
G1 X99.248 Y83.027 E2.99731 ; fill
G1 X99.657 Y82.618 E3.00769 ; fill
G1 X99.764 Y82.959 E3.01410 ; fill
G1 X100.156 Y82.567 E3.02404 ; fill
G1 X100.552 Y82.619 E3.03121 ; fill
G1 X100.192 Y82.979 E3.04035 ; fill
G1 X100.588 Y83.031 E3.04752 ; fill
G1 X100.948 Y82.671 E3.05665 ; fill
G1 X101.345 Y82.723 E3.06382 ; fill
G1 X100.985 Y83.083 E3.07296 ; fill
G1 X101.381 Y83.136 E3.08013 ; fill
G1 X101.741 Y82.775 E3.08927 ; fill
G1 X102.058 Y82.907 E3.09542 ; fill
G1 X101.720 Y83.244 E3.10398 ; fill
G1 X102.038 Y83.376 E3.11014 ; fill
G1 X102.375 Y83.038 E3.11870 ; fill
G1 X102.692 Y83.169 E3.12486 ; fill
G1 X102.355 Y83.507 E3.13342 ; fill
G1 X102.672 Y83.638 E3.13958 ; fill
G1 X103.009 Y83.301 E3.14814 ; fill
G1 X103.315 Y83.443 E3.15419 ; fill
G1 X102.987 Y83.771 E3.16251 ; fill
G1 X103.241 Y83.966 E3.16825 ; fill
G1 X103.569 Y83.638 E3.17657 ; fill
G1 X103.822 Y83.833 E3.18231 ; fill
G1 X103.494 Y84.161 E3.19064 ; fill
G1 X103.748 Y84.355 E3.19637 ; fill
G1 X104.076 Y84.027 E3.20470 ; fill
G1 X104.330 Y84.222 E3.21043 ; fill
G1 X104.002 Y84.550 E3.21875 ; fill
G1 X104.255 Y84.745 E3.22449 ; fill
G1 X104.583 Y84.417 E3.23281 ; fill
G1 X104.778 Y84.670 E3.23855 ; fill
G1 X104.450 Y84.998 E3.24687 ; fill
G1 X104.645 Y85.252 E3.25261 ; fill
G1 X104.973 Y84.924 E3.26093 ; fill
G1 X105.167 Y85.178 E3.26667 ; fill
G1 X104.839 Y85.506 E3.27499 ; fill
G1 X105.034 Y85.759 E3.28073 ; fill
G1 X105.362 Y85.431 E3.28905 ; fill
G1 X105.557 Y85.685 E3.29479 ; fill
G1 X105.229 Y86.013 E3.30311 ; fill
G1 X105.362 Y86.328 E3.30925 ; fill
G1 X105.699 Y85.991 E3.31781 ; fill
G1 X105.831 Y86.308 E3.32397 ; fill
G1 X105.493 Y86.645 E3.33253 ; fill
G1 X105.624 Y86.962 E3.33869 ; fill
G1 X105.962 Y86.625 E3.34725 ; fill
G1 X106.093 Y86.942 E3.35341 ; fill
G1 X105.756 Y87.279 E3.36197 ; fill
G1 X105.864 Y87.619 E3.36837 ; fill
G1 X106.225 Y87.259 E3.37750 ; fill
G1 X106.277 Y87.655 E3.38467 ; fill
G1 X105.917 Y88.015 E3.39381 ; fill
G1 X105.969 Y88.412 E3.40098 ; fill
G1 X106.329 Y88.051 E3.41012 ; fill
G1 X106.381 Y88.448 E3.41729 ; fill
G1 X106.021 Y88.808 E3.42642 ; fill
G1 X106.433 Y88.844 E3.43385 ; fill
G1 X106.041 Y89.236 E3.44379 ; fill
G1 X106.382 Y89.343 E3.45020 ; fill
G1 X105.974 Y89.752 E3.46057 ; fill
G1 X106.314 Y89.859 E3.46699 ; fill
G1 X105.906 Y90.268 E3.47736 ; fill
G1 X106.246 Y90.376 E3.48377 ; fill
G1 X105.794 Y90.828 E3.49526 ; fill
G1 X106.009 Y91.061 E3.50095 ; fill
G1 X105.477 Y91.594 E3.51446 ; fill
G1 X105.692 Y91.827 E3.52015 ; fill
G1 X104.887 Y92.632 E3.54059 ; fill
G1 F1800.000 E2.54059 ; retract
G1 Z2.200 ; move to next layer (2) and lift
G92 E0 ; reset extrusion distance
G1 X104.992 Y91.882 F7800.000 ; move to first perimeter point
G1 Z1.200 ; restore layer Z
G1 F1800.000 E1.00000 ; compensate retraction
G1 X104.076 Y93.076 F1440.000 E1.04425 ; perimeter
G1 X102.882 Y93.992 E1.08850 ; perimeter
G1 X101.492 Y94.568 E1.13276 ; perimeter
G1 X100.000 Y94.765 E1.17701 ; perimeter
G1 X98.508 Y94.568 E1.22126 ; perimeter
G1 X97.813 Y94.280 E1.24339 ; perimeter
G1 X97.118 Y93.992 E1.26551 ; perimeter
G1 X95.924 Y93.076 E1.30977 ; perimeter
G1 X95.008 Y91.882 E1.35402 ; perimeter
G1 X94.432 Y90.492 E1.39827 ; perimeter
G1 X94.235 Y89.000 E1.44252 ; perimeter
G1 X94.432 Y87.508 E1.48677 ; perimeter
G1 X95.008 Y86.118 E1.53103 ; perimeter
G1 X95.466 Y85.521 E1.55315 ; perimeter
G1 X95.924 Y84.924 E1.57528 ; perimeter
G1 X97.118 Y84.008 E1.61953 ; perimeter
G1 X98.508 Y83.432 E1.66378 ; perimeter
G1 X100.000 Y83.235 E1.70804 ; perimeter
G1 X101.492 Y83.432 E1.75229 ; perimeter
G1 X102.882 Y84.008 E1.79654 ; perimeter
G1 X103.479 Y84.466 E1.81867 ; perimeter
G1 X104.076 Y84.924 E1.84079 ; perimeter
G1 X104.992 Y86.118 E1.88504 ; perimeter
G1 X105.568 Y87.508 E1.92930 ; perimeter
G1 X105.765 Y89.000 E1.97355 ; perimeter
G1 X105.568 Y90.492 E2.01780 ; perimeter
G1 X105.022 Y91.810 E2.05976 ; perimeter
G1 X104.992 Y91.882 E2.06205 ; perimeter
G1 X105.232 Y92.343 F7800.000 ; move inwards before travel
G1 F1800.000 E1.06205 ; retract
G1 Z2.200 ; lift plate during travel
G92 E0 ; reset extrusion distance
G1 X103.368 Y83.167 F7800.000 ; move to first perimeter point
G1 Z1.200 ; restore layer Z
G1 F1800.000 E1.00000 ; compensate retraction
G1 X104.763 Y84.237 F1800.000 E1.05170 ; perimeter
G1 X105.833 Y85.632 E1.10340 ; perimeter
