; generated by Slic3r 0.9.8-dev on 2013-01-08 at 20:14:34

; layer_height = 0.4
; perimeters = 3
; top_solid_layers = 3
; bottom_solid_layers = 3
; fill_density = 0.40
; perimeter_speed = 30
; infill_speed = 60
; travel_speed = 130
; scale = 1
; nozzle_diameter = 0.5
; filament_diameter = 3
; extrusion_multiplier = 1
; perimeters extrusion width = 0.53mm
; infill extrusion width = 0.53mm
; first layer extrusion width = 0.80mm

M190 S60 ; wait for bed temperature to be reached
M104 S180 ; set temperature
G28 ; home all axes
G92 E0 ;reset extruder
M109 S180 ; wait for temperature to be reached
G90 ; use absolute coordinates
G21 ; set units to millimeters
G92 E0 ; reset extrusion distance
M82 ; use absolute distances for extrusion
G1 F1800.000 E-1.00000 ; retract
G1 Z0.900 ; move to next layer (0) and lift
G92 E0 ; reset extrusion distance
G1 X136.172 Y102.291 F7800.000 ; move to first skirt point
G1 Z0.400 ; restore layer Z
G1 F1800.000 E1.00000 ; compensate retraction
G1 X135.452 Y102.961 F540.000 E1.04094 ; skirt
G1 X134.982 Y103.331 E1.06584 ; skirt
G1 X134.482 Y103.651 E1.09055 ; skirt
G1 X133.662 Y104.131 E1.13011 ; skirt
G1 X132.982 Y104.451 E1.16139 ; skirt
G1 X114.522 Y111.151 E1.97888 ; skirt
G1 X113.802 Y111.371 E2.01022 ; skirt
G1 X112.932 Y111.581 E2.04748 ; skirt
G1 X111.922 Y111.741 E2.09005 ; skirt
G1 X76.932 Y114.681 E3.55173 ; skirt
G1 X75.822 Y114.721 E3.59796 ; skirt
G1 X75.522 Y114.711 E3.61046 ; skirt
G1 X74.932 Y114.651 E3.63515 ; skirt
G1 X74.062 Y114.471 E3.67213 ; skirt
G1 X72.452 Y114.021 E3.74172 ; skirt
G1 X71.882 Y113.831 E3.76673 ; skirt
G1 X71.342 Y113.601 E3.79116 ; skirt
G1 X70.812 Y113.321 E3.81611 ; skirt
G1 X69.632 Y112.541 E3.87500 ; skirt
G1 X68.962 Y111.991 E3.91108 ; skirt
G1 X68.002 Y111.021 E3.96789 ; skirt
G1 X67.522 Y110.431 E3.99955 ; skirt
G1 X66.762 Y109.291 E4.05659 ; skirt
G1 X66.372 Y108.541 E4.09178 ; skirt
G1 X65.862 Y107.271 E4.14875 ; skirt
G1 X65.712 Y106.791 E4.16968 ; skirt
G1 X65.602 Y106.311 E4.19018 ; skirt
G1 X61.232 Y84.061 E5.13409 ; skirt
G1 X61.022 Y82.761 E5.18891 ; skirt
G1 X60.972 Y82.231 E5.21107 ; skirt
G1 X60.962 Y81.961 E5.22231 ; skirt
G1 X61.012 Y80.521 E5.28229 ; skirt
G1 X61.132 Y79.671 E5.31803 ; skirt
G1 X61.472 Y78.331 E5.37558 ; skirt
G1 X61.552 Y78.061 E5.38730 ; skirt
G1 X61.872 Y77.281 E5.42239 ; skirt
G1 X62.232 Y76.541 E5.45665 ; skirt
G1 X62.502 Y76.051 E5.47994 ; skirt
G1 X62.802 Y75.581 E5.50315 ; skirt
G1 X63.492 Y74.691 E5.55003 ; skirt
G1 X63.832 Y74.291 E5.57188 ; skirt
G1 X64.202 Y73.911 E5.59396 ; skirt
G1 X65.182 Y73.051 E5.64824 ; skirt
G1 X65.752 Y72.641 E5.67746 ; skirt
G1 X76.482 Y66.191 E6.19862 ; skirt
G1 X77.012 Y65.901 E6.22377 ; skirt
G1 X77.572 Y65.661 E6.24913 ; skirt
G1 X78.152 Y65.471 E6.27453 ; skirt
G1 X78.742 Y65.331 E6.29978 ; skirt
G1 X79.342 Y65.251 E6.32497 ; skirt
G1 X79.642 Y65.231 E6.33749 ; skirt
G1 X114.672 Y63.641 E7.79720 ; skirt
G1 X115.602 Y63.661 E7.83593 ; skirt
G1 X126.492 Y64.661 E8.29116 ; skirt
G1 X127.112 Y64.751 E8.31724 ; skirt
G1 X127.422 Y64.821 E8.33047 ; skirt
G1 X128.032 Y64.991 E8.35683 ; skirt
G1 X128.322 Y65.101 E8.36974 ; skirt
G1 X128.622 Y65.221 E8.38319 ; skirt
G1 X130.432 Y66.131 E8.46752 ; skirt
G1 X130.972 Y66.471 E8.49408 ; skirt
G1 X131.702 Y67.061 E8.53316 ; skirt
G1 X132.632 Y68.001 E8.58820 ; skirt
G1 X133.012 Y68.471 E8.61336 ; skirt
G1 X133.182 Y68.711 E8.62560 ; skirt
G1 X133.712 Y69.561 E8.66730 ; skirt
G1 X134.002 Y70.091 E8.69245 ; skirt
G1 X134.252 Y70.631 E8.71722 ; skirt
G1 X134.582 Y71.581 E8.75909 ; skirt
G1 X134.832 Y72.511 E8.79918 ; skirt
G1 X138.832 Y93.441 E9.68621 ; skirt
G1 X139.012 Y94.951 E9.74951 ; skirt
G1 X139.012 Y95.901 E9.78906 ; skirt
G1 X138.842 Y97.261 E9.84611 ; skirt
G1 X138.712 Y97.881 E9.87248 ; skirt
G1 X138.622 Y98.181 E9.88552 ; skirt
G1 X138.282 Y99.121 E9.92713 ; skirt
G1 X138.162 Y99.431 E9.94097 ; skirt
G1 X138.022 Y99.721 E9.95437 ; skirt
G1 X137.712 Y100.301 E9.98175 ; skirt
G1 X137.542 Y100.571 E9.99503 ; skirt
G1 X137.142 Y101.161 E10.02470 ; skirt
G1 X136.782 Y101.641 E10.04968 ; skirt
G1 X136.251 Y102.214 E10.08220 ; skirt
G1 X136.172 Y102.291 E10.08679 ; skirt
G1 F1800.000 E9.08679 ; retract
G1 Z0.900 ; lift plate during travel
G92 E0 ; reset extrusion distance
G1 X112.567 Y102.702 F7800.000 ; move to first perimeter point
G1 Z0.400 ; restore layer Z
G1 F1800.000 E1.00000 ; compensate retraction
G1 X111.735 Y103.263 F324.000 E1.04177 ; perimeter
G1 X110.720 Y103.469 E1.08490 ; perimeter
G1 X109.705 Y103.264 E1.12802 ; perimeter
G1 X108.872 Y102.704 E1.16977 ; perimeter
G1 X108.311 Y101.872 E1.21155 ; perimeter
G1 X108.105 Y100.856 E1.25472 ; perimeter
G1 X108.310 Y99.841 E1.29779 ; perimeter
G1 X108.870 Y99.009 E1.33955 ; perimeter
G1 X109.702 Y98.447 E1.38135 ; perimeter
G1 X110.719 Y98.242 E1.42451 ; perimeter
G1 X111.733 Y98.446 E1.46756 ; perimeter
G1 X112.565 Y99.007 E1.50936 ; perimeter
G1 X113.127 Y99.839 E1.55115 ; perimeter
G1 X113.332 Y100.855 E1.59430 ; perimeter
G1 X113.111 Y101.903 E1.63889 ; perimeter
G1 X112.629 Y102.611 E1.67452 ; perimeter
G1 X112.567 Y102.702 E1.67911 ; perimeter
G1 X112.711 Y103.423 F7800.000 ; move inwards before travel
G1 F1800.000 E0.67911 ; retract
G1 Z0.900 ; lift plate during travel
G92 E0 ; reset extrusion distance
G1 X114.654 Y99.967 F7800.000 ; move to first perimeter point
G1 Z0.400 ; restore layer Z
G1 F1800.000 E1.00000 ; compensate retraction
G1 X114.511 Y99.259 F324.000 E1.03007 ; perimeter
G1 X113.916 Y98.378 E1.07432 ; perimeter
G1 X116.964 Y98.410 E1.20119 ; perimeter
G1 X115.238 Y99.388 E1.28376 ; perimeter
G1 X114.733 Y99.889 E1.31339 ; perimeter
G1 X114.654 Y99.967 E1.31798 ; perimeter
G1 X113.881 Y99.854 F7800.000 ; move to first perimeter point
G1 X113.819 Y99.549 F324.000 E1.33093 ; perimeter
G1 X113.095 Y98.476 E1.38481 ; perimeter
G1 X111.825 Y97.620 E1.44855 ; perimeter
G1 X125.720 Y97.767 E2.02700 ; perimeter
G1 X125.736 Y98.096 E2.04068 ; perimeter
G1 X118.104 Y98.910 E2.36017 ; perimeter
G1 X118.031 Y98.967 E2.36406 ; perimeter
G1 X116.965 Y99.255 E2.41002 ; perimeter
G1 X115.686 Y99.979 E2.47119 ; perimeter
G1 X114.203 Y101.453 E2.55821 ; perimeter
G1 X113.903 Y99.962 E2.62152 ; perimeter
G1 X113.881 Y99.854 E2.62611 ; perimeter
G1 F1800.000 E1.62611 ; retract
G1 Z0.900 ; lift plate during travel
G92 E0 ; reset extrusion distance
G1 X120.479 Y93.904 F7800.000 ; move to first perimeter point
G1 Z0.400 ; restore layer Z
G1 F1800.000 E1.00000 ; compensate retraction
G1 X120.311 Y93.566 F324.000 E1.01569 ; perimeter
G1 X120.182 Y92.197 E1.07293 ; perimeter
G1 X122.121 Y92.366 E1.15394 ; perimeter
G1 X121.756 Y93.699 E1.21148 ; perimeter
G1 X121.534 Y94.001 E1.22704 ; perimeter
G1 X121.262 Y94.165 E1.24025 ; perimeter
G1 X120.988 Y94.199 E1.25178 ; perimeter
G1 X120.722 Y94.116 E1.26338 ; perimeter
G1 X120.562 Y93.976 E1.27221 ; perimeter
G1 X120.479 Y93.904 E1.27680 ; perimeter
G1 X119.885 Y94.362 F7800.000 ; move to first perimeter point
G1 X119.592 Y93.771 F540.000 E1.30425 ; perimeter
G1 X119.496 Y92.756 E1.34671 ; perimeter
G1 X118.620 Y92.621 E1.38360 ; perimeter
G1 X118.855 Y91.678 E1.42410 ; perimeter
G1 X118.986 Y91.303 E1.44062 ; perimeter
G1 X119.623 Y91.410 E1.46747 ; perimeter
G1 X129.879 Y92.304 E1.89603 ; perimeter
G1 X131.130 Y92.931 E1.95429 ; perimeter
G1 X131.613 Y93.427 E1.98309 ; perimeter
G1 X131.984 Y94.026 E2.01244 ; perimeter
G1 X132.219 Y94.704 E2.04231 ; perimeter
G1 X132.296 Y95.401 E2.07149 ; perimeter
G1 X132.207 Y96.144 E2.10264 ; perimeter
G1 X131.964 Y96.798 E2.13168 ; perimeter
G1 X131.570 Y97.389 E2.16125 ; perimeter
G1 X131.071 Y97.858 E2.18976 ; perimeter
G1 X130.453 Y98.220 E2.21959 ; perimeter
G1 X129.835 Y98.413 E2.24651 ; perimeter
G1 X129.295 Y98.455 E2.26904 ; perimeter
G1 X118.391 Y99.619 E2.72556 ; perimeter
G1 X118.364 Y99.640 E2.72695 ; perimeter
G1 X117.245 Y99.942 E2.77521 ; perimeter
G1 X116.134 Y100.570 E2.82833 ; perimeter
G1 X115.230 Y101.470 E2.88142 ; perimeter
G1 X114.663 Y102.478 E2.92959 ; perimeter
G1 X114.631 Y102.502 E2.93124 ; perimeter
G1 X114.569 Y102.640 E2.93755 ; perimeter
G1 X113.618 Y103.969 E3.00557 ; perimeter
G1 X112.973 Y104.464 E3.03942 ; perimeter
G1 X112.227 Y104.825 E3.07392 ; perimeter
G1 X111.401 Y105.031 E3.10937 ; perimeter
G1 X110.548 Y105.060 E3.14489 ; perimeter
G1 X108.929 Y104.607 E3.21485 ; perimeter
G1 X108.236 Y104.150 E3.24940 ; perimeter
G1 X107.651 Y103.566 E3.28380 ; perimeter
G1 X107.194 Y102.875 E3.31831 ; perimeter
G1 X106.882 Y102.095 E3.35327 ; perimeter
G1 X106.737 Y101.256 E3.38873 ; perimeter
G1 X106.771 Y100.372 E3.42555 ; perimeter
G1 X106.972 Y99.572 E3.45991 ; perimeter
G1 X107.331 Y98.832 E3.49413 ; perimeter
G1 X107.850 Y98.156 E3.52962 ; perimeter
G1 X108.460 Y97.625 E3.56329 ; perimeter
G1 X109.188 Y97.215 E3.59806 ; perimeter
G1 X110.000 Y96.957 E3.63354 ; perimeter
G1 X110.850 Y96.874 E3.66909 ; perimeter
G1 X128.899 Y97.066 E4.42047 ; perimeter
G1 X129.801 Y96.948 E4.45833 ; perimeter
G1 X130.247 Y96.684 E4.47989 ; perimeter
G1 X130.683 Y96.132 E4.50919 ; perimeter
G1 X130.769 Y95.997 E4.51583 ; perimeter
G1 X130.922 Y95.470 E4.53868 ; perimeter
G1 X130.865 Y94.917 E4.56182 ; perimeter
G1 X130.871 Y94.778 E4.56763 ; perimeter
G1 X130.716 Y94.525 E4.57997 ; perimeter
G1 X130.276 Y93.930 E4.61076 ; perimeter
G1 X129.765 Y93.613 E4.63579 ; perimeter
G1 X129.246 Y93.447 E4.65847 ; perimeter
G1 X128.719 Y93.438 E4.68044 ; perimeter
G1 X122.712 Y92.991 E4.93116 ; perimeter
G1 X122.429 Y94.026 E4.97580 ; perimeter
G1 X122.039 Y94.555 E5.00315 ; perimeter
G1 X121.509 Y94.875 E5.02894 ; perimeter
G1 X120.921 Y94.949 E5.05363 ; perimeter
G1 X120.354 Y94.771 E5.07835 ; perimeter
G1 X119.968 Y94.434 E5.09967 ; perimeter
G1 X119.885 Y94.362 E5.10427 ; perimeter
G1 X120.209 Y93.701 F7800.000 ; move inwards before travel
G1 F1800.000 E4.10427 ; retract
G1 Z0.900 ; lift plate during travel
G92 E0 ; reset extrusion distance
G1 X110.177 Y104.330 F7800.000 ; move to first fill point
G1 Z0.400 ; restore layer Z
G1 F1800.000 E1.00000 ; compensate retraction
G1 X109.709 Y103.861 F360.000 E1.02801 ; fill
G1 X110.849 Y103.945 E1.07637 ; fill
G1 X111.409 Y104.504 E1.10985 ; fill
G1 X111.728 Y103.766 E1.14387 ; fill
G1 X112.263 Y104.302 E1.17591 ; fill
G1 X112.948 Y103.929 E1.20887 ; fill
G1 X112.381 Y103.362 E1.24278 ; fill
G1 F1800.000 E0.24278 ; retract
G1 Z0.900 ; lift plate during travel
G92 E0 ; reset extrusion distance
G1 X108.958 Y103.786 F7800.000 ; move to first fill point
G1 Z0.400 ; restore layer Z
G1 F1800.000 E1.00000 ; compensate retraction
G1 X108.421 Y103.249 F360.000 E1.03161 ; fill
G1 X107.565 Y102.070 F7800.000 ; move to first fill point
G1 X107.297 Y101.802 F360.000 E1.04141 ; fill
G1 X107.795 Y101.655 E1.05481 ; fill
G1 X107.174 Y101.034 E1.07747 ; fill
G1 X107.679 Y100.895 E1.09099 ; fill
G1 X107.198 Y100.414 E1.10854 ; fill
G1 X107.311 Y99.882 E1.12257 ; fill
G1 X107.788 Y100.358 E1.13994 ; fill
G1 X107.896 Y99.822 E1.15405 ; fill
G1 X107.483 Y99.409 E1.16915 ; fill
G1 X107.697 Y98.978 E1.18155 ; fill
G1 X108.136 Y99.417 E1.19755 ; fill
G1 X108.395 Y99.032 E1.20953 ; fill
G1 X107.977 Y98.613 E1.22479 ; fill
G1 X108.286 Y98.278 E1.23656 ; fill
G1 X108.683 Y98.675 E1.25105 ; fill
G1 X109.068 Y98.415 E1.26303 ; fill
G1 X108.631 Y97.978 E1.27897 ; fill
G1 X109.039 Y97.741 E1.29113 ; fill
G1 X109.453 Y98.155 E1.30624 ; fill
G1 X109.926 Y97.984 F7800.000 ; move to first fill point
G1 X109.483 Y97.540 F360.000 E1.32243 ; fill
G1 X109.972 Y97.385 E1.33568 ; fill
G1 X110.463 Y97.876 E1.35358 ; fill
G1 X110.804 Y97.572 E1.36536 ; fill
G1 X111.073 Y97.841 E1.37516 ; fill
G1 F1800.000 E0.37516 ; retract
G1 Z0.900 ; lift plate during travel
G92 E0 ; reset extrusion distance
G1 X112.971 Y102.896 F7800.000 ; move to first fill point
G1 Z0.400 ; restore layer Z
G1 F1800.000 E1.00000 ; compensate retraction
G1 X113.483 Y103.408 F360.000 E1.03066 ; fill
G1 X113.865 Y102.733 E1.06347 ; fill
G1 X113.397 Y102.264 E1.09149 ; fill
G1 F1800.000 E0.09149 ; retract
G1 Z0.900 ; lift plate during travel
G92 E0 ; reset extrusion distance
G1 X118.408 Y98.455 F7800.000 ; move to first fill point
G1 Z0.400 ; restore layer Z
G1 F1800.000 E1.00000 ; compensate retraction
G1 X118.139 Y98.187 F360.000 E1.00935 ; fill
G1 X118.696 Y98.128 E1.02313 ; fill
G1 X118.964 Y98.396 E1.03247 ; fill
G1 F1800.000 E0.03247 ; retract
G1 Z0.900 ; lift plate during travel
G92 E0 ; reset extrusion distance
G1 X121.294 Y93.566 F7800.000 ; move to first fill point
G1 Z0.400 ; restore layer Z
G1 F1800.000 E1.00000 ; compensate retraction
G1 X120.826 Y93.098 F360.000 E1.02757 ; fill
G1 F1800.000 E0.02757 ; retract
G1 Z0.900 ; lift plate during travel
G92 E0 ; reset extrusion distance
G1 X122.829 Y92.555 F7800.000 ; move to first fill point
G1 Z0.400 ; restore layer Z
G1 F1800.000 E1.00000 ; compensate retraction
G1 X122.560 Y92.287 F360.000 E1.00983 ; fill
G1 X123.080 Y92.159 E1.02370 ; fill
G1 X123.528 Y92.607 E1.04010 ; fill
G1 X123.789 Y92.221 E1.05218 ; fill
G1 X124.227 Y92.659 E1.06822 ; fill
G1 X124.499 Y92.283 E1.08023 ; fill
G1 X124.927 Y92.711 E1.09591 ; fill
G1 X125.208 Y92.345 E1.10787 ; fill
G1 X125.626 Y92.763 E1.12319 ; fill
G1 X125.917 Y92.406 E1.13511 ; fill
G1 X126.325 Y92.815 E1.15006 ; fill
G1 X126.626 Y92.468 E1.16195 ; fill
G1 X127.025 Y92.867 E1.17655 ; fill
G1 X127.335 Y92.530 E1.18841 ; fill
G1 X127.724 Y92.919 E1.20265 ; fill
G1 X128.044 Y92.592 E1.21451 ; fill
G1 X128.423 Y92.971 E1.22838 ; fill
G1 X128.754 Y92.654 E1.24024 ; fill
G1 X129.108 Y93.009 E1.25324 ; fill
G1 X129.463 Y92.716 E1.26514 ; fill
G1 X129.898 Y93.151 E1.28110 ; fill
G1 X130.656 Y93.262 E1.30093 ; fill
G1 X131.308 Y94.561 E1.33861 ; fill
G1 X131.806 Y95.059 E1.35683 ; fill
G1 X131.350 Y95.250 E1.36964 ; fill
G1 X131.834 Y95.735 E1.38737 ; fill
G1 X131.734 Y96.282 E1.40177 ; fill
G1 X131.243 Y95.790 E1.41977 ; fill
G1 X131.059 Y96.254 E1.43269 ; fill
G1 X131.544 Y96.739 E1.45047 ; fill
G1 X131.285 Y97.127 E1.46256 ; fill
G1 X130.779 Y96.622 E1.48108 ; fill
G1 X130.493 Y96.983 E1.49302 ; fill
G1 X130.897 Y97.387 E1.50782 ; fill
G1 F1800.000 E0.50782 ; retract
G1 Z0.900 ; lift plate during travel
G92 E0 ; reset extrusion distance
G1 X126.733 Y98.216 F7800.000 ; move to first fill point
G1 Z0.400 ; restore layer Z
G1 F1800.000 E1.00000 ; compensate retraction
G1 X126.265 Y97.748 F360.000 E1.04351 ; fill
G1 X127.748 Y97.589 E1.14152 ; fill
G1 X128.217 Y98.057 E1.18503 ; fill
G1 F1800.000 E0.18503 ; retract
G1 Z0.900 ; lift plate during travel
G92 E0 ; reset extrusion distance
G1 X107.733 Y77.522 F7800.000 ; move to first perimeter point
G1 Z0.400 ; restore layer Z
G1 F1800.000 E1.00000 ; compensate retraction
G1 X108.565 Y78.083 F324.000 E1.04180 ; perimeter
G1 X109.127 Y78.915 E1.08359 ; perimeter
G1 X109.332 Y79.931 E1.12674 ; perimeter
G1 X109.158 Y80.798 E1.16355 ; perimeter
G1 X109.111 Y80.979 E1.17134 ; perimeter
G1 X108.567 Y81.778 E1.21156 ; perimeter
G1 X107.735 Y82.339 E1.25333 ; perimeter
G1 X106.720 Y82.545 E1.29646 ; perimeter
G1 X106.560 Y82.513 E1.30327 ; perimeter
G1 X105.705 Y82.340 E1.33958 ; perimeter
G1 X104.872 Y81.780 E1.38133 ; perimeter
G1 X104.311 Y80.948 E1.42311 ; perimeter
G1 X104.105 Y79.932 E1.46628 ; perimeter
G1 X104.310 Y78.917 E1.50935 ; perimeter
G1 X104.870 Y78.085 E1.55111 ; perimeter
G1 X105.702 Y77.523 E1.59291 ; perimeter
G1 X106.719 Y77.318 E1.63607 ; perimeter
G1 X107.624 Y77.500 E1.67453 ; perimeter
G1 X107.733 Y77.522 E1.67912 ; perimeter
G1 X108.346 Y77.115 F7800.000 ; move inwards before travel
G1 X109.916 Y77.454 ; move to first perimeter point
G1 X112.964 Y77.486 F324.000 E1.80599 ; perimeter
G1 X111.238 Y78.464 E1.88856 ; perimeter
G1 X110.654 Y79.043 E1.92278 ; perimeter
G1 X110.511 Y78.335 E1.95285 ; perimeter
G1 X109.978 Y77.545 E1.99251 ; perimeter
G1 X109.916 Y77.454 E1.99711 ; perimeter
G1 X109.264 Y77.802 F7800.000 ; move to first perimeter point
G1 X109.095 Y77.552 F324.000 E2.00966 ; perimeter
G1 X107.825 Y76.696 E2.07340 ; perimeter
G1 X121.720 Y76.843 E2.65184 ; perimeter
G1 X121.736 Y77.172 E2.66553 ; perimeter
