; generated by Slic3r 0.9.8-dev on 2012-12-30 at 00:22:03

; layer_height = 0.4
; perimeters = 3
; top_solid_layers = 3
; bottom_solid_layers = 3
; fill_density = 0.4
; perimeter_speed = 30
; infill_speed = 60
; travel_speed = 130
; scale = 1
; nozzle_diameter = 0.5
; filament_diameter = 3
; extrusion_multiplier = 1
; perimeters extrusion width = 0.53mm
; infill extrusion width = 0.53mm
; first layer extrusion width = 0.80mm

M107 ; disable fan
M190 S60 ; wait for bed temperature to be reached
M104 S185 ; set temperature
M104 S185 ; set extruder temperature
G28 ; home all axes
M109 S185 ; wait for temperature to be reached
G90 ; use absolute coordinates
G21 ; set units to millimeters
G92 E0 ; reset extrusion distance
M82 ; use absolute distances for extrusion
G1 F1800.000 E-1.00000 ; retract
G92 E0 ; reset extrusion distance
G1 Z0.400 F7800.000 ; move to next layer (0)
G1 X115.697 Y94.168 ; move to first skirt point
G1 F1800.000 E1.00000 ; compensate retraction
G1 X115.188 Y94.518 F540.000 E1.02575 ; skirt
G1 X114.307 Y95.038 E1.06830 ; skirt
G1 X113.887 Y95.268 E1.08823 ; skirt
G1 X113.447 Y95.468 E1.10835 ; skirt
G1 X94.998 Y102.148 E1.92517 ; skirt
G1 X94.267 Y102.368 E1.95691 ; skirt
G1 X93.127 Y102.638 E2.00568 ; skirt
G1 X92.608 Y102.718 E2.02758 ; skirt
G1 X92.347 Y102.748 E2.03847 ; skirt
G1 X91.277 Y102.788 E2.08304 ; skirt
G1 X90.677 Y102.788 E2.10802 ; skirt
G1 X90.078 Y102.728 E2.13312 ; skirt
G1 X89.477 Y102.618 E2.15851 ; skirt
G1 X87.248 Y101.978 E2.25509 ; skirt
G1 X86.617 Y101.728 E2.28331 ; skirt
G1 X86.017 Y101.418 E2.31142 ; skirt
G1 X85.037 Y100.788 E2.35992 ; skirt
G1 X84.587 Y100.468 E2.38290 ; skirt
G1 X84.157 Y100.108 E2.40625 ; skirt
G1 X83.167 Y99.118 E2.46453 ; skirt
G1 X82.807 Y98.688 E2.48787 ; skirt
G1 X82.487 Y98.238 E2.51086 ; skirt
G1 X81.897 Y97.328 E2.55601 ; skirt
G1 X81.547 Y96.658 E2.58747 ; skirt
G1 X81.127 Y95.648 E2.63301 ; skirt
G1 X80.917 Y95.078 E2.65829 ; skirt
G1 X80.767 Y94.488 E2.68363 ; skirt
G1 X80.537 Y93.088 E2.74269 ; skirt
G1 X80.477 Y92.288 E2.77609 ; skirt
G1 X80.527 Y90.858 E2.83565 ; skirt
G1 X80.597 Y90.288 E2.85956 ; skirt
G1 X80.647 Y90.008 E2.87140 ; skirt
G1 X80.987 Y88.668 E2.92895 ; skirt
G1 X81.067 Y88.398 E2.94067 ; skirt
G1 X81.387 Y87.618 E2.97577 ; skirt
G1 X81.748 Y86.878 E3.01002 ; skirt
G1 X82.147 Y86.178 E3.04358 ; skirt
G1 X82.457 Y85.738 E3.06599 ; skirt
G1 X82.977 Y85.058 E3.10162 ; skirt
G1 X83.328 Y84.638 E3.12438 ; skirt
G1 X83.707 Y84.248 E3.14705 ; skirt
G1 X84.697 Y83.378 E3.20191 ; skirt
G1 X85.468 Y82.838 E3.24106 ; skirt
G1 X95.998 Y76.518 E3.75229 ; skirt
G1 X96.757 Y76.128 E3.78785 ; skirt
G1 X97.557 Y75.838 E3.82327 ; skirt
G1 X98.107 Y75.698 E3.84690 ; skirt
G1 X98.947 Y75.578 E3.88222 ; skirt
G1 X99.517 Y75.558 E3.90596 ; skirt
G1 X100.087 Y75.588 E3.92972 ; skirt
G1 X110.977 Y76.588 E4.38495 ; skirt
G1 X111.597 Y76.678 E4.41103 ; skirt
G1 X112.517 Y76.918 E4.45061 ; skirt
G1 X113.107 Y77.148 E4.47697 ; skirt
G1 X114.917 Y78.058 E4.56131 ; skirt
G1 X115.457 Y78.398 E4.58787 ; skirt
G1 X115.957 Y78.788 E4.61427 ; skirt
G1 X116.188 Y78.998 E4.62723 ; skirt
G1 X117.097 Y79.908 E4.68080 ; skirt
G1 X117.457 Y80.348 E4.70447 ; skirt
G1 X117.617 Y80.578 E4.71613 ; skirt
G1 X118.327 Y81.688 E4.77098 ; skirt
G1 X118.477 Y81.968 E4.78420 ; skirt
G1 X118.617 Y82.258 E4.79761 ; skirt
G1 X118.847 Y82.858 E4.82436 ; skirt
G1 X119.167 Y83.808 E4.86609 ; skirt
G1 X119.297 Y84.368 E4.89002 ; skirt
G1 X119.387 Y84.938 E4.91404 ; skirt
G1 X119.498 Y85.948 E4.95633 ; skirt
G1 X119.498 Y86.898 E4.99588 ; skirt
G1 X119.327 Y88.258 E5.05293 ; skirt
G1 X119.197 Y88.878 E5.07930 ; skirt
G1 X119.007 Y89.468 E5.10511 ; skirt
G1 X118.647 Y90.418 E5.14740 ; skirt
G1 X118.377 Y90.988 E5.17365 ; skirt
G1 X118.047 Y91.528 E5.20000 ; skirt
G1 X117.477 Y92.378 E5.24260 ; skirt
G1 X117.087 Y92.858 E5.26834 ; skirt
G1 X116.877 Y93.078 E5.28100 ; skirt
G1 X116.157 Y93.768 E5.32252 ; skirt
G1 X115.781 Y94.096 E5.34330 ; skirt
G1 X115.697 Y94.168 E5.34789 ; skirt
G1 F1800.000 E4.34789 ; retract
G92 E0 ; reset extrusion distance
G1 X93.817 Y91.855 F7800.000 ; move to first perimeter point
G1 F1800.000 E1.00000 ; compensate retraction
G1 X93.595 Y92.903 F540.000 E1.04460 ; perimeter
G1 X93.052 Y93.702 E1.08481 ; perimeter
G1 X92.220 Y94.263 E1.12658 ; perimeter
G1 X91.204 Y94.469 E1.16971 ; perimeter
G1 X90.189 Y94.264 E1.21283 ; perimeter
G1 X89.357 Y93.704 E1.25458 ; perimeter
G1 X88.796 Y92.872 E1.29636 ; perimeter
G1 X88.589 Y91.856 E1.33953 ; perimeter
G1 X88.795 Y90.841 E1.38260 ; perimeter
G1 X89.354 Y90.009 E1.42436 ; perimeter
G1 X90.186 Y89.447 E1.46616 ; perimeter
G1 X91.203 Y89.242 E1.50932 ; perimeter
G1 X92.217 Y89.446 E1.55238 ; perimeter
G1 X93.050 Y90.007 E1.59417 ; perimeter
G1 X93.611 Y90.839 E1.63596 ; perimeter
G1 X93.795 Y91.747 E1.67452 ; perimeter
G1 X93.817 Y91.855 E1.67911 ; perimeter
G1 X94.425 Y92.268 F7800.000 ; move inwards before travel
G1 X95.139 Y90.967 ; move to first perimeter point
G1 X94.995 Y90.259 F540.000 E1.70919 ; perimeter
G1 X94.400 Y89.378 E1.75344 ; perimeter
G1 X97.448 Y89.410 E1.88030 ; perimeter
G1 X95.722 Y90.388 E1.96288 ; perimeter
G1 X95.217 Y90.889 E1.99250 ; perimeter
G1 X95.139 Y90.967 E1.99710 ; perimeter
G1 X94.365 Y90.854 F7800.000 ; move to first perimeter point
G1 X94.303 Y90.549 F540.000 E2.01004 ; perimeter
G1 X93.579 Y89.476 E2.06392 ; perimeter
G1 X92.309 Y88.620 E2.12766 ; perimeter
G1 X106.204 Y88.767 E2.70611 ; perimeter
G1 X106.220 Y89.096 E2.71980 ; perimeter
G1 X98.589 Y89.910 E3.03929 ; perimeter
G1 X98.515 Y89.967 E3.04317 ; perimeter
G1 X97.449 Y90.255 E3.08914 ; perimeter
G1 X96.170 Y90.979 E3.15030 ; perimeter
G1 X94.687 Y92.453 E3.23733 ; perimeter
G1 X94.387 Y90.962 E3.30063 ; perimeter
G1 X94.365 Y90.854 E3.30522 ; perimeter
G1 F1800.000 E2.30522 ; retract
G92 E0 ; reset extrusion distance
G1 X100.963 Y84.904 F7800.000 ; move to first perimeter point
G1 F1800.000 E1.00000 ; compensate retraction
G1 X100.795 Y84.566 F540.000 E1.01569 ; perimeter
G1 X100.666 Y83.197 E1.07293 ; perimeter
G1 X102.605 Y83.366 E1.15394 ; perimeter
G1 X102.240 Y84.699 E1.21148 ; perimeter
G1 X102.018 Y85.001 E1.22704 ; perimeter
G1 X101.746 Y85.165 E1.24025 ; perimeter
G1 X101.472 Y85.199 E1.25178 ; perimeter
G1 X101.206 Y85.116 E1.26338 ; perimeter
G1 X101.046 Y84.976 E1.27221 ; perimeter
G1 X100.963 Y84.904 E1.27680 ; perimeter
G1 X100.369 Y85.362 F7800.000 ; move to first perimeter point
G1 X100.076 Y84.771 F540.000 E1.30425 ; perimeter
G1 X99.980 Y83.756 E1.34671 ; perimeter
G1 X99.104 Y83.621 E1.38360 ; perimeter
G1 X99.339 Y82.678 E1.42410 ; perimeter
G1 X99.471 Y82.303 E1.44062 ; perimeter
G1 X100.107 Y82.410 E1.46747 ; perimeter
G1 X110.363 Y83.304 E1.89603 ; perimeter
G1 X111.614 Y83.931 E1.95429 ; perimeter
G1 X112.097 Y84.427 E1.98309 ; perimeter
G1 X112.468 Y85.026 E2.01244 ; perimeter
G1 X112.703 Y85.704 E2.04231 ; perimeter
G1 X112.780 Y86.401 E2.07149 ; perimeter
G1 X112.691 Y87.144 E2.10264 ; perimeter
G1 X112.448 Y87.798 E2.13168 ; perimeter
G1 X112.054 Y88.389 E2.16125 ; perimeter
G1 X111.555 Y88.858 E2.18976 ; perimeter
G1 X110.937 Y89.220 E2.21959 ; perimeter
G1 X110.319 Y89.413 E2.24651 ; perimeter
G1 X109.780 Y89.455 E2.26904 ; perimeter
G1 X98.875 Y90.619 E2.72556 ; perimeter
G1 X98.848 Y90.640 E2.72695 ; perimeter
G1 X97.729 Y90.942 E2.77521 ; perimeter
G1 X96.619 Y91.570 E2.82833 ; perimeter
G1 X95.714 Y92.470 E2.88142 ; perimeter
G1 X95.147 Y93.478 E2.92959 ; perimeter
G1 X95.116 Y93.502 E2.93124 ; perimeter
G1 X95.053 Y93.640 E2.93755 ; perimeter
G1 X94.102 Y94.969 E3.00557 ; perimeter
G1 X93.457 Y95.464 E3.03942 ; perimeter
G1 X92.711 Y95.825 E3.07392 ; perimeter
G1 X91.885 Y96.031 E3.10937 ; perimeter
G1 X91.032 Y96.060 E3.14489 ; perimeter
G1 X89.413 Y95.607 E3.21485 ; perimeter
G1 X88.720 Y95.150 E3.24940 ; perimeter
G1 X88.136 Y94.566 E3.28380 ; perimeter
G1 X87.678 Y93.875 E3.31831 ; perimeter
G1 X87.366 Y93.095 E3.35327 ; perimeter
G1 X87.221 Y92.256 E3.38873 ; perimeter
G1 X87.255 Y91.372 E3.42555 ; perimeter
G1 X87.456 Y90.572 E3.45991 ; perimeter
G1 X87.815 Y89.832 E3.49413 ; perimeter
G1 X88.334 Y89.156 E3.52962 ; perimeter
G1 X88.944 Y88.625 E3.56329 ; perimeter
G1 X89.672 Y88.215 E3.59806 ; perimeter
G1 X90.484 Y87.957 E3.63354 ; perimeter
G1 X91.334 Y87.874 E3.66909 ; perimeter
G1 X109.383 Y88.066 E4.42047 ; perimeter
G1 X110.285 Y87.948 E4.45833 ; perimeter
G1 X110.731 Y87.684 E4.47989 ; perimeter
G1 X111.167 Y87.132 E4.50919 ; perimeter
G1 X111.253 Y86.997 E4.51583 ; perimeter
G1 X111.406 Y86.470 E4.53868 ; perimeter
G1 X111.349 Y85.917 E4.56182 ; perimeter
G1 X111.355 Y85.778 E4.56763 ; perimeter
G1 X111.200 Y85.525 E4.57997 ; perimeter
G1 X110.760 Y84.930 E4.61076 ; perimeter
G1 X110.250 Y84.613 E4.63579 ; perimeter
G1 X109.731 Y84.447 E4.65847 ; perimeter
G1 X109.203 Y84.438 E4.68044 ; perimeter
G1 X103.196 Y83.991 E4.93116 ; perimeter
G1 X102.913 Y85.026 E4.97580 ; perimeter
G1 X102.524 Y85.555 E5.00315 ; perimeter
G1 X101.993 Y85.875 E5.02894 ; perimeter
G1 X101.405 Y85.949 E5.05363 ; perimeter
G1 X100.838 Y85.771 E5.07835 ; perimeter
G1 X100.452 Y85.434 E5.09967 ; perimeter
G1 X100.369 Y85.362 E5.10427 ; perimeter
G1 X100.693 Y84.701 F7800.000 ; move inwards before travel
G1 F1800.000 E4.10427 ; retract
G92 E0 ; reset extrusion distance
G1 X90.661 Y95.330 F7800.000 ; move to first fill point
G1 F1800.000 E1.00000 ; compensate retraction
G1 X90.193 Y94.861 F360.000 E1.02801 ; fill
G1 X91.333 Y94.945 E1.07637 ; fill
G1 X91.893 Y95.504 E1.10985 ; fill
G1 X92.212 Y94.766 E1.14387 ; fill
G1 X92.747 Y95.302 E1.17591 ; fill
G1 X93.432 Y94.929 E1.20887 ; fill
G1 X92.865 Y94.362 E1.24278 ; fill
G1 F1800.000 E0.24278 ; retract
G92 E0 ; reset extrusion distance
G1 X89.442 Y94.786 F7800.000 ; move to first fill point
G1 F1800.000 E1.00000 ; compensate retraction
G1 X88.905 Y94.249 F360.000 E1.03161 ; fill
G1 X88.050 Y93.070 F7800.000 ; move to first fill point
G1 X87.781 Y92.802 F360.000 E1.04141 ; fill
G1 X88.279 Y92.655 E1.05481 ; fill
G1 X87.658 Y92.034 E1.07747 ; fill
G1 X88.164 Y91.895 E1.09099 ; fill
G1 X87.683 Y91.414 E1.10854 ; fill
G1 X87.796 Y90.882 E1.12257 ; fill
G1 X88.272 Y91.358 E1.13994 ; fill
G1 X88.381 Y90.822 E1.15405 ; fill
G1 X87.967 Y90.409 E1.16915 ; fill
G1 X88.181 Y89.978 E1.18155 ; fill
G1 X88.620 Y90.417 E1.19755 ; fill
G1 X88.879 Y90.032 E1.20953 ; fill
G1 X88.461 Y89.613 E1.22479 ; fill
G1 X88.770 Y89.278 E1.23656 ; fill
G1 X89.167 Y89.675 E1.25105 ; fill
G1 X89.552 Y89.415 E1.26303 ; fill
G1 X89.115 Y88.978 E1.27897 ; fill
G1 X89.523 Y88.741 E1.29113 ; fill
G1 X89.937 Y89.155 E1.30624 ; fill
G1 X90.410 Y88.984 F7800.000 ; move to first fill point
G1 X89.967 Y88.540 F360.000 E1.32243 ; fill
G1 X90.456 Y88.385 E1.33568 ; fill
G1 X90.947 Y88.876 E1.35358 ; fill
G1 X91.288 Y88.572 E1.36536 ; fill
G1 X91.557 Y88.841 E1.37516 ; fill
G1 F1800.000 E0.37516 ; retract
G92 E0 ; reset extrusion distance
G1 X93.455 Y93.896 F7800.000 ; move to first fill point
G1 F1800.000 E1.00000 ; compensate retraction
G1 X93.968 Y94.408 F360.000 E1.03066 ; fill
G1 X94.349 Y93.733 E1.06347 ; fill
G1 X93.881 Y93.264 E1.09149 ; fill
G1 F1800.000 E0.09149 ; retract
G92 E0 ; reset extrusion distance
G1 X98.892 Y89.455 F7800.000 ; move to first fill point
G1 F1800.000 E1.00000 ; compensate retraction
G1 X98.623 Y89.187 F360.000 E1.00935 ; fill
G1 X99.180 Y89.128 E1.02313 ; fill
G1 X99.448 Y89.396 E1.03247 ; fill
G1 F1800.000 E0.03247 ; retract
G92 E0 ; reset extrusion distance
G1 X101.778 Y84.566 F7800.000 ; move to first fill point
G1 F1800.000 E1.00000 ; compensate retraction
G1 X101.310 Y84.098 F360.000 E1.02757 ; fill
G1 F1800.000 E0.02757 ; retract
G92 E0 ; reset extrusion distance
G1 X103.313 Y83.555 F7800.000 ; move to first fill point
G1 F1800.000 E1.00000 ; compensate retraction
G1 X103.044 Y83.287 F360.000 E1.00983 ; fill
G1 X103.564 Y83.159 E1.02370 ; fill
G1 X104.012 Y83.607 E1.04010 ; fill
G1 X104.274 Y83.221 E1.05218 ; fill
G1 X104.712 Y83.659 E1.06822 ; fill
G1 X104.983 Y83.283 E1.08023 ; fill
G1 X105.411 Y83.711 E1.09591 ; fill
G1 X105.692 Y83.345 E1.10787 ; fill
G1 X106.110 Y83.763 E1.12319 ; fill
G1 X106.401 Y83.406 E1.13511 ; fill
G1 X106.809 Y83.815 E1.15006 ; fill
G1 X107.110 Y83.468 E1.16195 ; fill
G1 X107.509 Y83.867 E1.17655 ; fill
G1 X107.819 Y83.530 E1.18841 ; fill
G1 X108.208 Y83.919 E1.20265 ; fill
G1 X108.529 Y83.592 E1.21451 ; fill
G1 X108.907 Y83.971 E1.22838 ; fill
G1 X109.238 Y83.654 E1.24024 ; fill
G1 X109.593 Y84.009 E1.25324 ; fill
G1 X109.947 Y83.716 E1.26514 ; fill
G1 X110.382 Y84.151 E1.28110 ; fill
G1 X111.140 Y84.262 E1.30093 ; fill
G1 X111.793 Y85.561 E1.33861 ; fill
G1 X112.290 Y86.059 E1.35683 ; fill
G1 X111.834 Y86.250 E1.36964 ; fill
G1 X112.318 Y86.735 E1.38737 ; fill
G1 X112.218 Y87.282 E1.40177 ; fill
G1 X111.727 Y86.790 E1.41977 ; fill
G1 X111.543 Y87.254 E1.43269 ; fill
G1 X112.028 Y87.739 E1.45047 ; fill
G1 X111.769 Y88.127 E1.46256 ; fill
G1 X111.264 Y87.622 E1.48108 ; fill
G1 X110.977 Y87.983 E1.49302 ; fill
G1 X111.382 Y88.387 E1.50782 ; fill
G1 F1800.000 E0.50782 ; retract
G92 E0 ; reset extrusion distance
G1 X107.218 Y89.216 F7800.000 ; move to first fill point
G1 F1800.000 E1.00000 ; compensate retraction
G1 X106.749 Y88.748 F360.000 E1.04351 ; fill
G1 X108.233 Y88.589 E1.14152 ; fill
G1 X108.701 Y89.057 E1.18503 ; fill
G1 F1800.000 E0.18503 ; retract
G92 E0 ; reset extrusion distance
G1 Z0.800 F7800.000 ; move to next layer (1)
G1 X94.206 Y91.855 ; move to first perimeter point
G1 F1800.000 E1.00000 ; compensate retraction
G1 X94.048 Y92.643 F1083.981 E1.02364 ; perimeter
G1 X93.928 Y93.101 E1.03757 ; perimeter
G1 X93.328 Y93.976 E1.06874 ; perimeter
G1 X92.371 Y94.622 E1.10271 ; perimeter
G1 X91.205 Y94.859 E1.13770 ; perimeter
G1 X90.041 Y94.624 E1.17261 ; perimeter
G1 X89.083 Y93.981 E1.20654 ; perimeter
G1 X88.437 Y93.023 E1.24052 ; perimeter
G1 X88.200 Y91.856 E1.27554 ; perimeter
G1 X88.434 Y90.694 E1.31040 ; perimeter
G1 X89.077 Y89.735 E1.34435 ; perimeter
G1 X90.035 Y89.088 E1.37834 ; perimeter
G1 X91.202 Y88.852 E1.41336 ; perimeter
G1 X92.364 Y89.085 E1.44820 ; perimeter
G1 X93.323 Y89.730 E1.48218 ; perimeter
G1 X93.970 Y90.687 E1.51616 ; perimeter
G1 X94.191 Y91.779 E1.54890 ; perimeter
G1 X94.206 Y91.855 E1.55119 ; perimeter
G1 X93.676 Y91.855 F7800.000 ; move to first perimeter point
G1 X93.541 Y92.526 F1083.981 E1.57132 ; perimeter
G1 X93.450 Y92.878 E1.58200 ; perimeter
G1 X92.954 Y93.602 E1.60781 ; perimeter
G1 X92.166 Y94.133 E1.63574 ; perimeter
G1 X91.204 Y94.329 E1.66462 ; perimeter
G1 X90.245 Y94.135 E1.69339 ; perimeter
G1 X89.457 Y93.606 E1.72131 ; perimeter
G1 X88.925 Y92.819 E1.74924 ; perimeter
G1 X88.730 Y91.855 E1.77815 ; perimeter
G1 X88.923 Y90.897 E1.80688 ; perimeter
G1 X89.452 Y90.109 E1.83481 ; perimeter
G1 X90.240 Y89.577 E1.86276 ; perimeter
G1 X91.203 Y89.382 E1.89165 ; perimeter
G1 X92.161 Y89.574 E1.92038 ; perimeter
G1 X92.950 Y90.105 E1.94832 ; perimeter
G1 X93.482 Y90.892 E1.97627 ; perimeter
G1 X93.661 Y91.779 E2.00286 ; perimeter
G1 X93.676 Y91.855 E2.00515 ; perimeter
G1 X94.108 Y92.144 F7800.000 ; move inwards before travel
G1 X94.789 Y92.117 ; move to first perimeter point
G1 X94.459 Y90.483 F1083.981 E2.05419 ; perimeter
G1 X93.697 Y89.355 E2.09421 ; perimeter
G1 X92.862 Y88.792 E2.12382 ; perimeter
G1 X104.199 Y88.912 E2.45720 ; perimeter
G1 X104.210 Y89.144 E2.46403 ; perimeter
G1 X98.524 Y89.750 E2.63218 ; perimeter
G1 X98.456 Y89.803 E2.63471 ; perimeter
G1 X97.663 Y90.013 E2.65884 ; perimeter
G1 X97.386 Y90.100 E2.66738 ; perimeter
G1 X96.069 Y90.845 E2.71188 ; perimeter
G1 X94.845 Y92.062 E2.76264 ; perimeter
G1 X94.789 Y92.117 E2.76493 ; perimeter
G1 F1800.000 E1.76493 ; retract
G92 E0 ; reset extrusion distance
G1 X102.392 Y83.515 F7800.000 ; move to first perimeter point
G1 F1800.000 E1.00000 ; compensate retraction
G1 X102.088 Y84.626 F1083.981 E1.03387 ; perimeter
G1 X101.904 Y84.875 E1.04299 ; perimeter
G1 X101.691 Y85.004 E1.05031 ; perimeter
G1 X101.487 Y85.030 E1.05635 ; perimeter
G1 X101.289 Y84.968 E1.06245 ; perimeter
