; generated by Slic3r 1.0.1 on 2014-06-22 at 14:55:19

; layer_height = 0.4
; perimeters = 3
; top_solid_layers = 3
; bottom_solid_layers = 3
; fill_density = 0.4
; perimeter_speed = 30
; infill_speed = 60
; travel_speed = 130
; nozzle_diameter = 0.5
; filament_diameter = 3
; extrusion_multiplier = 1
; perimeters extrusion width = 0.50mm
; infill extrusion width = 0.53mm
; solid infill extrusion width = 0.53mm
; top infill extrusion width = 0.53mm
; first layer extrusion width = 0.70mm

G21 ; set units to millimeters
M190 S60 ; wait for bed temperature to be reached
M104 S185 ; set temperature
G28 ; home all axes
G1 Z5 F5000 ; lift nozzle
G92 E0 ;reset extruder
M109 S185 ; wait for temperature to be reached
G90 ; use absolute coordinates
G92 E0 ; reset extrusion distance
M82 ; use absolute distances for extrusion
G1 F1800.000 E-1.00000 ; retract
G1 Z0.850 F7800.000 ; move to next layer (0) and lift
G92 E0 ; reset extrusion distance
G1 X54.790 Y54.790 F7800.000 ; move to first skirt point
G1 Z0.350 F7800.000 ; restore layer Z
G1 E1.00000 F1800.000 ; compensate retraction
G1 X55.800 Y53.960 E1.04253 F540.000 ; skirt
G1 X56.950 Y53.350 E1.08489 ; skirt
G1 X58.200 Y52.970 E1.12739 ; skirt
G1 X59.500 Y52.840 E1.16990 ; skirt
G1 X140.500 Y52.840 E3.80525 ; skirt
G1 X141.800 Y52.970 E3.84776 ; skirt
G1 X143.050 Y53.350 E3.89027 ; skirt
G1 X144.200 Y53.960 E3.93262 ; skirt
G1 X145.210 Y54.790 E3.97515 ; skirt
G1 X146.040 Y55.800 E4.01768 ; skirt
G1 X146.650 Y56.950 E4.06004 ; skirt
G1 X147.030 Y58.200 E4.10254 ; skirt
G1 X147.160 Y59.500 E4.14505 ; skirt
G1 X147.160 Y118.500 E6.06463 ; skirt
G1 X147.030 Y119.800 E6.10714 ; skirt
G1 X146.650 Y121.050 E6.14964 ; skirt
G1 X146.040 Y122.200 E6.19200 ; skirt
G1 X145.210 Y123.210 E6.23453 ; skirt
G1 X144.200 Y124.040 E6.27706 ; skirt
G1 X143.050 Y124.650 E6.31941 ; skirt
G1 X141.800 Y125.030 E6.36192 ; skirt
G1 X140.500 Y125.160 E6.40443 ; skirt
G1 X59.500 Y125.160 E9.03978 ; skirt
G1 X58.200 Y125.030 E9.08229 ; skirt
G1 X56.950 Y124.650 E9.12479 ; skirt
G1 X55.800 Y124.040 E9.16715 ; skirt
G1 X54.790 Y123.210 E9.20968 ; skirt
G1 X53.960 Y122.200 E9.25221 ; skirt
G1 X53.350 Y121.050 E9.29457 ; skirt
G1 X52.970 Y119.800 E9.33707 ; skirt
G1 X52.840 Y118.500 E9.37958 ; skirt
G1 X52.840 Y59.500 E11.29916 ; skirt
G1 X52.970 Y58.200 E11.34166 ; skirt
G1 X53.350 Y56.950 E11.38417 ; skirt
G1 X53.960 Y55.800 E11.42652 ; skirt
G1 X54.727 Y54.866 E11.46585 ; skirt
G1 F1800.000 E10.46585 ; retract
G1 Z0.850 F7800.000 ; lift plate during travel
G92 E0 ; reset extrusion distance
G1 X61.493 Y61.493 F7800.000 ; move to first perimeter point
G1 Z0.350 F7800.000 ; restore layer Z
G1 E1.00000 F1800.000 ; compensate retraction
G1 X85.507 Y61.493 E1.78131 F540.000 ; perimeter
G1 X85.507 Y71.493 E2.10666 ; perimeter
G1 X92.993 Y71.493 E2.35021 ; perimeter
G1 X92.993 Y61.493 E2.67556 ; perimeter
G1 X128.007 Y61.493 E3.81476 ; perimeter
G1 X128.007 Y71.493 E4.14011 ; perimeter
G1 X138.507 Y71.493 E4.48173 ; perimeter
G1 X138.507 Y106.507 E5.62092 ; perimeter
G1 X128.007 Y106.507 E5.96254 ; perimeter
G1 X128.007 Y116.507 E6.28789 ; perimeter
G1 X92.993 Y116.507 E7.42709 ; perimeter
G1 X92.993 Y106.507 E7.75244 ; perimeter
G1 X85.507 Y106.507 E7.99599 ; perimeter
G1 X85.507 Y116.507 E8.32134 ; perimeter
G1 X61.493 Y116.507 E9.10265 ; perimeter
G1 X61.493 Y100.193 E9.63343 ; perimeter
G1 X67.593 Y100.193 E9.83190 ; perimeter
G1 X67.593 Y96.089 E9.96541 ; perimeter
G1 X61.493 Y96.089 E10.16388 ; perimeter
G1 X61.493 Y81.739 E10.63076 ; perimeter
G1 X67.593 Y81.739 E10.82923 ; perimeter
G1 X67.593 Y77.853 E10.95565 ; perimeter
G1 X61.493 Y77.853 E11.15412 ; perimeter
G1 X61.493 Y61.591 E11.68320 ; perimeter
G1 X62.150 Y62.150 F7800.000 ; move to first perimeter point
G1 X84.850 Y62.150 E12.42175 F378.000 ; perimeter
G1 X84.850 Y72.150 E12.74710 ; perimeter
G1 X93.650 Y72.150 E13.03341 ; perimeter
G1 X93.650 Y62.150 E13.35876 ; perimeter
G1 X127.350 Y62.150 E14.45520 ; perimeter
G1 X127.350 Y72.150 E14.78055 ; perimeter
G1 X137.850 Y72.150 E15.12217 ; perimeter
G1 X137.850 Y105.850 E16.21861 ; perimeter
G1 X127.350 Y105.850 E16.56023 ; perimeter
G1 X127.350 Y115.850 E16.88558 ; perimeter
G1 X93.650 Y115.850 E17.98202 ; perimeter
G1 X93.650 Y105.850 E18.30737 ; perimeter
G1 X84.850 Y105.850 E18.59368 ; perimeter
G1 X84.850 Y115.850 E18.91903 ; perimeter
G1 X62.150 Y115.850 E19.65758 ; perimeter
G1 X62.150 Y100.850 E20.14561 ; perimeter
G1 X68.250 Y100.850 E20.34407 ; perimeter
G1 X68.250 Y95.432 E20.52034 ; perimeter
G1 X62.150 Y95.432 E20.71881 ; perimeter
G1 X62.150 Y82.396 E21.14294 ; perimeter
G1 X68.250 Y82.396 E21.34140 ; perimeter
G1 X68.250 Y77.196 E21.51058 ; perimeter
G1 X62.150 Y77.196 E21.70905 ; perimeter
G1 X62.150 Y62.249 E22.19537 ; perimeter
G1 X62.150 Y61.493 F7800.000 ; move inwards before travel
G1 F1800.000 E21.19537 ; retract
G1 Z0.850 F7800.000 ; lift plate during travel
G92 E0 ; reset extrusion distance
G1 X128.664 Y107.164 F7800.000 ; move to first perimeter point
G1 Z0.350 F7800.000 ; restore layer Z
G1 E1.00000 F1800.000 ; compensate retraction
G1 X138.836 Y107.164 E1.33094 F324.000 ; perimeter
G1 X138.836 Y116.836 E1.64561 ; perimeter
G1 X128.664 Y116.836 E1.97655 ; perimeter
G1 X128.664 Y107.263 E2.28801 ; perimeter
G1 F1800.000 E1.28801 ; retract
G1 Z0.850 F7800.000 ; lift plate during travel
G92 E0 ; reset extrusion distance
G1 X128.664 Y70.836 F7800.000 ; move to first perimeter point
G1 Z0.350 F7800.000 ; restore layer Z
G1 E1.00000 F1800.000 ; compensate retraction
G1 X128.664 Y61.164 E1.31467 F324.000 ; perimeter
G1 X138.836 Y61.164 E1.64561 ; perimeter
G1 X138.836 Y70.836 E1.96028 ; perimeter
G1 X128.763 Y70.836 E2.28801 ; perimeter
G1 F1800.000 E1.28801 ; retract
G1 Z0.850 F7800.000 ; lift plate during travel
G92 E0 ; reset extrusion distance
G1 X92.336 Y70.836 F7800.000 ; move to first perimeter point
G1 Z0.350 F7800.000 ; restore layer Z
G1 E1.00000 F1800.000 ; compensate retraction
G1 X86.164 Y70.836 E1.20080 F324.000 ; perimeter
G1 X86.164 Y61.164 E1.51547 ; perimeter
G1 X92.336 Y61.164 E1.71626 ; perimeter
G1 X92.336 Y70.737 E2.02773 ; perimeter
G1 F1800.000 E1.02773 ; retract
G1 Z0.850 F7800.000 ; lift plate during travel
G92 E0 ; reset extrusion distance
G1 X66.936 Y78.510 F7800.000 ; move to first perimeter point
G1 Z0.350 F7800.000 ; restore layer Z
G1 E1.00000 F1800.000 ; compensate retraction
G1 X66.936 Y81.082 E1.08367 F324.000 ; perimeter
G1 X61.164 Y81.082 E1.27145 ; perimeter
G1 X61.164 Y78.510 E1.35512 ; perimeter
G1 X66.837 Y78.510 E1.53970 ; perimeter
G1 F1800.000 E0.53970 ; retract
G1 Z0.850 F7800.000 ; lift plate during travel
G92 E0 ; reset extrusion distance
G1 X66.936 Y96.746 F7800.000 ; move to first perimeter point
G1 Z0.350 F7800.000 ; restore layer Z
G1 E1.00000 F1800.000 ; compensate retraction
G1 X66.936 Y99.536 E1.09075 F324.000 ; perimeter
G1 X61.164 Y99.536 E1.27854 ; perimeter
G1 X61.164 Y96.746 E1.36929 ; perimeter
G1 X66.837 Y96.746 E1.55387 ; perimeter
G1 F1800.000 E0.55387 ; retract
G1 Z0.850 F7800.000 ; lift plate during travel
G92 E0 ; reset extrusion distance
G1 X86.164 Y107.164 F7800.000 ; move to first perimeter point
G1 Z0.350 F7800.000 ; restore layer Z
G1 E1.00000 F1800.000 ; compensate retraction
G1 X92.336 Y107.164 E1.20080 F324.000 ; perimeter
G1 X92.336 Y116.836 E1.51547 ; perimeter
G1 X86.164 Y116.836 E1.71626 ; perimeter
G1 X86.164 Y107.263 E2.02773 ; perimeter
G1 F1800.000 E1.02773 ; retract
G1 Z0.850 F7800.000 ; lift plate during travel
G92 E0 ; reset extrusion distance
G1 X60.507 Y117.493 F7800.000 ; move to first perimeter point
G1 Z0.350 F7800.000 ; restore layer Z
G1 E1.00000 F1800.000 ; compensate retraction
G1 X60.507 Y60.507 E2.85405 F540.000 ; perimeter
G1 X139.493 Y60.507 E5.42387 ; perimeter
G1 X139.493 Y117.493 E7.27791 ; perimeter
G1 X60.606 Y117.493 E9.84453 ; perimeter
G1 X59.850 Y118.150 F7800.000 ; move to first perimeter point
G1 X59.850 Y59.850 E11.74133 F378.000 ; perimeter
G1 X140.150 Y59.850 E14.35391 ; perimeter
G1 X140.150 Y118.150 E16.25071 ; perimeter
G1 X59.949 Y118.150 E18.86008 ; perimeter
G1 X60.179 Y117.581 F7800.000 ; move inwards before travel
G1 X129.151 Y116.369 F7800.000 ; move to first fill point
G1 X129.131 Y116.349 E18.86102 F1080.000 ; fill
G1 X129.131 Y115.405 E18.89223 ; fill
G1 X130.095 Y116.369 E18.93729 ; fill
G1 X131.039 Y116.369 E18.96850 ; fill
G1 X129.131 Y114.461 E19.05770 ; fill
G1 X129.131 Y113.517 E19.08891 ; fill
G1 X131.983 Y116.369 E19.22225 ; fill
G1 X132.927 Y116.369 E19.25346 ; fill
G1 X129.131 Y112.573 E19.43093 ; fill
G1 X129.131 Y111.629 E19.46214 ; fill
G1 X133.871 Y116.369 E19.68374 ; fill
G1 X134.815 Y116.369 E19.71495 ; fill
G1 X129.131 Y110.685 E19.98069 ; fill
G1 X129.131 Y109.741 E20.01189 ; fill
G1 X135.759 Y116.369 E20.32177 ; fill
G1 X136.703 Y116.369 E20.35297 ; fill
G1 X129.131 Y108.797 E20.70698 ; fill
G1 X129.131 Y107.853 E20.73819 ; fill
G1 X137.647 Y116.369 E21.13633 ; fill
G1 X138.369 Y116.147 E21.16130 ; fill
G1 X129.853 Y107.631 E21.55944 ; fill
G1 X130.797 Y107.631 E21.59065 ; fill
G1 X138.369 Y115.203 E21.94465 ; fill
G1 X138.369 Y114.259 E21.97586 ; fill
G1 X131.741 Y107.631 E22.28573 ; fill
G1 X132.685 Y107.631 E22.31694 ; fill
G1 X138.369 Y113.315 E22.58268 ; fill
G1 X138.369 Y112.371 E22.61389 ; fill
G1 X133.629 Y107.631 E22.83549 ; fill
G1 X134.573 Y107.631 E22.86670 ; fill
G1 X138.369 Y111.427 E23.04417 ; fill
G1 X138.369 Y110.483 E23.07538 ; fill
G1 X135.517 Y107.631 E23.20871 ; fill
G1 X136.461 Y107.631 E23.23992 ; fill
G1 X138.369 Y109.539 E23.32912 ; fill
G1 X138.369 Y108.595 E23.36033 ; fill
G1 X137.405 Y107.631 E23.40540 ; fill
G1 X138.349 Y107.631 E23.43660 ; fill
G1 X138.369 Y107.651 E23.43754 ; fill
G1 X138.986 Y106.706 F7800.000 ; move to first fill point
G1 X138.966 Y106.686 E23.43800 F360.000 ; fill
G1 X139.034 Y106.288 E23.44459 F360.000 ; fill
G1 X138.966 Y106.219 E23.44618 F360.000 ; fill
G1 X139.034 Y105.822 E23.45276 F360.000 ; fill
G1 X138.966 Y105.753 E23.45435 F360.000 ; fill
G1 X139.034 Y105.355 E23.46094 F360.000 ; fill
G1 X138.966 Y105.287 E23.46252 F360.000 ; fill
G1 X139.034 Y104.889 E23.46911 F360.000 ; fill
G1 X138.966 Y104.820 E23.47070 F360.000 ; fill
G1 X139.034 Y104.423 E23.47729 F360.000 ; fill
G1 X138.966 Y104.354 E23.47887 F360.000 ; fill
G1 X139.034 Y103.956 E23.48546 F360.000 ; fill
G1 X138.966 Y103.888 E23.48705 F360.000 ; fill
G1 X139.034 Y103.490 E23.49364 F360.000 ; fill
G1 X138.966 Y103.421 E23.49522 F360.000 ; fill
G1 X139.034 Y103.024 E23.50181 F360.000 ; fill
G1 X138.966 Y102.955 E23.50340 F360.000 ; fill
G1 X139.034 Y102.558 E23.50999 F360.000 ; fill
G1 X138.966 Y102.489 E23.51157 F360.000 ; fill
G1 X139.034 Y102.091 E23.51816 F360.000 ; fill
G1 X138.966 Y102.022 E23.51975 F360.000 ; fill
G1 X139.034 Y101.625 E23.52634 F360.000 ; fill
G1 X138.966 Y101.556 E23.52792 F360.000 ; fill
G1 X139.034 Y101.159 E23.53451 F360.000 ; fill
G1 X138.966 Y101.090 E23.53610 F360.000 ; fill
G1 X139.034 Y100.692 E23.54269 F360.000 ; fill
G1 X138.966 Y100.623 E23.54427 F360.000 ; fill
G1 X139.034 Y100.226 E23.55086 F360.000 ; fill
G1 X138.966 Y100.157 E23.55245 F360.000 ; fill
G1 X139.034 Y99.760 E23.55904 F360.000 ; fill
G1 X138.966 Y99.691 E23.56062 F360.000 ; fill
G1 X139.034 Y99.293 E23.56721 F360.000 ; fill
G1 X138.966 Y99.225 E23.56880 F360.000 ; fill
G1 X139.034 Y98.827 E23.57539 F360.000 ; fill
G1 X138.966 Y98.758 E23.57697 F360.000 ; fill
G1 X139.034 Y98.361 E23.58356 F360.000 ; fill
G1 X138.966 Y98.292 E23.58515 F360.000 ; fill
G1 X139.034 Y97.894 E23.59174 F360.000 ; fill
G1 X138.966 Y97.826 E23.59332 F360.000 ; fill
G1 X139.034 Y97.428 E23.59991 F360.000 ; fill
G1 X138.966 Y97.359 E23.60150 F360.000 ; fill
G1 X139.034 Y96.962 E23.60808 F360.000 ; fill
G1 X138.966 Y96.893 E23.60967 F360.000 ; fill
G1 X139.034 Y96.495 E23.61626 F360.000 ; fill
G1 X138.966 Y96.427 E23.61785 F360.000 ; fill
G1 X139.034 Y96.029 E23.62443 F360.000 ; fill
G1 X138.966 Y95.960 E23.62602 F360.000 ; fill
G1 X139.034 Y95.563 E23.63261 F360.000 ; fill
G1 X138.966 Y95.494 E23.63420 F360.000 ; fill
G1 X139.034 Y95.096 E23.64078 F360.000 ; fill
G1 X138.966 Y95.028 E23.64237 F360.000 ; fill
G1 X139.034 Y94.630 E23.64896 F360.000 ; fill
G1 X138.966 Y94.561 E23.65055 F360.000 ; fill
G1 X139.034 Y94.164 E23.65713 F360.000 ; fill
G1 X138.966 Y94.095 E23.65872 F360.000 ; fill
G1 X139.034 Y93.698 E23.66531 F360.000 ; fill
G1 X138.966 Y93.629 E23.66690 F360.000 ; fill
G1 X139.034 Y93.231 E23.67348 F360.000 ; fill
G1 X138.966 Y93.162 E23.67507 F360.000 ; fill
G1 X139.034 Y92.765 E23.68166 F360.000 ; fill
G1 X138.966 Y92.696 E23.68325 F360.000 ; fill
G1 X139.034 Y92.299 E23.68983 F360.000 ; fill
G1 X138.966 Y92.230 E23.69142 F360.000 ; fill
G1 X139.034 Y91.832 E23.69801 F360.000 ; fill
G1 X138.966 Y91.763 E23.69960 F360.000 ; fill
G1 X139.034 Y91.366 E23.70618 F360.000 ; fill
G1 X138.966 Y91.297 E23.70777 F360.000 ; fill
G1 X139.034 Y90.900 E23.71436 F360.000 ; fill
G1 X138.966 Y90.831 E23.71595 F360.000 ; fill
G1 X139.034 Y90.433 E23.72253 F360.000 ; fill
G1 X138.966 Y90.365 E23.72412 F360.000 ; fill
G1 X139.034 Y89.967 E23.73071 F360.000 ; fill
G1 X138.966 Y89.898 E23.73230 F360.000 ; fill
G1 X139.034 Y89.501 E23.73888 F360.000 ; fill
G1 X138.966 Y89.432 E23.74047 F360.000 ; fill
G1 X139.034 Y89.034 E23.74706 F360.000 ; fill
G1 X138.966 Y88.966 E23.74865 F360.000 ; fill
G1 X139.034 Y88.568 E23.75523 F360.000 ; fill
G1 X138.966 Y88.499 E23.75682 F360.000 ; fill
G1 X139.034 Y88.102 E23.76341 F360.000 ; fill
G1 X138.966 Y88.033 E23.76499 F360.000 ; fill
G1 X139.034 Y87.635 E23.77158 F360.000 ; fill
G1 X138.966 Y87.567 E23.77317 F360.000 ; fill
G1 X139.034 Y87.169 E23.77976 F360.000 ; fill
G1 X138.966 Y87.100 E23.78134 F360.000 ; fill
G1 X139.034 Y86.703 E23.78793 F360.000 ; fill
G1 X138.966 Y86.634 E23.78952 F360.000 ; fill
G1 X139.034 Y86.236 E23.79611 F360.000 ; fill
G1 X138.966 Y86.168 E23.79769 F360.000 ; fill
G1 X139.034 Y85.770 E23.80428 F360.000 ; fill
G1 X138.966 Y85.701 E23.80587 F360.000 ; fill
G1 X139.034 Y85.304 E23.81246 F360.000 ; fill
G1 X138.966 Y85.235 E23.81404 F360.000 ; fill
G1 X139.034 Y84.838 E23.82063 F360.000 ; fill
G1 X138.966 Y84.769 E23.82222 F360.000 ; fill
G1 X139.034 Y84.371 E23.82881 F360.000 ; fill
G1 X138.966 Y84.302 E23.83039 F360.000 ; fill
G1 X139.034 Y83.905 E23.83698 F360.000 ; fill
G1 X138.966 Y83.836 E23.83857 F360.000 ; fill
G1 X139.034 Y83.439 E23.84516 F360.000 ; fill
G1 X138.966 Y83.370 E23.84674 F360.000 ; fill
G1 X139.034 Y82.972 E23.85333 F360.000 ; fill
G1 X138.966 Y82.903 E23.85492 F360.000 ; fill
G1 X139.034 Y82.506 E23.86151 F360.000 ; fill
G1 X138.966 Y82.437 E23.86309 F360.000 ; fill
G1 X139.034 Y82.040 E23.86968 F360.000 ; fill
G1 X138.966 Y81.971 E23.87127 F360.000 ; fill
G1 X139.034 Y81.573 E23.87786 F360.000 ; fill
G1 X138.966 Y81.505 E23.87944 F360.000 ; fill
G1 X139.034 Y81.107 E23.88603 F360.000 ; fill
G1 X138.966 Y81.038 E23.88762 F360.000 ; fill
G1 X139.034 Y80.641 E23.89421 F360.000 ; fill
G1 X138.966 Y80.572 E23.89579 F360.000 ; fill
G1 X139.034 Y80.174 E23.90238 F360.000 ; fill
G1 X138.966 Y80.106 E23.90397 F360.000 ; fill
G1 X139.034 Y79.708 E23.91055 F360.000 ; fill
G1 X138.966 Y79.639 E23.91214 F360.000 ; fill
G1 X139.034 Y79.242 E23.91873 F360.000 ; fill
G1 X138.966 Y79.173 E23.92032 F360.000 ; fill
G1 X139.034 Y78.775 E23.92690 F360.000 ; fill
G1 X138.966 Y78.707 E23.92849 F360.000 ; fill
G1 X139.034 Y78.309 E23.93508 F360.000 ; fill
G1 X138.966 Y78.240 E23.93667 F360.000 ; fill
G1 X139.034 Y77.843 E23.94325 F360.000 ; fill
G1 X138.966 Y77.774 E23.94484 F360.000 ; fill
G1 X139.034 Y77.376 E23.95143 F360.000 ; fill
G1 X138.966 Y77.308 E23.95302 F360.000 ; fill
G1 X139.034 Y76.910 E23.95960 F360.000 ; fill
G1 X138.966 Y76.841 E23.96119 F360.000 ; fill
G1 X139.034 Y76.444 E23.96778 F360.000 ; fill
G1 X138.966 Y76.375 E23.96937 F360.000 ; fill
G1 X139.034 Y75.978 E23.97595 F360.000 ; fill
G1 X138.966 Y75.909 E23.97754 F360.000 ; fill
G1 X139.034 Y75.511 E23.98413 F360.000 ; fill
G1 X138.966 Y75.442 E23.98572 F360.000 ; fill
