; generated by Slic3r 0.9.10b on 2013-08-31 at 19:09:50

; layer_height = 0.4
; perimeters = 3
; top_solid_layers = 3
; bottom_solid_layers = 3
; fill_density = 0.4
; perimeter_speed = 30
; infill_speed = 60
; travel_speed = 130
; nozzle_diameter = 0.5
; filament_diameter = 3
; extrusion_multiplier = 1
; perimeters extrusion width = 0.53mm
; infill extrusion width = 0.53mm
; solid infill extrusion width = 0.53mm
; top infill extrusion width = 0.53mm
; first layer extrusion width = 1.00mm

G21 ; set units to millimeters
M107
M190 S60 ; wait for bed temperature to be reached
M104 S180 ; set temperature
G28 ; home all axes
G1 Z5 F5000 ; lift nozzle
M109 S180 ; wait for temperature to be reached
G90 ; use absolute coordinates
G92 E0
M82 ; use absolute distances for extrusion
G1 F1800.000 E-1.00000
G1 Z1.000 F7800.000
G92 E0
G1 X69.630 Y64.630
G1 Z0.500
G1 F1800.000 E1.00000
G1 X70.670 Y63.770 F540.000 E1.08522
G1 X71.860 Y63.130 E1.17054
G1 X73.160 Y62.740 E1.25624
G1 X74.500 Y62.610 E1.34125
G1 X125.500 Y62.610 E4.56168
G1 X126.840 Y62.740 E4.64669
G1 X128.140 Y63.130 E4.73239
G1 X129.330 Y63.770 E4.81771
G1 X130.370 Y64.630 E4.90293
G1 X131.230 Y65.670 E4.98815
G1 X131.870 Y66.860 E5.07347
G1 X132.260 Y68.160 E5.15917
G1 X132.390 Y69.500 E5.24418
G1 X132.390 Y108.500 E7.70686
G1 X132.260 Y109.840 E7.79187
G1 X131.870 Y111.140 E7.87757
G1 X131.230 Y112.330 E7.96290
G1 X130.370 Y113.370 E8.04811
G1 X129.330 Y114.230 E8.13333
G1 X128.140 Y114.870 E8.21865
G1 X126.840 Y115.260 E8.30435
G1 X125.500 Y115.390 E8.38937
G1 X74.500 Y115.390 E11.60979
G1 X73.160 Y115.260 E11.69480
G1 X71.860 Y114.870 E11.78050
G1 X70.670 Y114.230 E11.86583
G1 X69.630 Y113.370 E11.95104
G1 X68.770 Y112.330 E12.03626
G1 X68.130 Y111.140 E12.12158
G1 X67.740 Y109.840 E12.20728
G1 X67.610 Y108.500 E12.29229
G1 X67.610 Y69.500 E14.75497
G1 X67.740 Y68.160 E14.83998
G1 X68.130 Y66.860 E14.92569
G1 X68.770 Y65.670 E15.01101
G1 X69.545 Y64.733 E15.08777
G1 F1800.000 E14.08777
G1 Z1.000 F7800.000
G92 E0
G1 X76.732 Y71.732
G1 Z0.500
G1 F1800.000 E1.00000
G1 X123.268 Y71.732 F540.000 E3.93857
G1 X123.268 Y106.268 E6.11940
G1 X76.732 Y106.268 E9.05797
G1 X76.732 Y71.866 E11.23034
G1 X75.839 Y70.839 F7800.000
G1 X124.161 Y70.839 F540.000 E14.28165
G1 X124.161 Y107.161 E16.57522
G1 X75.839 Y107.161 E19.62653
G1 X75.839 Y70.973 E21.91164
G1 X74.946 Y69.946 F7800.000
G1 X125.054 Y69.946 F378.000 E25.07570
G1 X125.054 Y108.054 E27.48200
G1 X74.946 Y108.054 E30.64606
G1 X74.946 Y70.080 E33.04391
G1 X75.719 Y70.393 F7800.000
G1 X78.377 Y105.621
G1 X77.379 Y104.623 F1080.000 E33.13378
G1 X77.379 Y103.350 E33.21481
G1 X79.650 Y105.621 E33.41928
G1 X80.923 Y105.621 E33.50031
G1 X77.379 Y102.077 E33.81936
G1 X77.379 Y100.805 E33.90039
G1 X82.195 Y105.621 E34.33404
G1 X83.468 Y105.621 E34.41507
G1 X77.379 Y99.532 E34.96331
G1 X77.379 Y98.259 E35.04434
G1 X84.741 Y105.621 E35.70717
G1 X86.014 Y105.621 E35.78820
G1 X77.379 Y96.986 E36.56563
G1 X77.379 Y95.713 E36.64666
G1 X87.287 Y105.621 E37.53867
G1 X88.559 Y105.621 E37.61970
G1 X77.379 Y94.441 E38.62631
G1 X77.379 Y93.168 E38.70734
G1 X89.832 Y105.621 E39.82854
G1 X91.105 Y105.621 E39.90957
G1 X77.379 Y91.895 E41.14536
G1 X77.379 Y90.622 E41.22638
G1 X92.378 Y105.621 E42.57677
G1 X93.651 Y105.621 E42.65780
G1 X77.379 Y89.349 E44.12277
G1 X77.379 Y88.077 E44.20380
G1 X94.923 Y105.621 E45.78336
G1 X96.196 Y105.621 E45.86439
G1 X77.379 Y86.804 E47.55855
G1 X77.379 Y85.531 E47.63958
G1 X97.469 Y105.621 E49.44833
G1 X98.742 Y105.621 E49.52936
G1 X77.379 Y84.258 E51.45270
G1 X77.379 Y82.985 E51.53373
G1 X100.015 Y105.621 E53.57166
G1 X101.287 Y105.621 E53.65269
G1 X77.379 Y81.713 E55.80521
G1 X77.379 Y80.440 E55.88624
G1 X102.560 Y105.621 E58.15335
G1 X103.833 Y105.621 E58.23438
G1 X77.379 Y79.167 E60.61609
G1 X77.379 Y77.894 E60.69712
G1 X105.106 Y105.621 E63.19342
G1 X106.379 Y105.621 E63.27444
G1 X77.379 Y76.621 E65.88533
G1 X77.379 Y75.349 E65.96636
G1 X107.651 Y105.621 E68.69184
G1 X108.924 Y105.621 E68.77287
G1 X77.379 Y74.076 E71.61295
G1 X77.379 Y72.803 E71.69397
G1 X110.197 Y105.621 E74.64864
G1 X111.470 Y105.621 E74.72967
G1 X78.227 Y72.379 E77.72253
G1 X79.500 Y72.379 E77.80356
G1 X112.742 Y105.621 E80.79642
G1 X114.015 Y105.621 E80.87745
G1 X80.773 Y72.379 E83.87031
G1 X82.046 Y72.379 E83.95134
G1 X115.288 Y105.621 E86.94420
G1 X116.561 Y105.621 E87.02523
G1 X83.319 Y72.379 E90.01809
G1 X84.591 Y72.379 E90.09912
G1 X117.834 Y105.621 E93.09198
G1 X119.106 Y105.621 E93.17301
G1 X85.864 Y72.379 E96.16587
G1 X87.137 Y72.379 E96.24690
G1 X120.379 Y105.621 E99.23976
G1 X121.652 Y105.621 E99.32079
G1 X88.410 Y72.379 E102.31365
G1 X89.682 Y72.379 E102.39468
G1 X122.621 Y105.317 E105.36020
G1 X122.621 Y104.045 E105.44123
G1 X90.955 Y72.379 E108.29216
G1 X92.228 Y72.379 E108.37319
G1 X122.621 Y102.772 E111.10952
G1 X122.621 Y101.499 E111.19055
G1 X93.501 Y72.379 E113.81230
G1 X94.774 Y72.379 E113.89333
G1 X122.621 Y100.226 E116.40048
G1 X122.621 Y98.954 E116.48151
G1 X96.046 Y72.379 E118.87408
G1 X97.319 Y72.379 E118.95511
G1 X122.621 Y97.681 E121.23308
G1 X122.621 Y96.408 E121.31411
G1 X98.592 Y72.379 E123.47749
G1 X99.865 Y72.379 E123.55852
G1 X122.621 Y95.135 E125.60731
G1 X122.621 Y93.862 E125.68833
G1 X101.138 Y72.379 E127.62253
G1 X102.410 Y72.379 E127.70356
G1 X122.621 Y92.590 E129.52317
G1 X122.621 Y91.317 E129.60420
G1 X103.683 Y72.379 E131.30921
G1 X104.956 Y72.379 E131.39024
G1 X122.621 Y90.044 E132.98066
G1 X122.621 Y88.771 E133.06169
G1 X106.229 Y72.379 E134.53752
G1 X107.502 Y72.379 E134.61855
G1 X122.621 Y87.498 E135.97979
G1 X122.621 Y86.226 E136.06082
G1 X108.774 Y72.379 E137.30747
G1 X110.047 Y72.379 E137.38849
G1 X122.621 Y84.953 E138.52055
G1 X122.621 Y83.680 E138.60158
G1 X111.320 Y72.379 E139.61905
G1 X112.593 Y72.379 E139.70007
G1 X122.621 Y82.407 E140.60295
G1 X122.621 Y81.134 E140.68398
G1 X113.866 Y72.379 E141.47226
G1 X115.138 Y72.379 E141.55329
G1 X122.621 Y79.862 E142.22698
G1 X122.621 Y78.589 E142.30801
G1 X116.411 Y72.379 E142.86710
G1 X117.684 Y72.379 E142.94813
G1 X122.621 Y77.316 E143.39264
G1 X122.621 Y76.043 E143.47367
G1 X118.957 Y72.379 E143.80358
G1 X120.230 Y72.379 E143.88461
G1 X122.621 Y74.770 E144.09994
G1 X122.621 Y73.498 E144.18096
G1 X121.502 Y72.379 E144.28170
G1 F1800.000 E143.28170
G1 Z1.400 F7800.000
G92 E0
G1 X124.201 Y70.799
G1 Z0.900
G1 F1800.000 E1.00000
G1 X124.201 Y107.201 F1800.000 E2.07041
G1 X75.799 Y107.201 E3.49368
G1 X75.799 Y70.799 E4.56409
G1 X124.123 Y70.799 E5.98507
G1 X124.721 Y70.279 F7800.000
G1 X124.721 Y107.721 F1800.000 E7.08603
G1 X75.279 Y107.721 E8.53986
G1 X75.279 Y70.279 E9.64083
G1 X124.643 Y70.279 E11.09237
G1 X125.240 Y69.760 F7800.000
G1 X125.240 Y108.240 F1260.000 E12.22390
G1 X74.760 Y108.240 E13.70829
G1 X74.760 Y69.760 E14.83982
G1 X125.162 Y69.760 E16.32192
G1 X124.980 Y70.210 F7800.000
G1 X123.824 Y106.255
G1 X123.255 Y106.824 F3600.000 E16.34563
G1 X122.519 Y106.824 E16.36729
G1 X123.824 Y105.519 E16.42164
G1 X123.824 Y104.783 E16.44330
G1 X121.783 Y106.824 E16.52828
G1 X121.047 Y106.824 E16.54994
G1 X123.824 Y104.047 E16.66554
G1 X123.824 Y103.312 E16.68720
G1 X120.312 Y106.824 E16.83344
G1 X119.576 Y106.824 E16.85510
G1 X123.824 Y102.576 E17.03197
G1 X123.824 Y101.840 E17.05363
G1 X118.840 Y106.824 E17.26113
G1 X118.105 Y106.824 E17.28278
G1 X123.824 Y101.105 E17.52091
G1 X123.824 Y100.369 E17.54257
G1 X117.369 Y106.824 E17.81133
G1 X116.633 Y106.824 E17.83299
G1 X123.824 Y99.633 E18.13238
G1 X123.824 Y98.897 E18.15404
G1 X115.897 Y106.824 E18.48406
G1 X115.162 Y106.824 E18.50572
G1 X123.824 Y98.162 E18.86637
G1 X123.824 Y97.426 E18.88803
G1 X114.426 Y106.824 E19.27931
G1 X113.690 Y106.824 E19.30097
G1 X123.824 Y96.690 E19.72288
G1 X123.824 Y95.955 E19.74454
G1 X112.955 Y106.824 E20.19708
G1 X112.219 Y106.824 E20.21874
G1 X123.824 Y95.219 E20.70191
G1 X123.824 Y94.483 E20.72357
G1 X111.483 Y106.824 E21.23737
G1 X110.747 Y106.824 E21.25903
G1 X123.824 Y93.747 E21.80346
G1 X123.824 Y93.012 E21.82512
G1 X110.012 Y106.824 E22.40019
G1 X109.276 Y106.824 E22.42184
G1 X123.824 Y92.276 E23.02754
G1 X123.824 Y91.540 E23.04920
G1 X108.540 Y106.824 E23.68552
G1 X107.805 Y106.824 E23.70718
G1 X123.824 Y90.805 E24.37413
G1 X123.824 Y90.069 E24.39579
G1 X107.069 Y106.824 E25.09338
G1 X106.333 Y106.824 E25.11504
G1 X123.824 Y89.333 E25.84325
G1 X123.824 Y88.597 E25.86491
G1 X105.597 Y106.824 E26.62375
G1 X104.862 Y106.824 E26.64541
G1 X123.824 Y87.862 E27.43489
G1 X123.824 Y87.126 E27.45655
G1 X104.126 Y106.824 E28.27665
G1 X103.390 Y106.824 E28.29831
G1 X123.824 Y86.390 E29.14905
G1 X123.824 Y85.654 E29.17071
G1 X102.654 Y106.824 E30.05207
G1 X101.919 Y106.824 E30.07373
G1 X123.824 Y84.919 E30.98573
G1 X123.824 Y84.183 E31.00739
G1 X101.183 Y106.824 E31.95002
G1 X100.447 Y106.824 E31.97168
G1 X123.824 Y83.447 E32.94493
G1 X123.824 Y82.712 E32.96659
G1 X99.712 Y106.824 E33.97048
G1 X98.976 Y106.824 E33.99214
G1 X123.824 Y81.976 E35.02666
G1 X123.824 Y81.240 E35.04832
G1 X98.240 Y106.824 E36.11346
G1 X97.504 Y106.824 E36.13512
G1 X123.824 Y80.504 E37.23090
G1 X123.824 Y79.769 E37.25256
G1 X96.769 Y106.824 E38.37897
G1 X96.033 Y106.824 E38.40063
G1 X123.824 Y79.033 E39.55767
G1 X123.824 Y78.297 E39.57933
G1 X95.297 Y106.824 E40.76700
G1 X94.562 Y106.824 E40.78866
G1 X123.824 Y77.562 E42.00696
G1 X123.824 Y76.826 E42.02862
G1 X93.826 Y106.824 E43.27755
G1 X93.090 Y106.824 E43.29921
G1 X123.824 Y76.090 E44.57877
G1 X123.824 Y75.354 E44.60043
G1 X92.354 Y106.824 E45.91062
G1 X91.619 Y106.824 E45.93228
G1 X123.824 Y74.619 E47.27310
G1 X123.824 Y73.883 E47.29476
G1 X90.883 Y106.824 E48.66621
G1 X90.147 Y106.824 E48.68787
G1 X123.824 Y73.147 E50.08995
G1 X123.824 Y72.412 E50.11161
G1 X89.412 Y106.824 E51.54432
G1 X88.676 Y106.824 E51.56598
G1 X123.824 Y71.676 E53.02932
G1 X123.589 Y71.176 E53.04560
G1 X87.940 Y106.824 E54.52976
G1 X87.204 Y106.824 E54.55142
G1 X122.853 Y71.176 E56.03559
G1 X122.117 Y71.176 E56.05725
G1 X86.469 Y106.824 E57.54141
G1 X85.733 Y106.824 E57.56307
G1 X121.382 Y71.176 E59.04724
G1 X120.646 Y71.176 E59.06889
G1 X84.997 Y106.824 E60.55306
G1 X84.262 Y106.824 E60.57472
G1 X119.910 Y71.176 E62.05888
G1 X119.174 Y71.176 E62.08054
G1 X83.526 Y106.824 E63.56471
G1 X82.790 Y106.824 E63.58637
G1 X118.439 Y71.176 E65.07053
G1 X117.703 Y71.176 E65.09219
G1 X82.054 Y106.824 E66.57636
G1 X81.319 Y106.824 E66.59801
G1 X116.967 Y71.176 E68.08218
G1 X116.232 Y71.176 E68.10384
G1 X80.583 Y106.824 E69.58800
G1 X79.847 Y106.824 E69.60966
G1 X115.496 Y71.176 E71.09383
G1 X114.760 Y71.176 E71.11549
G1 X79.111 Y106.824 E72.59965
G1 X78.376 Y106.824 E72.62131
G1 X114.024 Y71.176 E74.10548
G1 X113.289 Y71.176 E74.12713
G1 X77.640 Y106.824 E75.61130
G1 X76.904 Y106.824 E75.63296
G1 X112.553 Y71.176 E77.11712
G1 X111.817 Y71.176 E77.13878
G1 X76.176 Y106.817 E78.62265
G1 X76.176 Y106.081 E78.64431
G1 X111.081 Y71.176 E80.09755
G1 X110.346 Y71.176 E80.11921
G1 X76.176 Y105.346 E81.54182
G1 X76.176 Y104.610 E81.56348
G1 X109.610 Y71.176 E82.95546
G1 X108.874 Y71.176 E82.97711
G1 X76.176 Y103.874 E84.33846
G1 X76.176 Y103.139 E84.36012
G1 X108.139 Y71.176 E85.69084
G1 X107.403 Y71.176 E85.71250
G1 X76.176 Y102.403 E87.01259
G1 X76.176 Y101.667 E87.03424
G1 X106.667 Y71.176 E88.30370
G1 X105.931 Y71.176 E88.32536
G1 X76.176 Y100.931 E89.56419
G1 X76.176 Y100.196 E89.58585
G1 X105.196 Y71.176 E90.79404
G1 X104.460 Y71.176 E90.81570
G1 X76.176 Y99.460 E91.99327
G1 X76.176 Y98.724 E92.01493
G1 X103.724 Y71.176 E93.16186
G1 X102.989 Y71.176 E93.18352
G1 X76.176 Y97.989 E94.29983
G1 X76.176 Y97.253 E94.32149
G1 X102.253 Y71.176 E95.40716
G1 X101.517 Y71.176 E95.42882
G1 X76.176 Y96.517 E96.48386
G1 X76.176 Y95.781 E96.50552
G1 X100.781 Y71.176 E97.52994
G1 X100.046 Y71.176 E97.55160
G1 X76.176 Y95.046 E98.54538
G1 X76.176 Y94.310 E98.56704
G1 X99.310 Y71.176 E99.53019
G1 X98.574 Y71.176 E99.55185
G1 X76.176 Y93.574 E100.48437
G1 X76.176 Y92.839 E100.50603
G1 X97.839 Y71.176 E101.40793
G1 X97.103 Y71.176 E101.42958
G1 X76.176 Y92.103 E102.30085
G1 X76.176 Y91.367 E102.32251
G1 X96.367 Y71.176 E103.16314
G1 X95.631 Y71.176 E103.18480
G1 X76.176 Y90.631 E103.99480
G1 X76.176 Y89.896 E104.01646
G1 X94.896 Y71.176 E104.79583
G1 X94.160 Y71.176 E104.81749
G1 X76.176 Y89.160 E105.56623
G1 X76.176 Y88.424 E105.58789
G1 X93.424 Y71.176 E106.30600
G1 X92.688 Y71.176 E106.32766
G1 X76.176 Y87.688 E107.01514
G1 X76.176 Y86.953 E107.03680
G1 X91.953 Y71.176 E107.69365
G1 X91.217 Y71.176 E107.71531
G1 X76.176 Y86.217 E108.34153
G1 X76.176 Y85.481 E108.36318
G1 X90.481 Y71.176 E108.95877
G1 X89.746 Y71.176 E108.98043
G1 X76.176 Y84.746 E109.54539
G1 X76.176 Y84.010 E109.56705
G1 X89.010 Y71.176 E110.10138
G1 X88.274 Y71.176 E110.12304
G1 X76.176 Y83.274 E110.62674
G1 X76.176 Y82.538 E110.64840
G1 X87.538 Y71.176 E111.12146
G1 X86.803 Y71.176 E111.14312
G1 X76.176 Y81.803 E111.58556
G1 X76.176 Y81.067 E111.60722
G1 X86.067 Y71.176 E112.01903
G1 X85.331 Y71.176 E112.04068
G1 X76.176 Y80.331 E112.42186
G1 X76.176 Y79.596 E112.44352
G1 X84.596 Y71.176 E112.79407
G1 X83.860 Y71.176 E112.81573
G1 X76.176 Y78.860 E113.13564
G1 X76.176 Y78.124 E113.15730
G1 X83.124 Y71.176 E113.44659
G1 X82.388 Y71.176 E113.46825
G1 X76.176 Y77.388 E113.72690
G1 X76.176 Y76.653 E113.74856
G1 X81.653 Y71.176 E113.97658
G1 X80.917 Y71.176 E113.99824
G1 X76.176 Y75.917 E114.19564
G1 X76.176 Y75.181 E114.21730
G1 X80.181 Y71.176 E114.38406
G1 X79.446 Y71.176 E114.40572
G1 X76.176 Y74.446 E114.54185
G1 X76.176 Y73.710 E114.56351
G1 X78.710 Y71.176 E114.66902
G1 X77.974 Y71.176 E114.69068
G1 X76.176 Y72.974 E114.76555
G1 X76.176 Y72.238 E114.78721
G1 X77.238 Y71.176 E114.83145
G1 X76.503 Y71.176 E114.85311
G1 X76.176 Y71.503 E114.86672
G1 F1800.000 E113.86672
G1 Z1.800 F7800.000
G92 E0
G1 X75.799 Y70.799
G1 Z1.300
G1 F1800.000 E1.00000
G1 X124.201 Y70.799 F1800.000 E2.42327
G1 X124.201 Y107.201 E3.49368
G1 X75.799 Y107.201 E4.91695
G1 X75.799 Y70.877 E5.98507
G1 X75.279 Y70.279 F7800.000
G1 X124.721 Y70.279 F1800.000 E7.43890
G1 X124.721 Y107.721 E8.53986
G1 X75.279 Y107.721 E9.99370
G1 X75.279 Y70.357 E11.09237
G1 X74.760 Y69.760 F7800.000
G1 X125.240 Y69.760 F1260.000 E12.57676
G1 X125.240 Y108.240 E13.70829
G1 X74.760 Y108.240 E15.19268
G1 X74.760 Y69.838 E16.32192
G1 X75.210 Y70.020 F7800.000
G1 X76.534 Y106.824
G1 X76.176 Y106.466 F3600.000 E16.33685
G1 X76.176 Y105.730 E16.35851
G1 X77.270 Y106.824 E16.40407
G1 X78.006 Y106.824 E16.42573
G1 X76.176 Y104.994 E16.50193
G1 X76.176 Y104.258 E16.52359
G1 X78.742 Y106.824 E16.63041
G1 X79.477 Y106.824 E16.65207
G1 X76.176 Y103.523 E16.78952
G1 X76.176 Y102.787 E16.81118
G1 X80.213 Y106.824 E16.97927
G1 X80.949 Y106.824 E17.00093
G1 X76.176 Y102.051 E17.19964
G1 X76.176 Y101.316 E17.22130
G1 X81.684 Y106.824 E17.45065
G1 X82.420 Y106.824 E17.47231
G1 X76.176 Y100.580 E17.73228
G1 X76.176 Y99.844 E17.75394
G1 X83.156 Y106.824 E18.04455
G1 X83.892 Y106.824 E18.06621
G1 X76.176 Y99.108 E18.38744
G1 X76.176 Y98.373 E18.40910
G1 X84.627 Y106.824 E18.76097
G1 X85.363 Y106.824 E18.78263
G1 X76.176 Y97.637 E19.16513
G1 X76.176 Y96.901 E19.18679
G1 X86.099 Y106.824 E19.59991
G1 X86.834 Y106.824 E19.62157
G1 X76.176 Y96.166 E20.06533
G1 X76.176 Y95.430 E20.08699
G1 X87.570 Y106.824 E20.56138
G1 X88.306 Y106.824 E20.58304
G1 X76.176 Y94.694 E21.08806
G1 X76.176 Y93.958 E21.10972
G1 X89.042 Y106.824 E21.64537
G1 X89.777 Y106.824 E21.66702
G1 X76.176 Y93.223 E22.23330
G1 X76.176 Y92.487 E22.25496
G1 X90.513 Y106.824 E22.85187
G1 X91.249 Y106.824 E22.87353
G1 X76.176 Y91.751 E23.50107
G1 X76.176 Y91.015 E23.52273
G1 X91.984 Y106.824 E24.18090
G1 X92.720 Y106.824 E24.20256
G1 X76.176 Y90.280 E24.89136
G1 X76.176 Y89.544 E24.91302
G1 X93.456 Y106.824 E25.63245
G1 X94.192 Y106.824 E25.65411
G1 X76.176 Y88.808 E26.40417
G1 X76.176 Y88.073 E26.42583
G1 X94.927 Y106.824 E27.20653
G1 X95.663 Y106.824 E27.22818
G1 X76.176 Y87.337 E28.03951
G1 X76.176 Y86.601 E28.06117
G1 X96.399 Y106.824 E28.90312
G1 X97.135 Y106.824 E28.92478
G1 X76.176 Y85.865 E29.79736
G1 X76.176 Y85.130 E29.81902
G1 X97.870 Y106.824 E30.72223
G1 X98.606 Y106.824 E30.74389
