; generated by Slic3r 0.9.9 on 2013-06-13 at 18:15:45

; layer_height = 0.4
; perimeters = 3
; top_solid_layers = 3
; bottom_solid_layers = 3
; fill_density = 0.4
; perimeter_speed = 30
; infill_speed = 60
; travel_speed = 130
; nozzle_diameter = 0.5
; filament_diameter = 3
; extrusion_multiplier = 1
; perimeters extrusion width = 0.53mm
; infill extrusion width = 0.53mm
; solid infill extrusion width = 0.53mm
; top infill extrusion width = 0.53mm
; first layer extrusion width = 1.00mm

G21 ; set units to millimeters
M107
M190 S60 ; wait for bed temperature to be reached
M104 S180 ; set temperature
G28 ; home all axes
G1 Z5 F5000 ; lift nozzle

M109 S180 ; wait for temperature to be reached
G90 ; use absolute coordinates
G92 E0
M82 ; use absolute distances for extrusion
G1 F1800.000 E-1.00000
G1 Z1.000
G92 E0
G1 X69.440 Y64.820 F7800.000
G1 Z0.500
G1 F1800.000 E1.00000
G1 X70.020 Y64.260 F540.000 E1.05091
G1 X70.450 Y63.920 E1.08552
G1 X70.900 Y63.620 E1.11968
G1 X71.610 Y63.240 E1.17053
G1 X72.370 Y62.940 E1.22212
G1 X72.890 Y62.800 E1.25613
G1 X73.420 Y62.690 E1.29031
G1 X74.230 Y62.610 E1.34170
G1 X125.770 Y62.610 E4.59622
G1 X126.580 Y62.690 E4.64762
G1 X126.840 Y62.740 E4.66434
G1 X127.630 Y62.940 E4.71580
G1 X127.890 Y63.030 E4.73317
G1 X128.390 Y63.240 E4.76742
G1 X128.870 Y63.490 E4.80159
G1 X129.330 Y63.770 E4.83560
G1 X129.770 Y64.090 E4.86995
G1 X130.180 Y64.440 E4.90399
G1 X130.740 Y65.020 E4.95490
G1 X131.080 Y65.450 E4.98952
G1 X131.230 Y65.670 E5.00633
G1 X131.380 Y65.900 E5.02367
G1 X131.640 Y66.370 E5.05759
G1 X131.970 Y67.110 E5.10875
G1 X132.060 Y67.370 E5.12612
G1 X132.200 Y67.890 E5.16013
G1 X132.310 Y68.420 E5.19431
G1 X132.390 Y69.230 E5.24570
G1 X132.390 Y108.770 E7.74248
G1 X132.310 Y109.580 E7.79388
G1 X132.260 Y109.840 E7.81059
G1 X132.060 Y110.630 E7.86205
G1 X131.970 Y110.890 E7.87943
G1 X131.760 Y111.390 E7.91367
G1 X131.510 Y111.870 E7.94785
G1 X131.230 Y112.330 E7.98185
G1 X130.910 Y112.770 E8.01621
G1 X130.560 Y113.180 E8.05025
G1 X129.980 Y113.740 E8.10116
G1 X129.550 Y114.080 E8.13577
G1 X129.330 Y114.230 E8.15258
G1 X129.100 Y114.380 E8.16992
G1 X128.630 Y114.640 E8.20384
G1 X127.890 Y114.970 E8.25500
G1 X127.630 Y115.060 E8.27238
G1 X127.110 Y115.200 E8.30638
G1 X126.580 Y115.310 E8.34056
G1 X125.770 Y115.390 E8.39196
G1 X74.230 Y115.390 E11.64648
G1 X73.420 Y115.310 E11.69788
G1 X73.160 Y115.260 E11.71460
G1 X72.370 Y115.060 E11.76605
G1 X72.110 Y114.970 E11.78343
G1 X71.610 Y114.760 E11.81767
G1 X71.130 Y114.510 E11.85185
G1 X70.670 Y114.230 E11.88585
G1 X70.230 Y113.910 E11.92021
G1 X69.820 Y113.560 E11.95425
G1 X69.260 Y112.980 E12.00516
G1 X68.920 Y112.550 E12.03977
G1 X68.770 Y112.330 E12.05659
G1 X68.620 Y112.100 E12.07392
G1 X68.360 Y111.630 E12.10784
G1 X68.030 Y110.890 E12.15900
G1 X67.940 Y110.630 E12.17638
G1 X67.800 Y110.110 E12.21038
G1 X67.690 Y109.580 E12.24456
G1 X67.610 Y108.770 E12.29596
G1 X67.610 Y69.230 E14.79274
G1 X67.690 Y68.420 E14.84413
G1 X67.740 Y68.160 E14.86085
G1 X67.940 Y67.370 E14.91231
G1 X68.130 Y66.860 E14.94668
G1 X68.360 Y66.370 E14.98086
G1 X68.620 Y65.900 E15.01477
G1 X68.920 Y65.450 E15.04892
G1 X69.350 Y64.920 E15.09206
G1 F1800.000 E14.09206
G1 Z1.000
G92 E0
G1 X76.732 Y71.732 F7800.000
G1 Z0.500
G1 F1800.000 E1.00000
G1 X123.268 Y71.732 F540.000 E3.93857
G1 X123.268 Y106.268 E6.11940
G1 X76.732 Y106.268 E9.05797
G1 X76.732 Y71.866 E11.23034
G1 X75.839 Y70.839 F7800.000
G1 X124.161 Y70.839 F540.000 E14.28165
G1 X124.161 Y107.161 E16.57522
G1 X75.839 Y107.161 E19.62653
G1 X75.839 Y70.973 E21.91164
G1 X74.946 Y69.946 F7800.000
G1 X125.054 Y69.946 F378.000 E25.07570
G1 X125.054 Y108.054 E27.48200
G1 X74.946 Y108.054 E30.64606
G1 X74.946 Y70.080 E33.04391
G1 X75.719 Y70.393 F7800.000
G1 X77.379 Y105.621
G1 X77.379 Y104.355 F1080.000 E33.12407
G1 X78.645 Y105.621 E33.23744
G1 X79.911 Y105.621 E33.31759
G1 X77.379 Y103.089 E33.54430
G1 X77.379 Y101.823 E33.62445
G1 X81.177 Y105.621 E33.96452
G1 X82.443 Y105.621 E34.04467
G1 X77.379 Y100.557 E34.49809
G1 X77.379 Y99.292 E34.57824
G1 X83.708 Y105.621 E35.14500
G1 X84.974 Y105.621 E35.22515
G1 X77.379 Y98.026 E35.90527
G1 X77.379 Y96.760 E35.98542
G1 X86.240 Y105.621 E36.77888
G1 X87.506 Y105.621 E36.85903
G1 X77.379 Y95.494 E37.76584
G1 X77.379 Y94.228 E37.84599
G1 X88.772 Y105.621 E38.86616
G1 X90.038 Y105.621 E38.94631
G1 X77.379 Y92.962 E40.07982
G1 X77.379 Y91.696 E40.15997
G1 X91.304 Y105.621 E41.40683
G1 X92.570 Y105.621 E41.48698
G1 X77.379 Y90.430 E42.84719
G1 X77.379 Y89.165 E42.92734
G1 X93.835 Y105.621 E44.40090
G1 X95.101 Y105.621 E44.48105
G1 X77.379 Y87.899 E46.06797
G1 X77.379 Y86.633 E46.14812
G1 X96.367 Y105.621 E47.84837
G1 X97.633 Y105.621 E47.92853
G1 X77.379 Y85.367 E49.74213
G1 X77.379 Y84.101 E49.82228
G1 X98.899 Y105.621 E51.74924
G1 X100.165 Y105.621 E51.82939
G1 X77.379 Y82.835 E53.86970
G1 X77.379 Y81.569 E53.94985
G1 X101.431 Y105.621 E56.10351
G1 X102.697 Y105.621 E56.18366
G1 X77.379 Y80.303 E58.45067
G1 X77.379 Y79.038 E58.53082
G1 X103.962 Y105.621 E60.91117
G1 X105.228 Y105.621 E60.99132
G1 X77.379 Y77.772 E63.48503
G1 X77.379 Y76.506 E63.56518
G1 X106.494 Y105.621 E66.17223
G1 X107.760 Y105.621 E66.25238
G1 X77.379 Y75.240 E68.97279
G1 X77.379 Y73.974 E69.05294
G1 X109.026 Y105.621 E71.88669
G1 X110.292 Y105.621 E71.96684
G1 X77.379 Y72.708 E74.91395
G1 X78.315 Y72.379 E74.97680
G1 X111.558 Y105.621 E77.95340
G1 X112.824 Y105.621 E78.03355
G1 X79.581 Y72.379 E81.01015
G1 X80.847 Y72.379 E81.09030
G1 X114.089 Y105.621 E84.06689
G1 X115.355 Y105.621 E84.14704
G1 X82.113 Y72.379 E87.12364
G1 X83.379 Y72.379 E87.20379
G1 X116.621 Y105.621 E90.18039
G1 X117.887 Y105.621 E90.26054
G1 X84.645 Y72.379 E93.23713
G1 X85.911 Y72.379 E93.31728
G1 X119.153 Y105.621 E96.29388
G1 X120.419 Y105.621 E96.37403
G1 X87.176 Y72.379 E99.35063
G1 X88.442 Y72.379 E99.43078
G1 X121.685 Y105.621 E102.40737
G1 X122.621 Y105.292 E102.47023
G1 X89.708 Y72.379 E105.41733
G1 X90.974 Y72.379 E105.49748
G1 X122.621 Y104.026 E108.33124
G1 X122.621 Y102.760 E108.41139
G1 X92.240 Y72.379 E111.13179
G1 X93.506 Y72.379 E111.21194
G1 X122.621 Y101.494 E113.81899
G1 X122.621 Y100.228 E113.89914
G1 X94.772 Y72.379 E116.39285
G1 X96.038 Y72.379 E116.47300
G1 X122.621 Y98.962 E118.85336
G1 X122.621 Y97.697 E118.93351
G1 X97.303 Y72.379 E121.20051
G1 X98.569 Y72.379 E121.28066
G1 X122.621 Y96.431 E123.43432
G1 X122.621 Y95.165 E123.51447
G1 X99.835 Y72.379 E125.55478
G1 X101.101 Y72.379 E125.63493
G1 X122.621 Y93.899 E127.56188
G1 X122.621 Y92.633 E127.64203
G1 X102.367 Y72.379 E129.45564
G1 X103.633 Y72.379 E129.53579
G1 X122.621 Y91.367 E131.23605
G1 X122.621 Y90.101 E131.31620
G1 X104.899 Y72.379 E132.90311
G1 X106.165 Y72.379 E132.98326
G1 X122.621 Y88.835 E134.45682
G1 X122.621 Y87.570 E134.53697
G1 X107.430 Y72.379 E135.89718
G1 X108.696 Y72.379 E135.97733
G1 X122.621 Y86.304 E137.22419
G1 X122.621 Y85.038 E137.30435
G1 X109.962 Y72.379 E138.43786
G1 X111.228 Y72.379 E138.51801
G1 X122.621 Y83.772 E139.53817
G1 X122.621 Y82.506 E139.61832
G1 X112.494 Y72.379 E140.52513
G1 X113.760 Y72.379 E140.60528
G1 X122.621 Y81.240 E141.39875
G1 X122.621 Y79.974 E141.47890
G1 X115.026 Y72.379 E142.15901
G1 X116.292 Y72.379 E142.23916
G1 X122.621 Y78.708 E142.80592
G1 X122.621 Y77.443 E142.88607
G1 X117.557 Y72.379 E143.33949
G1 X118.823 Y72.379 E143.41964
G1 X122.621 Y76.177 E143.75971
G1 X122.621 Y74.911 E143.83986
G1 X120.089 Y72.379 E144.06657
G1 X121.355 Y72.379 E144.14672
G1 X122.621 Y73.645 E144.26009
G1 X122.621 Y72.379 E144.34025
G1 F1800.000 E143.34025
G1 Z1.400
G92 E0
G1 X124.201 Y70.799 F7800.000
G1 Z0.900
G1 F1800.000 E1.00000
G1 X124.201 Y107.201 F1800.000 E2.07041
G1 X75.799 Y107.201 E3.49368
G1 X75.799 Y70.799 E4.56409
G1 X124.123 Y70.799 E5.98507
G1 X124.721 Y70.279 F7800.000
G1 X124.721 Y107.721 F1800.000 E7.08603
G1 X75.279 Y107.721 E8.53986
G1 X75.279 Y70.279 E9.64083
G1 X124.643 Y70.279 E11.09237
G1 X125.240 Y69.760 F7800.000
G1 X125.240 Y108.240 F1260.000 E12.22390
G1 X74.760 Y108.240 E13.70829
G1 X74.760 Y69.760 E14.83982
G1 X125.162 Y69.760 E16.32192
G1 X124.980 Y70.210 F7800.000
G1 X123.824 Y106.824
G1 X123.087 Y106.824 F3600.000 E16.34367
G1 X123.824 Y106.087 E16.37442
G1 X123.824 Y105.350 E16.39617
G1 X122.350 Y106.824 E16.45767
G1 X121.613 Y106.824 E16.47942
G1 X123.824 Y104.613 E16.57167
G1 X123.824 Y103.876 E16.59341
G1 X120.876 Y106.824 E16.71642
G1 X120.138 Y106.824 E16.73816
G1 X123.824 Y103.138 E16.89191
G1 X123.824 Y102.401 E16.91365
G1 X119.401 Y106.824 E17.09816
G1 X118.664 Y106.824 E17.11990
G1 X123.824 Y101.664 E17.33515
G1 X123.824 Y100.927 E17.35689
G1 X117.927 Y106.824 E17.60289
G1 X117.190 Y106.824 E17.62463
G1 X123.824 Y100.190 E17.90138
G1 X123.824 Y99.453 E17.92312
G1 X116.453 Y106.824 E18.23062
G1 X115.716 Y106.824 E18.25236
G1 X123.824 Y98.716 E18.59061
G1 X123.824 Y97.978 E18.61235
G1 X114.978 Y106.824 E18.98135
G1 X114.241 Y106.824 E19.00309
G1 X123.824 Y97.241 E19.40283
G1 X123.824 Y96.504 E19.42458
G1 X113.504 Y106.824 E19.85507
G1 X112.767 Y106.824 E19.87681
G1 X123.824 Y95.767 E20.33805
G1 X123.824 Y95.030 E20.35979
G1 X112.030 Y106.824 E20.85178
G1 X111.293 Y106.824 E20.87353
G1 X123.824 Y94.293 E21.39627
G1 X123.824 Y93.556 E21.41801
G1 X110.556 Y106.824 E21.97150
G1 X109.818 Y106.824 E21.99324
G1 X123.824 Y92.818 E22.57748
G1 X123.824 Y92.081 E22.59922
G1 X109.081 Y106.824 E23.21420
G1 X108.344 Y106.824 E23.23595
G1 X123.824 Y91.344 E23.88168
G1 X123.824 Y90.607 E23.90342
G1 X107.607 Y106.824 E24.57991
G1 X106.870 Y106.824 E24.60165
G1 X123.824 Y89.870 E25.30888
G1 X123.824 Y89.133 E25.33062
G1 X106.133 Y106.824 E26.06860
G1 X105.396 Y106.824 E26.09035
G1 X123.824 Y88.396 E26.85908
G1 X123.824 Y87.658 E26.88082
G1 X104.658 Y106.824 E27.68030
G1 X103.921 Y106.824 E27.70204
G1 X123.824 Y86.921 E28.53227
G1 X123.824 Y86.184 E28.55401
G1 X103.184 Y106.824 E29.41499
G1 X102.447 Y106.824 E29.43673
G1 X123.824 Y85.447 E30.32845
G1 X123.824 Y84.710 E30.35020
G1 X101.710 Y106.824 E31.27267
G1 X100.973 Y106.824 E31.29441
G1 X123.824 Y83.973 E32.24764
G1 X123.824 Y83.236 E32.26938
G1 X100.236 Y106.824 E33.25335
G1 X99.498 Y106.824 E33.27509
G1 X123.824 Y82.498 E34.28981
G1 X123.824 Y81.761 E34.31156
G1 X98.761 Y106.824 E35.35703
G1 X98.024 Y106.824 E35.37877
G1 X123.824 Y81.024 E36.45499
G1 X123.824 Y80.287 E36.47673
G1 X97.287 Y106.824 E37.58370
G1 X96.550 Y106.824 E37.60544
G1 X123.824 Y79.550 E38.74315
G1 X123.824 Y78.813 E38.76490
G1 X95.813 Y106.824 E39.93336
G1 X95.076 Y106.824 E39.95510
G1 X123.824 Y78.076 E41.15432
G1 X123.824 Y77.338 E41.17606
G1 X94.338 Y106.824 E42.40602
G1 X93.601 Y106.824 E42.42777
G1 X123.824 Y76.601 E43.68848
G1 X123.824 Y75.864 E43.71022
G1 X92.864 Y106.824 E45.00168
G1 X92.127 Y106.824 E45.02342
G1 X123.824 Y75.127 E46.34563
G1 X123.824 Y74.390 E46.36737
G1 X91.390 Y106.824 E47.72033
G1 X90.653 Y106.824 E47.74207
G1 X123.824 Y73.653 E49.12578
G1 X123.824 Y72.916 E49.14752
G1 X89.916 Y106.824 E50.56198
G1 X89.178 Y106.824 E50.58372
G1 X123.824 Y72.178 E52.02893
G1 X123.824 Y71.441 E52.05067
G1 X88.441 Y106.824 E53.52662
G1 X87.704 Y106.824 E53.54836
G1 X123.353 Y71.176 E55.03540
G1 X122.616 Y71.176 E55.05714
G1 X86.967 Y106.824 E56.54417
G1 X86.230 Y106.824 E56.56592
G1 X121.878 Y71.176 E58.05295
G1 X121.141 Y71.176 E58.07469
G1 X85.493 Y106.824 E59.56173
G1 X84.756 Y106.824 E59.58347
G1 X120.404 Y71.176 E61.07050
G1 X119.667 Y71.176 E61.09224
G1 X84.018 Y106.824 E62.57928
G1 X83.281 Y106.824 E62.60102
G1 X118.930 Y71.176 E64.08805
G1 X118.193 Y71.176 E64.10980
G1 X82.544 Y106.824 E65.59683
G1 X81.807 Y106.824 E65.61857
G1 X117.456 Y71.176 E67.10561
G1 X116.719 Y71.176 E67.12735
G1 X81.070 Y106.824 E68.61438
G1 X80.333 Y106.824 E68.63612
G1 X115.981 Y71.176 E70.12316
G1 X115.244 Y71.176 E70.14490
G1 X79.596 Y106.824 E71.63193
G1 X78.858 Y106.824 E71.65368
G1 X114.507 Y71.176 E73.14071
G1 X113.770 Y71.176 E73.16245
G1 X78.121 Y106.824 E74.64949
G1 X77.384 Y106.824 E74.67123
G1 X113.033 Y71.176 E76.15826
G1 X112.296 Y71.176 E76.18000
G1 X76.647 Y106.824 E77.66704
G1 X76.176 Y106.559 E77.68300
G1 X111.559 Y71.176 E79.15895
G1 X110.821 Y71.176 E79.18069
G1 X76.176 Y105.821 E80.62589
G1 X76.176 Y105.084 E80.64763
G1 X110.084 Y71.176 E82.06208
G1 X109.347 Y71.176 E82.08382
G1 X76.176 Y104.347 E83.46752
G1 X76.176 Y103.610 E83.48926
G1 X108.610 Y71.176 E84.84222
G1 X107.873 Y71.176 E84.86396
G1 X76.176 Y102.873 E86.18616
G1 X76.176 Y102.136 E86.20790
G1 X107.136 Y71.176 E87.49936
G1 X106.399 Y71.176 E87.52110
G1 X76.176 Y101.399 E88.78180
G1 X76.176 Y100.661 E88.80355
G1 X105.661 Y71.176 E90.03350
G1 X104.924 Y71.176 E90.05525
G1 X76.176 Y99.924 E91.25445
G1 X76.176 Y99.187 E91.27620
G1 X104.187 Y71.176 E92.44465
G1 X103.450 Y71.176 E92.46640
G1 X76.176 Y98.450 E93.60411
G1 X76.176 Y97.713 E93.62585
G1 X102.713 Y71.176 E94.73281
G1 X101.976 Y71.176 E94.75455
G1 X76.176 Y96.976 E95.83076
G1 X76.176 Y96.239 E95.85251
G1 X101.239 Y71.176 E96.89797
G1 X100.501 Y71.176 E96.91971
G1 X76.176 Y95.501 E97.93443
G1 X76.176 Y94.764 E97.95617
G1 X99.764 Y71.176 E98.94013
G1 X99.027 Y71.176 E98.96188
G1 X76.176 Y94.027 E99.91509
G1 X76.176 Y93.290 E99.93684
G1 X98.290 Y71.176 E100.85930
G1 X97.553 Y71.176 E100.88105
G1 X76.176 Y92.553 E101.77277
G1 X76.176 Y91.816 E101.79451
G1 X96.816 Y71.176 E102.65548
G1 X96.079 Y71.176 E102.67722
G1 X76.176 Y91.079 E103.50744
G1 X76.176 Y90.341 E103.52918
G1 X95.341 Y71.176 E104.32866
G1 X94.604 Y71.176 E104.35040
G1 X76.176 Y89.604 E105.11912
G1 X76.176 Y88.867 E105.14087
G1 X93.867 Y71.176 E105.87884
G1 X93.130 Y71.176 E105.90058
G1 X76.176 Y88.130 E106.60781
G1 X76.176 Y87.393 E106.62955
G1 X92.393 Y71.176 E107.30603
G1 X91.656 Y71.176 E107.32777
G1 X76.176 Y86.656 E107.97350
G1 X76.176 Y85.919 E107.99524
G1 X90.919 Y71.176 E108.61022
G1 X90.181 Y71.176 E108.63196
G1 X76.176 Y85.181 E109.21619
G1 X76.176 Y84.444 E109.23794
G1 X89.444 Y71.176 E109.79142
G1 X88.707 Y71.176 E109.81316
G1 X76.176 Y83.707 E110.33589
G1 X76.176 Y82.970 E110.35763
G1 X87.970 Y71.176 E110.84962
G1 X87.233 Y71.176 E110.87136
G1 X76.176 Y82.233 E111.33260
G1 X76.176 Y81.496 E111.35434
G1 X86.496 Y71.176 E111.78482
G1 X85.759 Y71.176 E111.80657
G1 X76.176 Y80.759 E112.20630
G1 X76.176 Y80.021 E112.22805
G1 X85.021 Y71.176 E112.59704
G1 X84.284 Y71.176 E112.61878
G1 X76.176 Y79.284 E112.95702
G1 X76.176 Y78.547 E112.97876
G1 X83.547 Y71.176 E113.28625
G1 X82.810 Y71.176 E113.30799
G1 X76.176 Y77.810 E113.58474
G1 X76.176 Y77.073 E113.60648
G1 X82.073 Y71.176 E113.85247
G1 X81.336 Y71.176 E113.87421
G1 X76.176 Y76.336 E114.08946
G1 X76.176 Y75.599 E114.11120
G1 X80.599 Y71.176 E114.29570
G1 X79.861 Y71.176 E114.31744
G1 X76.176 Y74.861 E114.47118
G1 X76.176 Y74.124 E114.49293
G1 X79.124 Y71.176 E114.61592
G1 X78.387 Y71.176 E114.63767
G1 X76.176 Y73.387 E114.72992
G1 X76.176 Y72.650 E114.75166
G1 X77.650 Y71.176 E114.81316
G1 X76.913 Y71.176 E114.83490
G1 X76.176 Y71.913 E114.86565
G1 F1800.000 E113.86565
G1 Z1.800
G92 E0
G1 X75.799 Y70.799 F7800.000
G1 Z1.300
G1 F1800.000 E1.00000
G1 X124.201 Y70.799 F1800.000 E2.42327
G1 X124.201 Y107.201 E3.49368
G1 X75.799 Y107.201 E4.91695
G1 X75.799 Y70.877 E5.98507
G1 X75.279 Y70.279 F7800.000
G1 X124.721 Y70.279 F1800.000 E7.43890
G1 X124.721 Y107.721 E8.53986
G1 X75.279 Y107.721 E9.99370
G1 X75.279 Y70.357 E11.09237
G1 X74.760 Y69.760 F7800.000
G1 X125.240 Y69.760 F1260.000 E12.57676
G1 X125.240 Y108.240 E13.70829
G1 X74.760 Y108.240 E15.19268
G1 X74.760 Y69.838 E16.32192
G1 X75.210 Y70.020 F7800.000
G1 X76.176 Y106.824
G1 X76.176 Y106.087 F3600.000 E16.34367
G1 X76.913 Y106.824 E16.37442
G1 X77.650 Y106.824 E16.39617
G1 X76.176 Y105.350 E16.45767
G1 X76.176 Y104.613 E16.47942
G1 X78.387 Y106.824 E16.57167
G1 X79.124 Y106.824 E16.59341
G1 X76.176 Y103.876 E16.71642
G1 X76.176 Y103.138 E16.73816
G1 X79.862 Y106.824 E16.89191
G1 X80.599 Y106.824 E16.91365
G1 X76.176 Y102.401 E17.09816
G1 X76.176 Y101.664 E17.11990
G1 X81.336 Y106.824 E17.33515
G1 X82.073 Y106.824 E17.35689
G1 X76.176 Y100.927 E17.60289
G1 X76.176 Y100.190 E17.62463
G1 X82.810 Y106.824 E17.90138
