; generated by Slic3r 0.9.10b on 2013-08-31 at 19:06:15

; layer_height = 0.4
; perimeters = 3
; top_solid_layers = 3
; bottom_solid_layers = 3
; fill_density = 0.4
; perimeter_speed = 30
; infill_speed = 60
; travel_speed = 130
; nozzle_diameter = 0.5
; filament_diameter = 3
; extrusion_multiplier = 1
; perimeters extrusion width = 0.53mm
; infill extrusion width = 0.53mm
; solid infill extrusion width = 0.53mm
; top infill extrusion width = 0.53mm
; first layer extrusion width = 1.00mm

G21 ; set units to millimeters
M107
M190 S60 ; wait for bed temperature to be reached
M104 S180 ; set temperature
G28 ; home all axes
G1 Z5 F5000 ; lift nozzle
M109 S180 ; wait for temperature to be reached
G90 ; use absolute coordinates
G92 E0
M82 ; use absolute distances for extrusion
G1 F1800.000 E-1.00000
G1 Z1.000 F7800.000
G92 E0
G1 X69.630 Y64.630
G1 Z0.500
G1 F1800.000 E1.00000
G1 X70.670 Y63.770 F540.000 E1.08522
G1 X71.860 Y63.130 E1.17054
G1 X73.160 Y62.740 E1.25624
G1 X74.500 Y62.610 E1.34125
G1 X125.500 Y62.610 E4.56168
G1 X126.840 Y62.740 E4.64669
G1 X128.140 Y63.130 E4.73239
G1 X129.330 Y63.770 E4.81771
G1 X130.370 Y64.630 E4.90293
G1 X131.230 Y65.670 E4.98815
G1 X131.870 Y66.860 E5.07347
G1 X132.260 Y68.160 E5.15917
G1 X132.390 Y69.500 E5.24418
G1 X132.390 Y108.500 E7.70686
G1 X132.260 Y109.840 E7.79187
G1 X131.870 Y111.140 E7.87757
G1 X131.230 Y112.330 E7.96290
G1 X130.370 Y113.370 E8.04811
G1 X129.330 Y114.230 E8.13333
G1 X128.140 Y114.870 E8.21865
G1 X126.840 Y115.260 E8.30435
G1 X125.500 Y115.390 E8.38937
G1 X74.500 Y115.390 E11.60979
G1 X73.160 Y115.260 E11.69480
G1 X71.860 Y114.870 E11.78050
G1 X70.670 Y114.230 E11.86583
G1 X69.630 Y113.370 E11.95104
G1 X68.770 Y112.330 E12.03626
G1 X68.130 Y111.140 E12.12158
G1 X67.740 Y109.840 E12.20728
G1 X67.610 Y108.500 E12.29229
G1 X67.610 Y69.500 E14.75497
G1 X67.740 Y68.160 E14.83998
G1 X68.130 Y66.860 E14.92569
G1 X68.770 Y65.670 E15.01101
G1 X69.545 Y64.733 E15.08777
G1 F1800.000 E14.08777
G1 Z1.000 F7800.000
G92 E0
G1 X74.946 Y95.437
G1 Z0.500
G1 F1800.000 E1.00000
G1 X76.048 Y95.437 F378.000 E1.06953
G1 X76.054 Y106.946 E1.79628
G1 X123.946 Y106.946 E4.82048
G1 X123.946 Y96.476 E5.48161
G1 X125.054 Y96.476 E5.55153
G1 X125.054 Y108.054 E6.28258
G1 X74.946 Y108.054 E9.44663
G1 X74.946 Y95.571 E10.23484
G1 X75.719 Y95.884 F7800.000
G1 F1800.000 E9.23484
G1 Z1.000 F7800.000
G92 E0
G1 X71.500 Y109.743
G1 X73.257 Y111.500
G1 X126.743 Y111.500
G1 X112.863 Y107.489
G1 Z0.500
G1 F1800.000 E1.00000
G1 X123.750 Y107.500 F540.000 E1.68746
G1 X124.334 Y107.333 E1.72578
G1 X124.499 Y106.754 E1.76381
G1 X124.500 Y97.030 E2.37785
G1 X124.247 Y96.778 E2.40040
G1 X124.500 Y97.030 F7800.000
G1 X124.750 Y96.779 F540.000 E2.42275
G1 X124.750 Y96.779 F7800.000
G1 X124.752 Y96.778 F540.000 E2.42292
G1 X124.334 Y107.333 F7800.000
G1 X124.750 Y107.751 F540.000 E2.46015
G1 X124.750 Y107.751 F7800.000
G1 X124.752 Y107.752 F540.000 E2.46032
G1 X112.863 Y107.489 F7800.000
G1 X81.751 Y107.506 F540.000 E4.42492
G1 X81.751 Y107.506 F7800.000
G1 X77.737 Y107.499 F540.000 E4.67839
G1 X77.737 Y107.499 F7800.000
G1 X77.501 Y107.500 F540.000 E4.69331
G1 X77.251 Y107.750 F7800.000
G1 X77.501 Y107.500 F540.000 E4.71560
G1 X77.242 Y107.239 E4.73879
G1 X76.000 Y107.000 F7800.000
G1 X75.792 Y102.869
G1 X75.499 Y102.391 F540.000 E4.77416
G1 X75.499 Y102.391 F7800.000
G1 X75.498 Y99.049 F540.000 E4.98518
G1 X75.498 Y99.049 F7800.000
G1 X75.498 Y98.572 F540.000 E5.01533
G1 X75.498 Y98.572 F7800.000
G1 X75.498 Y97.617 F540.000 E5.07565
G1 X75.498 Y97.617 F7800.000
G1 X75.497 Y96.662 F540.000 E5.13591
G1 X75.497 Y96.662 F7800.000
G1 X75.497 Y96.185 F540.000 E5.16609
G1 X75.497 Y96.185 F7800.000
G1 X75.497 Y95.989 F540.000 E5.17844
G1 X75.248 Y95.729 F7800.000
G1 X75.207 Y95.707 F540.000 E5.18137
G1 X75.248 Y95.729 F7800.000
G1 X75.497 Y95.989 F540.000 E5.20414
G1 X75.787 Y95.707 E5.22967
G1 X75.499 Y102.585 F7800.000
G1 X75.206 Y102.869 F540.000 E5.25544
G1 F1800.000 E4.25544
G1 Z1.000 F7800.000
G92 E0
G1 X76.000 Y107.000
G1 X75.000 Y95.491
G1 X75.000 Y81.537
G1 X74.946 Y81.591
G1 Z0.500
G1 F1800.000 E1.00000
G1 X74.946 Y69.946 F378.000 E1.73531
G1 X125.054 Y69.946 E4.89937
G1 X125.054 Y82.551 E5.69530
G1 X123.946 Y82.551 E5.76522
G1 X123.946 Y71.054 E6.49124
G1 X76.054 Y71.054 E9.51543
G1 X76.048 Y81.591 E10.18082
G1 X75.080 Y81.591 E10.24191
G1 X75.393 Y80.818 F7800.000
G1 X75.039 Y81.460
G1 X75.512 Y80.578 F540.000 E10.30507
G1 X75.499 Y75.500 E10.62573
G1 X75.194 Y75.206 E10.65253
G1 X75.499 Y75.500 F7800.000
G1 X75.749 Y75.231 F540.000 E10.67569
G1 X75.749 Y75.231 F7800.000
G1 X75.847 Y75.178 F540.000 E10.68276
G1 X76.000 Y71.000 F7800.000
G1 X77.250 Y70.750
G1 X77.501 Y70.500 F540.000 E10.70513
G1 X77.251 Y70.250 F7800.000
G1 X77.251 Y70.250 F540.000 E10.70514
G1 X77.251 Y70.250 F7800.000
G1 X77.501 Y70.500 F540.000 E10.72741
G1 X79.751 Y70.500 E10.86952
G1 X79.751 Y70.500 F7800.000
G1 X82.751 Y70.500 F540.000 E11.05896
G1 X82.751 Y70.500 F7800.000
G1 X83.251 Y70.500 F540.000 E11.09053
G1 X83.251 Y70.500 F7800.000
G1 X91.751 Y70.500 F540.000 E11.62725
G1 X91.751 Y70.500 F7800.000
G1 X123.750 Y70.500 F540.000 E13.64786
G1 X124.333 Y70.667 E13.68616
G1 X124.750 Y70.250 E13.72339
G1 X124.333 Y70.667 F7800.000
G1 X124.500 Y74.249 F540.000 E13.94986
G1 X124.500 Y74.249 F7800.000
G1 X124.500 Y77.749 F540.000 E14.17082
G1 X124.500 Y77.749 F7800.000
G1 X124.500 Y79.248 F540.000 E14.26552
G1 X124.500 Y79.248 F7800.000
G1 X124.500 Y79.748 F540.000 E14.29709
G1 X124.500 Y79.748 F7800.000
G1 X124.500 Y80.248 F540.000 E14.32865
G1 X124.500 Y80.248 F7800.000
G1 X124.500 Y80.748 F540.000 E14.36022
G1 X124.500 Y80.748 F7800.000
G1 X124.500 Y81.997 F540.000 E14.43912
G1 X124.750 Y82.248 E14.46146
G1 X124.500 Y81.997 F7800.000
G1 X124.250 Y82.248 F540.000 E14.48379
G1 X124.250 Y82.248 F7800.000
G1 X124.250 Y82.248 F540.000 E14.48380
G1 X124.000 Y82.497 F7800.000
G1 X124.000 Y71.000
G1 X76.000 Y71.000
G1 X75.994 Y81.537
G1 X75.821 Y81.232
G1 X75.702 Y81.069 F540.000 E14.49654
G1 X75.702 Y81.069 F7800.000
G1 X75.491 Y80.912 F540.000 E14.51315
M106 S255
G1 F1800.000 E13.51315
G1 Z1.400 F7800.000
G92 E0
G1 X75.000 Y81.707
G1 X75.000 Y95.287
G1 X74.760 Y95.047
G1 Z0.900
G1 F1800.000 E1.00000
G1 X76.234 Y95.047 F913.600 E1.04335
G1 X76.240 Y106.760 E1.38777
G1 X123.760 Y106.760 E2.78510
G1 X123.760 Y96.087 E3.09894
G1 X125.240 Y96.087 E3.14247
G1 X125.240 Y108.240 E3.49983
G1 X74.760 Y108.240 E4.98422
G1 X74.760 Y95.125 E5.36989
G1 X75.210 Y95.307 F7800.000
G1 X75.000 Y95.287
G1 X76.000 Y107.000
G1 X124.000 Y107.000
G1 X124.587 Y106.661
G1 X124.413 Y106.835 F870.095 E5.37996
G1 X123.835 Y107.413 F7800.000
G1 X123.661 Y107.587 F870.095 E5.39003
G1 X122.808 Y107.413 E5.42579
G1 X122.635 Y107.587 E5.43586
G1 X121.782 Y107.413 E5.47161
G1 X121.608 Y107.587 E5.48168
G1 X120.755 Y107.413 E5.51744
G1 X120.582 Y107.587 E5.52751
G1 X119.729 Y107.413 E5.56326
G1 X119.555 Y107.587 E5.57334
G1 X118.702 Y107.413 E5.60909
G1 X118.529 Y107.587 E5.61916
G1 X117.676 Y107.413 E5.65491
G1 X117.502 Y107.587 E5.66499
G1 X116.649 Y107.413 E5.70074
G1 X116.476 Y107.587 E5.71081
G1 X115.623 Y107.413 E5.74657
G1 X115.450 Y107.587 E5.75664
G1 X114.596 Y107.413 E5.79239
G1 X114.423 Y107.587 E5.80247
G1 X113.570 Y107.413 E5.83822
G1 X113.397 Y107.587 E5.84829
G1 X112.544 Y107.413 E5.88404
G1 X112.370 Y107.587 E5.89412
G1 X111.517 Y107.413 E5.92987
G1 X111.344 Y107.587 E5.93994
G1 X110.491 Y107.413 E5.97570
G1 X110.317 Y107.587 E5.98577
G1 X109.464 Y107.413 E6.02152
G1 X109.291 Y107.587 E6.03160
G1 X108.438 Y107.413 E6.06735
G1 X108.264 Y107.587 E6.07742
G1 X107.411 Y107.413 E6.11317
G1 X107.238 Y107.587 E6.12325
G1 X106.385 Y107.413 E6.15900
G1 X106.211 Y107.587 E6.16907
G1 X105.358 Y107.413 E6.20483
G1 X105.185 Y107.587 E6.21490
G1 X104.332 Y107.413 E6.25065
G1 X104.159 Y107.587 E6.26072
G1 X103.306 Y107.413 E6.29648
G1 X103.132 Y107.587 E6.30655
G1 X102.279 Y107.413 E6.34230
G1 X102.106 Y107.587 E6.35238
G1 X101.253 Y107.413 E6.38813
G1 X101.079 Y107.587 E6.39820
G1 X100.226 Y107.413 E6.43395
G1 X100.053 Y107.587 E6.44403
G1 X99.200 Y107.413 E6.47978
G1 X99.026 Y107.587 E6.48985
G1 X98.173 Y107.413 E6.52561
G1 X98.000 Y107.587 E6.53568
G1 X97.147 Y107.413 E6.57143
G1 X96.973 Y107.587 E6.58151
G1 X96.120 Y107.413 E6.61726
G1 X95.947 Y107.587 E6.62733
G1 X95.094 Y107.413 E6.66308
G1 X94.921 Y107.587 E6.67316
G1 X94.068 Y107.413 E6.70891
G1 X93.894 Y107.587 E6.71898
G1 X93.041 Y107.413 E6.75474
G1 X92.868 Y107.587 E6.76481
G1 X92.015 Y107.413 E6.80056
G1 X91.841 Y107.587 E6.81064
G1 X90.988 Y107.413 E6.84639
G1 X90.815 Y107.587 E6.85646
G1 X89.962 Y107.413 E6.89221
G1 X89.788 Y107.587 E6.90229
G1 X88.935 Y107.413 E6.93804
G1 X88.762 Y107.587 E6.94811
G1 X87.909 Y107.413 E6.98387
G1 X87.735 Y107.587 E6.99394
G1 X86.882 Y107.413 E7.02969
G1 X86.709 Y107.587 E7.03976
G1 X85.856 Y107.413 E7.07552
G1 X85.683 Y107.587 E7.08559
G1 X84.830 Y107.413 E7.12134
G1 X84.656 Y107.587 E7.13142
G1 X83.803 Y107.413 E7.16717
G1 X83.630 Y107.587 E7.17724
G1 X82.777 Y107.413 E7.21299
G1 X82.603 Y107.587 E7.22307
G1 X81.750 Y107.413 E7.25882
G1 X81.577 Y107.587 E7.26889
G1 X80.724 Y107.413 E7.30465
G1 X80.550 Y107.587 E7.31472
G1 X79.697 Y107.413 E7.35047
G1 X79.524 Y107.587 E7.36055
G1 X78.671 Y107.413 E7.39630
G1 X78.497 Y107.587 E7.40637
G1 X77.644 Y107.413 E7.44212
G1 X77.471 Y107.587 E7.45220
G1 X76.618 Y107.413 E7.48795
G1 X76.445 Y107.587 E7.49802
G1 X75.592 Y107.413 E7.53378
G1 X75.418 Y107.587 E7.54385
G1 X75.413 Y106.565 E7.58581
G1 X75.587 Y106.392 E7.59587
G1 X75.413 Y105.539 E7.63163
G1 X75.586 Y105.366 E7.64166
G1 X75.413 Y104.512 E7.67744
G1 X75.585 Y104.340 E7.68744
G1 X75.413 Y103.486 E7.72323
G1 X75.585 Y103.314 E7.73320
G1 X75.413 Y102.459 E7.76901
G1 X75.584 Y102.288 E7.77894
G1 X75.413 Y101.433 E7.81477
G1 X75.584 Y101.262 E7.82467
G1 X75.413 Y100.406 E7.86052
G1 X75.583 Y100.237 E7.87039
G1 X75.413 Y99.380 E7.90625
G1 X75.583 Y99.211 E7.91609
G1 X75.413 Y98.354 E7.95197
G1 X75.582 Y98.185 E7.96177
G1 X75.413 Y97.327 E7.99768
G1 X75.581 Y97.159 E8.00744
G1 X75.413 Y96.301 E8.04337
G1 X75.581 Y96.133 E8.05310
G1 X75.994 Y95.287 F7800.000
G1 X76.000 Y107.000
G1 X124.000 Y107.000
G1 X124.000 Y96.327
G1 X124.413 Y97.596
G1 X124.587 Y97.423 F870.095 E8.06318
G1 X124.587 Y98.450 E8.10533
G1 X124.413 Y98.623 E8.11541
G1 X124.587 Y99.476 E8.15116
G1 X124.413 Y99.649 E8.16123
G1 X124.587 Y100.502 E8.19699
G1 X124.413 Y100.676 E8.20706
G1 X124.587 Y101.529 E8.24281
G1 X124.413 Y101.702 E8.25289
G1 X124.587 Y102.555 E8.28864
G1 X124.413 Y102.729 E8.29871
G1 X124.587 Y103.582 E8.33446
G1 X124.413 Y103.755 E8.34454
G1 X124.587 Y104.608 E8.38029
G1 X124.413 Y104.782 E8.39036
G1 X124.587 Y105.635 E8.42611
G1 X124.413 Y105.808 E8.43619
G1 F1800.000 E7.43619
G1 Z1.400 F7800.000
G92 E0
G1 X124.000 Y107.000
G1 X124.000 Y96.327
G1 X124.000 Y82.668
G1 X123.760 Y82.908
G1 Z0.900
G1 F1800.000 E1.00000
G1 X123.760 Y71.240 F913.600 E1.34310
G1 X76.240 Y71.240 E2.74042
G1 X76.234 Y81.947 E3.05526
G1 X74.760 Y81.947 E3.09861
G1 X74.760 Y69.760 E3.45698
G1 X125.240 Y69.760 E4.94137
G1 X125.240 Y82.908 E5.32800
G1 X123.838 Y82.908 E5.36924
G1 X124.020 Y82.458 F7800.000
G1 X124.587 Y82.026
G1 X124.413 Y82.200 F870.095 E5.37931
G1 X124.413 Y81.173 E5.42147
G1 X124.587 Y81.000 E5.43154
G1 X124.413 Y80.147 E5.46729
G1 X124.587 Y79.973 E5.47737
G1 X124.413 Y79.120 E5.51312
G1 X124.587 Y78.947 E5.52319
G1 X124.413 Y78.094 E5.55894
G1 X124.587 Y77.921 E5.56902
G1 X124.413 Y77.068 E5.60477
G1 X124.587 Y76.894 E5.61484
G1 X124.413 Y76.041 E5.65060
G1 X124.587 Y75.868 E5.66067
G1 X124.413 Y75.015 E5.69642
G1 X124.587 Y74.841 E5.70649
G1 X124.413 Y73.988 E5.74225
G1 X124.587 Y73.815 E5.75232
G1 X124.413 Y72.962 E5.78807
G1 X124.587 Y72.788 E5.79815
G1 X124.413 Y71.935 E5.83390
G1 X124.587 Y71.762 E5.84397
G1 X124.413 Y70.909 E5.87972
G1 X124.587 Y70.735 E5.88980
G1 X123.882 Y70.413 E5.92161
G1 X123.709 Y70.587 E5.93168
G1 X122.856 Y70.413 E5.96743
G1 X122.683 Y70.587 E5.97751
G1 X121.830 Y70.413 E6.01326
G1 X121.656 Y70.587 E6.02333
G1 X120.803 Y70.413 E6.05908
G1 X120.630 Y70.587 E6.06916
G1 X119.777 Y70.413 E6.10491
G1 X119.603 Y70.587 E6.11498
G1 X118.750 Y70.413 E6.15073
G1 X118.577 Y70.587 E6.16081
G1 X117.724 Y70.413 E6.19656
G1 X117.550 Y70.587 E6.20663
G1 X116.697 Y70.413 E6.24238
G1 X116.524 Y70.587 E6.25246
G1 X115.671 Y70.413 E6.28821
G1 X115.497 Y70.587 E6.29828
G1 X114.644 Y70.413 E6.33404
G1 X114.471 Y70.587 E6.34411
G1 X113.618 Y70.413 E6.37986
G1 X113.445 Y70.587 E6.38994
G1 X112.592 Y70.413 E6.42569
G1 X112.418 Y70.587 E6.43576
G1 X111.565 Y70.413 E6.47151
G1 X111.392 Y70.587 E6.48159
G1 X110.539 Y70.413 E6.51734
G1 X110.365 Y70.587 E6.52741
G1 X109.512 Y70.413 E6.56316
G1 X109.339 Y70.587 E6.57324
G1 X108.486 Y70.413 E6.60899
G1 X108.312 Y70.587 E6.61906
G1 X107.459 Y70.413 E6.65481
G1 X107.286 Y70.587 E6.66489
G1 X106.433 Y70.413 E6.70064
G1 X106.259 Y70.587 E6.71071
G1 X105.406 Y70.413 E6.74647
G1 X105.233 Y70.587 E6.75654
G1 X104.380 Y70.413 E6.79229
G1 X104.207 Y70.587 E6.80237
G1 X103.354 Y70.413 E6.83812
G1 X103.180 Y70.587 E6.84819
G1 X102.327 Y70.413 E6.88394
G1 X102.154 Y70.587 E6.89402
G1 X101.301 Y70.413 E6.92977
G1 X101.127 Y70.587 E6.93984
G1 X100.274 Y70.413 E6.97559
G1 X100.101 Y70.587 E6.98567
G1 X99.248 Y70.413 E7.02142
G1 X99.074 Y70.587 E7.03149
G1 X98.221 Y70.413 E7.06725
G1 X98.048 Y70.587 E7.07732
G1 X97.195 Y70.413 E7.11307
G1 X97.021 Y70.587 E7.12314
G1 X96.168 Y70.413 E7.15890
G1 X95.995 Y70.587 E7.16897
G1 X95.142 Y70.413 E7.20472
G1 X94.968 Y70.587 E7.21480
G1 X94.115 Y70.413 E7.25055
G1 X93.942 Y70.587 E7.26062
G1 X93.089 Y70.413 E7.29637
G1 X92.916 Y70.587 E7.30645
G1 X92.063 Y70.413 E7.34220
G1 X91.889 Y70.587 E7.35227
G1 X91.036 Y70.413 E7.38802
G1 X90.863 Y70.587 E7.39810
G1 X90.010 Y70.413 E7.43385
G1 X89.836 Y70.587 E7.44392
G1 X88.983 Y70.413 E7.47968
G1 X88.810 Y70.587 E7.48975
G1 X87.957 Y70.413 E7.52550
G1 X87.783 Y70.587 E7.53557
G1 X86.930 Y70.413 E7.57133
G1 X86.757 Y70.587 E7.58140
G1 X85.904 Y70.413 E7.61715
G1 X85.730 Y70.587 E7.62723
G1 X84.877 Y70.413 E7.66298
G1 X84.704 Y70.587 E7.67305
G1 X83.851 Y70.413 E7.70880
G1 X83.678 Y70.587 E7.71888
G1 X82.825 Y70.413 E7.75463
G1 X82.651 Y70.587 E7.76470
G1 X81.798 Y70.413 E7.80045
G1 X81.625 Y70.587 E7.81053
G1 X80.772 Y70.413 E7.84628
G1 X80.598 Y70.587 E7.85635
G1 X79.745 Y70.413 E7.89211
G1 X79.572 Y70.587 E7.90218
G1 X78.719 Y70.413 E7.93793
G1 X78.545 Y70.587 E7.94800
G1 X77.692 Y70.413 E7.98376
G1 X77.519 Y70.587 E7.99383
G1 X76.666 Y70.413 E8.02958
G1 X76.492 Y70.587 E8.03966
G1 X75.639 Y70.413 E8.07541
G1 X75.413 Y70.639 E8.08854
G1 X75.587 Y71.492 E8.12430
G1 X75.413 Y71.666 E8.13437
G1 X75.586 Y72.520 E8.17014
G1 X75.413 Y72.692 E8.18018
G1 X75.585 Y73.547 E8.21597
G1 X75.413 Y73.719 E8.22597
G1 X75.585 Y74.574 E8.26178
G1 X75.413 Y74.745 E8.27175
G1 X75.584 Y75.601 E8.30758
G1 X75.413 Y75.772 E8.31751
G1 X75.584 Y76.628 E8.35336
G1 X75.413 Y76.798 E8.36326
G1 X75.583 Y77.655 E8.39913
G1 X75.413 Y77.825 E8.40899
G1 X75.582 Y78.682 E8.44488
G1 X75.413 Y78.851 E8.45470
G1 X75.582 Y79.709 E8.49061
G1 X75.413 Y79.877 E8.50040
G1 X75.581 Y80.736 E8.53633
G1 X75.413 Y80.904 E8.54608
G1 F1800.000 E7.54608
G1 Z1.800 F7800.000
G92 E0
G1 X75.000 Y81.857
G1 X75.000 Y95.106
G1 X74.760 Y94.866
G1 Z1.300
G1 F1800.000 E1.00000
G1 X76.234 Y94.866 F919.804 E1.04335
G1 X76.240 Y106.760 E1.39310
G1 X123.760 Y106.760 E2.79043
G1 X123.760 Y95.907 E3.10957
G1 X125.240 Y95.907 E3.15310
G1 X125.240 Y108.240 E3.51576
G1 X74.760 Y108.240 E5.00016
G1 X74.760 Y94.944 E5.39115
G1 X75.210 Y95.125 F7800.000
G1 X75.908 Y107.587
G1 X75.735 Y107.413 F876.004 E5.40122
G1 X75.587 Y107.265 F7800.000
G1 X75.413 Y107.092 F876.004 E5.41131
G1 X75.586 Y106.238 E5.44707
G1 X75.413 Y106.065 E5.45713
G1 X75.586 Y105.211 E5.49291
G1 X75.413 Y105.039 E5.50293
G1 X75.585 Y104.184 E5.53873
G1 X75.413 Y104.012 E5.54872
G1 X75.585 Y103.157 E5.58453
G1 X75.413 Y102.986 E5.59449
G1 X75.584 Y102.130 E5.63032
G1 X75.413 Y101.959 E5.64025
G1 X75.584 Y101.103 E5.67610
G1 X75.413 Y100.933 E5.68599
