; generated by Slic3r 0.9.10b on 2013-08-31 at 18:27:34

; layer_height = 0.4
; perimeters = 3
; top_solid_layers = 3
; bottom_solid_layers = 3
; fill_density = 0.4
; perimeter_speed = 30
; infill_speed = 60
; travel_speed = 130
; nozzle_diameter = 0.5
; filament_diameter = 3
; extrusion_multiplier = 1
; perimeters extrusion width = 0.53mm
; infill extrusion width = 0.53mm
; solid infill extrusion width = 0.53mm
; top infill extrusion width = 0.53mm
; first layer extrusion width = 1.00mm

G21 ; set units to millimeters
M107
M190 S60 ; wait for bed temperature to be reached
M104 S180 ; set temperature
G28 ; home all axes
G1 Z5 F5000 ; lift nozzle
M109 S180 ; wait for temperature to be reached
G90 ; use absolute coordinates
G92 E0
M82 ; use absolute distances for extrusion
G1 F1800.000 E-1.00000
G1 Z1.000 F7800.000
G92 E0
G1 X69.630 Y64.630
G1 Z0.500
G1 F1800.000 E1.00000
G1 X70.670 Y63.770 F540.000 E1.08522
G1 X71.860 Y63.130 E1.17054
G1 X73.160 Y62.740 E1.25624
G1 X74.500 Y62.610 E1.34125
G1 X125.500 Y62.610 E4.56168
G1 X126.840 Y62.740 E4.64669
G1 X128.140 Y63.130 E4.73239
G1 X129.330 Y63.770 E4.81771
G1 X130.370 Y64.630 E4.90293
G1 X131.230 Y65.670 E4.98815
G1 X131.870 Y66.860 E5.07347
G1 X132.260 Y68.160 E5.15917
G1 X132.390 Y69.500 E5.24418
G1 X132.390 Y108.500 E7.70686
G1 X132.260 Y109.840 E7.79187
G1 X131.870 Y111.140 E7.87757
G1 X131.230 Y112.330 E7.96290
G1 X130.370 Y113.370 E8.04811
G1 X129.330 Y114.230 E8.13333
G1 X128.140 Y114.870 E8.21865
G1 X126.840 Y115.260 E8.30435
G1 X125.500 Y115.390 E8.38937
G1 X74.500 Y115.390 E11.60979
G1 X73.160 Y115.260 E11.69480
G1 X71.860 Y114.870 E11.78050
G1 X70.670 Y114.230 E11.86583
G1 X69.630 Y113.370 E11.95104
G1 X68.770 Y112.330 E12.03626
G1 X68.130 Y111.140 E12.12158
G1 X67.740 Y109.840 E12.20728
G1 X67.610 Y108.500 E12.29229
G1 X67.610 Y69.500 E14.75497
G1 X67.740 Y68.160 E14.83998
G1 X68.130 Y66.860 E14.92569
G1 X68.770 Y65.670 E15.01101
G1 X69.545 Y64.733 E15.08777
G1 F1800.000 E14.08777
G1 Z1.000 F7800.000
G92 E0
G1 X76.732 Y71.732
G1 Z0.500
G1 F1800.000 E1.00000
G1 X123.268 Y71.732 F540.000 E3.93857
G1 X123.268 Y106.268 E6.11940
G1 X76.732 Y106.268 E9.05795
G1 X76.732 Y71.866 E11.23032
G1 X75.839 Y70.839 F7800.000
G1 X124.161 Y70.839 F540.000 E14.28164
G1 X124.161 Y107.161 E16.57520
G1 X75.839 Y107.161 E19.62650
G1 X75.852 Y88.602 E20.79843
G1 X75.839 Y70.973 E21.91161
G1 X74.946 Y69.946 F7800.000
G1 X125.054 Y69.946 F378.000 E25.07567
G1 X125.054 Y108.054 E27.48197
G1 X74.946 Y108.054 E30.64602
G1 X74.959 Y88.602 E31.87431
G1 X74.946 Y70.080 E33.04387
G1 X75.720 Y70.393 F7800.000
G1 X78.377 Y105.621
G1 X77.379 Y104.623 F1080.000 E33.13372
G1 X77.379 Y103.350 E33.21474
G1 X79.650 Y105.621 E33.41918
G1 X80.923 Y105.621 E33.50021
G1 X77.379 Y102.078 E33.81924
G1 X77.379 Y100.805 E33.90027
G1 X82.195 Y105.621 E34.33389
G1 X83.468 Y105.621 E34.41492
G1 X77.379 Y99.532 E34.96313
G1 X77.379 Y98.259 E35.04416
G1 X84.741 Y105.621 E35.70697
G1 X86.014 Y105.621 E35.78800
G1 X77.379 Y96.986 E36.56540
G1 X77.379 Y95.714 E36.64643
G1 X87.287 Y105.621 E37.53842
G1 X88.559 Y105.621 E37.61945
G1 X77.379 Y94.441 E38.62603
G1 X77.379 Y93.168 E38.70706
G1 X89.832 Y105.621 E39.82824
G1 X91.105 Y105.621 E39.90927
G1 X77.379 Y91.895 E41.14504
G1 X77.379 Y90.622 E41.22607
G1 X92.378 Y105.621 E42.57644
G1 X93.651 Y105.621 E42.65746
G1 X77.379 Y89.350 E44.12242
G1 X77.379 Y88.077 E44.20345
G1 X94.923 Y105.621 E45.78300
G1 X96.196 Y105.621 E45.86403
G1 X77.379 Y86.804 E47.55817
G1 X77.379 Y85.531 E47.63920
G1 X97.469 Y105.621 E49.44794
G1 X98.742 Y105.621 E49.52897
G1 X77.379 Y84.258 E51.45229
G1 X77.379 Y82.986 E51.53332
G1 X100.015 Y105.621 E53.57125
G1 X101.287 Y105.621 E53.65227
G1 X77.379 Y81.713 E55.80479
G1 X77.379 Y80.440 E55.88582
G1 X102.560 Y105.621 E58.15292
G1 X103.833 Y105.621 E58.23395
G1 X77.379 Y79.167 E60.61565
G1 X77.379 Y77.894 E60.69668
G1 X105.106 Y105.621 E63.19298
G1 X106.379 Y105.621 E63.27400
G1 X77.379 Y76.622 E65.88489
G1 X77.379 Y75.349 E65.96592
G1 X107.651 Y105.621 E68.69140
G1 X108.924 Y105.621 E68.77243
G1 X77.379 Y74.076 E71.61250
G1 X77.379 Y72.803 E71.69353
G1 X110.197 Y105.621 E74.64819
G1 X111.470 Y105.621 E74.72922
G1 X78.227 Y72.379 E77.72208
G1 X79.500 Y72.379 E77.80311
G1 X112.742 Y105.621 E80.79597
G1 X114.015 Y105.621 E80.87700
G1 X80.773 Y72.379 E83.86986
G1 X82.046 Y72.379 E83.95089
G1 X115.288 Y105.621 E86.94375
G1 X116.561 Y105.621 E87.02478
G1 X83.319 Y72.379 E90.01764
G1 X84.591 Y72.379 E90.09867
G1 X117.834 Y105.621 E93.09153
G1 X119.106 Y105.621 E93.17256
G1 X85.864 Y72.379 E96.16542
G1 X87.137 Y72.379 E96.24645
G1 X120.379 Y105.621 E99.23931
G1 X121.652 Y105.621 E99.32034
G1 X88.410 Y72.379 E102.31320
G1 X89.682 Y72.379 E102.39423
G1 X122.621 Y105.317 E105.35975
G1 X122.621 Y104.045 E105.44078
G1 X90.955 Y72.379 E108.29171
G1 X92.228 Y72.379 E108.37274
G1 X122.621 Y102.772 E111.10908
G1 X122.621 Y101.499 E111.19011
G1 X93.501 Y72.379 E113.81185
G1 X94.774 Y72.379 E113.89288
G1 X122.621 Y100.226 E116.40004
G1 X122.621 Y98.954 E116.48107
G1 X96.046 Y72.379 E118.87363
G1 X97.319 Y72.379 E118.95466
G1 X122.621 Y97.681 E121.23263
G1 X122.621 Y96.408 E121.31366
G1 X98.592 Y72.379 E123.47704
G1 X99.865 Y72.379 E123.55807
G1 X122.621 Y95.135 E125.60686
G1 X122.621 Y93.862 E125.68789
G1 X101.138 Y72.379 E127.62208
G1 X102.410 Y72.379 E127.70311
G1 X122.621 Y92.590 E129.52272
G1 X122.621 Y91.317 E129.60375
G1 X103.683 Y72.379 E131.30876
G1 X104.956 Y72.379 E131.38979
G1 X122.621 Y90.044 E132.98021
G1 X122.621 Y88.771 E133.06124
G1 X106.229 Y72.379 E134.53707
G1 X107.502 Y72.379 E134.61810
G1 X122.621 Y87.498 E135.97934
G1 X122.621 Y86.226 E136.06037
G1 X108.774 Y72.379 E137.30702
G1 X110.047 Y72.379 E137.38805
G1 X122.621 Y84.953 E138.52010
G1 X122.621 Y83.680 E138.60113
G1 X111.320 Y72.379 E139.61860
G1 X112.593 Y72.379 E139.69962
G1 X122.621 Y82.407 E140.60250
G1 X122.621 Y81.134 E140.68353
G1 X113.866 Y72.379 E141.47181
G1 X115.138 Y72.379 E141.55284
G1 X122.621 Y79.862 E142.22653
G1 X122.621 Y78.589 E142.30756
G1 X116.411 Y72.379 E142.86665
G1 X117.684 Y72.379 E142.94768
G1 X122.621 Y77.316 E143.39219
G1 X122.621 Y76.043 E143.47322
G1 X118.957 Y72.379 E143.80313
G1 X120.230 Y72.379 E143.88416
G1 X122.621 Y74.770 E144.09949
G1 X122.621 Y73.498 E144.18051
G1 X121.502 Y72.379 E144.28125
G1 F1800.000 E143.28125
G1 Z1.400 F7800.000
G92 E0
G1 X124.201 Y70.799
G1 Z0.900
G1 F1800.000 E1.00000
G1 X124.201 Y107.201 F1800.000 E2.07041
G1 X75.799 Y107.201 E3.49367
G1 X75.812 Y88.602 E4.04059
G1 X75.799 Y70.799 E4.56408
G1 X124.123 Y70.799 E5.98506
G1 X124.721 Y70.279 F7800.000
G1 X124.721 Y107.721 F1800.000 E7.08603
G1 X75.280 Y107.721 E8.53986
G1 X75.292 Y88.602 E9.10205
G1 X75.279 Y70.279 E9.64082
G1 X124.643 Y70.279 E11.09236
G1 X125.240 Y69.760 F7800.000
G1 X125.240 Y108.240 F1260.000 E12.22389
G1 X74.760 Y108.240 E13.70828
G1 X74.772 Y88.602 E14.28575
G1 X74.760 Y69.760 E14.83981
G1 X125.162 Y69.760 E16.32191
G1 X124.980 Y70.210 F7800.000
G1 X124.851 Y83.258
G1 X125.125 Y83.196 F1800.000 E16.33018
G1 X125.274 Y82.963 E16.33832
G1 X125.143 Y83.205 F7800.000
G1 X125.125 Y83.196 F1800.000 E16.33892
G1 X124.851 Y83.258 F7800.000
G1 X124.057 Y83.423 F1800.000 E16.36277
G1 X124.057 Y83.423 F7800.000
G1 X123.812 Y83.489 F1800.000 E16.37023
G1 X123.812 Y83.489 F7800.000
G1 X123.802 Y83.480 F1800.000 E16.37062
G1 X123.824 Y106.255 F7800.000
G1 X123.255 Y106.824 F3600.000 E16.39434
G1 X122.519 Y106.824 E16.41600
G1 X123.824 Y105.519 E16.47035
G1 X123.824 Y104.783 E16.49201
G1 X121.783 Y106.824 E16.57698
G1 X121.047 Y106.824 E16.59864
G1 X123.824 Y104.047 E16.71425
G1 X123.824 Y103.312 E16.73591
G1 X120.312 Y106.824 E16.88215
G1 X119.576 Y106.824 E16.90381
G1 X123.824 Y102.576 E17.08067
G1 X123.824 Y101.840 E17.10233
G1 X118.840 Y106.824 E17.30983
G1 X118.105 Y106.824 E17.33149
G1 X123.824 Y101.105 E17.56962
G1 X123.824 Y100.369 E17.59128
G1 X117.369 Y106.824 E17.86004
G1 X116.633 Y106.824 E17.88170
G1 X123.824 Y99.633 E18.18109
G1 X123.824 Y98.897 E18.20275
G1 X115.897 Y106.824 E18.53277
G1 X115.162 Y106.824 E18.55443
G1 X123.824 Y98.162 E18.91508
G1 X123.824 Y97.426 E18.93674
G1 X114.426 Y106.824 E19.32802
G1 X113.690 Y106.824 E19.34968
G1 X123.824 Y96.690 E19.77159
G1 X123.824 Y95.955 E19.79325
G1 X112.955 Y106.824 E20.24579
G1 X112.219 Y106.824 E20.26745
G1 X123.824 Y95.219 E20.75062
G1 X123.824 Y94.483 E20.77228
G1 X111.483 Y106.824 E21.28608
G1 X110.747 Y106.824 E21.30774
G1 X123.824 Y93.747 E21.85217
G1 X123.824 Y93.012 E21.87383
G1 X110.012 Y106.824 E22.44889
G1 X109.276 Y106.824 E22.47055
G1 X123.824 Y92.276 E23.07625
G1 X123.824 Y91.540 E23.09790
G1 X108.540 Y106.824 E23.73423
G1 X107.805 Y106.824 E23.75589
G1 X123.824 Y90.805 E24.42284
G1 X123.824 Y90.069 E24.44450
G1 X107.069 Y106.824 E25.14208
G1 X106.333 Y106.824 E25.16374
G1 X123.824 Y89.333 E25.89196
G1 X123.824 Y88.597 E25.91362
G1 X105.597 Y106.824 E26.67246
G1 X104.862 Y106.824 E26.69412
G1 X123.824 Y87.862 E27.48360
G1 X123.824 Y87.126 E27.50526
G1 X104.126 Y106.824 E28.32536
G1 X103.390 Y106.824 E28.34702
G1 X123.824 Y86.390 E29.19776
G1 X123.824 Y85.654 E29.21942
G1 X102.654 Y106.824 E30.10078
G1 X101.919 Y106.824 E30.12244
G1 X123.824 Y84.919 E31.03444
G1 X123.824 Y84.183 E31.05610
G1 X101.183 Y106.824 E31.99872
G1 X100.447 Y106.824 E32.02038
G1 X123.824 Y83.447 E32.99364
G1 X123.824 Y82.712 E33.01530
G1 X99.712 Y106.824 E34.01919
G1 X98.976 Y106.824 E34.04085
G1 X123.824 Y81.976 E35.07536
G1 X123.824 Y81.240 E35.09702
G1 X98.240 Y106.824 E36.16217
G1 X97.504 Y106.824 E36.18383
G1 X123.824 Y80.504 E37.27961
G1 X123.824 Y79.769 E37.30127
G1 X96.769 Y106.824 E38.42768
G1 X96.033 Y106.824 E38.44934
G1 X123.824 Y79.033 E39.60638
G1 X123.824 Y78.297 E39.62804
G1 X95.297 Y106.824 E40.81571
G1 X94.562 Y106.824 E40.83736
G1 X123.824 Y77.562 E42.05567
G1 X123.824 Y76.826 E42.07732
G1 X93.826 Y106.824 E43.32625
G1 X93.090 Y106.824 E43.34791
G1 X123.824 Y76.090 E44.62747
G1 X123.824 Y75.354 E44.64913
G1 X92.354 Y106.824 E45.95933
G1 X91.619 Y106.824 E45.98098
G1 X123.824 Y74.619 E47.32181
G1 X123.824 Y73.883 E47.34346
G1 X90.883 Y106.824 E48.71492
G1 X90.147 Y106.824 E48.73658
G1 X123.824 Y73.147 E50.13866
G1 X123.824 Y72.412 E50.16032
G1 X89.412 Y106.824 E51.59303
G1 X88.676 Y106.824 E51.61469
G1 X123.824 Y71.676 E53.07803
G1 X123.589 Y71.176 E53.09431
G1 X87.940 Y106.824 E54.57847
G1 X87.204 Y106.824 E54.60013
G1 X122.853 Y71.176 E56.08430
G1 X122.117 Y71.176 E56.10596
G1 X86.469 Y106.824 E57.59012
G1 X85.733 Y106.824 E57.61178
G1 X121.382 Y71.176 E59.09594
G1 X120.646 Y71.176 E59.11760
G1 X84.997 Y106.824 E60.60177
G1 X84.262 Y106.824 E60.62343
G1 X119.910 Y71.176 E62.10759
G1 X119.174 Y71.176 E62.12925
G1 X83.526 Y106.824 E63.61342
G1 X82.790 Y106.824 E63.63508
G1 X118.439 Y71.176 E65.11924
G1 X117.703 Y71.176 E65.14090
G1 X82.054 Y106.824 E66.62506
G1 X81.319 Y106.824 E66.64672
G1 X116.967 Y71.176 E68.13089
G1 X116.232 Y71.176 E68.15255
G1 X80.583 Y106.824 E69.63671
G1 X79.847 Y106.824 E69.65837
G1 X115.496 Y71.176 E71.14254
G1 X114.760 Y71.176 E71.16420
G1 X79.111 Y106.824 E72.64836
G1 X78.376 Y106.824 E72.67002
G1 X114.024 Y71.176 E74.15419
G1 X113.289 Y71.176 E74.17584
G1 X77.640 Y106.824 E75.66001
G1 X76.904 Y106.824 E75.68167
G1 X112.553 Y71.176 E77.16583
G1 X111.817 Y71.176 E77.18749
G1 X76.176 Y106.817 E78.67135
G1 X76.176 Y106.081 E78.69302
G1 X111.081 Y71.176 E80.14623
G1 X110.346 Y71.176 E80.16789
G1 X76.177 Y105.344 E81.59044
G1 X76.177 Y104.608 E81.61212
G1 X109.610 Y71.176 E83.00402
G1 X108.874 Y71.176 E83.02568
G1 X76.178 Y103.872 E84.38693
G1 X76.178 Y103.136 E84.40860
G1 X108.139 Y71.176 E85.73921
G1 X107.403 Y71.176 E85.76087
G1 X76.179 Y102.400 E87.06082
G1 X76.179 Y101.663 E87.08249
G1 X106.667 Y71.176 E88.35179
G1 X105.931 Y71.176 E88.37345
G1 X76.180 Y100.927 E89.61210
G1 X76.180 Y100.191 E89.63377
G1 X105.196 Y71.176 E90.84177
G1 X104.460 Y71.176 E90.86343
G1 X76.181 Y99.455 E92.04077
G1 X76.181 Y98.719 E92.06245
G1 X103.724 Y71.176 E93.20914
G1 X102.989 Y71.176 E93.23080
G1 X76.182 Y97.982 E94.34684
G1 X76.182 Y97.246 E94.36852
G1 X102.253 Y71.176 E95.45391
G1 X101.517 Y71.176 E95.47557
G1 X76.183 Y96.510 E96.53031
G1 X76.183 Y95.774 E96.55199
G1 X100.781 Y71.176 E97.57608
G1 X100.046 Y71.176 E97.59774
G1 X76.184 Y95.037 E98.59118
G1 X76.184 Y94.301 E98.61285
G1 X99.310 Y71.176 E99.57564
G1 X98.574 Y71.176 E99.59730
G1 X76.185 Y93.565 E100.52943
G1 X76.185 Y92.829 E100.55111
G1 X97.839 Y71.176 E101.45259
G1 X97.103 Y71.176 E101.47425
G1 X76.186 Y92.093 E102.34509
G1 X76.186 Y91.356 E102.36676
G1 X96.367 Y71.176 E103.20695
G1 X95.631 Y71.176 E103.22861
G1 X76.187 Y90.620 E104.03814
G1 X76.187 Y89.884 E104.05981
G1 X94.896 Y71.176 E104.83870
G1 X94.160 Y71.176 E104.86035
G1 X76.188 Y89.148 E105.60859
G1 X76.188 Y88.412 E105.63025
G1 X93.424 Y71.176 E106.34784
G1 X92.688 Y71.176 E106.36950
G1 X76.188 Y87.677 E107.05648
G1 X76.187 Y86.941 E107.07813
G1 X91.953 Y71.176 E107.73450
G1 X91.217 Y71.176 E107.75616
G1 X76.187 Y86.206 E108.38193
G1 X76.186 Y85.471 E108.40357
G1 X90.481 Y71.176 E108.99873
G1 X89.746 Y71.176 E109.02039
G1 X76.186 Y84.736 E109.58494
G1 X76.185 Y84.001 E109.60658
G1 X89.010 Y71.176 E110.14052
G1 X88.274 Y71.176 E110.16218
G1 X76.184 Y83.265 E110.66551
G1 X76.184 Y82.530 E110.68716
G1 X87.538 Y71.176 E111.15988
G1 X86.803 Y71.176 E111.18154
G1 X76.183 Y81.795 E111.62366
G1 X76.183 Y81.060 E111.64530
G1 X86.067 Y71.176 E112.05681
G1 X85.331 Y71.176 E112.07847
G1 X76.182 Y80.325 E112.45937
G1 X76.182 Y79.589 E112.48101
G1 X84.596 Y71.176 E112.83130
G1 X83.860 Y71.176 E112.85296
G1 X76.181 Y78.854 E113.17264
G1 X76.181 Y78.119 E113.19429
G1 X83.124 Y71.176 E113.48336
G1 X82.388 Y71.176 E113.50502
G1 X76.180 Y77.384 E113.76349
G1 X76.180 Y76.649 E113.78513
G1 X81.653 Y71.176 E114.01299
G1 X80.917 Y71.176 E114.03465
G1 X76.179 Y75.913 E114.23190
G1 X76.179 Y75.178 E114.25354
G1 X80.181 Y71.176 E114.42018
G1 X79.446 Y71.176 E114.44184
G1 X76.178 Y74.443 E114.57787
G1 X76.178 Y73.708 E114.59951
G1 X78.710 Y71.176 E114.70494
G1 X77.974 Y71.176 E114.72660
G1 X76.177 Y72.973 E114.80141
G1 X76.177 Y72.238 E114.82306
G1 X77.238 Y71.176 E114.86727
G1 X76.503 Y71.176 E114.88892
G1 X76.176 Y71.502 E114.90252
G1 F1800.000 E113.90252
G1 Z1.800 F7800.000
G92 E0
G1 X75.799 Y70.799
G1 Z1.300
G1 F1800.000 E1.00000
G1 X124.201 Y70.799 F1800.000 E2.42327
G1 X124.201 Y107.201 E3.49368
G1 X75.799 Y107.201 E4.91694
G1 X75.812 Y88.602 E5.46386
G1 X75.799 Y70.877 E5.98506
G1 X75.279 Y70.279 F7800.000
G1 X124.721 Y70.279 F1800.000 E7.43889
G1 X124.721 Y107.721 E8.53986
G1 X75.280 Y107.721 E9.99369
G1 X75.292 Y88.602 E10.55588
G1 X75.279 Y70.357 E11.09236
G1 X74.760 Y69.760 F7800.000
G1 X125.240 Y69.760 F1260.000 E12.57676
G1 X125.240 Y108.240 E13.70828
G1 X74.760 Y108.240 E15.19267
G1 X74.772 Y88.602 E15.77014
G1 X74.760 Y69.838 E16.32191
G1 X75.210 Y70.020 F7800.000
G1 X124.076 Y108.298
G1 X125.112 Y108.445 F1800.000 E16.35266
G1 X124.076 Y108.298 F7800.000
G1 X123.558 Y108.224 F1800.000 E16.36804
G1 X123.558 Y108.224 F7800.000
G1 X123.558 Y108.224 F1800.000 E16.36804
G1 X123.558 Y108.224 F7800.000
G1 X123.484 Y108.214 F1800.000 E16.37026
G1 X123.484 Y108.214 F7800.000
G1 X123.484 Y108.214 F1800.000 E16.37026
G1 X123.812 Y83.631 F7800.000
G1 X124.851 Y83.284 F1800.000 E16.40247
G1 X124.851 Y83.284 F7800.000
G1 X124.980 Y83.241 F1800.000 E16.40648
G1 X125.305 Y82.590 E16.42789
G1 X124.980 Y83.241 F7800.000
G1 X125.110 Y83.371 F1800.000 E16.43329
G1 X125.110 Y83.371 F7800.000
G1 X125.110 Y83.371 F1800.000 E16.43331
G1 X123.286 Y71.176 F7800.000
G1 X123.824 Y71.714 F3600.000 E16.45571
G1 X123.824 Y72.449 E16.47737
G1 X122.551 Y71.176 E16.53039
G1 X121.815 Y71.176 E16.55205
G1 X123.824 Y73.185 E16.63571
G1 X123.824 Y73.921 E16.65737
G1 X121.079 Y71.176 E16.77165
G1 X120.343 Y71.176 E16.79331
G1 X123.824 Y74.657 E16.93823
G1 X123.824 Y75.392 E16.95989
G1 X119.608 Y71.176 E17.13544
G1 X118.872 Y71.176 E17.15709
G1 X123.824 Y76.128 E17.36327
G1 X123.824 Y76.864 E17.38493
G1 X118.136 Y71.176 E17.62174
G1 X117.401 Y71.176 E17.64340
G1 X123.824 Y77.599 E17.91084
