; generated by Slic3r 0.9.8-dev on 2013-01-12 at 15:10:27

; layer_height = 0.4
; perimeters = 3
; top_solid_layers = 3
; bottom_solid_layers = 3
; fill_density = 0.40
; perimeter_speed = 30
; infill_speed = 60
; travel_speed = 130
; scale = 1
; nozzle_diameter = 0.5
; filament_diameter = 3
; extrusion_multiplier = 1
; perimeters extrusion width = 0.53mm
; infill extrusion width = 0.53mm
; first layer extrusion width = 0.80mm

M190 S60 ; wait for bed temperature to be reached
M104 S175 ; set temperature
G28 ; home all axes
G92 E0 ;reset extruder
M109 S175 ; wait for temperature to be reached
G90 ; use absolute coordinates
G21 ; set units to millimeters
G92 E0 ; reset extrusion distance
M82 ; use absolute distances for extrusion
G1 F1800.000 E-1.00000 ; retract
G1 Z1.400 ; move to next layer (0) and lift
G92 E0 ; reset extrusion distance
G1 X70.460 Y127.524 F7800.000 ; move to first skirt point
G1 Z0.400 ; restore layer Z
G1 F1800.000 E1.00000 ; compensate retraction
G1 X69.920 Y127.494 F540.000 E1.02251 ; skirt
G1 X69.380 Y127.434 E1.04513 ; skirt
G1 X68.850 Y127.324 E1.06766 ; skirt
G1 X68.330 Y127.164 E1.09031 ; skirt
G1 X67.830 Y126.974 E1.11258 ; skirt
G1 X67.100 Y126.614 E1.14646 ; skirt
G1 X66.430 Y126.164 E1.18006 ; skirt
G1 X66.010 Y125.824 E1.20255 ; skirt
G1 X65.810 Y125.634 E1.21403 ; skirt
G1 X65.260 Y125.044 E1.24761 ; skirt
G1 X64.790 Y124.384 E1.28134 ; skirt
G1 X45.910 Y91.684 E2.85316 ; skirt
G1 X45.640 Y91.164 E2.87755 ; skirt
G1 X45.410 Y90.614 E2.90236 ; skirt
G1 X45.230 Y90.054 E2.92685 ; skirt
G1 X45.160 Y89.774 E2.93886 ; skirt
G1 X45.060 Y89.194 E2.96336 ; skirt
G1 X45.000 Y88.314 E3.00008 ; skirt
G1 X45.000 Y56.824 E4.31093 ; skirt
G1 X45.050 Y56.014 E4.34471 ; skirt
G1 X45.090 Y55.744 E4.35608 ; skirt
G1 X45.200 Y55.214 E4.37861 ; skirt
G1 X45.350 Y54.694 E4.40114 ; skirt
G1 X45.650 Y53.934 E4.43515 ; skirt
G1 X45.910 Y53.454 E4.45787 ; skirt
G1 X46.200 Y52.994 E4.48051 ; skirt
G1 X46.520 Y52.564 E4.50282 ; skirt
G1 X46.880 Y52.154 E4.52554 ; skirt
G1 X47.480 Y51.604 E4.55942 ; skirt
G1 X47.910 Y51.284 E4.58173 ; skirt
G1 X48.370 Y50.994 E4.60437 ; skirt
G1 X48.850 Y50.734 E4.62709 ; skirt
G1 X49.100 Y50.624 E4.63846 ; skirt
G1 X49.610 Y50.434 E4.66112 ; skirt
G1 X50.130 Y50.284 E4.68365 ; skirt
G1 X50.930 Y50.134 E4.71753 ; skirt
G1 X51.740 Y50.084 E4.75131 ; skirt
G1 X94.640 Y50.084 E6.53713 ; skirt
G1 X130.910 Y50.334 E8.04700 ; skirt
G1 X131.720 Y50.424 E8.08093 ; skirt
G1 X132.240 Y50.534 E8.10305 ; skirt
G1 X132.760 Y50.684 E8.12558 ; skirt
G1 X133.500 Y50.984 E8.15882 ; skirt
G1 X133.980 Y51.234 E8.18135 ; skirt
G1 X134.650 Y51.684 E8.21495 ; skirt
G1 X135.070 Y52.024 E8.23744 ; skirt
G1 X135.460 Y52.394 E8.25982 ; skirt
G1 X135.640 Y52.594 E8.27102 ; skirt
G1 X136.140 Y53.224 E8.30450 ; skirt
G1 X136.550 Y53.914 E8.33791 ; skirt
G1 X136.790 Y54.404 E8.36062 ; skirt
G1 X137.060 Y55.154 E8.39381 ; skirt
G1 X154.570 Y114.514 E10.97008 ; skirt
G1 X154.750 Y115.314 E11.00421 ; skirt
G1 X154.820 Y115.854 E11.02688 ; skirt
G1 X154.850 Y116.394 E11.04940 ; skirt
G1 X154.830 Y116.944 E11.07231 ; skirt
G1 X154.760 Y117.484 E11.09497 ; skirt
G1 X154.650 Y118.014 E11.11751 ; skirt
G1 X154.500 Y118.544 E11.14043 ; skirt
G1 X154.310 Y119.054 E11.16309 ; skirt
G1 X154.080 Y119.544 E11.18562 ; skirt
G1 X153.810 Y120.014 E11.20819 ; skirt
G1 X153.500 Y120.464 E11.23093 ; skirt
G1 X153.160 Y120.884 E11.25343 ; skirt
G1 X152.780 Y121.274 E11.27609 ; skirt
G1 X152.370 Y121.644 E11.29908 ; skirt
G1 X151.940 Y121.964 E11.32140 ; skirt
G1 X151.480 Y122.254 E11.34403 ; skirt
G1 X143.250 Y127.004 E11.73959 ; skirt
G1 X142.710 Y127.254 E11.76436 ; skirt
G1 X142.160 Y127.454 E11.78873 ; skirt
G1 X141.580 Y127.604 E11.81367 ; skirt
G1 X141.000 Y127.704 E11.83817 ; skirt
G1 X140.120 Y127.764 E11.87488 ; skirt
G1 X70.570 Y127.525 E14.77008 ; skirt
G1 X70.460 Y127.524 E14.77467 ; skirt
G1 F1800.000 E13.77467 ; retract
G1 Z1.400 ; move to next layer (0) and lift
G92 E0 ; reset extrusion distance
G1 X86.871 Y58.296 F7800.000 ; move to first perimeter point
G1 Z0.400 ; restore layer Z
G1 F1800.000 E1.00000 ; compensate retraction
G1 X93.129 Y58.296 F540.000 E1.26049 ; perimeter
G1 X93.129 Y86.246 E2.42400 ; perimeter
G1 X110.104 Y115.648 E3.83729 ; perimeter
G1 X104.685 Y118.777 E4.09777 ; perimeter
G1 X86.871 Y87.923 E5.58085 ; perimeter
G1 X86.871 Y58.406 E6.80957 ; perimeter
G1 X86.871 Y58.296 E6.81416 ; perimeter
G1 X86.136 Y57.560 F7800.000 ; move to first perimeter point
G1 X93.864 Y57.560 F540.000 E7.13589 ; perimeter
G1 X93.864 Y86.049 E8.32183 ; perimeter
G1 X111.109 Y115.918 E9.75753 ; perimeter
G1 X104.416 Y119.782 E10.07926 ; perimeter
G1 X86.136 Y88.120 E11.60116 ; perimeter
G1 X86.136 Y57.670 E12.86871 ; perimeter
G1 X86.136 Y57.560 E12.87331 ; perimeter
G1 X85.400 Y56.824 F7800.000 ; move to first perimeter point
G1 X94.600 Y56.824 F540.000 E13.25628 ; perimeter
G1 X94.600 Y85.852 E14.46463 ; perimeter
G1 X112.114 Y116.187 E15.92275 ; perimeter
G1 X104.146 Y120.787 E16.30572 ; perimeter
G1 X85.400 Y88.317 E17.86645 ; perimeter
G1 X85.400 Y56.935 E19.17283 ; perimeter
G1 X85.400 Y56.824 E19.17742 ; perimeter
G1 X86.037 Y57.192 F7800.000 ; move inwards before travel
G1 F1800.000 E18.17742 ; retract
G1 Z1.400 ; lift plate during travel
G92 E0 ; reset extrusion distance
G1 X105.188 Y118.006 F7800.000 ; move to first fill point
G1 Z0.400 ; restore layer Z
G1 F1800.000 E1.00000 ; compensate retraction
G1 X104.720 Y117.538 F1080.000 E1.02783 ; fill
G1 X105.854 Y117.622 E1.07558 ; fill
G1 X103.286 Y115.055 E1.22807 ; fill
G1 X101.852 Y112.571 E1.34849 ; fill
G1 X106.519 Y117.238 E1.62566 ; fill
G1 X107.184 Y116.854 E1.65792 ; fill
G1 X100.419 Y110.088 E2.05976 ; fill
G1 X98.985 Y107.605 E2.18018 ; fill
G1 X107.850 Y116.470 E2.70668 ; fill
G1 X108.515 Y116.086 E2.73895 ; fill
G1 X97.551 Y105.122 E3.39013 ; fill
G1 X96.118 Y102.638 E3.51055 ; fill
G1 X109.181 Y115.701 E4.28640 ; fill
G1 X108.229 Y113.700 E4.37946 ; fill
G1 X94.684 Y100.155 E5.18393 ; fill
G1 X93.250 Y97.672 E5.30435 ; fill
G1 X106.795 Y111.217 E6.10883 ; fill
G1 X105.362 Y108.734 E6.22926 ; fill
G1 X91.816 Y95.189 E7.03373 ; fill
G1 X90.383 Y92.705 E7.15415 ; fill
G1 X103.928 Y106.250 E7.95863 ; fill
G1 X102.494 Y103.767 E8.07905 ; fill
G1 X88.949 Y90.222 E8.88352 ; fill
G1 X87.515 Y87.739 E9.00394 ; fill
G1 X101.060 Y101.284 E9.80842 ; fill
G1 X99.627 Y98.801 E9.92884 ; fill
G1 X87.373 Y86.547 E10.65664 ; fill
G1 X87.373 Y85.497 E10.70072 ; fill
G1 X98.193 Y96.317 E11.34336 ; fill
G1 X96.759 Y93.834 E11.46379 ; fill
G1 X87.373 Y84.448 E12.02128 ; fill
G1 X87.373 Y83.398 E12.06536 ; fill
G1 X95.326 Y91.351 E12.53770 ; fill
G1 X93.892 Y88.868 E12.65812 ; fill
G1 X87.373 Y82.348 E13.04532 ; fill
G1 X87.373 Y81.299 E13.08939 ; fill
G1 X92.627 Y86.554 E13.40147 ; fill
G1 X92.627 Y85.504 E13.44555 ; fill
G1 X87.373 Y80.249 E13.75764 ; fill
G1 X87.373 Y79.200 E13.80172 ; fill
G1 X92.627 Y84.454 E14.11380 ; fill
G1 X92.627 Y83.405 E14.15788 ; fill
G1 X87.373 Y78.150 E14.46996 ; fill
G1 X87.373 Y77.101 E14.51404 ; fill
G1 X92.627 Y82.355 E14.82612 ; fill
G1 X92.627 Y81.306 E14.87020 ; fill
G1 X87.373 Y76.051 E15.18228 ; fill
G1 X87.373 Y75.002 E15.22636 ; fill
G1 X92.627 Y80.256 E15.53845 ; fill
G1 X92.627 Y79.207 E15.58253 ; fill
G1 X87.373 Y73.952 E15.89461 ; fill
G1 X87.373 Y72.903 E15.93869 ; fill
G1 X92.627 Y78.157 E16.25078 ; fill
G1 X92.627 Y77.108 E16.29486 ; fill
G1 X87.373 Y71.853 E16.60694 ; fill
G1 X87.373 Y70.803 E16.65102 ; fill
G1 X92.627 Y76.058 E16.96311 ; fill
G1 X92.627 Y75.009 E17.00718 ; fill
G1 X87.373 Y69.754 E17.31927 ; fill
G1 X87.373 Y68.704 E17.36334 ; fill
G1 X92.627 Y73.959 E17.67543 ; fill
G1 X92.627 Y72.909 E17.71951 ; fill
G1 X87.373 Y67.655 E18.03159 ; fill
G1 X87.373 Y66.605 E18.07567 ; fill
G1 X92.627 Y71.860 E18.38775 ; fill
G1 X92.627 Y70.810 E18.43183 ; fill
G1 X87.373 Y65.556 E18.74392 ; fill
G1 X87.373 Y64.506 E18.78799 ; fill
G1 X92.627 Y69.761 E19.10008 ; fill
G1 X92.627 Y68.711 E19.14415 ; fill
G1 X87.373 Y63.457 E19.45624 ; fill
G1 X87.373 Y62.407 E19.50032 ; fill
G1 X92.627 Y67.662 E19.81241 ; fill
G1 X92.627 Y66.612 E19.85648 ; fill
G1 X87.373 Y61.358 E20.16857 ; fill
G1 X87.373 Y60.308 E20.21265 ; fill
G1 X92.627 Y65.563 E20.52474 ; fill
G1 X92.627 Y64.513 E20.56881 ; fill
G1 X87.373 Y59.258 E20.88090 ; fill
G1 X87.961 Y58.797 E20.91229 ; fill
G1 X92.627 Y63.464 E21.18945 ; fill
G1 X92.627 Y62.414 E21.23353 ; fill
G1 X89.010 Y58.797 E21.44835 ; fill
G1 X90.060 Y58.797 E21.49242 ; fill
G1 X92.627 Y61.364 E21.64491 ; fill
G1 X92.627 Y60.315 E21.68899 ; fill
G1 X91.109 Y58.797 E21.77914 ; fill
G1 X92.159 Y58.797 E21.82322 ; fill
G1 X92.627 Y59.265 E21.85103 ; fill
G1 F1800.000 E20.85103 ; retract
G1 Z1.400 ; move to next layer (0) and lift
G92 E0 ; reset extrusion distance
G1 X129.129 Y58.538 F7800.000 ; move to first perimeter point
G1 Z0.400 ; restore layer Z
G1 F1800.000 E1.00000 ; compensate retraction
G1 X129.129 Y86.489 F540.000 E2.16352 ; perimeter
G1 X146.104 Y115.891 E3.57680 ; perimeter
G1 X140.685 Y119.019 E3.83729 ; perimeter
G1 X122.871 Y88.165 E5.32037 ; perimeter
G1 X122.871 Y58.538 E6.55368 ; perimeter
G1 X129.018 Y58.538 E6.80957 ; perimeter
G1 X129.129 Y58.538 E6.81416 ; perimeter
G1 X129.864 Y57.802 F7800.000 ; move to first perimeter point
G1 X129.864 Y86.291 F540.000 E8.00010 ; perimeter
G1 X147.109 Y116.160 E9.43580 ; perimeter
G1 X140.416 Y120.024 E9.75753 ; perimeter
G1 X122.136 Y88.362 E11.27944 ; perimeter
G1 X122.136 Y57.802 E12.55158 ; perimeter
G1 X129.754 Y57.802 E12.86871 ; perimeter
G1 X129.864 Y57.802 E12.87331 ; perimeter
G1 X130.600 Y57.067 F7800.000 ; move to first perimeter point
G1 X130.600 Y86.094 F540.000 E14.08166 ; perimeter
G1 X148.114 Y116.429 E15.53977 ; perimeter
G1 X140.146 Y121.029 E15.92275 ; perimeter
G1 X121.400 Y88.559 E17.48348 ; perimeter
G1 X121.400 Y57.067 E18.79445 ; perimeter
G1 X130.490 Y57.067 E19.17283 ; perimeter
G1 X130.600 Y57.067 E19.17742 ; perimeter
G1 X130.232 Y57.704 F7800.000 ; move inwards before travel
G1 F1800.000 E18.17742 ; retract
G1 Z1.400 ; lift plate during travel
G92 E0 ; reset extrusion distance
G1 X141.188 Y118.249 F7800.000 ; move to first fill point
G1 Z0.400 ; restore layer Z
G1 F1800.000 E1.00000 ; compensate retraction
G1 X140.720 Y117.780 F1080.000 E1.02783 ; fill
G1 X141.854 Y117.865 E1.07558 ; fill
G1 X139.286 Y115.297 E1.22807 ; fill
G1 X137.852 Y112.814 E1.34849 ; fill
G1 X142.519 Y117.480 E1.62566 ; fill
G1 X143.184 Y117.096 E1.65792 ; fill
G1 X136.419 Y110.331 E2.05976 ; fill
G1 X134.985 Y107.847 E2.18018 ; fill
G1 X143.850 Y116.712 E2.70668 ; fill
G1 X144.515 Y116.328 E2.73895 ; fill
G1 X133.551 Y105.364 E3.39013 ; fill
G1 X132.118 Y102.881 E3.51055 ; fill
G1 X145.181 Y115.944 E4.28640 ; fill
G1 X144.229 Y113.943 E4.37946 ; fill
G1 X130.684 Y100.397 E5.18393 ; fill
G1 X129.250 Y97.914 E5.30435 ; fill
G1 X142.795 Y111.459 E6.10883 ; fill
G1 X141.362 Y108.976 E6.22926 ; fill
G1 X127.816 Y95.431 E7.03373 ; fill
G1 X126.383 Y92.948 E7.15415 ; fill
G1 X139.928 Y106.493 E7.95863 ; fill
G1 X138.494 Y104.010 E8.07905 ; fill
G1 X124.949 Y90.464 E8.88352 ; fill
G1 X123.515 Y87.981 E9.00394 ; fill
G1 X137.060 Y101.526 E9.80842 ; fill
G1 X135.627 Y99.043 E9.92884 ; fill
G1 X123.373 Y86.789 E10.65664 ; fill
G1 X123.373 Y85.739 E10.70072 ; fill
G1 X134.193 Y96.560 E11.34336 ; fill
G1 X132.759 Y94.077 E11.46379 ; fill
G1 X123.373 Y84.690 E12.02128 ; fill
G1 X123.373 Y83.640 E12.06536 ; fill
G1 X131.326 Y91.593 E12.53770 ; fill
G1 X129.892 Y89.110 E12.65812 ; fill
G1 X123.373 Y82.591 E13.04532 ; fill
G1 X123.373 Y81.541 E13.08939 ; fill
G1 X128.627 Y86.796 E13.40147 ; fill
G1 X128.627 Y85.746 E13.44555 ; fill
G1 X123.373 Y80.492 E13.75764 ; fill
G1 X123.373 Y79.442 E13.80172 ; fill
G1 X128.627 Y84.697 E14.11380 ; fill
G1 X128.627 Y83.647 E14.15788 ; fill
G1 X123.373 Y78.393 E14.46996 ; fill
G1 X123.373 Y77.343 E14.51404 ; fill
G1 X128.627 Y82.598 E14.82612 ; fill
G1 X128.627 Y81.548 E14.87020 ; fill
G1 X123.373 Y76.294 E15.18228 ; fill
G1 X123.373 Y75.244 E15.22636 ; fill
G1 X128.627 Y80.499 E15.53845 ; fill
G1 X128.627 Y79.449 E15.58253 ; fill
G1 X123.373 Y74.194 E15.89461 ; fill
G1 X123.373 Y73.145 E15.93869 ; fill
G1 X128.627 Y78.400 E16.25078 ; fill
G1 X128.627 Y77.350 E16.29486 ; fill
G1 X123.373 Y72.095 E16.60694 ; fill
G1 X123.373 Y71.046 E16.65102 ; fill
G1 X128.627 Y76.300 E16.96311 ; fill
G1 X128.627 Y75.251 E17.00718 ; fill
G1 X123.373 Y69.996 E17.31927 ; fill
G1 X123.373 Y68.947 E17.36334 ; fill
G1 X128.627 Y74.201 E17.67543 ; fill
G1 X128.627 Y73.152 E17.71951 ; fill
G1 X123.373 Y67.897 E18.03159 ; fill
G1 X123.373 Y66.848 E18.07567 ; fill
G1 X128.627 Y72.102 E18.38775 ; fill
G1 X128.627 Y71.053 E18.43183 ; fill
G1 X123.373 Y65.798 E18.74392 ; fill
G1 X123.373 Y64.748 E18.78799 ; fill
G1 X128.627 Y70.003 E19.10008 ; fill
G1 X128.627 Y68.954 E19.14415 ; fill
G1 X123.373 Y63.699 E19.45624 ; fill
G1 X123.373 Y62.649 E19.50032 ; fill
G1 X128.627 Y67.904 E19.81241 ; fill
G1 X128.627 Y66.855 E19.85648 ; fill
G1 X123.373 Y61.600 E20.16857 ; fill
G1 X123.373 Y60.550 E20.21265 ; fill
G1 X128.627 Y65.805 E20.52474 ; fill
G1 X128.627 Y64.755 E20.56881 ; fill
G1 X123.373 Y59.501 E20.88090 ; fill
G1 X123.961 Y59.039 E20.91229 ; fill
G1 X128.627 Y63.706 E21.18945 ; fill
G1 X128.627 Y62.656 E21.23353 ; fill
G1 X125.010 Y59.039 E21.44835 ; fill
G1 X126.060 Y59.039 E21.49242 ; fill
G1 X128.627 Y61.607 E21.64491 ; fill
G1 X128.627 Y60.557 E21.68899 ; fill
G1 X127.109 Y59.039 E21.77914 ; fill
G1 X128.159 Y59.039 E21.82322 ; fill
G1 X128.627 Y59.508 E21.85103 ; fill
G1 F1800.000 E20.85103 ; retract
G1 Z1.400 ; move to next layer (0) and lift
G92 E0 ; reset extrusion distance
G1 X53.211 Y58.296 F7800.000 ; move to first perimeter point
G1 Z0.400 ; restore layer Z
G1 F1800.000 E1.00000 ; compensate retraction
G1 X59.469 Y58.296 F540.000 E1.26049 ; perimeter
G1 X59.469 Y86.246 E2.42400 ; perimeter
G1 X76.444 Y115.648 E3.83729 ; perimeter
G1 X71.025 Y118.777 E4.09777 ; perimeter
G1 X53.211 Y87.923 E5.58085 ; perimeter
G1 X53.211 Y58.406 E6.80957 ; perimeter
G1 X53.211 Y58.296 E6.81416 ; perimeter
G1 X52.475 Y57.560 F7800.000 ; move to first perimeter point
G1 X60.204 Y57.560 F540.000 E7.13589 ; perimeter
G1 X60.204 Y86.049 E8.32183 ; perimeter
G1 X77.449 Y115.918 E9.75753 ; perimeter
G1 X70.755 Y119.782 E10.07926 ; perimeter
G1 X52.475 Y88.120 E11.60116 ; perimeter
G1 X52.475 Y57.670 E12.86871 ; perimeter
G1 X52.475 Y57.560 E12.87331 ; perimeter
G1 X51.740 Y56.824 F7800.000 ; move to first perimeter point
G1 X60.940 Y56.824 F540.000 E13.25628 ; perimeter
G1 X60.940 Y85.852 E14.46463 ; perimeter
G1 X78.454 Y116.187 E15.92275 ; perimeter
G1 X70.486 Y120.787 E16.30572 ; perimeter
G1 X51.740 Y88.317 E17.86645 ; perimeter
G1 X51.740 Y56.935 E19.17283 ; perimeter
G1 X51.740 Y56.824 E19.17742 ; perimeter
G1 X52.377 Y57.192 F7800.000 ; move inwards before travel
G1 F1800.000 E18.17742 ; retract
G1 Z1.400 ; lift plate during travel
G92 E0 ; reset extrusion distance
G1 X71.528 Y118.006 F7800.000 ; move to first fill point
G1 Z0.400 ; restore layer Z
G1 F1800.000 E1.00000 ; compensate retraction
G1 X71.060 Y117.538 F1080.000 E1.02783 ; fill
G1 X72.193 Y117.622 E1.07558 ; fill
G1 X69.626 Y115.055 E1.22807 ; fill
G1 X68.192 Y112.571 E1.34849 ; fill
G1 X72.859 Y117.238 E1.62566 ; fill
G1 X73.524 Y116.854 E1.65792 ; fill
G1 X66.758 Y110.088 E2.05976 ; fill
G1 X65.325 Y107.605 E2.18018 ; fill
G1 X74.190 Y116.470 E2.70668 ; fill
G1 X74.855 Y116.086 E2.73895 ; fill
G1 X63.891 Y105.122 E3.39013 ; fill
G1 X62.457 Y102.638 E3.51055 ; fill
G1 X75.520 Y115.701 E4.28640 ; fill
G1 X74.569 Y113.700 E4.37946 ; fill
G1 X61.024 Y100.155 E5.18393 ; fill
G1 X59.590 Y97.672 E5.30435 ; fill
G1 X73.135 Y111.217 E6.10883 ; fill
G1 X71.701 Y108.734 E6.22926 ; fill
G1 X58.156 Y95.189 E7.03373 ; fill
G1 X56.722 Y92.705 E7.15415 ; fill
G1 X70.268 Y106.250 E7.95863 ; fill
G1 X68.834 Y103.767 E8.07905 ; fill
G1 X55.289 Y90.222 E8.88352 ; fill
G1 X53.855 Y87.739 E9.00394 ; fill
G1 X67.400 Y101.284 E9.80842 ; fill
G1 X65.966 Y98.801 E9.92884 ; fill
