; generated by Slic3r 0.9.8-dev on 2013-01-12 at 11:24:46

; layer_height = 0.4
; perimeters = 3
; top_solid_layers = 3
; bottom_solid_layers = 3
; fill_density = 0.40
; perimeter_speed = 30
; infill_speed = 60
; travel_speed = 130
; scale = 1
; nozzle_diameter = 0.5
; filament_diameter = 3
; extrusion_multiplier = 1
; perimeters extrusion width = 0.53mm
; infill extrusion width = 0.53mm
; first layer extrusion width = 0.80mm

M190 S60 ; wait for bed temperature to be reached
M104 S180 ; set temperature
G28 ; home all axes
G92 E0 ;reset extruder
M109 S180 ; wait for temperature to be reached
G90 ; use absolute coordinates
G21 ; set units to millimeters
G92 E0 ; reset extrusion distance
M82 ; use absolute distances for extrusion
G1 F1800.000 E-1.00000 ; retract
G1 Z1.400 ; move to next layer (0) and lift
G92 E0 ; reset extrusion distance
G1 X120.010 Y116.006 F7800.000 ; move to first skirt point
G1 Z0.400 ; restore layer Z
G1 F1800.000 E1.00000 ; compensate retraction
G1 X120.020 Y116.276 F540.000 E1.01125 ; skirt
G1 X120.000 Y116.826 E1.03416 ; skirt
G1 X119.930 Y117.366 E1.05682 ; skirt
G1 X119.750 Y118.166 E1.09096 ; skirt
G1 X119.480 Y118.936 E1.12493 ; skirt
G1 X119.120 Y119.666 E1.15881 ; skirt
G1 X118.830 Y120.126 E1.18144 ; skirt
G1 X118.330 Y120.766 E1.21525 ; skirt
G1 X117.750 Y121.346 E1.24940 ; skirt
G1 X117.540 Y121.526 E1.26091 ; skirt
G1 X117.110 Y121.846 E1.28322 ; skirt
G1 X116.650 Y122.136 E1.30586 ; skirt
G1 X108.680 Y126.736 E1.68893 ; skirt
G1 X108.200 Y126.996 E1.71165 ; skirt
G1 X107.950 Y127.106 E1.72302 ; skirt
G1 X107.440 Y127.296 E1.74568 ; skirt
G1 X106.920 Y127.446 E1.76820 ; skirt
G1 X106.120 Y127.596 E1.80209 ; skirt
G1 X105.580 Y127.636 E1.82463 ; skirt
G1 X105.040 Y127.636 E1.84711 ; skirt
G1 X104.500 Y127.596 E1.86965 ; skirt
G1 X104.230 Y127.556 E1.88101 ; skirt
G1 X103.700 Y127.446 E1.90354 ; skirt
G1 X103.180 Y127.296 E1.92607 ; skirt
G1 X102.670 Y127.106 E1.94873 ; skirt
G1 X102.420 Y126.986 E1.96027 ; skirt
G1 X101.940 Y126.736 E1.98280 ; skirt
G1 X101.480 Y126.446 E2.00543 ; skirt
G1 X101.050 Y126.126 E2.02775 ; skirt
G1 X100.450 Y125.576 E2.06163 ; skirt
G1 X99.920 Y124.956 E2.09558 ; skirt
G1 X99.480 Y124.276 E2.12930 ; skirt
G1 X80.740 Y91.806 E3.68991 ; skirt
G1 X80.350 Y91.016 E3.72658 ; skirt
G1 X80.240 Y90.736 E3.73911 ; skirt
G1 X80.060 Y90.176 E3.76359 ; skirt
G1 X79.990 Y89.896 E3.77561 ; skirt
G1 X79.890 Y89.316 E3.80011 ; skirt
G1 X79.860 Y89.026 E3.81224 ; skirt
G1 X79.830 Y88.436 E3.83684 ; skirt
G1 X79.830 Y56.946 E5.14769 ; skirt
G1 X79.880 Y56.136 E5.18147 ; skirt
G1 X79.970 Y55.596 E5.20426 ; skirt
G1 X80.180 Y54.816 E5.23788 ; skirt
G1 X80.480 Y54.056 E5.27190 ; skirt
G1 X80.880 Y53.346 E5.30582 ; skirt
G1 X81.350 Y52.686 E5.33955 ; skirt
G1 X81.900 Y52.086 E5.37343 ; skirt
G1 X82.520 Y51.566 E5.40712 ; skirt
G1 X83.200 Y51.116 E5.44106 ; skirt
G1 X83.680 Y50.856 E5.46378 ; skirt
G1 X83.930 Y50.746 E5.47515 ; skirt
G1 X84.700 Y50.476 E5.50912 ; skirt
G1 X85.490 Y50.296 E5.54285 ; skirt
G1 X85.760 Y50.256 E5.55421 ; skirt
G1 X86.570 Y50.206 E5.58799 ; skirt
G1 X96.040 Y50.216 E5.98221 ; skirt
G1 X96.580 Y50.256 E6.00475 ; skirt
G1 X96.850 Y50.296 E6.01611 ; skirt
G1 X97.380 Y50.406 E6.03864 ; skirt
G1 X97.900 Y50.556 E6.06117 ; skirt
G1 X98.650 Y50.856 E6.09480 ; skirt
G1 X99.360 Y51.246 E6.12852 ; skirt
G1 X100.020 Y51.716 E6.16225 ; skirt
G1 X100.420 Y52.076 E6.18465 ; skirt
G1 X100.800 Y52.466 E6.20731 ; skirt
G1 X101.140 Y52.876 E6.22949 ; skirt
G1 X101.450 Y53.326 E6.25223 ; skirt
G1 X101.720 Y53.796 E6.27480 ; skirt
G1 X102.060 Y54.526 E6.30832 ; skirt
G1 X102.230 Y55.036 E6.33070 ; skirt
G1 X119.740 Y114.396 E8.90697 ; skirt
G1 X119.920 Y115.196 E8.94111 ; skirt
G1 X120.002 Y115.895 E8.97044 ; skirt
G1 X120.010 Y116.006 E8.97504 ; skirt
G1 F1800.000 E7.97504 ; retract
G1 Z1.400 ; move to next layer (0) and lift
G92 E0 ; reset extrusion distance
G1 X88.041 Y58.417 F7800.000 ; move to first perimeter point
G1 Z0.400 ; restore layer Z
G1 F1800.000 E1.00000 ; compensate retraction
G1 X94.299 Y58.417 F540.000 E1.26049 ; perimeter
G1 X94.299 Y86.367 E2.42400 ; perimeter
G1 X111.274 Y115.770 E3.83729 ; perimeter
G1 X105.855 Y118.898 E4.09777 ; perimeter
G1 X88.041 Y88.044 E5.58085 ; perimeter
G1 X88.041 Y58.527 E6.80957 ; perimeter
G1 X88.041 Y58.417 E6.81416 ; perimeter
G1 X87.305 Y57.681 F7800.000 ; move to first perimeter point
G1 X95.034 Y57.681 F540.000 E7.13589 ; perimeter
G1 X95.034 Y86.170 E8.32183 ; perimeter
G1 X112.279 Y116.039 E9.75753 ; perimeter
G1 X105.586 Y119.903 E10.07926 ; perimeter
G1 X87.305 Y88.241 E11.60116 ; perimeter
G1 X87.305 Y57.791 E12.86871 ; perimeter
G1 X87.305 Y57.681 E12.87331 ; perimeter
G1 X86.570 Y56.946 F7800.000 ; move to first perimeter point
G1 X95.770 Y56.946 F540.000 E13.25628 ; perimeter
G1 X95.770 Y85.973 E14.46463 ; perimeter
G1 X113.284 Y116.308 E15.92275 ; perimeter
G1 X105.316 Y120.908 E16.30572 ; perimeter
G1 X86.570 Y88.438 E17.86645 ; perimeter
G1 X86.570 Y57.056 E19.17283 ; perimeter
G1 X86.570 Y56.946 E19.17742 ; perimeter
G1 X87.207 Y57.313 F7800.000 ; move inwards before travel
G1 F1800.000 E18.17742 ; retract
G1 Z1.400 ; lift plate during travel
G92 E0 ; reset extrusion distance
G1 X106.358 Y118.128 F7800.000 ; move to first fill point
G1 Z0.400 ; restore layer Z
G1 F1800.000 E1.00000 ; compensate retraction
G1 X105.890 Y117.659 F1080.000 E1.02783 ; fill
G1 X107.024 Y117.743 E1.07558 ; fill
G1 X104.456 Y115.176 E1.22807 ; fill
G1 X103.022 Y112.693 E1.34849 ; fill
G1 X107.689 Y117.359 E1.62566 ; fill
G1 X108.354 Y116.975 E1.65792 ; fill
G1 X101.589 Y110.209 E2.05976 ; fill
G1 X100.155 Y107.726 E2.18018 ; fill
G1 X109.020 Y116.591 E2.70668 ; fill
G1 X109.685 Y116.207 E2.73895 ; fill
G1 X98.721 Y105.243 E3.39013 ; fill
G1 X97.287 Y102.760 E3.51055 ; fill
G1 X110.350 Y115.823 E4.28640 ; fill
G1 X109.399 Y113.821 E4.37946 ; fill
G1 X95.854 Y100.276 E5.18393 ; fill
G1 X94.420 Y97.793 E5.30435 ; fill
G1 X107.965 Y111.338 E6.10883 ; fill
G1 X106.531 Y108.855 E6.22926 ; fill
G1 X92.986 Y95.310 E7.03373 ; fill
G1 X91.553 Y92.827 E7.15415 ; fill
G1 X105.098 Y106.372 E7.95863 ; fill
G1 X103.664 Y103.888 E8.07905 ; fill
G1 X90.119 Y90.343 E8.88352 ; fill
G1 X88.685 Y87.860 E9.00394 ; fill
G1 X102.230 Y101.405 E9.80842 ; fill
G1 X100.797 Y98.922 E9.92884 ; fill
G1 X88.543 Y86.668 E10.65664 ; fill
G1 X88.543 Y85.618 E10.70072 ; fill
G1 X99.363 Y96.439 E11.34336 ; fill
G1 X97.929 Y93.955 E11.46379 ; fill
G1 X88.543 Y84.569 E12.02128 ; fill
G1 X88.543 Y83.519 E12.06536 ; fill
G1 X96.495 Y91.472 E12.53770 ; fill
G1 X95.062 Y88.989 E12.65812 ; fill
G1 X88.543 Y82.470 E13.04532 ; fill
G1 X88.543 Y81.420 E13.08939 ; fill
G1 X93.797 Y86.675 E13.40147 ; fill
G1 X93.797 Y85.625 E13.44555 ; fill
G1 X88.543 Y80.371 E13.75764 ; fill
G1 X88.543 Y79.321 E13.80172 ; fill
G1 X93.797 Y84.576 E14.11380 ; fill
G1 X93.797 Y83.526 E14.15788 ; fill
G1 X88.543 Y78.271 E14.46996 ; fill
G1 X88.543 Y77.222 E14.51404 ; fill
G1 X93.797 Y82.477 E14.82612 ; fill
G1 X93.797 Y81.427 E14.87020 ; fill
G1 X88.543 Y76.172 E15.18228 ; fill
G1 X88.543 Y75.123 E15.22636 ; fill
G1 X93.797 Y80.377 E15.53845 ; fill
G1 X93.797 Y79.328 E15.58253 ; fill
G1 X88.543 Y74.073 E15.89461 ; fill
G1 X88.543 Y73.024 E15.93869 ; fill
G1 X93.797 Y78.278 E16.25078 ; fill
G1 X93.797 Y77.229 E16.29486 ; fill
G1 X88.543 Y71.974 E16.60694 ; fill
G1 X88.543 Y70.925 E16.65102 ; fill
G1 X93.797 Y76.179 E16.96311 ; fill
G1 X93.797 Y75.130 E17.00718 ; fill
G1 X88.543 Y69.875 E17.31927 ; fill
G1 X88.543 Y68.826 E17.36334 ; fill
G1 X93.797 Y74.080 E17.67543 ; fill
G1 X93.797 Y73.031 E17.71951 ; fill
G1 X88.543 Y67.776 E18.03159 ; fill
G1 X88.543 Y66.726 E18.07567 ; fill
G1 X93.797 Y71.981 E18.38775 ; fill
G1 X93.797 Y70.932 E18.43183 ; fill
G1 X88.543 Y65.677 E18.74392 ; fill
G1 X88.543 Y64.627 E18.78799 ; fill
G1 X93.797 Y69.882 E19.10008 ; fill
G1 X93.797 Y68.832 E19.14415 ; fill
G1 X88.543 Y63.578 E19.45624 ; fill
G1 X88.543 Y62.528 E19.50032 ; fill
G1 X93.797 Y67.783 E19.81241 ; fill
G1 X93.797 Y66.733 E19.85648 ; fill
G1 X88.543 Y61.479 E20.16857 ; fill
G1 X88.543 Y60.429 E20.21265 ; fill
G1 X93.797 Y65.684 E20.52474 ; fill
G1 X93.797 Y64.634 E20.56881 ; fill
G1 X88.543 Y59.380 E20.88090 ; fill
G1 X89.131 Y58.918 E20.91229 ; fill
G1 X93.797 Y63.585 E21.18945 ; fill
G1 X93.797 Y62.535 E21.23353 ; fill
G1 X90.180 Y58.918 E21.44835 ; fill
G1 X91.230 Y58.918 E21.49242 ; fill
G1 X93.797 Y61.486 E21.64491 ; fill
G1 X93.797 Y60.436 E21.68899 ; fill
G1 X92.279 Y58.918 E21.77914 ; fill
G1 X93.329 Y58.918 E21.82322 ; fill
G1 X93.797 Y59.387 E21.85103 ; fill
M104 S175 ; set temperature
G1 F1800.000 E20.85103 ; retract
G1 Z1.800 ; move to next layer (1) and lift
G92 E0 ; reset extrusion distance
G1 X87.472 Y88.197 F7800.000 ; move to first perimeter point
G1 Z0.800 ; restore layer Z
G1 F1800.000 E1.00000 ; compensate retraction
G1 X87.472 Y57.847 F1800.000 E1.89243 ; perimeter
G1 X94.868 Y57.847 E2.10993 ; perimeter
G1 X94.868 Y86.215 E2.94409 ; perimeter
G1 X112.052 Y115.978 E3.95468 ; perimeter
G1 X105.646 Y119.676 E4.17217 ; perimeter
G1 X87.511 Y88.264 E5.23875 ; perimeter
G1 X87.472 Y88.197 E5.24104 ; perimeter
G1 X86.952 Y88.336 F7800.000 ; move to first perimeter point
G1 X86.952 Y57.328 F1800.000 E6.15285 ; perimeter
G1 X95.388 Y57.328 E6.40090 ; perimeter
G1 X95.388 Y86.076 E7.24624 ; perimeter
G1 X112.762 Y116.168 E8.26802 ; perimeter
G1 X105.456 Y120.386 E8.51607 ; perimeter
G1 X86.991 Y88.403 E9.60202 ; perimeter
G1 X86.952 Y88.336 E9.60431 ; perimeter
G1 X86.432 Y88.475 F7800.000 ; move to first perimeter point
G1 X86.432 Y56.808 F1800.000 E10.53550 ; perimeter
G1 X95.907 Y56.808 E10.81411 ; perimeter
G1 X95.907 Y85.936 E11.67064 ; perimeter
G1 X113.472 Y116.358 E12.70360 ; perimeter
G1 X105.266 Y121.096 E12.98222 ; perimeter
G1 X86.471 Y88.543 E14.08754 ; perimeter
G1 X86.432 Y88.475 E14.08983 ; perimeter
G1 X86.830 Y88.141 F7800.000 ; move inwards before travel
G1 F1800.000 E13.08983 ; retract
G1 Z1.800 ; lift plate during travel
G92 E0 ; reset extrusion distance
G1 X94.514 Y85.931 F7800.000 ; move to first fill point
G1 Z0.800 ; restore layer Z
G1 F1800.000 E1.00000 ; compensate retraction
G1 X89.435 Y91.010 F3600.000 E1.21297 ; fill
G1 X89.164 Y90.540 E1.22906 ; fill
G1 X94.514 Y85.190 E1.45341 ; fill
G1 X94.514 Y84.449 E1.47538 ; fill
G1 X88.893 Y90.071 E1.71110 ; fill
G1 X88.621 Y89.601 E1.72719 ; fill
G1 X94.514 Y83.708 E1.97428 ; fill
G1 X94.514 Y82.967 E1.99626 ; fill
G1 X88.350 Y89.131 E2.25473 ; fill
G1 X88.079 Y88.661 E2.27081 ; fill
G1 X94.514 Y82.226 E2.54065 ; fill
G1 X94.514 Y81.485 E2.56263 ; fill
G1 X87.826 Y88.173 E2.84308 ; fill
G1 X87.826 Y87.432 E2.86506 ; fill
G1 X94.514 Y80.744 E3.14551 ; fill
G1 X94.514 Y80.003 E3.16748 ; fill
G1 X87.826 Y86.691 E3.44794 ; fill
G1 X87.826 Y85.950 E3.46991 ; fill
G1 X94.514 Y79.262 E3.75037 ; fill
G1 X94.514 Y78.521 E3.77234 ; fill
G1 X87.826 Y85.209 E4.05280 ; fill
G1 X87.826 Y84.468 E4.07477 ; fill
G1 X94.514 Y77.780 E4.35523 ; fill
G1 X94.514 Y77.039 E4.37720 ; fill
G1 X87.826 Y83.727 E4.65766 ; fill
G1 X87.826 Y82.986 E4.67963 ; fill
G1 X94.514 Y76.298 E4.96008 ; fill
G1 X94.514 Y75.557 E4.98206 ; fill
G1 X87.826 Y82.245 E5.26252 ; fill
G1 X87.826 Y81.504 E5.28449 ; fill
G1 X94.514 Y74.816 E5.56495 ; fill
G1 X94.514 Y74.075 E5.58692 ; fill
G1 X87.826 Y80.763 E5.86738 ; fill
G1 X87.826 Y80.022 E5.88935 ; fill
G1 X94.514 Y73.334 E6.16981 ; fill
G1 X94.514 Y72.593 E6.19178 ; fill
G1 X87.826 Y79.281 E6.47223 ; fill
G1 X87.826 Y78.540 E6.49420 ; fill
G1 X94.514 Y71.852 E6.77466 ; fill
G1 X94.514 Y71.111 E6.79663 ; fill
G1 X87.826 Y77.799 E7.07709 ; fill
G1 X87.826 Y77.058 E7.09906 ; fill
G1 X94.514 Y70.370 E7.37951 ; fill
G1 X94.514 Y69.629 E7.40149 ; fill
G1 X87.826 Y76.317 E7.68195 ; fill
G1 X87.826 Y75.576 E7.70392 ; fill
G1 X94.514 Y68.888 E7.98438 ; fill
G1 X94.514 Y68.147 E8.00635 ; fill
G1 X87.826 Y74.835 E8.28681 ; fill
G1 X87.826 Y74.094 E8.30878 ; fill
G1 X94.514 Y67.406 E8.58923 ; fill
G1 X94.514 Y66.665 E8.61121 ; fill
G1 X87.826 Y73.353 E8.89166 ; fill
G1 X87.826 Y72.612 E8.91363 ; fill
G1 X94.514 Y65.924 E9.19409 ; fill
G1 X94.514 Y65.183 E9.21606 ; fill
G1 X87.826 Y71.871 E9.49652 ; fill
G1 X87.826 Y71.130 E9.51849 ; fill
G1 X94.514 Y64.441 E9.79895 ; fill
G1 X94.514 Y63.701 E9.82092 ; fill
G1 X87.826 Y70.389 E10.10138 ; fill
G1 X87.826 Y69.648 E10.12335 ; fill
G1 X94.514 Y62.959 E10.40381 ; fill
G1 X94.514 Y62.218 E10.42578 ; fill
G1 X87.826 Y68.907 E10.70624 ; fill
G1 X87.826 Y68.166 E10.72821 ; fill
G1 X94.514 Y61.477 E11.00866 ; fill
G1 X94.514 Y60.736 E11.03064 ; fill
G1 X87.826 Y67.425 E11.31109 ; fill
G1 X87.826 Y66.683 E11.33307 ; fill
G1 X94.514 Y59.995 E11.61352 ; fill
G1 X94.514 Y59.254 E11.63550 ; fill
G1 X87.826 Y65.942 E11.91596 ; fill
G1 X87.826 Y65.201 E11.93793 ; fill
G1 X94.514 Y58.513 E12.21838 ; fill
G1 X94.085 Y58.201 E12.23412 ; fill
G1 X87.826 Y64.460 E12.49657 ; fill
G1 X87.826 Y63.719 E12.51855 ; fill
G1 X93.344 Y58.201 E12.74993 ; fill
G1 X92.603 Y58.201 E12.77190 ; fill
G1 X87.826 Y62.978 E12.97222 ; fill
G1 X87.826 Y62.237 E12.99419 ; fill
G1 X91.862 Y58.201 E13.16343 ; fill
G1 X91.121 Y58.201 E13.18540 ; fill
G1 X87.826 Y61.496 E13.32357 ; fill
G1 X87.826 Y60.755 E13.34554 ; fill
G1 X90.380 Y58.201 E13.45263 ; fill
G1 X89.639 Y58.201 E13.47461 ; fill
G1 X87.826 Y60.014 E13.55062 ; fill
G1 X87.826 Y59.273 E13.57260 ; fill
G1 X88.898 Y58.201 E13.61754 ; fill
G1 F1800.000 E12.61754 ; retract
G1 Z1.800 ; lift plate during travel
G92 E0 ; reset extrusion distance
G1 X111.507 Y115.622 F7800.000 ; move to first fill point
G1 Z0.800 ; restore layer Z
G1 F1800.000 E1.00000 ; compensate retraction
G1 X111.176 Y115.953 F3600.000 E1.01388 ; fill
G1 X111.236 Y115.153 E1.03769 ; fill
G1 X109.423 Y116.966 E1.11372 ; fill
G1 X107.670 Y117.978 E1.17375 ; fill
G1 X110.965 Y114.683 E1.31193 ; fill
G1 X110.694 Y114.213 E1.32802 ; fill
G1 X105.917 Y118.990 E1.52834 ; fill
G1 X105.438 Y118.728 E1.54453 ; fill
G1 X110.423 Y113.743 E1.75355 ; fill
G1 X110.151 Y113.273 E1.76964 ; fill
G1 X105.167 Y118.258 E1.97866 ; fill
G1 X104.895 Y117.788 E1.99475 ; fill
G1 X109.880 Y112.804 E2.20377 ; fill
G1 X109.609 Y112.334 E2.21986 ; fill
G1 X104.624 Y117.319 E2.42888 ; fill
G1 X104.353 Y116.849 E2.44496 ; fill
G1 X109.338 Y111.864 E2.65399 ; fill
G1 X109.066 Y111.394 E2.67007 ; fill
G1 X104.082 Y116.379 E2.87910 ; fill
G1 X103.810 Y115.909 E2.89518 ; fill
G1 X108.795 Y110.924 E3.10421 ; fill
G1 X108.524 Y110.455 E3.12029 ; fill
G1 X103.539 Y115.439 E3.32932 ; fill
G1 X103.268 Y114.970 E3.34540 ; fill
G1 X108.253 Y109.985 E3.55443 ; fill
G1 X107.981 Y109.515 E3.57051 ; fill
G1 X102.997 Y114.500 E3.77953 ; fill
G1 X102.726 Y114.030 E3.79562 ; fill
G1 X107.710 Y109.045 E4.00464 ; fill
G1 X107.439 Y108.576 E4.02073 ; fill
G1 X102.454 Y113.560 E4.22975 ; fill
G1 X102.183 Y113.090 E4.24584 ; fill
G1 X107.168 Y108.106 E4.45486 ; fill
G1 X106.896 Y107.636 E4.47095 ; fill
G1 X101.912 Y112.621 E4.67997 ; fill
G1 X101.641 Y112.151 E4.69606 ; fill
G1 X106.625 Y107.166 E4.90508 ; fill
G1 X106.354 Y106.696 E4.92117 ; fill
G1 X101.369 Y111.681 E5.13019 ; fill
G1 X101.098 Y111.211 E5.14628 ; fill
G1 X106.083 Y106.227 E5.35530 ; fill
G1 X105.812 Y105.757 E5.37138 ; fill
G1 X100.827 Y110.741 E5.58041 ; fill
G1 X100.556 Y110.272 E5.59649 ; fill
G1 X105.540 Y105.287 E5.80552 ; fill
G1 X105.269 Y104.817 E5.82160 ; fill
G1 X100.284 Y109.802 E6.03063 ; fill
G1 X100.013 Y109.332 E6.04671 ; fill
G1 X104.998 Y104.347 E6.25574 ; fill
G1 X104.727 Y103.878 E6.27182 ; fill
G1 X99.742 Y108.862 E6.48085 ; fill
G1 X99.471 Y108.392 E6.49693 ; fill
G1 X104.455 Y103.408 E6.70595 ; fill
G1 X104.184 Y102.938 E6.72204 ; fill
G1 X99.199 Y107.923 E6.93106 ; fill
G1 X98.928 Y107.453 E6.94715 ; fill
G1 X103.913 Y102.468 E7.15617 ; fill
G1 X103.642 Y101.998 E7.17226 ; fill
G1 X98.657 Y106.983 E7.38128 ; fill
G1 X98.386 Y106.513 E7.39737 ; fill
G1 X103.370 Y101.529 E7.60639 ; fill
G1 X103.099 Y101.059 E7.62248 ; fill
G1 X98.115 Y106.044 E7.83150 ; fill
G1 X97.843 Y105.574 E7.84759 ; fill
G1 X102.828 Y100.589 E8.05661 ; fill
