; generated by Slic3r 0.9.10b on 2013-08-31 at 16:49:39

; layer_height = 0.4
; perimeters = 3
; top_solid_layers = 3
; bottom_solid_layers = 3
; fill_density = 0.4
; perimeter_speed = 30
; infill_speed = 60
; travel_speed = 130
; nozzle_diameter = 0.5
; filament_diameter = 3
; extrusion_multiplier = 1
; perimeters extrusion width = 0.53mm
; infill extrusion width = 0.53mm
; solid infill extrusion width = 0.53mm
; top infill extrusion width = 0.53mm
; first layer extrusion width = 1.00mm

G21 ; set units to millimeters
M107
M190 S60 ; wait for bed temperature to be reached
M104 S180 ; set temperature
G28 ; home all axes
G1 Z5 F5000 ; lift nozzle
M109 S180 ; wait for temperature to be reached
G90 ; use absolute coordinates
G92 E0
M82 ; use absolute distances for extrusion
G1 F1800.000 E-1.00000
G1 Z1.000 F7800.000
G92 E0
G1 X48.280 Y92.360
G1 Z0.500
G1 F1800.000 E1.00000
G1 X49.580 Y91.970 F600.000 E1.08570
G1 X50.920 Y91.840 E1.17072
G1 X149.070 Y91.840 E7.36845
G1 X150.410 Y91.970 E7.45346
G1 X151.710 Y92.360 E7.53917
G1 X152.900 Y93.000 E7.62449
G1 X153.940 Y93.860 E7.70970
G1 X154.800 Y94.900 E7.79492
G1 X155.440 Y96.090 E7.88024
G1 X155.830 Y97.390 E7.96595
G1 X155.960 Y98.730 E8.05096
G1 X155.960 Y99.260 E8.08442
G1 X155.830 Y100.600 E8.16944
G1 X155.440 Y101.900 E8.25514
G1 X154.800 Y103.090 E8.34046
G1 X153.940 Y104.130 E8.42568
G1 X152.900 Y104.990 E8.51089
G1 X151.710 Y105.630 E8.59622
G1 X150.410 Y106.020 E8.68192
G1 X149.070 Y106.150 E8.76693
G1 X50.920 Y106.150 E14.96467
G1 X49.580 Y106.020 E15.04968
G1 X48.280 Y105.630 E15.13538
G1 X47.090 Y104.990 E15.22070
G1 X46.050 Y104.130 E15.30592
G1 X45.190 Y103.090 E15.39114
G1 X44.550 Y101.900 E15.47646
G1 X44.160 Y100.600 E15.56216
G1 X44.030 Y99.260 E15.64717
G1 X44.030 Y98.730 E15.68064
G1 X44.160 Y97.390 E15.76565
G1 X44.550 Y96.090 E15.85136
G1 X45.190 Y94.900 E15.93668
G1 X46.050 Y93.860 E16.02189
G1 X47.090 Y93.000 E16.10711
G1 X48.162 Y92.423 E16.18397
G1 F1800.000 E15.18397
G1 Z1.000 F7800.000
G92 E0
G1 X57.338 Y99.000
G1 Z0.500
G1 F1800.000 E1.00000
G1 X63.000 Y99.000 F600.000 E1.35750
G1 X63.260 Y98.737 E1.38085
G1 X63.000 Y99.000 F7800.000
G1 X63.253 Y99.250 F600.000 E1.40332
G1 X63.253 Y99.250 F7800.000
G1 X63.260 Y99.263 F600.000 E1.40424
G1 F1800.000 E0.40424
G1 Z1.000 F7800.000
G92 E0
G1 X57.338 Y99.000
G1 Z0.500
G1 F1800.000 E1.00000
G1 X51.910 Y99.000 F600.000 E1.34275
G1 X51.910 Y99.000 F7800.000
G1 X51.183 Y99.000 F600.000 E1.38866
G1 X50.930 Y98.750 E1.41113
G1 X50.930 Y98.750 F7800.000
G1 X50.924 Y98.737 F600.000 E1.41205
G1 X51.183 Y99.000 F7800.000
G1 X50.924 Y99.263 F600.000 E1.43540
G1 F1800.000 E0.43540
G1 Z1.000 F7800.000
G92 E0
G1 X57.338 Y99.000
G1 Z0.500
G1 F1800.000 E1.00000
G1 X57.338 Y99.000 F1800.000
G1 F1800.000 E0.00000
G1 Z1.000 F7800.000
G92 E0
G1 X136.740 Y99.263
G1 Z0.500
G1 F1800.000 E1.00000
G1 X136.747 Y99.250 F600.000 E1.00092
G1 X136.747 Y99.250 F7800.000
G1 X137.000 Y99.000 F600.000 E1.02339
G1 X137.234 Y99.000 F7800.000
G1 X136.747 Y98.750 F600.000 E1.05795
G1 X136.747 Y98.750 F7800.000
G1 X136.740 Y98.737 F600.000 E1.05888
G1 X137.234 Y99.000 F7800.000
G1 X144.142 Y99.000 F600.000 E1.49510
G1 X144.142 Y99.000 F7800.000
G1 X145.129 Y99.000 F600.000 E1.55742
G1 X145.129 Y99.000 F7800.000
G1 X148.817 Y99.000 F600.000 E1.79029
G1 X149.076 Y98.737 E1.81363
G1 X148.817 Y99.000 F7800.000
G1 X149.070 Y99.250 F600.000 E1.83611
G1 X149.070 Y99.250 F7800.000
G1 X149.076 Y99.263 F600.000 E1.83703
M106 S255
G1 F1800.000 E0.83703
G1 Z1.400 F7800.000
G92 E0
G1 Z1.300
G1 Z1.700
G1 Z2.100
G1 Z2.500
G1 Z2.900
G1 Z3.300
G1 Z3.700
G1 Z4.100
G1 Z4.500
G1 Z4.900
G1 Z5.300
G1 Z5.700
G1 Z6.100
G1 Z6.500
G1 Z6.900
G1 Z7.300
G1 Z7.700
G1 Z8.100
G1 Z8.500
G1 Z8.900
G1 Z9.300
G1 Z9.700
G1 Z10.100
G1 Z10.500
G1 Z10.900
G1 Z11.300
G1 Z11.700
G1 Z12.100
G1 Z12.500
G1 Z12.900
G1 Z13.300
G1 Z13.700
G1 Z14.100
G1 Z14.500
G1 Z14.900
G1 Z15.300
G1 Z15.700
G1 Z16.100
G1 Z16.500
G1 X148.938 Y99.513
G1 Z16.000
G1 F1800.000 E1.00000
G1 X149.355 Y99.417 F600.000 E1.01258
G1 X148.938 Y99.513 F7800.000
G1 X148.766 Y99.702 F600.000 E1.02009
G1 X148.390 Y99.720 E1.03116
G1 X147.664 Y99.394 E1.05458
G1 X147.664 Y99.394 F7800.000
G1 X147.656 Y99.399 F600.000 E1.05486
G1 X148.127 Y99.772 F7800.000
G1 X148.171 Y99.758 F600.000 E1.05621
G1 X148.171 Y99.758 F7800.000
G1 X148.231 Y99.705 F600.000 E1.05857
G1 X148.766 Y99.702 F7800.000
G1 X148.873 Y99.772 F600.000 E1.06230
G1 F1800.000 E0.06230
G1 Z16.500 F7800.000
G92 E0
G1 X52.355 Y99.417
G1 Z16.000
G1 F1800.000 E1.00000
G1 X51.938 Y99.513 F600.000 E1.01258
G1 X51.938 Y99.513 F7800.000
G1 X51.610 Y99.720 F600.000 E1.02399
G1 X51.610 Y99.720 F7800.000
G1 X51.370 Y99.712 F600.000 E1.03104
G1 X51.370 Y99.712 F7800.000
G1 X51.231 Y99.705 F600.000 E1.03513
G1 X51.127 Y99.772 F7800.000
G1 X51.231 Y99.705 F600.000 E1.03876
G1 X51.025 Y99.500 E1.04732
G1 X50.656 Y99.399 E1.05857
G1 X51.766 Y99.702 F7800.000
G1 X51.829 Y99.758 F600.000 E1.06102
G1 X51.829 Y99.758 F7800.000
G1 X51.873 Y99.772 F600.000 E1.06237
G1 F1800.000 E0.06237
G1 Z17.400 F7800.000
G92 E0
G1 X148.003 Y99.844
G1 Z16.900
G1 F1800.000 E1.00000
G1 X149.306 Y99.800 F600.000 E1.03835
G1 X148.003 Y99.844 F7800.000
G1 X147.687 Y99.806 F600.000 E1.04771
G1 X147.687 Y99.806 F7800.000
G1 X147.659 Y99.761 F600.000 E1.04928
G1 F1800.000 E0.04928
G1 Z17.400 F7800.000
G92 E0
G1 X52.306 Y99.800
G1 Z16.900
G1 F1800.000 E1.00000
G1 X51.003 Y99.844 F600.000 E1.03835
G1 X51.003 Y99.844 F7800.000
G1 X50.687 Y99.806 F600.000 E1.04771
G1 X50.687 Y99.806 F7800.000
G1 X50.659 Y99.761 F600.000 E1.04928
G1 F1800.000 E0.04928
G1 Z17.800 F7800.000
G92 E0
G1 Z17.700
G1 Z18.100
G1 Z18.500
G1 Z18.900
G1 Z19.300
G1 Z19.700
G1 Z20.100
G1 Z20.500
G1 X147.994 Y99.844
G1 Z20.000
G1 F1800.000 E1.00000
G1 X148.500 Y99.909 F600.000 E1.01500
G1 X149.341 Y99.761 E1.04010
G1 X147.994 Y99.844 F7800.000
G1 X147.687 Y99.806 F600.000 E1.04920
G1 F1800.000 E0.04920
G1 Z20.500 F7800.000
G92 E0
G1 X52.341 Y99.761
G1 Z20.000
G1 F1800.000 E1.00000
G1 X51.500 Y99.909 F600.000 E1.02510
G1 X50.994 Y99.844 E1.04010
G1 X50.994 Y99.844 F7800.000
G1 X50.687 Y99.806 F600.000 E1.04920
G1 F1800.000 E0.04920
G1 Z21.400 F7800.000
G92 E0
G1 X147.883 Y99.486
G1 Z20.900
G1 F1800.000 E1.00000
G1 X148.234 Y99.702 F600.000 E1.01213
G1 X148.610 Y99.720 E1.02320
G1 X149.344 Y99.399 E1.04678
G1 X148.873 Y99.772 F7800.000
G1 X148.829 Y99.758 F600.000 E1.04813
G1 X148.829 Y99.758 F7800.000
G1 X148.769 Y99.705 F600.000 E1.05048
G1 X148.234 Y99.702 F7800.000
G1 X148.127 Y99.772 F600.000 E1.05421
G1 X147.883 Y99.486 F7800.000
G1 X147.645 Y99.417 F600.000 E1.06148
G1 F1800.000 E0.06148
G1 Z21.400 F7800.000
G92 E0
G1 X52.344 Y99.399
G1 Z20.900
G1 F1800.000 E1.00000
G1 X51.610 Y99.720 F600.000 E1.02358
G1 X51.234 Y99.702 E1.03465
G1 X50.883 Y99.486 E1.04678
G1 X50.883 Y99.486 F7800.000
G1 X50.645 Y99.417 F600.000 E1.05404
G1 X51.127 Y99.772 F7800.000
G1 X51.234 Y99.702 F600.000 E1.05777
G1 X51.769 Y99.705 F7800.000
G1 X51.829 Y99.758 F600.000 E1.06013
G1 X51.829 Y99.758 F7800.000
G1 X51.873 Y99.772 F600.000 E1.06148
G1 F1800.000 E0.06148
G1 Z21.800 F7800.000
G92 E0
G1 Z21.700
G1 Z22.100
G1 Z22.500
G1 Z22.900
G1 Z23.300
G1 Z23.700
G1 Z24.100
G1 Z24.500
G1 Z24.900
G1 Z25.300
G1 Z25.700
G1 Z26.100
G1 Z26.500
G1 Z26.900
G1 Z27.300
G1 Z27.700
G1 Z28.100
G1 Z28.500
G1 Z28.900
G1 Z29.300
G1 Z29.700
G1 Z30.100
G1 Z30.500
G1 Z30.900
G1 Z31.300
G1 Z31.700
G1 Z32.100
G1 Z32.500
G1 Z32.900
G1 Z33.300
G1 Z33.700
G1 Z34.100
G1 Z34.500
G1 Z34.900
G1 Z35.300
G1 Z35.700
G1 Z36.100
G1 Z36.500
G1 Z36.900
M107
M104 S0 ; turn off temperature
M149 S9 ; turn off bed heater
G28 X0  ; home X axis
G28 Y0  ; home Y axis
M84     ; disable motors
; filament used = 16.3mm (0.1cm3)
