; generated by Slic3r 1.0.1 on 2014-10-04 at 07:15:45

; layer_height = 0.4
; perimeters = 3
; top_solid_layers = 3
; bottom_solid_layers = 3
; fill_density = 0.4
; perimeter_speed = 30
; infill_speed = 60
; travel_speed = 130
; nozzle_diameter = 0.5
; filament_diameter = 3
; extrusion_multiplier = 1
; perimeters extrusion width = 0.50mm
; infill extrusion width = 0.53mm
; solid infill extrusion width = 0.53mm
; top infill extrusion width = 0.53mm
; first layer extrusion width = 0.70mm

G21 ; set units to millimeters
M190 S60 ; wait for bed temperature to be reached
M104 S185 ; set temperature
G28 ; home all axes
G1 Z5 F5000 ; lift nozzle
G92 E0 ;reset extruder
M109 S185 ; wait for temperature to be reached
G90 ; use absolute coordinates
G92 E0 ; reset extrusion distance
M82 ; use absolute distances for extrusion
G1 F1800.000 E-1.00000 ; retract
G1 Z0.850 F7800.000 ; move to next layer (0) and lift
G92 E0 ; reset extrusion distance
G1 X87.160 Y76.160 F7800.000 ; move to first skirt point
G1 Z0.350 F7800.000 ; restore layer Z
G1 E1.00000 F1800.000 ; compensate retraction
G1 X87.890 Y75.530 E1.03137 F540.000 ; skirt
G1 X88.520 Y75.060 E1.05695 ; skirt
G1 X89.220 Y74.610 E1.08402 ; skirt
G1 X89.970 Y74.240 E1.11123 ; skirt
G1 X90.700 Y73.940 E1.13691 ; skirt
G1 X91.520 Y73.670 E1.16500 ; skirt
G1 X92.360 Y73.500 E1.19288 ; skirt
G1 X93.120 Y73.400 E1.21782 ; skirt
G1 X93.990 Y73.340 E1.24619 ; skirt
G1 X105.990 Y73.340 E1.63661 ; skirt
G1 X106.840 Y73.400 E1.66434 ; skirt
G1 X107.620 Y73.500 E1.68992 ; skirt
G1 X108.470 Y73.660 E1.71806 ; skirt
G1 X109.300 Y73.940 E1.74656 ; skirt
G1 X110.030 Y74.240 E1.77224 ; skirt
G1 X110.800 Y74.620 E1.80018 ; skirt
G1 X111.520 Y75.090 E1.82815 ; skirt
G1 X112.140 Y75.560 E1.85347 ; skirt
G1 X112.850 Y76.180 E1.88413 ; skirt
G1 X113.460 Y76.890 E1.91459 ; skirt
G1 X113.930 Y77.520 E1.94016 ; skirt
G1 X114.370 Y78.200 E1.96651 ; skirt
G1 X114.730 Y78.940 E1.99329 ; skirt
G1 X115.030 Y79.660 E2.01866 ; skirt
G1 X115.310 Y80.460 E2.04624 ; skirt
G1 X115.480 Y81.290 E2.07380 ; skirt
G1 X115.590 Y82.070 E2.09943 ; skirt
G1 X115.660 Y83.000 E2.12978 ; skirt
G1 X115.660 Y95.000 E2.52020 ; skirt
G1 X115.590 Y95.940 E2.55087 ; skirt
G1 X115.480 Y96.710 E2.57617 ; skirt
G1 X115.310 Y97.520 E2.60310 ; skirt
G1 X115.050 Y98.300 E2.62985 ; skirt
G1 X114.750 Y99.030 E2.65553 ; skirt
G1 X114.370 Y99.800 E2.68347 ; skirt
G1 X113.900 Y100.520 E2.71144 ; skirt
G1 X113.430 Y101.140 E2.73675 ; skirt
G1 X112.830 Y101.830 E2.76650 ; skirt
G1 X112.140 Y102.430 E2.79625 ; skirt
G1 X111.520 Y102.900 E2.82157 ; skirt
G1 X110.800 Y103.370 E2.84954 ; skirt
G1 X110.030 Y103.750 E2.87748 ; skirt
G1 X109.300 Y104.050 E2.90316 ; skirt
G1 X108.520 Y104.310 E2.92991 ; skirt
G1 X107.710 Y104.480 E2.95683 ; skirt
G1 X106.940 Y104.590 E2.98214 ; skirt
G1 X106.000 Y104.660 E3.01281 ; skirt
G1 X94.000 Y104.660 E3.40323 ; skirt
G1 X93.070 Y104.590 E3.43357 ; skirt
G1 X92.290 Y104.480 E3.45920 ; skirt
G1 X91.460 Y104.310 E3.48677 ; skirt
G1 X90.660 Y104.030 E3.51434 ; skirt
G1 X89.940 Y103.730 E3.53972 ; skirt
G1 X89.200 Y103.370 E3.56649 ; skirt
G1 X88.520 Y102.930 E3.59285 ; skirt
G1 X87.890 Y102.460 E3.61842 ; skirt
G1 X87.180 Y101.850 E3.64887 ; skirt
G1 X86.560 Y101.140 E3.67954 ; skirt
G1 X86.090 Y100.520 E3.70485 ; skirt
G1 X85.620 Y99.800 E3.73283 ; skirt
G1 X85.240 Y99.030 E3.76077 ; skirt
G1 X84.940 Y98.300 E3.78644 ; skirt
G1 X84.660 Y97.470 E3.81494 ; skirt
G1 X84.500 Y96.620 E3.84308 ; skirt
G1 X84.400 Y95.840 E3.86867 ; skirt
G1 X84.340 Y94.990 E3.89639 ; skirt
G1 X84.340 Y82.990 E4.28681 ; skirt
G1 X84.400 Y82.130 E4.31486 ; skirt
G1 X84.500 Y81.360 E4.34013 ; skirt
G1 X84.670 Y80.500 E4.36865 ; skirt
G1 X84.960 Y79.660 E4.39756 ; skirt
G1 X85.260 Y78.940 E4.42294 ; skirt
G1 X85.620 Y78.200 E4.44971 ; skirt
G1 X86.060 Y77.520 E4.47606 ; skirt
G1 X86.530 Y76.890 E4.50164 ; skirt
G1 X87.096 Y76.235 E4.52980 ; skirt
G1 F1800.000 E3.52980 ; retract
G1 Z0.850 F7800.000 ; lift plate during travel
G92 E0 ; reset extrusion distance
G1 X93.585 Y93.452 F7800.000 ; move to first perimeter point
G1 Z0.350 F7800.000 ; restore layer Z
G1 E1.00000 F1800.000 ; compensate retraction
G1 X94.000 Y93.397 E1.01361 F324.000 ; perimeter
G1 X94.415 Y93.452 E1.02723 ; perimeter
G1 X94.802 Y93.612 E1.04085 ; perimeter
G1 X95.134 Y93.866 E1.05446 ; perimeter
G1 X95.388 Y94.198 E1.06808 ; perimeter
G1 X95.548 Y94.585 E1.08169 ; perimeter
G1 X95.603 Y95.000 E1.09531 ; perimeter
G1 X95.548 Y95.415 E1.10892 ; perimeter
G1 X95.388 Y95.802 E1.12254 ; perimeter
G1 X95.134 Y96.134 E1.13615 ; perimeter
G1 X94.802 Y96.388 E1.14977 ; perimeter
G1 X94.415 Y96.548 E1.16338 ; perimeter
G1 X94.000 Y96.603 E1.17700 ; perimeter
G1 X93.585 Y96.548 E1.19061 ; perimeter
G1 X93.198 Y96.388 E1.20423 ; perimeter
G1 X92.866 Y96.134 E1.21784 ; perimeter
G1 X92.612 Y95.802 E1.23146 ; perimeter
G1 X92.452 Y95.415 E1.24507 ; perimeter
G1 X92.397 Y95.000 E1.25869 ; perimeter
G1 X92.452 Y94.585 E1.27230 ; perimeter
G1 X92.612 Y94.198 E1.28592 ; perimeter
G1 X92.866 Y93.866 E1.29953 ; perimeter
G1 X93.198 Y93.612 E1.31315 ; perimeter
G1 X93.494 Y93.489 E1.32356 ; perimeter
G1 X93.711 Y93.052 F7800.000 ; move inwards before travel
G1 X93.315 Y92.443 F7800.000 ; move to first perimeter point
G1 X94.000 Y92.353 E1.34604 F324.000 ; perimeter
G1 X94.685 Y92.443 E1.36852 ; perimeter
G1 X95.323 Y92.708 E1.39100 ; perimeter
G1 X95.872 Y93.128 E1.41348 ; perimeter
G1 X96.292 Y93.677 E1.43596 ; perimeter
G1 X96.557 Y94.315 E1.45845 ; perimeter
G1 X96.647 Y95.000 E1.48093 ; perimeter
G1 X96.557 Y95.685 E1.50341 ; perimeter
G1 X96.292 Y96.323 E1.52589 ; perimeter
G1 X95.872 Y96.872 E1.54837 ; perimeter
G1 X95.323 Y97.292 E1.57086 ; perimeter
G1 X94.685 Y97.557 E1.59334 ; perimeter
G1 X94.000 Y97.647 E1.61582 ; perimeter
G1 X93.315 Y97.557 E1.63830 ; perimeter
G1 X92.677 Y97.292 E1.66078 ; perimeter
G1 X92.128 Y96.872 E1.68326 ; perimeter
G1 X91.708 Y96.323 E1.70575 ; perimeter
G1 X91.443 Y95.685 E1.72823 ; perimeter
G1 X91.353 Y95.000 E1.75071 ; perimeter
G1 X91.443 Y94.315 E1.77319 ; perimeter
G1 X91.708 Y93.677 E1.79567 ; perimeter
G1 X92.128 Y93.128 E1.81816 ; perimeter
G1 X92.677 Y92.708 E1.84064 ; perimeter
G1 X93.224 Y92.481 E1.85991 ; perimeter
G1 X93.759 Y92.928 F7800.000 ; move inwards before travel
G1 X93.638 Y92.982 F7800.000 ; move to first fill point
G1 X93.951 Y92.822 E1.86574 F360.000 ; fill
G1 X94.073 Y92.944 E1.86860 F360.000 ; fill
G1 X94.481 Y92.879 E1.87544 F360.000 ; fill
G1 X94.658 Y93.056 E1.87959 F360.000 ; fill
G1 X95.483 Y93.408 F7800.000 ; move to first fill point
G1 X95.592 Y93.517 E1.88212 F360.000 ; fill
G1 X95.944 Y94.342 F7800.000 ; move to first fill point
G1 X96.121 Y94.519 E1.88627 F360.000 ; fill
G1 X96.056 Y94.927 E1.89311 F360.000 ; fill
G1 X96.178 Y95.049 E1.89597 F360.000 ; fill
G1 X96.018 Y95.362 E1.90180 F360.000 ; fill
G1 X96.123 Y95.467 E1.90426 F360.000 ; fill
G1 X95.914 Y95.731 E1.90984 F360.000 ; fill
G1 X96.004 Y95.821 E1.91195 F360.000 ; fill
G1 X95.769 Y96.059 E1.91749 F360.000 ; fill
G1 X95.853 Y96.143 E1.91946 F360.000 ; fill
G1 X95.647 Y96.411 E1.92505 F360.000 ; fill
G1 X95.563 Y96.327 E1.92702 F360.000 ; fill
G1 X95.327 Y96.563 E1.93256 F360.000 ; fill
G1 X95.411 Y96.647 E1.93453 F360.000 ; fill
G1 X95.143 Y96.853 E1.94012 F360.000 ; fill
G1 X95.059 Y96.769 E1.94209 F360.000 ; fill
G1 X94.821 Y97.004 E1.94763 F360.000 ; fill
G1 X94.731 Y96.914 E1.94975 F360.000 ; fill
G1 X94.467 Y97.123 E1.95533 F360.000 ; fill
G1 X94.362 Y97.018 E1.95779 F360.000 ; fill
G1 X94.049 Y97.178 E1.96361 F360.000 ; fill
G1 X93.927 Y97.056 E1.96647 F360.000 ; fill
G1 X93.519 Y97.121 E1.97331 F360.000 ; fill
G1 X93.342 Y96.944 E1.97746 F360.000 ; fill
G1 X92.517 Y96.592 F7800.000 ; move to first fill point
G1 X92.408 Y96.483 E1.98000 F360.000 ; fill
G1 X92.056 Y95.658 F7800.000 ; move to first fill point
G1 X91.879 Y95.481 E1.98415 F360.000 ; fill
G1 X91.944 Y95.073 E1.99099 F360.000 ; fill
G1 X91.822 Y94.951 E1.99385 F360.000 ; fill
G1 X91.982 Y94.638 E1.99967 F360.000 ; fill
G1 X91.877 Y94.533 E2.00214 F360.000 ; fill
G1 X92.086 Y94.269 E2.00772 F360.000 ; fill
G1 X91.996 Y94.179 E2.00983 F360.000 ; fill
G1 X92.231 Y93.941 E2.01537 F360.000 ; fill
G1 X92.147 Y93.857 E2.01734 F360.000 ; fill
G1 X92.353 Y93.589 E2.02293 F360.000 ; fill
G1 X92.437 Y93.673 E2.02490 F360.000 ; fill
G1 X92.673 Y93.437 E2.03044 F360.000 ; fill
G1 X92.589 Y93.353 E2.03241 F360.000 ; fill
G1 X92.857 Y93.147 E2.03800 F360.000 ; fill
G1 X92.941 Y93.231 E2.03997 F360.000 ; fill
G1 X93.179 Y92.996 E2.04551 F360.000 ; fill
G1 X93.269 Y93.086 E2.04763 F360.000 ; fill
G1 X93.533 Y92.877 E2.05321 F360.000 ; fill
G1 X93.638 Y92.982 E2.05567 F360.000 ; fill
G1 F1800.000 E1.05567 ; retract
G1 Z0.850 F7800.000 ; lift plate during travel
G92 E0 ; reset extrusion distance
G1 X94.000 Y84.603 F7800.000 ; move to first perimeter point
G1 Z0.350 F7800.000 ; restore layer Z
G1 E1.00000 F1800.000 ; compensate retraction
G1 X93.585 Y84.548 E1.01362 F324.000 ; perimeter
G1 X93.198 Y84.388 E1.02723 ; perimeter
G1 X92.866 Y84.134 E1.04085 ; perimeter
G1 X92.612 Y83.802 E1.05446 ; perimeter
G1 X92.452 Y83.415 E1.06808 ; perimeter
G1 X92.397 Y83.000 E1.08169 ; perimeter
G1 X92.452 Y82.585 E1.09531 ; perimeter
G1 X92.612 Y82.198 E1.10892 ; perimeter
G1 X92.866 Y81.866 E1.12254 ; perimeter
G1 X93.198 Y81.612 E1.13615 ; perimeter
G1 X93.585 Y81.452 E1.14977 ; perimeter
G1 X94.000 Y81.397 E1.16338 ; perimeter
G1 X94.415 Y81.452 E1.17700 ; perimeter
G1 X94.802 Y81.612 E1.19061 ; perimeter
G1 X95.134 Y81.866 E1.20423 ; perimeter
G1 X95.388 Y82.198 E1.21784 ; perimeter
G1 X95.548 Y82.585 E1.23146 ; perimeter
G1 X95.603 Y83.000 E1.24507 ; perimeter
G1 X95.548 Y83.415 E1.25869 ; perimeter
G1 X95.388 Y83.802 E1.27230 ; perimeter
G1 X95.134 Y84.134 E1.28592 ; perimeter
G1 X94.802 Y84.388 E1.29953 ; perimeter
G1 X94.415 Y84.548 E1.31315 ; perimeter
G1 X94.098 Y84.590 E1.32356 ; perimeter
G1 X93.775 Y84.956 F7800.000 ; move inwards before travel
G1 X94.000 Y85.647 F7800.000 ; move to first perimeter point
G1 X93.315 Y85.557 E1.34604 F324.000 ; perimeter
G1 X92.677 Y85.292 E1.36852 ; perimeter
G1 X92.128 Y84.872 E1.39100 ; perimeter
G1 X91.708 Y84.323 E1.41348 ; perimeter
G1 X91.443 Y83.685 E1.43596 ; perimeter
G1 X91.353 Y83.000 E1.45845 ; perimeter
G1 X91.443 Y82.315 E1.48093 ; perimeter
G1 X91.708 Y81.677 E1.50341 ; perimeter
G1 X92.128 Y81.128 E1.52589 ; perimeter
G1 X92.677 Y80.708 E1.54837 ; perimeter
G1 X93.315 Y80.443 E1.57086 ; perimeter
G1 X94.000 Y80.353 E1.59334 ; perimeter
G1 X94.685 Y80.443 E1.61582 ; perimeter
G1 X95.323 Y80.708 E1.63830 ; perimeter
G1 X95.872 Y81.128 E1.66078 ; perimeter
G1 X96.292 Y81.677 E1.68326 ; perimeter
G1 X96.557 Y82.315 E1.70575 ; perimeter
G1 X96.647 Y83.000 E1.72823 ; perimeter
G1 X96.557 Y83.685 E1.75071 ; perimeter
G1 X96.292 Y84.323 E1.77319 ; perimeter
G1 X95.872 Y84.872 E1.79567 ; perimeter
G1 X95.323 Y85.292 E1.81816 ; perimeter
G1 X94.685 Y85.557 E1.84064 ; perimeter
G1 X94.098 Y85.634 E1.85991 ; perimeter
G1 X93.697 Y85.064 F7800.000 ; move inwards before travel
G1 X93.519 Y85.121 F7800.000 ; move to first fill point
G1 X93.342 Y84.944 E1.86406 F360.000 ; fill
G1 X93.519 Y85.121 F7800.000 ; move to first fill point
G1 X93.927 Y85.056 E1.87090 F360.000 ; fill
G1 X94.049 Y85.178 E1.87376 F360.000 ; fill
G1 X94.362 Y85.018 E1.87959 F360.000 ; fill
G1 X94.467 Y85.123 E1.88205 F360.000 ; fill
G1 X94.731 Y84.914 E1.88763 F360.000 ; fill
G1 X94.821 Y85.004 E1.88974 F360.000 ; fill
G1 X95.059 Y84.769 E1.89528 F360.000 ; fill
G1 X95.143 Y84.853 E1.89725 F360.000 ; fill
G1 X95.411 Y84.647 E1.90284 F360.000 ; fill
G1 X95.327 Y84.563 E1.90481 F360.000 ; fill
G1 X95.563 Y84.327 E1.91035 F360.000 ; fill
G1 X95.647 Y84.411 E1.91232 F360.000 ; fill
G1 X95.853 Y84.143 E1.91791 F360.000 ; fill
G1 X95.769 Y84.059 E1.91988 F360.000 ; fill
G1 X96.004 Y83.821 E1.92542 F360.000 ; fill
G1 X95.914 Y83.731 E1.92754 F360.000 ; fill
G1 X96.123 Y83.467 E1.93312 F360.000 ; fill
G1 X96.018 Y83.362 E1.93558 F360.000 ; fill
G1 X96.178 Y83.049 E1.94140 F360.000 ; fill
G1 X96.056 Y82.927 E1.94426 F360.000 ; fill
G1 X96.121 Y82.519 E1.95110 F360.000 ; fill
G1 X95.944 Y82.342 E1.95525 F360.000 ; fill
G1 X95.592 Y81.517 F7800.000 ; move to first fill point
G1 X95.483 Y81.408 E1.95779 F360.000 ; fill
G1 X94.658 Y81.056 F7800.000 ; move to first fill point
G1 X94.481 Y80.879 E1.96194 F360.000 ; fill
G1 X94.073 Y80.944 E1.96878 F360.000 ; fill
G1 X93.951 Y80.822 E1.97164 F360.000 ; fill
G1 X93.638 Y80.982 E1.97746 F360.000 ; fill
G1 X93.533 Y80.877 E1.97993 F360.000 ; fill
G1 X93.269 Y81.086 E1.98550 F360.000 ; fill
G1 X93.179 Y80.996 E1.98762 F360.000 ; fill
G1 X92.941 Y81.231 E1.99316 F360.000 ; fill
G1 X92.857 Y81.147 E1.99513 F360.000 ; fill
G1 X92.589 Y81.353 E2.00072 F360.000 ; fill
G1 X92.673 Y81.437 E2.00269 F360.000 ; fill
G1 X92.437 Y81.673 E2.00823 F360.000 ; fill
G1 X92.353 Y81.589 E2.01020 F360.000 ; fill
G1 X92.147 Y81.857 E2.01579 F360.000 ; fill
G1 X92.231 Y81.941 E2.01776 F360.000 ; fill
G1 X91.996 Y82.179 E2.02330 F360.000 ; fill
G1 X92.086 Y82.269 E2.02542 F360.000 ; fill
G1 X91.877 Y82.533 E2.03099 F360.000 ; fill
G1 X91.982 Y82.638 E2.03346 F360.000 ; fill
G1 X91.822 Y82.951 E2.03928 F360.000 ; fill
G1 X91.944 Y83.073 E2.04214 F360.000 ; fill
G1 X91.879 Y83.481 E2.04898 F360.000 ; fill
G1 X92.056 Y83.658 E2.05313 F360.000 ; fill
G1 X92.408 Y84.483 F7800.000 ; move to first fill point
G1 X92.517 Y84.592 E2.05567 F360.000 ; fill
G1 F1800.000 E1.05567 ; retract
G1 Z0.850 F7800.000 ; lift plate during travel
G92 E0 ; reset extrusion distance
G1 X104.397 Y83.000 F7800.000 ; move to first perimeter point
G1 Z0.350 F7800.000 ; restore layer Z
G1 E1.00000 F1800.000 ; compensate retraction
G1 X104.452 Y82.585 E1.01361 F324.000 ; perimeter
G1 X104.612 Y82.198 E1.02723 ; perimeter
G1 X104.866 Y81.866 E1.04085 ; perimeter
G1 X105.198 Y81.612 E1.05446 ; perimeter
G1 X105.585 Y81.452 E1.06808 ; perimeter
G1 X106.000 Y81.397 E1.08169 ; perimeter
G1 X106.415 Y81.452 E1.09531 ; perimeter
G1 X106.802 Y81.612 E1.10892 ; perimeter
G1 X107.134 Y81.866 E1.12254 ; perimeter
G1 X107.388 Y82.198 E1.13615 ; perimeter
G1 X107.548 Y82.585 E1.14977 ; perimeter
G1 X107.603 Y83.000 E1.16338 ; perimeter
G1 X107.548 Y83.415 E1.17700 ; perimeter
G1 X107.388 Y83.802 E1.19061 ; perimeter
G1 X107.134 Y84.134 E1.20423 ; perimeter
G1 X106.802 Y84.388 E1.21784 ; perimeter
G1 X106.415 Y84.548 E1.23146 ; perimeter
G1 X106.000 Y84.603 E1.24507 ; perimeter
G1 X105.585 Y84.548 E1.25869 ; perimeter
G1 X105.198 Y84.388 E1.27230 ; perimeter
G1 X104.866 Y84.134 E1.28592 ; perimeter
G1 X104.612 Y83.802 E1.29953 ; perimeter
G1 X104.452 Y83.415 E1.31315 ; perimeter
G1 X104.410 Y83.098 E1.32356 ; perimeter
G1 X104.044 Y82.775 F7800.000 ; move inwards before travel
G1 X103.353 Y83.000 F7800.000 ; move to first perimeter point
G1 X103.443 Y82.315 E1.34604 F324.000 ; perimeter
G1 X103.708 Y81.677 E1.36852 ; perimeter
G1 X104.128 Y81.128 E1.39100 ; perimeter
G1 X104.677 Y80.708 E1.41348 ; perimeter
G1 X105.315 Y80.443 E1.43596 ; perimeter
G1 X106.000 Y80.353 E1.45845 ; perimeter
G1 X106.685 Y80.443 E1.48093 ; perimeter
G1 X107.323 Y80.708 E1.50341 ; perimeter
G1 X107.872 Y81.128 E1.52589 ; perimeter
G1 X108.292 Y81.677 E1.54837 ; perimeter
G1 X108.557 Y82.315 E1.57086 ; perimeter
G1 X108.647 Y83.000 E1.59334 ; perimeter
G1 X108.557 Y83.685 E1.61582 ; perimeter
G1 X108.292 Y84.323 E1.63830 ; perimeter
G1 X107.872 Y84.872 E1.66078 ; perimeter
G1 X107.323 Y85.292 E1.68326 ; perimeter
G1 X106.685 Y85.557 E1.70575 ; perimeter
G1 X106.000 Y85.647 E1.72823 ; perimeter
G1 X105.315 Y85.557 E1.75071 ; perimeter
G1 X104.677 Y85.292 E1.77319 ; perimeter
G1 X104.128 Y84.872 E1.79567 ; perimeter
G1 X103.708 Y84.323 E1.81816 ; perimeter
G1 X103.443 Y83.685 E1.84064 ; perimeter
G1 X103.366 Y83.098 E1.85991 ; perimeter
G1 X103.936 Y82.697 F7800.000 ; move inwards before travel
G1 X103.982 Y82.638 F7800.000 ; move to first fill point
G1 X103.877 Y82.533 E1.86238 F360.000 ; fill
G1 X104.086 Y82.269 E1.86795 F360.000 ; fill
