; generated by Slic3r 0.9.8-dev on 2013-01-11 at 19:38:08

; layer_height = 0.4
; perimeters = 3
; top_solid_layers = 3
; bottom_solid_layers = 3
; fill_density = 0.40
; perimeter_speed = 30
; infill_speed = 60
; travel_speed = 130
; scale = 1
; nozzle_diameter = 0.5
; filament_diameter = 3
; extrusion_multiplier = 1
; perimeters extrusion width = 0.53mm
; infill extrusion width = 0.53mm
; first layer extrusion width = 0.80mm

M190 S60 ; wait for bed temperature to be reached
M104 S180 ; set temperature
G28 ; home all axes
G92 E0 ;reset extruder
M109 S180 ; wait for temperature to be reached
G90 ; use absolute coordinates
G21 ; set units to millimeters
G92 E0 ; reset extrusion distance
M82 ; use absolute distances for extrusion
G1 F1800.000 E-1.00000 ; retract
G1 Z0.900 ; move to next layer (0) and lift
G92 E0 ; reset extrusion distance
G1 X118.570 Y106.310 F7800.000 ; move to first skirt point
G1 Z0.400 ; restore layer Z
G1 F1800.000 E1.00000 ; compensate retraction
G1 X118.110 Y106.860 F540.000 E1.02985 ; skirt
G1 X117.860 Y107.110 E1.04456 ; skirt
G1 X117.310 Y107.570 E1.07441 ; skirt
G1 X113.150 Y110.750 E1.29238 ; skirt
G1 X112.550 Y111.110 E1.32151 ; skirt
G1 X111.910 Y111.420 E1.35111 ; skirt
G1 X107.400 Y113.280 E1.55419 ; skirt
G1 X106.740 Y113.510 E1.58329 ; skirt
G1 X106.400 Y113.600 E1.59793 ; skirt
G1 X105.710 Y113.730 E1.62716 ; skirt
G1 X100.880 Y114.370 E1.82997 ; skirt
G1 X100.170 Y114.420 E1.85960 ; skirt
G1 X99.810 Y114.420 E1.87459 ; skirt
G1 X99.110 Y114.370 E1.90380 ; skirt
G1 X94.280 Y113.730 E2.10662 ; skirt
G1 X93.590 Y113.600 E2.13585 ; skirt
G1 X93.250 Y113.510 E2.15049 ; skirt
G1 X92.590 Y113.280 E2.17959 ; skirt
G1 X88.080 Y111.420 E2.38267 ; skirt
G1 X87.440 Y111.110 E2.41227 ; skirt
G1 X87.140 Y110.940 E2.42662 ; skirt
G1 X86.840 Y110.750 E2.44140 ; skirt
G1 X86.560 Y110.540 E2.45597 ; skirt
G1 X82.680 Y107.570 E2.65938 ; skirt
G1 X82.130 Y107.110 E2.68922 ; skirt
G1 X81.880 Y106.860 E2.70394 ; skirt
G1 X81.420 Y106.310 E2.73379 ; skirt
G1 X78.240 Y102.150 E2.95176 ; skirt
G1 X77.880 Y101.550 E2.98089 ; skirt
G1 X77.570 Y100.910 E3.01049 ; skirt
G1 X75.710 Y96.400 E3.21357 ; skirt
G1 X75.480 Y95.740 E3.24266 ; skirt
G1 X75.390 Y95.400 E3.25730 ; skirt
G1 X75.260 Y94.710 E3.28653 ; skirt
G1 X74.620 Y89.870 E3.48976 ; skirt
G1 X74.570 Y89.170 E3.51898 ; skirt
G1 X74.570 Y88.810 E3.53396 ; skirt
G1 X74.620 Y88.110 E3.56318 ; skirt
G1 X75.260 Y83.280 E3.76599 ; skirt
G1 X75.470 Y82.280 E3.80853 ; skirt
G1 X75.880 Y81.170 E3.85779 ; skirt
G1 X77.570 Y77.080 E4.04201 ; skirt
G1 X77.880 Y76.440 E4.07161 ; skirt
G1 X78.050 Y76.140 E4.08596 ; skirt
G1 X78.240 Y75.840 E4.10074 ; skirt
G1 X78.450 Y75.560 E4.11531 ; skirt
G1 X81.420 Y71.680 E4.31872 ; skirt
G1 X81.880 Y71.130 E4.34856 ; skirt
G1 X82.130 Y70.880 E4.36328 ; skirt
G1 X82.680 Y70.420 E4.39313 ; skirt
G1 X86.840 Y67.240 E4.61110 ; skirt
G1 X87.440 Y66.880 E4.64023 ; skirt
G1 X88.080 Y66.570 E4.66983 ; skirt
G1 X92.590 Y64.710 E4.87291 ; skirt
G1 X93.250 Y64.480 E4.90200 ; skirt
G1 X93.590 Y64.390 E4.91664 ; skirt
G1 X94.280 Y64.260 E4.94587 ; skirt
G1 X99.110 Y63.620 E5.14869 ; skirt
G1 X99.810 Y63.570 E5.17790 ; skirt
G1 X100.170 Y63.570 E5.19289 ; skirt
G1 X100.870 Y63.620 E5.22210 ; skirt
G1 X105.710 Y64.260 E5.42534 ; skirt
G1 X106.400 Y64.390 E5.45456 ; skirt
G1 X106.740 Y64.480 E5.46920 ; skirt
G1 X107.400 Y64.710 E5.49830 ; skirt
G1 X111.910 Y66.570 E5.70138 ; skirt
G1 X112.550 Y66.880 E5.73098 ; skirt
G1 X112.850 Y67.050 E5.74534 ; skirt
G1 X113.150 Y67.240 E5.76012 ; skirt
G1 X113.430 Y67.450 E5.77469 ; skirt
G1 X117.310 Y70.420 E5.97809 ; skirt
G1 X117.860 Y70.880 E6.00794 ; skirt
G1 X118.110 Y71.130 E6.02265 ; skirt
G1 X118.570 Y71.680 E6.05250 ; skirt
G1 X121.750 Y75.840 E6.27047 ; skirt
G1 X122.110 Y76.440 E6.29960 ; skirt
G1 X122.420 Y77.080 E6.32920 ; skirt
G1 X124.280 Y81.590 E6.53228 ; skirt
G1 X124.510 Y82.250 E6.56138 ; skirt
G1 X124.600 Y82.590 E6.57602 ; skirt
G1 X124.730 Y83.280 E6.60525 ; skirt
G1 X125.370 Y88.110 E6.80806 ; skirt
G1 X125.420 Y88.810 E6.83728 ; skirt
G1 X125.420 Y89.170 E6.85226 ; skirt
G1 X125.370 Y89.870 E6.88148 ; skirt
G1 X124.730 Y94.710 E7.08471 ; skirt
G1 X124.600 Y95.400 E7.11394 ; skirt
G1 X124.510 Y95.740 E7.12858 ; skirt
G1 X124.280 Y96.400 E7.15767 ; skirt
G1 X122.420 Y100.910 E7.36075 ; skirt
G1 X122.110 Y101.550 E7.39035 ; skirt
G1 X121.750 Y102.150 E7.41948 ; skirt
G1 X118.637 Y106.222 E7.63286 ; skirt
G1 X118.570 Y106.310 E7.63745 ; skirt
G1 F1800.000 E6.63745 ; retract
G1 Z0.900 ; lift plate during travel
G92 E0 ; reset extrusion distance
G1 X109.183 Y98.183 F7800.000 ; move to first perimeter point
G1 Z0.400 ; restore layer Z
G1 F1800.000 E1.00000 ; compensate retraction
G1 X106.494 Y100.247 F540.000 E1.14113 ; perimeter
G1 X103.361 Y101.545 E1.28227 ; perimeter
G1 X100.000 Y101.987 E1.42340 ; perimeter
G1 X96.639 Y101.545 E1.56453 ; perimeter
G1 X93.506 Y100.247 E1.70567 ; perimeter
G1 X90.817 Y98.183 E1.84680 ; perimeter
G1 X88.753 Y95.494 E1.98793 ; perimeter
G1 X87.577 Y92.656 E2.11580 ; perimeter
G1 X87.455 Y92.361 E2.12907 ; perimeter
G1 X87.013 Y89.000 E2.27020 ; perimeter
G1 X87.455 Y85.639 E2.41134 ; perimeter
G1 X88.753 Y82.506 E2.55247 ; perimeter
G1 X90.622 Y80.069 E2.68033 ; perimeter
G1 X90.817 Y79.817 E2.69360 ; perimeter
G1 X93.506 Y77.753 E2.83474 ; perimeter
G1 X96.639 Y76.455 E2.97587 ; perimeter
G1 X100.000 Y76.013 E3.11700 ; perimeter
G1 X103.361 Y76.455 E3.25814 ; perimeter
G1 X103.656 Y76.577 E3.27141 ; perimeter
G1 X106.494 Y77.753 E3.39927 ; perimeter
G1 X109.183 Y79.817 E3.54040 ; perimeter
G1 X111.247 Y82.506 E3.68154 ; perimeter
G1 X112.545 Y85.639 E3.82267 ; perimeter
G1 X112.987 Y89.000 E3.96380 ; perimeter
G1 X112.545 Y92.361 E4.10494 ; perimeter
G1 X111.247 Y95.494 E4.24607 ; perimeter
G1 X109.251 Y98.096 E4.38261 ; perimeter
G1 X109.183 Y98.183 E4.38720 ; perimeter
G1 X108.659 Y97.659 F7800.000 ; move to first perimeter point
G1 X106.123 Y99.605 F540.000 E4.52028 ; perimeter
G1 X103.169 Y100.828 E4.65335 ; perimeter
G1 X100.000 Y101.245 E4.78642 ; perimeter
G1 X96.831 Y100.828 E4.91949 ; perimeter
G1 X93.877 Y99.605 E5.05256 ; perimeter
G1 X91.341 Y97.659 E5.18563 ; perimeter
G1 X89.395 Y95.123 E5.31870 ; perimeter
G1 X88.257 Y92.374 E5.44253 ; perimeter
G1 X88.172 Y92.169 E5.45177 ; perimeter
G1 X87.755 Y89.000 E5.58484 ; perimeter
G1 X88.172 Y85.831 E5.71791 ; perimeter
G1 X89.395 Y82.877 E5.85098 ; perimeter
G1 X91.206 Y80.517 E5.97481 ; perimeter
G1 X91.341 Y80.341 E5.98405 ; perimeter
G1 X93.877 Y78.395 E6.11712 ; perimeter
G1 X96.831 Y77.172 E6.25019 ; perimeter
G1 X100.000 Y76.755 E6.38326 ; perimeter
G1 X103.169 Y77.172 E6.51633 ; perimeter
G1 X103.374 Y77.257 E6.52557 ; perimeter
G1 X106.123 Y78.395 E6.64941 ; perimeter
G1 X108.659 Y80.341 E6.78248 ; perimeter
G1 X110.605 Y82.877 E6.91555 ; perimeter
G1 X111.828 Y85.831 E7.04862 ; perimeter
G1 X112.245 Y89.000 E7.18169 ; perimeter
G1 X111.828 Y92.169 E7.31476 ; perimeter
G1 X110.605 Y95.123 E7.44783 ; perimeter
G1 X108.726 Y97.571 E7.57631 ; perimeter
G1 X108.659 Y97.659 E7.58090 ; perimeter
G1 X108.134 Y97.134 F7800.000 ; move to first perimeter point
G1 X105.752 Y98.962 F540.000 E7.70591 ; perimeter
G1 X102.977 Y100.111 E7.83091 ; perimeter
G1 X100.000 Y100.503 E7.95592 ; perimeter
G1 X97.023 Y100.111 E8.08093 ; perimeter
G1 X94.248 Y98.962 E8.20594 ; perimeter
G1 X91.866 Y97.134 E8.33094 ; perimeter
G1 X90.038 Y94.752 E8.45595 ; perimeter
G1 X88.936 Y92.093 E8.57575 ; perimeter
G1 X88.889 Y91.977 E8.58096 ; perimeter
G1 X88.497 Y89.000 E8.70597 ; perimeter
G1 X88.889 Y86.023 E8.83098 ; perimeter
G1 X90.038 Y83.248 E8.95598 ; perimeter
G1 X91.790 Y80.965 E9.07578 ; perimeter
G1 X91.866 Y80.866 E9.08099 ; perimeter
G1 X94.248 Y79.038 E9.20600 ; perimeter
G1 X97.023 Y77.889 E9.33101 ; perimeter
G1 X100.000 Y77.497 E9.45601 ; perimeter
G1 X102.977 Y77.889 E9.58102 ; perimeter
G1 X103.093 Y77.936 E9.58623 ; perimeter
G1 X105.752 Y79.038 E9.70603 ; perimeter
G1 X108.134 Y80.866 E9.83104 ; perimeter
G1 X109.962 Y83.248 E9.95604 ; perimeter
G1 X111.111 Y86.023 E10.08105 ; perimeter
G1 X111.503 Y89.000 E10.20606 ; perimeter
G1 X111.111 Y91.977 E10.33107 ; perimeter
G1 X109.962 Y94.752 E10.45607 ; perimeter
G1 X108.201 Y97.047 E10.57649 ; perimeter
G1 X108.134 Y97.134 E10.58108 ; perimeter
G1 X108.293 Y97.852 F7800.000 ; move inwards before travel
G1 F1800.000 E9.58108 ; retract
G1 Z0.900 ; lift plate during travel
G92 E0 ; reset extrusion distance
G1 X85.093 Y80.394 F7800.000 ; move to first perimeter point
G1 Z0.400 ; restore layer Z
G1 F1800.000 E1.00000 ; compensate retraction
G1 X87.829 Y76.829 F540.000 E1.18705 ; perimeter
G1 X91.394 Y74.093 E1.37410 ; perimeter
G1 X95.545 Y72.374 E1.56115 ; perimeter
G1 X100.000 Y71.787 E1.74820 ; perimeter
G1 X104.455 Y72.374 E1.93524 ; perimeter
G1 X108.373 Y73.997 E2.11179 ; perimeter
G1 X108.606 Y74.093 E2.12229 ; perimeter
G1 X112.171 Y76.829 E2.30934 ; perimeter
G1 X114.907 Y80.394 E2.49639 ; perimeter
G1 X116.626 Y84.545 E2.68344 ; perimeter
G1 X117.213 Y89.000 E2.87049 ; perimeter
G1 X116.626 Y93.455 E3.05754 ; perimeter
G1 X114.907 Y97.606 E3.24459 ; perimeter
G1 X112.171 Y101.171 E3.43164 ; perimeter
G1 X108.606 Y103.907 E3.61869 ; perimeter
G1 X104.455 Y105.626 E3.80573 ; perimeter
G1 X100.250 Y106.180 E3.98228 ; perimeter
G1 X100.000 Y106.213 E3.99278 ; perimeter
G1 X95.545 Y105.626 E4.17983 ; perimeter
G1 X91.394 Y103.907 E4.36688 ; perimeter
G1 X87.829 Y101.171 E4.55393 ; perimeter
G1 X85.093 Y97.606 E4.74098 ; perimeter
G1 X83.374 Y93.455 E4.92803 ; perimeter
G1 X82.787 Y89.000 E5.11508 ; perimeter
G1 X83.374 Y84.545 E5.30213 ; perimeter
G1 X85.051 Y80.496 E5.48458 ; perimeter
G1 X85.093 Y80.394 E5.48918 ; perimeter
G1 X84.451 Y80.023 F7800.000 ; move to first perimeter point
G1 X87.304 Y76.304 F540.000 E5.68429 ; perimeter
G1 X91.023 Y73.451 E5.87940 ; perimeter
G1 X95.539 Y71.580 E6.08289 ; perimeter
G1 X95.539 Y71.633 E6.08508 ; perimeter
G1 X100.000 Y71.045 E6.27238 ; perimeter
G1 X104.647 Y71.657 E6.46749 ; perimeter
G1 X108.977 Y73.451 E6.66261 ; perimeter
G1 X112.696 Y76.304 E6.85772 ; perimeter
G1 X115.549 Y80.023 E7.05283 ; perimeter
G1 X115.683 Y80.345 E7.06736 ; perimeter
G1 X117.343 Y84.353 E7.24794 ; perimeter
G1 X117.955 Y89.000 E7.44305 ; perimeter
G1 X117.343 Y93.647 E7.63817 ; perimeter
G1 X115.549 Y97.977 E7.83328 ; perimeter
G1 X112.696 Y101.696 E8.02839 ; perimeter
G1 X108.977 Y104.549 E8.22350 ; perimeter
G1 X104.647 Y106.343 E8.41861 ; perimeter
G1 X100.346 Y106.909 E8.59919 ; perimeter
G1 X100.000 Y106.955 E8.61372 ; perimeter
G1 X95.353 Y106.343 E8.80884 ; perimeter
G1 X91.023 Y104.549 E9.00395 ; perimeter
G1 X87.304 Y101.696 E9.19906 ; perimeter
G1 X84.451 Y97.977 E9.39417 ; perimeter
G1 X82.657 Y93.647 E9.58928 ; perimeter
G1 X82.045 Y89.000 E9.78440 ; perimeter
G1 X82.657 Y84.353 E9.97951 ; perimeter
G1 X84.409 Y80.125 E10.17003 ; perimeter
G1 X84.451 Y80.023 E10.17462 ; perimeter
G1 X83.808 Y79.652 F7800.000 ; move to first perimeter point
G1 X86.780 Y75.780 F540.000 E10.37779 ; perimeter
G1 X90.652 Y72.808 E10.58097 ; perimeter
G1 X95.161 Y70.941 E10.78414 ; perimeter
G1 X100.000 Y70.303 E10.98732 ; perimeter
G1 X104.397 Y70.882 E11.17193 ; perimeter
G1 X104.839 Y70.941 E11.19049 ; perimeter
G1 X109.348 Y72.808 E11.39367 ; perimeter
G1 X113.220 Y75.780 E11.59684 ; perimeter
G1 X116.192 Y79.652 E11.80002 ; perimeter
G1 X118.059 Y84.161 E12.00319 ; perimeter
G1 X118.697 Y89.000 E12.20637 ; perimeter
G1 X118.059 Y93.839 E12.40954 ; perimeter
G1 X116.192 Y98.348 E12.61272 ; perimeter
G1 X115.920 Y98.702 E12.63128 ; perimeter
G1 X113.220 Y102.220 E12.81589 ; perimeter
G1 X109.348 Y105.192 E13.01907 ; perimeter
G1 X104.839 Y107.059 E13.22224 ; perimeter
G1 X100.442 Y107.638 E13.40685 ; perimeter
G1 X100.000 Y107.697 E13.42542 ; perimeter
G1 X95.161 Y107.059 E13.62859 ; perimeter
G1 X90.652 Y105.192 E13.83177 ; perimeter
G1 X86.780 Y102.220 E14.03494 ; perimeter
G1 X83.808 Y98.348 E14.23812 ; perimeter
G1 X81.941 Y93.839 E14.44129 ; perimeter
G1 X81.303 Y89.000 E14.64447 ; perimeter
G1 X81.941 Y84.161 E14.84764 ; perimeter
G1 X83.766 Y79.754 E15.04622 ; perimeter
G1 X83.808 Y79.652 E15.05082 ; perimeter
G1 X84.543 Y79.684 F7800.000 ; move inwards before travel
G1 F1800.000 E14.05082 ; retract
G1 Z0.900 ; lift plate during travel
G92 E0 ; reset extrusion distance
G1 X92.451 Y103.686 F7800.000 ; move to first fill point
G1 Z0.400 ; restore layer Z
G1 F1800.000 E1.00000 ; compensate retraction
G1 X85.314 Y96.549 F1080.000 E1.42762 ; fill
G1 X84.566 Y94.741 E1.51050 ; fill
G1 X94.259 Y104.434 E2.09127 ; fill
G1 X96.035 Y105.152 E2.17244 ; fill
G1 X83.848 Y92.965 E2.90265 ; fill
G1 F1800.000 E1.90265 ; retract
G1 Z0.900 ; lift plate during travel
G92 E0 ; reset extrusion distance
G1 X89.345 Y97.403 F7800.000 ; move to first fill point
G1 Z0.400 ; restore layer Z
G1 F1800.000 E1.00000 ; compensate retraction
G1 X83.687 Y91.745 F1080.000 E1.33896 ; fill
G1 X83.527 Y90.526 E1.39106 ; fill
G1 X87.810 Y94.809 E1.64769 ; fill
G1 X87.061 Y93.002 E1.73057 ; fill
G1 X83.366 Y89.307 E1.95196 ; fill
G1 X83.364 Y88.245 E1.99693 ; fill
G1 X86.831 Y91.713 E2.20468 ; fill
G1 X86.671 Y90.493 E2.25679 ; fill
G1 X83.487 Y87.310 E2.44754 ; fill
G1 X83.610 Y86.374 E2.48751 ; fill
G1 X86.510 Y89.274 E2.66127 ; fill
G1 X86.624 Y88.329 E2.70159 ; fill
G1 X83.733 Y85.438 E2.87479 ; fill
G1 X83.856 Y84.503 E2.91477 ; fill
G1 X86.747 Y87.394 E3.08796 ; fill
G1 X86.870 Y86.458 E3.12794 ; fill
G1 X84.167 Y83.754 E3.28993 ; fill
G1 X84.477 Y83.006 E3.32426 ; fill
G1 X87.025 Y85.554 E3.47695 ; fill
G1 X87.335 Y84.805 E3.51129 ; fill
G1 X84.787 Y82.257 E3.66398 ; fill
G1 X85.097 Y81.508 E3.69831 ; fill
G1 X87.645 Y84.057 E3.85100 ; fill
G1 X87.955 Y83.308 E3.88533 ; fill
G1 X85.407 Y80.760 E4.03802 ; fill
G1 X85.821 Y80.115 E4.07048 ; fill
G1 X88.266 Y82.559 E4.21695 ; fill
G1 X88.687 Y81.922 E4.24931 ; fill
G1 X86.281 Y79.516 E4.39351 ; fill
G1 X86.740 Y78.917 E4.42550 ; fill
G1 X89.147 Y81.323 E4.56969 ; fill
G1 X89.607 Y80.724 E4.60169 ; fill
G1 X87.200 Y78.318 E4.74588 ; fill
G1 X87.660 Y77.718 E4.77787 ; fill
G1 X90.066 Y80.125 E4.92206 ; fill
G1 X90.526 Y79.526 E4.95406 ; fill
G1 X88.119 Y77.119 E5.09825 ; fill
G1 X88.718 Y76.660 E5.13024 ; fill
G1 X91.125 Y79.066 E5.27444 ; fill
G1 X91.724 Y78.607 E5.30643 ; fill
G1 X89.318 Y76.200 E5.45062 ; fill
G1 X89.917 Y75.740 E5.48262 ; fill
G1 X92.323 Y78.147 E5.62681 ; fill
G1 X92.922 Y77.687 E5.65880 ; fill
G1 X90.516 Y75.281 E5.80300 ; fill
G1 X91.115 Y74.821 E5.83499 ; fill
G1 X93.559 Y77.266 E5.98145 ; fill
G1 X94.308 Y76.955 E6.01579 ; fill
G1 X91.760 Y74.407 E6.16847 ; fill
G1 X92.508 Y74.097 E6.20281 ; fill
G1 X95.057 Y76.645 E6.35550 ; fill
G1 X95.805 Y76.335 E6.38983 ; fill
G1 X93.257 Y73.787 E6.54252 ; fill
G1 X94.006 Y73.477 E6.57685 ; fill
G1 X96.554 Y76.025 E6.72954 ; fill
G1 X97.458 Y75.870 E6.76839 ; fill
G1 X94.754 Y73.167 E6.93039 ; fill
G1 X95.503 Y72.856 E6.96471 ; fill
G1 X98.394 Y75.747 E7.13791 ; fill
G1 X99.329 Y75.624 E7.17789 ; fill
G1 X96.439 Y72.733 E7.35109 ; fill
G1 X97.374 Y72.610 E7.39107 ; fill
G1 X100.274 Y75.510 E7.56483 ; fill
G1 X101.493 Y75.671 E7.61693 ; fill
G1 X98.310 Y72.487 E7.80768 ; fill
G1 X99.245 Y72.364 E7.84766 ; fill
G1 X102.713 Y75.831 E8.05541 ; fill
G1 X104.002 Y76.061 E8.11088 ; fill
G1 X100.307 Y72.366 E8.33227 ; fill
G1 X101.526 Y72.527 E8.38438 ; fill
G1 X105.809 Y76.810 E8.64100 ; fill
G1 X108.403 Y78.345 E8.76868 ; fill
G1 X102.745 Y72.687 E9.10765 ; fill
G1 X103.965 Y72.848 E9.15975 ; fill
G1 X116.152 Y85.035 E9.88995 ; fill
G1 X116.313 Y86.255 E9.94205 ; fill
G1 X110.655 Y80.597 E10.28102 ; fill
G1 X112.190 Y83.191 E10.40870 ; fill
G1 X116.473 Y87.474 E10.66533 ; fill
G1 X116.634 Y88.693 E10.71743 ; fill
G1 X112.939 Y84.998 E10.93882 ; fill
G1 X113.169 Y86.287 E10.99430 ; fill
G1 X116.636 Y89.755 E11.20205 ; fill
G1 X116.513 Y90.690 E11.24203 ; fill
G1 X113.329 Y87.506 E11.43278 ; fill
G1 X113.490 Y88.726 E11.48488 ; fill
G1 X116.390 Y91.626 E11.65864 ; fill
G1 X116.267 Y92.561 E11.69862 ; fill
