; generated by Slic3r 0.9.8-dev on 2012-12-30 at 15:19:59

; layer_height = 0.4
; perimeters = 3
; top_solid_layers = 3
; bottom_solid_layers = 3
; fill_density = 0.4
; perimeter_speed = 30
; infill_speed = 60
; travel_speed = 130
; scale = 1
; nozzle_diameter = 0.5
; filament_diameter = 3
; extrusion_multiplier = 1
; perimeters extrusion width = 0.53mm
; infill extrusion width = 0.53mm
; first layer extrusion width = 0.80mm

M190 S60 ; wait for bed temperature to be reached
M104 S185 ; set temperature
M104 S185 ; set extruder temperature
G28 ; home all axes
M109 S185 ; wait for temperature to be reached
G90 ; use absolute coordinates
G21 ; set units to millimeters
G92 E0 ; reset extrusion distance
M82 ; use absolute distances for extrusion
G1 F1800.000 E-1.00000 ; retract
G92 E0 ; reset extrusion distance
G1 Z0.400 F7800.000 ; move to next layer (0)
G1 X105.600 Y34.440 ; move to first skirt point
G1 F1800.000 E1.00000 ; compensate retraction
G1 X106.020 Y34.080 F540.000 E1.02303 ; skirt
G1 X106.480 Y33.760 E1.04635 ; skirt
G1 X106.710 Y33.610 E1.05778 ; skirt
G1 X107.450 Y33.230 E1.09241 ; skirt
G1 X108.240 Y32.940 E1.12744 ; skirt
G1 X108.780 Y32.810 E1.15057 ; skirt
G1 X109.600 Y32.690 E1.18506 ; skirt
G1 X110.160 Y32.660 E1.20841 ; skirt
G1 X149.600 Y32.660 E2.85020 ; skirt
G1 X150.410 Y32.710 E2.88398 ; skirt
G1 X150.950 Y32.800 E2.90677 ; skirt
G1 X151.730 Y33.010 E2.94040 ; skirt
G1 X152.490 Y33.310 E2.97441 ; skirt
G1 X153.200 Y33.710 E3.00833 ; skirt
G1 X153.860 Y34.180 E3.04206 ; skirt
G1 X154.460 Y34.730 E3.07594 ; skirt
G1 X154.820 Y35.140 E3.09866 ; skirt
G1 X155.140 Y35.570 E3.12097 ; skirt
G1 X155.430 Y36.030 E3.14360 ; skirt
G1 X155.690 Y36.510 E3.16633 ; skirt
G1 X155.900 Y37.010 E3.18890 ; skirt
G1 X156.140 Y37.790 E3.22287 ; skirt
G1 X156.290 Y38.590 E3.25676 ; skirt
G1 X156.340 Y39.400 E3.29054 ; skirt
G1 X156.340 Y59.830 E4.14099 ; skirt
G1 X156.310 Y60.390 E4.16434 ; skirt
G1 X156.240 Y60.940 E4.18742 ; skirt
G1 X156.060 Y61.750 E4.22196 ; skirt
G1 X155.770 Y62.540 E4.25699 ; skirt
G1 X155.390 Y63.280 E4.29162 ; skirt
G1 X154.920 Y63.970 E4.32637 ; skirt
G1 X154.560 Y64.390 E4.34940 ; skirt
G1 X75.390 Y143.560 E9.01015 ; skirt
G1 X74.970 Y143.920 E9.03318 ; skirt
G1 X74.510 Y144.240 E9.05651 ; skirt
G1 X74.280 Y144.390 E9.06794 ; skirt
G1 X73.540 Y144.770 E9.10257 ; skirt
G1 X73.020 Y144.970 E9.12576 ; skirt
G1 X72.480 Y145.130 E9.14920 ; skirt
G1 X71.940 Y145.240 E9.17214 ; skirt
G1 X71.110 Y145.330 E9.20690 ; skirt
G1 X50.400 Y145.340 E10.06900 ; skirt
G1 X49.590 Y145.290 E10.10279 ; skirt
G1 X49.050 Y145.200 E10.12557 ; skirt
G1 X48.270 Y144.990 E10.15920 ; skirt
G1 X47.510 Y144.690 E10.19321 ; skirt
G1 X46.800 Y144.290 E10.22714 ; skirt
G1 X46.140 Y143.820 E10.26086 ; skirt
G1 X45.540 Y143.270 E10.29475 ; skirt
G1 X45.180 Y142.860 E10.31746 ; skirt
G1 X44.860 Y142.430 E10.33977 ; skirt
G1 X44.570 Y141.970 E10.36241 ; skirt
G1 X44.310 Y141.490 E10.38513 ; skirt
G1 X44.010 Y140.730 E10.41915 ; skirt
G1 X43.860 Y140.210 E10.44167 ; skirt
G1 X43.750 Y139.680 E10.46421 ; skirt
G1 X43.710 Y139.410 E10.47557 ; skirt
G1 X43.660 Y138.600 E10.50935 ; skirt
G1 X43.660 Y99.160 E12.15114 ; skirt
G1 X43.690 Y98.600 E12.17449 ; skirt
G1 X43.760 Y98.050 E12.19757 ; skirt
G1 X43.940 Y97.240 E12.23211 ; skirt
G1 X44.230 Y96.450 E12.26714 ; skirt
G1 X44.610 Y95.710 E12.30177 ; skirt
G1 X45.080 Y95.020 E12.33652 ; skirt
G1 X45.440 Y94.600 E12.35955 ; skirt
G1 X105.522 Y34.518 E15.89659 ; skirt
G1 X105.600 Y34.440 E15.90118 ; skirt
G1 F1800.000 E14.90118 ; retract
G92 E0 ; reset extrusion distance
G1 X136.115 Y47.462 F7800.000 ; move to first perimeter point
G1 F1800.000 E1.00000 ; compensate retraction
G1 X136.774 Y46.526 F540.000 E1.04767 ; perimeter
G1 X137.654 Y45.793 E1.09534 ; perimeter
G1 X138.693 Y45.312 E1.14301 ; perimeter
G1 X139.822 Y45.116 E1.19070 ; perimeter
G1 X140.963 Y45.220 E1.23840 ; perimeter
G1 X142.037 Y45.614 E1.28603 ; perimeter
G1 X142.974 Y46.274 E1.33374 ; perimeter
G1 X143.708 Y47.154 E1.38141 ; perimeter
G1 X144.188 Y48.194 E1.42909 ; perimeter
G1 X144.384 Y49.322 E1.47678 ; perimeter
G1 X144.280 Y50.463 E1.52445 ; perimeter
G1 X143.885 Y51.538 E1.57213 ; perimeter
G1 X143.226 Y52.474 E1.61980 ; perimeter
G1 X142.346 Y53.207 E1.66747 ; perimeter
G1 X141.307 Y53.688 E1.71514 ; perimeter
G1 X140.435 Y53.839 E1.75198 ; perimeter
G1 X140.178 Y53.884 E1.76284 ; perimeter
G1 X139.037 Y53.780 E1.81053 ; perimeter
G1 X137.963 Y53.386 E1.85817 ; perimeter
G1 X137.026 Y52.726 E1.90587 ; perimeter
G1 X136.292 Y51.846 E1.95355 ; perimeter
G1 X135.812 Y50.806 E2.00123 ; perimeter
G1 X135.616 Y49.678 E2.04891 ; perimeter
G1 X135.720 Y48.537 E2.09658 ; perimeter
G1 X136.077 Y47.566 E2.13967 ; perimeter
G1 X136.115 Y47.462 E2.14427 ; perimeter
G1 X136.772 Y47.807 F7800.000 ; move to first perimeter point
G1 X137.320 Y47.029 F540.000 E2.18387 ; perimeter
G1 X138.051 Y46.420 E2.22349 ; perimeter
G1 X138.914 Y46.020 E2.26310 ; perimeter
G1 X139.852 Y45.858 E2.30272 ; perimeter
G1 X140.800 Y45.944 E2.34235 ; perimeter
G1 X141.693 Y46.271 E2.38193 ; perimeter
G1 X142.471 Y46.820 E2.42157 ; perimeter
G1 X143.081 Y47.551 E2.46118 ; perimeter
G1 X143.480 Y48.415 E2.50079 ; perimeter
G1 X143.642 Y49.352 E2.54041 ; perimeter
G1 X143.557 Y50.300 E2.58003 ; perimeter
G1 X143.228 Y51.193 E2.61964 ; perimeter
G1 X142.680 Y51.971 E2.65925 ; perimeter
G1 X141.949 Y52.580 E2.69886 ; perimeter
G1 X141.086 Y52.980 E2.73847 ; perimeter
G1 X140.309 Y53.114 E2.77127 ; perimeter
G1 X140.148 Y53.142 E2.77810 ; perimeter
G1 X139.200 Y53.056 E2.81772 ; perimeter
G1 X138.307 Y52.729 E2.85731 ; perimeter
G1 X137.529 Y52.180 E2.89694 ; perimeter
G1 X136.919 Y51.449 E2.93656 ; perimeter
G1 X136.520 Y50.585 E2.97617 ; perimeter
G1 X136.358 Y49.648 E3.01579 ; perimeter
G1 X136.443 Y48.700 E3.05540 ; perimeter
G1 X136.734 Y47.910 E3.09043 ; perimeter
G1 X136.772 Y47.807 E3.09502 ; perimeter
G1 X137.429 Y48.151 F7800.000 ; move to first perimeter point
G1 X137.865 Y47.532 F540.000 E3.12657 ; perimeter
G1 X138.447 Y47.046 E3.15812 ; perimeter
G1 X139.135 Y46.728 E3.18967 ; perimeter
G1 X139.882 Y46.599 E3.22123 ; perimeter
G1 X140.637 Y46.667 E3.25278 ; perimeter
G1 X141.348 Y46.929 E3.28432 ; perimeter
G1 X141.968 Y47.365 E3.31588 ; perimeter
G1 X142.454 Y47.948 E3.34743 ; perimeter
G1 X142.772 Y48.635 E3.37898 ; perimeter
G1 X142.901 Y49.382 E3.41054 ; perimeter
G1 X142.833 Y50.137 E3.44209 ; perimeter
G1 X142.571 Y50.849 E3.47364 ; perimeter
G1 X142.135 Y51.468 E3.50519 ; perimeter
G1 X141.553 Y51.954 E3.53674 ; perimeter
G1 X140.865 Y52.272 E3.56829 ; perimeter
G1 X140.184 Y52.390 E3.59705 ; perimeter
G1 X140.118 Y52.401 E3.59985 ; perimeter
G1 X139.363 Y52.333 E3.63140 ; perimeter
G1 X138.652 Y52.071 E3.66294 ; perimeter
G1 X138.032 Y51.635 E3.69450 ; perimeter
G1 X137.546 Y51.052 E3.72605 ; perimeter
G1 X137.228 Y50.365 E3.75761 ; perimeter
G1 X137.099 Y49.618 E3.78916 ; perimeter
G1 X137.167 Y48.863 E3.82071 ; perimeter
G1 X137.391 Y48.255 E3.84767 ; perimeter
G1 X137.429 Y48.151 E3.85226 ; perimeter
G1 X137.063 Y47.513 F7800.000 ; move inwards before travel
G1 F1800.000 E2.85226 ; retract
G92 E0 ; reset extrusion distance
G1 X124.387 Y49.500 F7800.000 ; move to first perimeter point
G1 F1800.000 E1.00000 ; compensate retraction
G1 X124.238 Y50.636 F540.000 E1.04767 ; perimeter
G1 X123.800 Y51.694 E1.09535 ; perimeter
G1 X123.102 Y52.602 E1.14302 ; perimeter
G1 X122.193 Y53.300 E1.19071 ; perimeter
G1 X121.136 Y53.738 E1.23838 ; perimeter
G1 X120.258 Y53.853 E1.27520 ; perimeter
G1 X120.000 Y53.887 E1.28606 ; perimeter
G1 X118.865 Y53.738 E1.33373 ; perimeter
G1 X117.807 Y53.300 E1.38140 ; perimeter
G1 X116.897 Y52.602 E1.42910 ; perimeter
G1 X116.200 Y51.694 E1.47677 ; perimeter
G1 X115.762 Y50.635 E1.52446 ; perimeter
G1 X115.613 Y49.500 E1.57213 ; perimeter
G1 X115.762 Y48.364 E1.61980 ; perimeter
G1 X116.200 Y47.306 E1.66748 ; perimeter
G1 X116.898 Y46.398 E1.71515 ; perimeter
G1 X117.806 Y45.701 E1.76282 ; perimeter
G1 X118.864 Y45.262 E1.81051 ; perimeter
G1 X120.000 Y45.113 E1.85819 ; perimeter
G1 X121.136 Y45.262 E1.90588 ; perimeter
G1 X122.193 Y45.700 E1.95353 ; perimeter
G1 X123.103 Y46.398 E2.00124 ; perimeter
G1 X123.800 Y47.306 E2.04891 ; perimeter
G1 X124.238 Y48.365 E2.09659 ; perimeter
G1 X124.373 Y49.391 E2.13967 ; perimeter
G1 X124.387 Y49.500 E2.14427 ; perimeter
G1 X123.645 Y49.500 F7800.000 ; move to first perimeter point
G1 X123.521 Y50.444 F540.000 E2.18387 ; perimeter
G1 X123.157 Y51.323 E2.22349 ; perimeter
G1 X122.578 Y52.078 E2.26310 ; perimeter
G1 X121.823 Y52.657 E2.30272 ; perimeter
G1 X120.944 Y53.021 E2.34233 ; perimeter
G1 X120.162 Y53.124 E2.37512 ; perimeter
G1 X120.000 Y53.145 E2.38195 ; perimeter
G1 X119.057 Y53.021 E2.42156 ; perimeter
G1 X118.177 Y52.657 E2.46117 ; perimeter
G1 X117.422 Y52.078 E2.50080 ; perimeter
G1 X116.843 Y51.323 E2.54041 ; perimeter
G1 X116.479 Y50.443 E2.58003 ; perimeter
G1 X116.355 Y49.500 E2.61964 ; perimeter
G1 X116.479 Y48.556 E2.65925 ; perimeter
G1 X116.843 Y47.677 E2.69887 ; perimeter
G1 X117.422 Y46.922 E2.73848 ; perimeter
G1 X118.177 Y46.343 E2.77809 ; perimeter
G1 X119.056 Y45.979 E2.81771 ; perimeter
G1 X120.000 Y45.855 E2.85733 ; perimeter
G1 X120.944 Y45.979 E2.89695 ; perimeter
G1 X121.823 Y46.343 E2.93655 ; perimeter
G1 X122.578 Y46.922 E2.97618 ; perimeter
G1 X123.157 Y47.677 E3.01579 ; perimeter
G1 X123.521 Y48.557 E3.05541 ; perimeter
G1 X123.631 Y49.391 E3.09043 ; perimeter
G1 X123.645 Y49.500 E3.09502 ; perimeter
G1 X122.903 Y49.500 F7800.000 ; move to first perimeter point
G1 X122.805 Y50.251 F540.000 E3.12657 ; perimeter
G1 X122.514 Y50.952 E3.15812 ; perimeter
G1 X122.053 Y51.553 E3.18967 ; perimeter
G1 X121.452 Y52.014 E3.22123 ; perimeter
G1 X120.751 Y52.305 E3.25278 ; perimeter
G1 X120.067 Y52.395 E3.28153 ; perimeter
G1 X120.000 Y52.403 E3.28433 ; perimeter
G1 X119.249 Y52.305 E3.31588 ; perimeter
G1 X118.548 Y52.015 E3.34743 ; perimeter
G1 X117.947 Y51.553 E3.37899 ; perimeter
G1 X117.485 Y50.952 E3.41054 ; perimeter
G1 X117.195 Y50.251 E3.44209 ; perimeter
G1 X117.097 Y49.500 E3.47364 ; perimeter
G1 X117.195 Y48.749 E3.50519 ; perimeter
G1 X117.486 Y48.048 E3.53674 ; perimeter
G1 X117.947 Y47.447 E3.56829 ; perimeter
G1 X118.548 Y46.986 E3.59984 ; perimeter
G1 X119.249 Y46.695 E3.63140 ; perimeter
G1 X120.000 Y46.597 E3.66295 ; perimeter
G1 X120.752 Y46.696 E3.69451 ; perimeter
G1 X121.452 Y46.985 E3.72605 ; perimeter
G1 X122.053 Y47.447 E3.75761 ; perimeter
G1 X122.514 Y48.048 E3.78916 ; perimeter
G1 X122.805 Y48.749 E3.82071 ; perimeter
G1 X122.889 Y49.391 E3.84767 ; perimeter
G1 X122.903 Y49.500 E3.85226 ; perimeter
G1 X123.524 Y49.895 F7800.000 ; move inwards before travel
G1 F1800.000 E2.85226 ; retract
G92 E0 ; reset extrusion distance
G1 X63.371 Y105.682 F7800.000 ; move to first perimeter point
G1 F1800.000 E1.00000 ; compensate retraction
G1 X64.132 Y106.538 F540.000 E1.04768 ; perimeter
G1 X64.645 Y107.562 E1.09535 ; perimeter
G1 X64.876 Y108.684 E1.14304 ; perimeter
G1 X64.809 Y109.827 E1.19071 ; perimeter
G1 X64.448 Y110.914 E1.23839 ; perimeter
G1 X63.818 Y111.871 E1.28607 ; perimeter
G1 X62.962 Y112.632 E1.33374 ; perimeter
G1 X61.938 Y113.145 E1.38142 ; perimeter
G1 X61.085 Y113.321 E1.41766 ; perimeter
G1 X60.816 Y113.376 E1.42910 ; perimeter
G1 X59.673 Y113.309 E1.47678 ; perimeter
G1 X58.586 Y112.948 E1.52446 ; perimeter
G1 X57.629 Y112.318 E1.57213 ; perimeter
G1 X56.868 Y111.462 E1.61981 ; perimeter
G1 X56.355 Y110.438 E1.66749 ; perimeter
G1 X56.124 Y109.316 E1.71516 ; perimeter
G1 X56.140 Y109.042 E1.72660 ; perimeter
G1 X56.191 Y108.173 E1.76284 ; perimeter
G1 X56.552 Y107.086 E1.81052 ; perimeter
G1 X57.182 Y106.129 E1.85820 ; perimeter
G1 X58.038 Y105.368 E1.90587 ; perimeter
G1 X59.062 Y104.855 E1.95355 ; perimeter
G1 X60.184 Y104.624 E2.00123 ; perimeter
G1 X61.327 Y104.691 E2.04891 ; perimeter
G1 X62.414 Y105.052 E2.09659 ; perimeter
G1 X63.279 Y105.622 E2.13967 ; perimeter
G1 X63.371 Y105.682 E2.14426 ; perimeter
G1 X62.885 Y106.243 F7800.000 ; move to first perimeter point
G1 X63.518 Y106.955 F540.000 E2.18388 ; perimeter
G1 X63.944 Y107.805 E2.22349 ; perimeter
G1 X64.136 Y108.737 E2.26311 ; perimeter
G1 X64.080 Y109.687 E2.30272 ; perimeter
G1 X63.780 Y110.591 E2.34234 ; perimeter
G1 X63.257 Y111.385 E2.38195 ; perimeter
G1 X62.545 Y112.017 E2.42156 ; perimeter
G1 X61.695 Y112.444 E2.46118 ; perimeter
G1 X60.937 Y112.600 E2.49339 ; perimeter
G1 X60.763 Y112.636 E2.50080 ; perimeter
G1 X59.813 Y112.580 E2.54041 ; perimeter
G1 X58.909 Y112.280 E2.58003 ; perimeter
G1 X58.115 Y111.757 E2.61964 ; perimeter
G1 X57.482 Y111.045 E2.65926 ; perimeter
G1 X57.056 Y110.195 E2.69887 ; perimeter
G1 X56.864 Y109.263 E2.73848 ; perimeter
G1 X56.875 Y109.085 E2.74589 ; perimeter
G1 X56.920 Y108.313 E2.77810 ; perimeter
G1 X57.220 Y107.409 E2.81771 ; perimeter
G1 X57.743 Y106.615 E2.85733 ; perimeter
G1 X58.455 Y105.983 E2.89694 ; perimeter
G1 X59.305 Y105.556 E2.93656 ; perimeter
G1 X60.237 Y105.364 E2.97617 ; perimeter
G1 X61.187 Y105.420 E3.01579 ; perimeter
G1 X62.091 Y105.720 E3.05540 ; perimeter
G1 X62.793 Y106.183 E3.09042 ; perimeter
G1 X62.885 Y106.243 E3.09501 ; perimeter
G1 X62.400 Y106.804 F7800.000 ; move to first perimeter point
G1 X62.903 Y107.371 F540.000 E3.12657 ; perimeter
G1 X63.243 Y108.048 E3.15812 ; perimeter
G1 X63.396 Y108.791 E3.18967 ; perimeter
G1 X63.351 Y109.547 E3.22122 ; perimeter
G1 X63.113 Y110.267 E3.25277 ; perimeter
G1 X63.068 Y110.334 E3.25615 ; perimeter
G1 X62.696 Y110.900 E3.28432 ; perimeter
G1 X62.129 Y111.403 E3.31587 ; perimeter
G1 X61.452 Y111.743 E3.34743 ; perimeter
G1 X60.709 Y111.896 E3.37898 ; perimeter
G1 X60.033 Y111.856 E3.40716 ; perimeter
G1 X59.952 Y111.851 E3.41053 ; perimeter
G1 X59.233 Y111.613 E3.44208 ; perimeter
G1 X58.600 Y111.196 E3.47363 ; perimeter
G1 X58.097 Y110.629 E3.50519 ; perimeter
G1 X57.757 Y109.952 E3.53674 ; perimeter
G1 X57.604 Y109.209 E3.56829 ; perimeter
G1 X57.609 Y109.128 E3.57166 ; perimeter
G1 X57.649 Y108.453 E3.59984 ; perimeter
G1 X57.887 Y107.733 E3.63139 ; perimeter
G1 X58.304 Y107.100 E3.66294 ; perimeter
G1 X58.871 Y106.597 E3.69450 ; perimeter
G1 X59.548 Y106.257 E3.72605 ; perimeter
G1 X60.291 Y106.104 E3.75760 ; perimeter
G1 X61.048 Y106.149 E3.78915 ; perimeter
G1 X61.767 Y106.387 E3.82070 ; perimeter
G1 X62.308 Y106.744 E3.84766 ; perimeter
G1 X62.400 Y106.804 E3.85225 ; perimeter
G1 X63.105 Y106.594 F7800.000 ; move inwards before travel
G1 F1800.000 E2.85225 ; retract
G92 E0 ; reset extrusion distance
G1 X60.500 Y124.613 F7800.000 ; move to first perimeter point
G1 F1800.000 E1.00000 ; compensate retraction
G1 X61.635 Y124.762 F540.000 E1.04768 ; perimeter
G1 X62.694 Y125.200 E1.09536 ; perimeter
G1 X63.602 Y125.897 E1.14303 ; perimeter
G1 X64.300 Y126.807 E1.19074 ; perimeter
G1 X64.738 Y127.865 E1.23841 ; perimeter
G1 X64.887 Y129.000 E1.28607 ; perimeter
G1 X64.738 Y130.136 E1.33376 ; perimeter
G1 X64.300 Y131.193 E1.38143 ; perimeter
G1 X63.602 Y132.102 E1.42911 ; perimeter
G1 X62.694 Y132.800 E1.47678 ; perimeter
G1 X61.636 Y133.238 E1.52447 ; perimeter
G1 X60.500 Y133.387 E1.57213 ; perimeter
G1 X59.365 Y133.238 E1.61981 ; perimeter
G1 X58.306 Y132.800 E1.66749 ; perimeter
G1 X57.398 Y132.103 E1.71516 ; perimeter
G1 X57.239 Y131.895 E1.72604 ; perimeter
G1 X56.700 Y131.193 E1.76287 ; perimeter
G1 X56.262 Y130.136 E1.81051 ; perimeter
G1 X56.113 Y129.000 E1.85821 ; perimeter
G1 X56.147 Y128.742 E1.86906 ; perimeter
G1 X56.262 Y127.864 E1.90589 ; perimeter
G1 X56.701 Y126.806 E1.95358 ; perimeter
G1 X57.398 Y125.898 E2.00125 ; perimeter
G1 X58.306 Y125.200 E2.04892 ; perimeter
G1 X59.364 Y124.762 E2.09660 ; perimeter
G1 X60.390 Y124.627 E2.13967 ; perimeter
G1 X60.500 Y124.613 E2.14427 ; perimeter
G1 X60.500 Y125.355 F7800.000 ; move to first perimeter point
G1 X61.443 Y125.479 F540.000 E2.18388 ; perimeter
G1 X62.323 Y125.843 E2.22350 ; perimeter
G1 X63.078 Y126.422 E2.26311 ; perimeter
G1 X63.657 Y127.177 E2.30274 ; perimeter
G1 X64.021 Y128.057 E2.34235 ; perimeter
