; generated by Slic3r 0.9.10b on 2013-10-01 at 21:26:37

; layer_height = 0.4
; perimeters = 3
; top_solid_layers = 3
; bottom_solid_layers = 3
; fill_density = 0.4
; perimeter_speed = 30
; infill_speed = 60
; travel_speed = 130
; nozzle_diameter = 0.5
; filament_diameter = 3
; extrusion_multiplier = 1
; perimeters extrusion width = 0.53mm
; infill extrusion width = 0.53mm
; solid infill extrusion width = 0.53mm
; top infill extrusion width = 0.53mm
; first layer extrusion width = 0.80mm

G21 ; set units to millimeters
M190 S60 ; wait for bed temperature to be reached
M104 S185 ; set temperature
G28 ; home all axes
G1 Z5 F5000 ; lift nozzle
G92 E0 ;reset extruder
M109 S185 ; wait for temperature to be reached
G90 ; use absolute coordinates
G92 E0 ; reset extrusion distance
M82 ; use absolute distances for extrusion
G1 F1800.000 E-1.00000 ; retract
G92 E0 ; reset extrusion distance
G1 Z0.400 F7800.000 ; move to next layer (0)
G1 X72.770 Y39.244 ; move to first skirt point
G1 F1800.000 E1.00000 ; compensate retraction
G1 X90.300 Y0.834 F1440.000 E2.75756 ; skirt
G1 X91.010 Y-0.356 E2.81525 ; skirt
G1 X91.940 Y-1.386 E2.87302 ; skirt
G1 X93.070 Y-2.206 E2.93114 ; skirt
G1 X101.730 Y-7.196 E3.34719 ; skirt
G1 X102.930 Y-7.736 E3.40197 ; skirt
G1 X104.210 Y-8.036 E3.45670 ; skirt
G1 X105.530 Y-8.076 E3.51167 ; skirt
G1 X106.840 Y-7.866 E3.56690 ; skirt
G1 X108.070 Y-7.396 E3.62171 ; skirt
G1 X109.190 Y-6.696 E3.67669 ; skirt
G1 X110.150 Y-5.796 E3.73147 ; skirt
G1 X110.920 Y-4.726 E3.78635 ; skirt
G1 X126.930 Y22.984 E5.11853 ; skirt
G1 X127.610 Y24.614 E5.19206 ; skirt
G1 X127.840 Y26.354 E5.26512 ; skirt
G1 X127.840 Y52.354 E6.34743 ; skirt
G1 X127.780 Y53.184 E6.38207 ; skirt
G1 X127.630 Y54.014 E6.41719 ; skirt
G1 X95.430 Y181.014 E11.87116 ; skirt
G1 X95.000 Y182.204 E11.92383 ; skirt
G1 X94.360 Y183.304 E11.97681 ; skirt
G1 X93.520 Y184.254 E12.02960 ; skirt
G1 X92.520 Y185.034 E12.08239 ; skirt
G1 X91.380 Y185.614 E12.13564 ; skirt
G1 X90.160 Y185.974 E12.18859 ; skirt
G1 X88.900 Y186.094 E12.24127 ; skirt
G1 X78.900 Y186.094 E12.65755 ; skirt
G1 X77.590 Y185.964 E12.71235 ; skirt
G1 X76.320 Y185.574 E12.76765 ; skirt
G1 X75.160 Y184.954 E12.82241 ; skirt
G1 X74.140 Y184.114 E12.87741 ; skirt
G1 X73.300 Y183.094 E12.93242 ; skirt
G1 X72.680 Y181.934 E12.98717 ; skirt
G1 X72.290 Y180.664 E13.04247 ; skirt
G1 X72.160 Y179.354 E13.09727 ; skirt
G1 X72.160 Y42.044 E18.81315 ; skirt
G1 X72.320 Y40.614 E18.87305 ; skirt
G1 X72.736 Y39.348 E18.92848 ; skirt
G1 F1800.000 E17.92848 ; retract
G92 E0 ; reset extrusion distance
G1 X80.739 Y43.891 F7800.000 ; move to first perimeter point
G1 F1800.000 E1.00000 ; compensate retraction
G1 X112.939 Y43.891 F1440.000 E2.34041 ; perimeter
G1 X112.939 Y28.543 E2.97930 ; perimeter
G1 X98.952 Y4.317 E4.14380 ; perimeter
G1 X104.427 Y1.156 E4.40697 ; perimeter
G1 X119.261 Y26.849 E5.64198 ; perimeter
G1 X119.261 Y50.517 E6.62723 ; perimeter
G1 X87.061 Y50.517 E7.96763 ; perimeter
G1 X87.061 Y177.517 E13.25433 ; perimeter
G1 X80.739 Y177.517 E13.51750 ; perimeter
G1 X80.739 Y44.001 E19.07544 ; perimeter
G1 X80.003 Y43.155 F7800.000 ; move to first perimeter point
G1 X112.203 Y43.155 F1440.000 E20.41585 ; perimeter
G1 X112.203 Y28.740 E21.01592 ; perimeter
G1 X97.947 Y4.047 E22.20283 ; perimeter
G1 X104.696 Y0.151 E22.52724 ; perimeter
G1 X119.997 Y26.652 E23.80108 ; perimeter
G1 X119.997 Y51.253 E24.82516 ; perimeter
G1 X87.797 Y51.253 E26.16556 ; perimeter
G1 X87.797 Y178.253 E31.45226 ; perimeter
G1 X80.003 Y178.253 E31.77667 ; perimeter
G1 X80.003 Y43.266 E37.39586 ; perimeter
G1 X79.268 Y42.420 F7800.000 ; move to first perimeter point
G1 X111.468 Y42.420 F1440.000 E38.73627 ; perimeter
G1 X111.468 Y28.937 E39.29751 ; perimeter
G1 X96.942 Y3.778 E40.50684 ; perimeter
G1 X104.965 Y-0.854 E40.89249 ; perimeter
G1 X120.732 Y26.455 E42.20516 ; perimeter
G1 X120.732 Y51.989 E43.26806 ; perimeter
G1 X88.532 Y51.989 E44.60847 ; perimeter
G1 X88.532 Y178.989 E49.89517 ; perimeter
G1 X79.268 Y178.989 E50.28082 ; perimeter
G1 X79.268 Y42.530 E55.96125 ; perimeter
G1 X79.905 Y42.788 F7800.000 ; move inwards before travel
G1 F1800.000 E54.96125 ; retract
G92 E0 ; reset extrusion distance
G1 X105.470 Y4.029 F7800.000 ; move to first fill point
G1 F1800.000 E1.00000 ; compensate retraction
G1 X103.657 Y2.216 F2880.000 E1.10675 ; fill
G1 X102.997 Y2.597 E1.13846 ; fill
G1 X106.891 Y6.491 E1.36772 ; fill
G1 X108.313 Y8.952 E1.48606 ; fill
G1 X102.338 Y2.978 E1.83783 ; fill
G1 X101.678 Y3.358 E1.86954 ; fill
G1 X109.734 Y11.414 E2.34382 ; fill
G1 X111.155 Y13.876 E2.46215 ; fill
G1 X101.019 Y3.739 E3.05895 ; fill
G1 X100.359 Y4.120 E3.09066 ; fill
G1 X112.576 Y16.337 E3.80996 ; fill
G1 X113.998 Y18.799 E3.92829 ; fill
G1 X99.699 Y4.501 E4.77011 ; fill
G1 X101.060 Y6.902 E4.88503 ; fill
G1 X115.419 Y21.261 E5.73038 ; fill
G1 X116.840 Y23.722 E5.84872 ; fill
G1 X102.482 Y9.364 E6.69407 ; fill
G1 X103.903 Y11.826 E6.81241 ; fill
G1 X118.261 Y26.184 E7.65776 ; fill
G1 X118.728 Y27.691 E7.72343 ; fill
G1 X105.324 Y14.287 E8.51257 ; fill
G1 X106.745 Y16.749 E8.63091 ; fill
G1 X118.728 Y28.731 E9.33637 ; fill
G1 X118.728 Y29.772 E9.37968 ; fill
G1 X108.167 Y19.211 E10.00147 ; fill
G1 X109.588 Y21.672 E10.11981 ; fill
G1 X118.728 Y30.812 E10.65792 ; fill
G1 X118.728 Y31.853 E10.70123 ; fill
G1 X111.009 Y24.134 E11.15567 ; fill
G1 X112.430 Y26.596 E11.27401 ; fill
G1 X118.728 Y32.893 E11.64476 ; fill
G1 X118.728 Y33.933 E11.68808 ; fill
G1 X113.472 Y28.678 E11.99750 ; fill
G1 X113.472 Y29.718 E12.04081 ; fill
G1 X118.728 Y34.974 E12.35023 ; fill
G1 X118.728 Y36.014 E12.39355 ; fill
G1 X113.472 Y30.759 E12.70297 ; fill
G1 X113.472 Y31.799 E12.74628 ; fill
G1 X118.728 Y37.055 E13.05570 ; fill
G1 X118.728 Y38.095 E13.09901 ; fill
G1 X113.472 Y32.840 E13.40844 ; fill
G1 X113.472 Y33.880 E13.45175 ; fill
G1 X118.728 Y39.136 E13.76117 ; fill
G1 X118.728 Y40.176 E13.80448 ; fill
G1 X113.472 Y34.920 E14.11390 ; fill
G1 X113.472 Y35.961 E14.15722 ; fill
G1 X118.728 Y41.216 E14.46664 ; fill
G1 X118.728 Y42.257 E14.50995 ; fill
G1 X113.472 Y37.001 E14.81937 ; fill
G1 X113.472 Y38.042 E14.86269 ; fill
G1 X118.728 Y43.297 E15.17211 ; fill
G1 X118.728 Y44.338 E15.21542 ; fill
G1 X113.472 Y39.082 E15.52484 ; fill
G1 X113.472 Y40.123 E15.56816 ; fill
G1 X118.728 Y45.378 E15.87758 ; fill
G1 X118.728 Y46.418 E15.92089 ; fill
G1 X113.472 Y41.163 E16.23031 ; fill
G1 X113.472 Y42.203 E16.27362 ; fill
G1 X118.728 Y47.459 E16.58304 ; fill
G1 X118.728 Y48.499 E16.62636 ; fill
G1 X113.472 Y43.244 E16.93578 ; fill
G1 X113.472 Y44.284 E16.97909 ; fill
G1 X118.728 Y49.540 E17.28851 ; fill
G1 X118.132 Y49.984 E17.31946 ; fill
G1 X112.572 Y44.424 E17.64681 ; fill
G1 X111.531 Y44.424 E17.69012 ; fill
G1 X117.091 Y49.984 E18.01747 ; fill
G1 X116.051 Y49.984 E18.06078 ; fill
G1 X110.491 Y44.424 E18.38813 ; fill
G1 X109.451 Y44.424 E18.43144 ; fill
G1 X115.010 Y49.984 E18.75879 ; fill
G1 X113.970 Y49.984 E18.80210 ; fill
G1 X108.410 Y44.424 E19.12945 ; fill
G1 X107.370 Y44.424 E19.17276 ; fill
G1 X112.930 Y49.984 E19.50010 ; fill
G1 X111.889 Y49.984 E19.54342 ; fill
G1 X106.329 Y44.424 E19.87076 ; fill
G1 X105.289 Y44.424 E19.91408 ; fill
G1 X110.849 Y49.984 E20.24142 ; fill
G1 X109.808 Y49.984 E20.28474 ; fill
G1 X104.248 Y44.424 E20.61208 ; fill
G1 X103.208 Y44.424 E20.65540 ; fill
G1 X108.768 Y49.984 E20.98274 ; fill
G1 X107.728 Y49.984 E21.02606 ; fill
G1 X102.168 Y44.424 E21.35340 ; fill
G1 X101.127 Y44.424 E21.39671 ; fill
G1 X106.687 Y49.984 E21.72406 ; fill
G1 X105.647 Y49.984 E21.76737 ; fill
G1 X100.087 Y44.424 E22.09472 ; fill
G1 X99.046 Y44.424 E22.13803 ; fill
G1 X104.606 Y49.984 E22.46538 ; fill
G1 X103.566 Y49.984 E22.50869 ; fill
G1 X98.006 Y44.424 E22.83604 ; fill
G1 X96.966 Y44.424 E22.87935 ; fill
G1 X102.525 Y49.984 E23.20670 ; fill
G1 X101.485 Y49.984 E23.25001 ; fill
G1 X95.925 Y44.424 E23.57736 ; fill
G1 X94.885 Y44.424 E23.62067 ; fill
G1 X100.445 Y49.984 E23.94801 ; fill
G1 X99.404 Y49.984 E23.99133 ; fill
G1 X93.844 Y44.424 E24.31867 ; fill
G1 X92.804 Y44.424 E24.36199 ; fill
G1 X98.364 Y49.984 E24.68933 ; fill
G1 X97.323 Y49.984 E24.73265 ; fill
G1 X91.763 Y44.424 E25.05999 ; fill
G1 X90.723 Y44.424 E25.10331 ; fill
G1 X96.283 Y49.984 E25.43065 ; fill
G1 X95.243 Y49.984 E25.47396 ; fill
G1 X89.683 Y44.424 E25.80131 ; fill
G1 X88.642 Y44.424 E25.84462 ; fill
G1 X94.202 Y49.984 E26.17197 ; fill
G1 X93.162 Y49.984 E26.21528 ; fill
G1 X87.602 Y44.424 E26.54263 ; fill
G1 X86.561 Y44.424 E26.58594 ; fill
G1 X92.121 Y49.984 E26.91329 ; fill
G1 X91.081 Y49.984 E26.95660 ; fill
G1 X85.521 Y44.424 E27.28395 ; fill
G1 X84.481 Y44.424 E27.32726 ; fill
G1 X90.040 Y49.984 E27.65461 ; fill
G1 X89.000 Y49.984 E27.69792 ; fill
G1 X83.440 Y44.424 E28.02526 ; fill
G1 X82.400 Y44.424 E28.06858 ; fill
G1 X87.960 Y49.984 E28.39592 ; fill
G1 X86.919 Y49.984 E28.43924 ; fill
G1 X81.359 Y44.424 E28.76658 ; fill
G1 X81.272 Y45.378 E28.80644 ; fill
G1 X86.528 Y50.633 E29.11586 ; fill
G1 X86.528 Y51.674 E29.15917 ; fill
G1 X81.272 Y46.418 E29.46859 ; fill
G1 X81.272 Y47.458 E29.51191 ; fill
G1 X86.528 Y52.714 E29.82133 ; fill
G1 X86.528 Y53.754 E29.86464 ; fill
G1 X81.272 Y48.499 E30.17406 ; fill
G1 X81.272 Y49.539 E30.21738 ; fill
G1 X86.528 Y54.795 E30.52680 ; fill
G1 X86.528 Y55.835 E30.57011 ; fill
G1 X81.272 Y50.580 E30.87953 ; fill
G1 X81.272 Y51.620 E30.92285 ; fill
G1 X86.528 Y56.876 E31.23227 ; fill
G1 X86.528 Y57.916 E31.27558 ; fill
G1 X81.272 Y52.661 E31.58500 ; fill
G1 X81.272 Y53.701 E31.62831 ; fill
G1 X86.528 Y58.956 E31.93773 ; fill
G1 X86.528 Y59.997 E31.98105 ; fill
G1 X81.272 Y54.741 E32.29047 ; fill
G1 X81.272 Y55.782 E32.33378 ; fill
G1 X86.528 Y61.037 E32.64320 ; fill
G1 X86.528 Y62.078 E32.68652 ; fill
G1 X81.272 Y56.822 E32.99594 ; fill
G1 X81.272 Y57.863 E33.03925 ; fill
G1 X86.528 Y63.118 E33.34867 ; fill
G1 X86.528 Y64.159 E33.39199 ; fill
G1 X81.272 Y58.903 E33.70141 ; fill
G1 X81.272 Y59.943 E33.74472 ; fill
G1 X86.528 Y65.199 E34.05414 ; fill
G1 X86.528 Y66.239 E34.09745 ; fill
G1 X81.272 Y60.984 E34.40687 ; fill
G1 X81.272 Y62.024 E34.45019 ; fill
G1 X86.528 Y67.280 E34.75961 ; fill
G1 X86.528 Y68.320 E34.80292 ; fill
G1 X81.272 Y63.065 E35.11234 ; fill
G1 X81.272 Y64.105 E35.15566 ; fill
G1 X86.528 Y69.361 E35.46508 ; fill
G1 X86.528 Y70.401 E35.50839 ; fill
G1 X81.272 Y65.146 E35.81781 ; fill
G1 X81.272 Y66.186 E35.86113 ; fill
G1 X86.528 Y71.441 E36.17055 ; fill
G1 X86.528 Y72.482 E36.21386 ; fill
G1 X81.272 Y67.226 E36.52328 ; fill
G1 X81.272 Y68.267 E36.56659 ; fill
G1 X86.528 Y73.522 E36.87601 ; fill
G1 X86.528 Y74.563 E36.91933 ; fill
G1 X81.272 Y69.307 E37.22875 ; fill
G1 X81.272 Y70.348 E37.27206 ; fill
G1 X86.528 Y75.603 E37.58148 ; fill
G1 X86.528 Y76.644 E37.62480 ; fill
G1 X81.272 Y71.388 E37.93422 ; fill
G1 X81.272 Y72.428 E37.97753 ; fill
G1 X86.528 Y77.684 E38.28695 ; fill
G1 X86.528 Y78.724 E38.33027 ; fill
G1 X81.272 Y73.469 E38.63969 ; fill
G1 X81.272 Y74.509 E38.68300 ; fill
G1 X86.528 Y79.765 E38.99242 ; fill
G1 X86.528 Y80.805 E39.03573 ; fill
G1 X81.272 Y75.550 E39.34515 ; fill
G1 X81.272 Y76.590 E39.38847 ; fill
G1 X86.528 Y81.846 E39.69789 ; fill
G1 X86.528 Y82.886 E39.74120 ; fill
G1 X81.272 Y77.631 E40.05062 ; fill
G1 X81.272 Y78.671 E40.09394 ; fill
G1 X86.528 Y83.926 E40.40336 ; fill
G1 X86.528 Y84.967 E40.44667 ; fill
G1 X81.272 Y79.711 E40.75609 ; fill
G1 X81.272 Y80.752 E40.79941 ; fill
G1 X86.528 Y86.007 E41.10883 ; fill
G1 X86.528 Y87.048 E41.15214 ; fill
G1 X81.272 Y81.792 E41.46156 ; fill
G1 X81.272 Y82.833 E41.50487 ; fill
G1 X86.528 Y88.088 E41.81429 ; fill
G1 X86.528 Y89.129 E41.85761 ; fill
G1 X81.272 Y83.873 E42.16703 ; fill
G1 X81.272 Y84.913 E42.21034 ; fill
G1 X86.528 Y90.169 E42.51976 ; fill
G1 X86.528 Y91.209 E42.56308 ; fill
G1 X81.272 Y85.954 E42.87250 ; fill
G1 X81.272 Y86.994 E42.91581 ; fill
G1 X86.528 Y92.250 E43.22523 ; fill
G1 X86.528 Y93.290 E43.26855 ; fill
G1 X81.272 Y88.035 E43.57797 ; fill
G1 X81.272 Y89.075 E43.62128 ; fill
G1 X86.528 Y94.331 E43.93070 ; fill
G1 X86.528 Y95.371 E43.97401 ; fill
G1 X81.272 Y90.116 E44.28343 ; fill
G1 X81.272 Y91.156 E44.32675 ; fill
G1 X86.528 Y96.411 E44.63617 ; fill
G1 X86.528 Y97.452 E44.67948 ; fill
G1 X81.272 Y92.196 E44.98890 ; fill
G1 X81.272 Y93.237 E45.03222 ; fill
G1 X86.528 Y98.492 E45.34164 ; fill
G1 X86.528 Y99.533 E45.38495 ; fill
G1 X81.272 Y94.277 E45.69437 ; fill
G1 X81.272 Y95.318 E45.73769 ; fill
G1 X86.528 Y100.573 E46.04711 ; fill
G1 X86.528 Y101.614 E46.09042 ; fill
G1 X81.272 Y96.358 E46.39984 ; fill
G1 X81.272 Y97.398 E46.44315 ; fill
G1 X86.528 Y102.654 E46.75257 ; fill
G1 X86.528 Y103.694 E46.79589 ; fill
G1 X81.272 Y98.439 E47.10531 ; fill
G1 X81.272 Y99.479 E47.14862 ; fill
G1 X86.528 Y104.735 E47.45804 ; fill
G1 X86.528 Y105.775 E47.50136 ; fill
G1 X81.272 Y100.520 E47.81078 ; fill
G1 X81.272 Y101.560 E47.85409 ; fill
G1 X86.528 Y106.816 E48.16351 ; fill
G1 X86.528 Y107.856 E48.20683 ; fill
G1 X81.272 Y102.601 E48.51625 ; fill
G1 X81.272 Y103.641 E48.55956 ; fill
G1 X86.528 Y108.896 E48.86898 ; fill
G1 X86.528 Y109.937 E48.91229 ; fill
G1 X81.272 Y104.681 E49.22171 ; fill
G1 X81.272 Y105.722 E49.26503 ; fill
G1 X86.528 Y110.977 E49.57445 ; fill
G1 X86.528 Y112.018 E49.61776 ; fill
G1 X81.272 Y106.762 E49.92718 ; fill
G1 X81.272 Y107.803 E49.97050 ; fill
G1 X86.528 Y113.058 E50.27992 ; fill
G1 X86.528 Y114.099 E50.32323 ; fill
G1 X81.272 Y108.843 E50.63265 ; fill
G1 X81.272 Y109.883 E50.67597 ; fill
G1 X86.528 Y115.139 E50.98539 ; fill
G1 X86.528 Y116.179 E51.02870 ; fill
G1 X81.272 Y110.924 E51.33812 ; fill
G1 X81.272 Y111.964 E51.38143 ; fill
G1 X86.528 Y117.220 E51.69085 ; fill
G1 X86.528 Y118.260 E51.73417 ; fill
G1 X81.272 Y113.005 E52.04359 ; fill
G1 X81.272 Y114.045 E52.08690 ; fill
G1 X86.528 Y119.301 E52.39632 ; fill
G1 X86.528 Y120.341 E52.43964 ; fill
G1 X81.272 Y115.086 E52.74906 ; fill
G1 X81.272 Y116.126 E52.79237 ; fill
G1 X86.528 Y121.381 E53.10179 ; fill
G1 X86.528 Y122.422 E53.14511 ; fill
G1 X81.272 Y117.166 E53.45453 ; fill
G1 X81.272 Y118.207 E53.49784 ; fill
G1 X86.528 Y123.462 E53.80726 ; fill
G1 X86.528 Y124.503 E53.85057 ; fill
G1 X81.272 Y119.247 E54.15999 ; fill
G1 X81.272 Y120.288 E54.20331 ; fill
G1 X86.528 Y125.543 E54.51273 ; fill
G1 X86.528 Y126.584 E54.55604 ; fill
G1 X81.272 Y121.328 E54.86546 ; fill
G1 X81.272 Y122.368 E54.90878 ; fill
G1 X86.528 Y127.624 E55.21820 ; fill
G1 X86.528 Y128.664 E55.26151 ; fill
G1 X81.272 Y123.409 E55.57093 ; fill
G1 X81.272 Y124.449 E55.61425 ; fill
G1 X86.528 Y129.705 E55.92367 ; fill
G1 X86.528 Y130.745 E55.96698 ; fill
G1 X81.272 Y125.490 E56.27640 ; fill
G1 X81.272 Y126.530 E56.31971 ; fill
G1 X86.528 Y131.786 E56.62913 ; fill
G1 X86.528 Y132.826 E56.67245 ; fill
G1 X81.272 Y127.571 E56.98187 ; fill
G1 X81.272 Y128.611 E57.02518 ; fill
G1 X86.528 Y133.866 E57.33460 ; fill
G1 X86.528 Y134.907 E57.37792 ; fill
G1 X81.272 Y129.651 E57.68734 ; fill
G1 X81.272 Y130.692 E57.73065 ; fill
G1 X86.528 Y135.947 E58.04007 ; fill
G1 X86.528 Y136.988 E58.08338 ; fill
G1 X81.272 Y131.732 E58.39281 ; fill
G1 X81.272 Y132.773 E58.43612 ; fill
G1 X86.528 Y138.028 E58.74554 ; fill
G1 X86.528 Y139.069 E58.78885 ; fill
G1 X81.272 Y133.813 E59.09827 ; fill
G1 X81.272 Y134.854 E59.14159 ; fill
G1 X86.528 Y140.109 E59.45101 ; fill
G1 X86.528 Y141.149 E59.49432 ; fill
G1 X81.272 Y135.894 E59.80374 ; fill
G1 X81.272 Y136.934 E59.84706 ; fill
G1 X86.528 Y142.190 E60.15648 ; fill
G1 X86.528 Y143.230 E60.19979 ; fill
G1 X81.272 Y137.975 E60.50921 ; fill
G1 X81.272 Y139.015 E60.55252 ; fill
G1 X86.528 Y144.271 E60.86194 ; fill
G1 X86.528 Y145.311 E60.90526 ; fill
G1 X81.272 Y140.056 E61.21468 ; fill
G1 X81.272 Y141.096 E61.25799 ; fill
G1 X86.528 Y146.352 E61.56741 ; fill
G1 X86.528 Y147.392 E61.61073 ; fill
G1 X81.272 Y142.136 E61.92015 ; fill
G1 X81.272 Y143.177 E61.96346 ; fill
G1 X86.528 Y148.432 E62.27288 ; fill
G1 X86.528 Y149.473 E62.31620 ; fill
G1 X81.272 Y144.217 E62.62562 ; fill
G1 X81.272 Y145.258 E62.66893 ; fill
G1 X86.528 Y150.513 E62.97835 ; fill
G1 X86.528 Y151.554 E63.02166 ; fill
