; generated by Slic3r 0.9.10b on 2013-09-21 at 20:20:51

; layer_height = 0.4
; perimeters = 3
; top_solid_layers = 3
; bottom_solid_layers = 3
; fill_density = 0.4
; perimeter_speed = 30
; infill_speed = 60
; travel_speed = 130
; nozzle_diameter = 0.5
; filament_diameter = 3
; extrusion_multiplier = 1
; perimeters extrusion width = 0.53mm
; infill extrusion width = 0.53mm
; solid infill extrusion width = 0.53mm
; top infill extrusion width = 0.53mm
; first layer extrusion width = 0.80mm

G21 ; set units to millimeters
M190 S60 ; wait for bed temperature to be reached
M104 S180 ; set temperature
G28 ; home all axes
G1 Z5 F5000 ; lift nozzle
G92 E0 ;reset extruder
M109 S180 ; wait for temperature to be reached
G90 ; use absolute coordinates
G92 E0 ; reset extrusion distance
M82 ; use absolute distances for extrusion
G1 F1800.000 E-1.00000 ; retract
G92 E0 ; reset extrusion distance
G1 Z0.400 F7800.000 ; move to next layer (0)
G1 X61.790 Y51.681 ; move to first skirt point
G1 F1800.000 E1.00000 ; compensate retraction
G1 X62.780 Y50.691 F540.000 E1.05828 ; skirt
G1 X63.800 Y49.851 E1.11329 ; skirt
G1 X64.960 Y49.231 E1.16804 ; skirt
G1 X66.230 Y48.841 E1.22334 ; skirt
G1 X67.540 Y48.711 E1.27814 ; skirt
G1 X132.440 Y48.711 E3.97977 ; skirt
G1 X133.740 Y48.841 E4.03416 ; skirt
G1 X134.990 Y49.211 E4.08842 ; skirt
G1 X136.140 Y49.821 E4.14261 ; skirt
G1 X137.150 Y50.641 E4.19677 ; skirt
G1 X138.160 Y51.631 E4.25564 ; skirt
G1 X139.020 Y52.661 E4.31150 ; skirt
G1 X139.660 Y53.831 E4.36701 ; skirt
G1 X140.050 Y55.111 E4.42271 ; skirt
G1 X140.190 Y56.441 E4.47838 ; skirt
G1 X140.190 Y121.541 E7.18834 ; skirt
G1 X140.050 Y122.861 E7.24359 ; skirt
G1 X139.670 Y124.131 E7.29878 ; skirt
G1 X139.040 Y125.301 E7.35409 ; skirt
G1 X138.190 Y126.331 E7.40968 ; skirt
G1 X137.180 Y127.331 E7.46885 ; skirt
G1 X136.160 Y128.151 E7.52333 ; skirt
G1 X135.000 Y128.771 E7.57808 ; skirt
G1 X133.750 Y129.151 E7.63247 ; skirt
G1 X132.440 Y129.281 E7.68727 ; skirt
G1 X67.540 Y129.281 E10.38889 ; skirt
G1 X66.220 Y129.141 E10.44415 ; skirt
G1 X64.950 Y128.761 E10.49933 ; skirt
G1 X63.780 Y128.131 E10.55465 ; skirt
G1 X62.750 Y127.281 E10.61024 ; skirt
G1 X61.760 Y126.281 E10.66882 ; skirt
G1 X60.940 Y125.261 E10.72330 ; skirt
G1 X60.320 Y124.101 E10.77805 ; skirt
G1 X59.940 Y122.851 E10.83244 ; skirt
G1 X59.810 Y121.541 E10.88724 ; skirt
G1 X59.810 Y56.441 E13.59719 ; skirt
G1 X59.940 Y55.131 E13.65199 ; skirt
G1 X60.330 Y53.861 E13.70729 ; skirt
G1 X60.950 Y52.701 E13.76204 ; skirt
G1 X61.720 Y51.766 E13.81246 ; skirt
G1 F1800.000 E12.81246 ; retract
G92 E0 ; reset extrusion distance
G1 X68.389 Y57.290 F7800.000 ; move to first perimeter point
G1 F1800.000 E1.00000 ; compensate retraction
G1 X131.611 Y57.290 F540.000 E3.63177 ; perimeter
G1 X131.611 Y120.710 E6.27179 ; perimeter
G1 X68.389 Y120.710 E8.90356 ; perimeter
G1 X68.389 Y57.400 E11.53898 ; perimeter
G1 F1800.000 E10.53898 ; retract
G92 E0 ; reset extrusion distance
G1 X67.653 Y121.093 F7800.000 ; move to first perimeter point
G1 F1800.000 E1.00000 ; compensate retraction
G1 X67.653 Y56.906 F540.000 E3.67193 ; perimeter
G1 X68.005 Y56.554 E3.69263 ; perimeter
G1 X131.994 Y56.554 E6.35631 ; perimeter
G1 X132.347 Y56.907 E6.37707 ; perimeter
G1 X132.347 Y121.092 E9.04895 ; perimeter
G1 X131.993 Y121.446 E9.06977 ; perimeter
G1 X68.006 Y121.446 E11.73340 ; perimeter
G1 X67.731 Y121.171 E11.74956 ; perimeter
G1 X66.918 Y121.397 F7800.000 ; move to first perimeter point
G1 X66.918 Y56.601 F540.000 E14.44684 ; perimeter
G1 X67.700 Y55.819 E14.49291 ; perimeter
G1 X132.298 Y55.819 E17.18195 ; perimeter
G1 X133.082 Y56.602 E17.22807 ; perimeter
G1 X133.082 Y121.397 E19.92533 ; perimeter
G1 X132.298 Y122.181 E19.97152 ; perimeter
G1 X67.701 Y122.181 E22.66054 ; perimeter
G1 X66.996 Y121.475 E22.70207 ; perimeter
G1 X67.438 Y120.877 F7800.000 ; move inwards before travel
G1 F1800.000 E21.70207 ; retract
G92 E0 ; reset extrusion distance
G1 X69.704 Y120.177 F7800.000 ; move to first fill point
G1 F1800.000 E1.00000 ; compensate retraction
G1 X68.922 Y119.395 F1080.000 E1.04605 ; fill
G1 X68.922 Y118.354 E1.08943 ; fill
G1 X70.745 Y120.177 E1.19684 ; fill
G1 X71.786 Y120.177 E1.24022 ; fill
G1 X68.922 Y117.313 E1.40897 ; fill
G1 X68.922 Y116.271 E1.45235 ; fill
G1 X72.828 Y120.177 E1.68245 ; fill
G1 X73.869 Y120.177 E1.72583 ; fill
G1 X68.922 Y115.230 E2.01729 ; fill
G1 X68.922 Y114.189 E2.06067 ; fill
G1 X74.910 Y120.177 E2.41347 ; fill
G1 X75.951 Y120.177 E2.45685 ; fill
G1 X68.922 Y113.148 E2.87100 ; fill
G1 X68.922 Y112.107 E2.91438 ; fill
G1 X76.992 Y120.177 E3.38988 ; fill
G1 X78.034 Y120.177 E3.43326 ; fill
G1 X68.922 Y111.065 E3.97011 ; fill
G1 X68.922 Y110.024 E4.01349 ; fill
G1 X79.075 Y120.177 E4.61169 ; fill
G1 X80.116 Y120.177 E4.65507 ; fill
G1 X68.922 Y108.983 E5.31462 ; fill
G1 X68.922 Y107.942 E5.35800 ; fill
G1 X81.157 Y120.177 E6.07890 ; fill
G1 X82.198 Y120.177 E6.12229 ; fill
G1 X68.922 Y106.901 E6.90453 ; fill
G1 X68.922 Y105.859 E6.94791 ; fill
G1 X83.240 Y120.177 E7.79151 ; fill
G1 X84.281 Y120.177 E7.83489 ; fill
G1 X68.922 Y104.818 E8.73984 ; fill
G1 X68.922 Y103.777 E8.78322 ; fill
G1 X85.322 Y120.177 E9.74952 ; fill
G1 X86.363 Y120.177 E9.79290 ; fill
G1 X68.922 Y102.736 E10.82055 ; fill
G1 X68.922 Y101.694 E10.86393 ; fill
G1 X87.405 Y120.177 E11.95293 ; fill
G1 X88.446 Y120.177 E11.99631 ; fill
G1 X68.922 Y100.653 E13.14665 ; fill
G1 X68.922 Y99.612 E13.19004 ; fill
G1 X89.487 Y120.177 E14.40173 ; fill
G1 X90.528 Y120.177 E14.44511 ; fill
G1 X68.922 Y98.571 E15.71816 ; fill
G1 X68.922 Y97.530 E15.76154 ; fill
G1 X91.569 Y120.177 E17.09593 ; fill
G1 X92.611 Y120.177 E17.13932 ; fill
G1 X68.922 Y96.488 E18.53506 ; fill
G1 X68.922 Y95.447 E18.57844 ; fill
G1 X93.652 Y120.177 E20.03554 ; fill
G1 X94.693 Y120.177 E20.07892 ; fill
G1 X68.922 Y94.406 E21.59736 ; fill
G1 X68.922 Y93.365 E21.64074 ; fill
G1 X95.734 Y120.177 E23.22054 ; fill
G1 X96.776 Y120.177 E23.26392 ; fill
G1 X68.922 Y92.323 E24.90506 ; fill
G1 X68.922 Y91.282 E24.94844 ; fill
G1 X97.817 Y120.177 E26.65094 ; fill
G1 X98.858 Y120.177 E26.69432 ; fill
G1 X68.922 Y90.241 E28.45816 ; fill
G1 X68.922 Y89.200 E28.50154 ; fill
G1 X99.899 Y120.177 E30.32673 ; fill
G1 X100.940 Y120.177 E30.37011 ; fill
G1 X68.922 Y88.159 E32.25666 ; fill
G1 X68.922 Y87.117 E32.30004 ; fill
G1 X101.982 Y120.177 E34.24793 ; fill
G1 X103.023 Y120.177 E34.29131 ; fill
G1 X68.922 Y86.076 E36.30055 ; fill
G1 X68.922 Y85.035 E36.34393 ; fill
G1 X104.064 Y120.177 E38.41452 ; fill
G1 X105.105 Y120.177 E38.45790 ; fill
G1 X68.922 Y83.994 E40.58985 ; fill
G1 X68.922 Y82.952 E40.63323 ; fill
G1 X106.147 Y120.177 E42.82652 ; fill
G1 X107.188 Y120.177 E42.86990 ; fill
G1 X68.922 Y81.911 E45.12454 ; fill
G1 X68.922 Y80.870 E45.16792 ; fill
G1 X108.229 Y120.177 E47.48391 ; fill
G1 X109.270 Y120.177 E47.52729 ; fill
G1 X68.922 Y79.829 E49.90463 ; fill
G1 X68.922 Y78.788 E49.94801 ; fill
G1 X110.311 Y120.177 E52.38670 ; fill
G1 X111.353 Y120.177 E52.43008 ; fill
G1 X68.922 Y77.746 E54.93012 ; fill
G1 X68.922 Y76.705 E54.97350 ; fill
G1 X112.394 Y120.177 E57.53489 ; fill
G1 X113.435 Y120.177 E57.57827 ; fill
G1 X68.922 Y75.664 E60.20101 ; fill
G1 X68.922 Y74.623 E60.24439 ; fill
G1 X114.476 Y120.177 E62.92847 ; fill
G1 X115.518 Y120.177 E62.97185 ; fill
G1 X68.922 Y73.581 E65.71729 ; fill
G1 X68.922 Y72.540 E65.76067 ; fill
G1 X116.559 Y120.177 E68.56746 ; fill
G1 X117.600 Y120.177 E68.61084 ; fill
G1 X68.922 Y71.499 E71.47898 ; fill
G1 X68.922 Y70.458 E71.52236 ; fill
G1 X118.641 Y120.177 E74.45184 ; fill
G1 X119.682 Y120.177 E74.49522 ; fill
G1 X68.922 Y69.417 E77.48606 ; fill
G1 X68.922 Y68.375 E77.52944 ; fill
G1 X120.724 Y120.177 E80.58163 ; fill
G1 X121.765 Y120.177 E80.62501 ; fill
G1 X68.922 Y67.334 E83.73854 ; fill
G1 X68.922 Y66.293 E83.78192 ; fill
G1 X122.806 Y120.177 E86.95681 ; fill
G1 X123.847 Y120.177 E87.00019 ; fill
G1 X68.922 Y65.252 E90.23642 ; fill
G1 X68.922 Y64.211 E90.27980 ; fill
G1 X124.888 Y120.177 E93.57739 ; fill
G1 X125.930 Y120.177 E93.62077 ; fill
G1 X68.922 Y63.169 E96.97970 ; fill
G1 X68.922 Y62.128 E97.02308 ; fill
G1 X126.971 Y120.177 E100.44337 ; fill
G1 X128.012 Y120.177 E100.48675 ; fill
G1 X68.922 Y61.087 E103.96838 ; fill
G1 X68.922 Y60.046 E104.01176 ; fill
G1 X129.053 Y120.177 E107.55474 ; fill
G1 X130.095 Y120.177 E107.59812 ; fill
G1 X68.922 Y59.004 E111.20246 ; fill
G1 X68.922 Y57.963 E111.24584 ; fill
G1 X131.078 Y120.119 E114.90810 ; fill
G1 X131.078 Y119.077 E114.95148 ; fill
G1 X69.824 Y57.823 E118.56064 ; fill
G1 X70.865 Y57.823 E118.60402 ; fill
G1 X131.078 Y118.036 E122.15182 ; fill
G1 X131.078 Y116.995 E122.19520 ; fill
G1 X71.906 Y57.823 E125.68166 ; fill
G1 X72.947 Y57.823 E125.72504 ; fill
G1 X131.078 Y115.954 E129.15015 ; fill
G1 X131.078 Y114.913 E129.19353 ; fill
G1 X73.988 Y57.823 E132.55729 ; fill
G1 X75.030 Y57.823 E132.60067 ; fill
G1 X131.078 Y113.871 E135.90308 ; fill
G1 X131.078 Y112.830 E135.94646 ; fill
G1 X76.071 Y57.823 E139.18752 ; fill
G1 X77.112 Y57.823 E139.23090 ; fill
G1 X131.078 Y111.789 E142.41061 ; fill
G1 X131.078 Y110.748 E142.45399 ; fill
G1 X78.153 Y57.823 E145.57235 ; fill
G1 X79.194 Y57.823 E145.61574 ; fill
G1 X131.078 Y109.706 E148.67275 ; fill
G1 X131.078 Y108.665 E148.71613 ; fill
G1 X80.236 Y57.823 E151.71179 ; fill
G1 X81.277 Y57.823 E151.75517 ; fill
G1 X131.078 Y107.624 E154.68948 ; fill
G1 X131.078 Y106.583 E154.73286 ; fill
G1 X82.318 Y57.823 E157.60582 ; fill
G1 X83.359 Y57.823 E157.64920 ; fill
G1 X131.078 Y105.542 E160.46082 ; fill
G1 X131.078 Y104.500 E160.50420 ; fill
G1 X84.401 Y57.823 E163.25446 ; fill
G1 X85.442 Y57.823 E163.29784 ; fill
G1 X131.078 Y103.459 E165.98675 ; fill
G1 X131.078 Y102.418 E166.03013 ; fill
G1 X86.483 Y57.823 E168.65770 ; fill
G1 X87.524 Y57.823 E168.70108 ; fill
G1 X131.078 Y101.377 E171.26729 ; fill
G1 X131.078 Y100.336 E171.31067 ; fill
G1 X88.565 Y57.823 E173.81554 ; fill
G1 X89.607 Y57.823 E173.85892 ; fill
G1 X131.078 Y99.294 E176.30243 ; fill
G1 X131.078 Y98.253 E176.34581 ; fill
G1 X90.648 Y57.823 E178.72798 ; fill
G1 X91.689 Y57.823 E178.77136 ; fill
G1 X131.078 Y97.212 E181.09217 ; fill
G1 X131.078 Y96.171 E181.13555 ; fill
G1 X92.730 Y57.823 E183.39502 ; fill
G1 X93.772 Y57.823 E183.43840 ; fill
G1 X131.078 Y95.129 E185.63651 ; fill
G1 X131.078 Y94.088 E185.67990 ; fill
G1 X94.813 Y57.823 E187.81666 ; fill
G1 X95.854 Y57.823 E187.86004 ; fill
G1 X131.078 Y93.047 E189.93546 ; fill
G1 X131.078 Y92.006 E189.97884 ; fill
G1 X96.895 Y57.823 E191.99291 ; fill
G1 X97.936 Y57.823 E192.03629 ; fill
G1 X131.078 Y90.965 E193.98900 ; fill
G1 X131.078 Y89.923 E194.03238 ; fill
G1 X98.978 Y57.823 E195.92375 ; fill
G1 X100.019 Y57.823 E195.96713 ; fill
G1 X131.078 Y88.882 E197.79715 ; fill
G1 X131.078 Y87.841 E197.84053 ; fill
G1 X101.060 Y57.823 E199.60920 ; fill
G1 X102.101 Y57.823 E199.65258 ; fill
G1 X131.078 Y86.800 E201.35990 ; fill
G1 X131.078 Y85.758 E201.40328 ; fill
G1 X103.143 Y57.823 E203.04925 ; fill
G1 X104.184 Y57.823 E203.09263 ; fill
G1 X131.078 Y84.717 E204.67725 ; fill
G1 X131.078 Y83.676 E204.72063 ; fill
G1 X105.225 Y57.823 E206.24390 ; fill
G1 X106.266 Y57.823 E206.28728 ; fill
G1 X131.078 Y82.635 E207.74920 ; fill
G1 X131.078 Y81.594 E207.79258 ; fill
G1 X107.307 Y57.823 E209.19315 ; fill
G1 X108.349 Y57.823 E209.23653 ; fill
G1 X131.078 Y80.552 E210.57575 ; fill
G1 X131.078 Y79.511 E210.61913 ; fill
G1 X109.390 Y57.823 E211.89701 ; fill
G1 X110.431 Y57.823 E211.94039 ; fill
G1 X131.078 Y78.470 E213.15691 ; fill
G1 X131.078 Y77.429 E213.20029 ; fill
G1 X111.472 Y57.823 E214.35546 ; fill
G1 X112.514 Y57.823 E214.39884 ; fill
G1 X131.078 Y76.387 E215.49266 ; fill
G1 X131.078 Y75.346 E215.53605 ; fill
G1 X113.555 Y57.823 E216.56852 ; fill
G1 X114.596 Y57.823 E216.61190 ; fill
G1 X131.078 Y74.305 E217.58302 ; fill
G1 X131.078 Y73.264 E217.62640 ; fill
G1 X115.637 Y57.823 E218.53618 ; fill
G1 X116.678 Y57.823 E218.57956 ; fill
G1 X131.078 Y72.223 E219.42798 ; fill
G1 X131.078 Y71.181 E219.47136 ; fill
G1 X117.720 Y57.823 E220.25844 ; fill
G1 X118.761 Y57.823 E220.30182 ; fill
G1 X131.078 Y70.140 E221.02754 ; fill
G1 X131.078 Y69.099 E221.07092 ; fill
G1 X119.802 Y57.823 E221.73530 ; fill
G1 X120.843 Y57.823 E221.77868 ; fill
G1 X131.078 Y68.058 E222.38170 ; fill
G1 X131.078 Y67.017 E222.42508 ; fill
G1 X121.884 Y57.823 E222.96676 ; fill
G1 X122.926 Y57.823 E223.01014 ; fill
G1 X131.078 Y65.975 E223.49047 ; fill
G1 X131.078 Y64.934 E223.53385 ; fill
G1 X123.967 Y57.823 E223.95282 ; fill
G1 X125.008 Y57.823 E223.99620 ; fill
G1 X131.078 Y63.893 E224.35383 ; fill
G1 X131.078 Y62.852 E224.39721 ; fill
G1 X126.049 Y57.823 E224.69349 ; fill
G1 X127.091 Y57.823 E224.73687 ; fill
G1 X131.078 Y61.810 E224.97180 ; fill
G1 X131.078 Y60.769 E225.01518 ; fill
G1 X128.132 Y57.823 E225.18875 ; fill
G1 X129.173 Y57.823 E225.23213 ; fill
G1 X131.078 Y59.728 E225.34436 ; fill
G1 X131.078 Y58.687 E225.38774 ; fill
G1 X130.214 Y57.823 E225.43862 ; fill
M104 S175 ; set temperature
G1 F1800.000 E224.43862 ; retract
G92 E0 ; reset extrusion distance
G1 Z0.800 F7800.000 ; move to next layer (1)
G1 X131.913 Y56.750 ; move to first perimeter point
G1 F1800.000 E1.00000 ; compensate retraction
G1 X132.151 Y56.988 F1800.000 E1.00990 ; perimeter
G1 X132.151 Y121.011 E2.89252 ; perimeter
G1 X131.912 Y121.250 E2.90246 ; perimeter
G1 X68.087 Y121.250 E4.77925 ; perimeter
G1 X67.849 Y121.012 E4.78915 ; perimeter
G1 X67.849 Y56.987 E6.67181 ; perimeter
G1 X68.086 Y56.750 E6.68167 ; perimeter
G1 X131.835 Y56.750 E8.55622 ; perimeter
G1 F1800.000 E7.55622 ; retract
G92 E0 ; reset extrusion distance
G1 X67.871 Y56.230 F7800.000 ; move to first perimeter point
G1 F1800.000 E1.00000 ; compensate retraction
G1 X132.128 Y56.230 F1800.000 E2.88949 ; perimeter
G1 X132.671 Y56.772 E2.91205 ; perimeter
G1 X132.671 Y121.226 E4.80733 ; perimeter
G1 X132.127 Y121.770 E4.82993 ; perimeter
G1 X67.871 Y121.770 E6.71939 ; perimeter
G1 X67.329 Y121.227 E6.74195 ; perimeter
G1 X67.329 Y56.772 E8.63726 ; perimeter
G1 X67.816 Y56.286 E8.65748 ; perimeter
G1 X67.656 Y55.711 F7800.000 ; move to first perimeter point
G1 X132.343 Y55.711 F1800.000 E10.55962 ; perimeter
G1 X133.190 Y56.557 E10.59484 ; perimeter
G1 X133.190 Y121.441 E12.50279 ; perimeter
G1 X132.342 Y122.289 E12.53805 ; perimeter
G1 X67.656 Y122.289 E14.44018 ; perimeter
G1 X66.810 Y121.442 E14.47539 ; perimeter
G1 X66.810 Y56.557 E16.38336 ; perimeter
G1 X67.601 Y55.766 E16.41624 ; perimeter
G1 X68.023 Y56.078 F7800.000 ; move inwards before travel
G1 X68.226 Y57.462 ; move to first fill point
G1 X68.561 Y57.127 F3600.000 E16.43022 ; fill
G1 X69.298 Y57.127 E16.45197 ; fill
G1 X68.226 Y58.199 E16.49672 ; fill
G1 X68.226 Y58.936 E16.51848 ; fill
G1 X70.035 Y57.127 E16.59399 ; fill
G1 X70.773 Y57.127 E16.61575 ; fill
G1 X68.226 Y59.674 E16.72203 ; fill
G1 X68.226 Y60.411 E16.74379 ; fill
G1 X71.510 Y57.127 E16.88084 ; fill
G1 X72.248 Y57.127 E16.90259 ; fill
G1 X68.226 Y61.149 E17.07041 ; fill
G1 X68.226 Y61.886 E17.09217 ; fill
G1 X72.985 Y57.127 E17.29075 ; fill
G1 X73.722 Y57.127 E17.31251 ; fill
G1 X68.226 Y62.623 E17.54186 ; fill
G1 X68.226 Y63.361 E17.56362 ; fill
G1 X74.460 Y57.127 E17.82373 ; fill
G1 X75.197 Y57.127 E17.84549 ; fill
G1 X68.226 Y64.098 E18.13638 ; fill
G1 X68.226 Y64.835 E18.15813 ; fill
G1 X75.934 Y57.127 E18.47979 ; fill
G1 X76.672 Y57.127 E18.50154 ; fill
G1 X68.226 Y65.573 E18.85396 ; fill
G1 X68.226 Y66.310 E18.87572 ; fill
G1 X77.409 Y57.127 E19.25891 ; fill
G1 X78.146 Y57.127 E19.28066 ; fill
G1 X68.226 Y67.047 E19.69462 ; fill
G1 X68.226 Y67.785 E19.71638 ; fill
G1 X78.884 Y57.127 E20.16110 ; fill
G1 X79.621 Y57.127 E20.18286 ; fill
G1 X68.226 Y68.522 E20.65835 ; fill
G1 X68.226 Y69.260 E20.68010 ; fill
G1 X80.359 Y57.127 E21.18636 ; fill
G1 X81.096 Y57.127 E21.20812 ; fill
G1 X68.226 Y69.997 E21.74514 ; fill
G1 X68.226 Y70.734 E21.76690 ; fill
G1 X81.833 Y57.127 E22.33469 ; fill
G1 X82.571 Y57.127 E22.35645 ; fill
G1 X68.226 Y71.472 E22.95501 ; fill
G1 X68.226 Y72.209 E22.97676 ; fill
G1 X83.308 Y57.127 E23.60609 ; fill
