; generated by Slic3r 0.9.10b on 2013-09-14 at 22:19:34

; layer_height = 0.4
; perimeters = 3
; top_solid_layers = 3
; bottom_solid_layers = 3
; fill_density = 0.4
; perimeter_speed = 30
; infill_speed = 60
; travel_speed = 130
; nozzle_diameter = 0.5
; filament_diameter = 3
; extrusion_multiplier = 1
; perimeters extrusion width = 0.53mm
; infill extrusion width = 0.53mm
; solid infill extrusion width = 0.53mm
; top infill extrusion width = 0.53mm
; first layer extrusion width = 0.80mm

G21 ; set units to millimeters
M190 S60 ; wait for bed temperature to be reached
M104 S180 ; set temperature
G28 ; home all axes
G1 Z5 F5000 ; lift nozzle
G92 E0 ;reset extruder
M109 S180 ; wait for temperature to be reached
G90 ; use absolute coordinates
G92 E0 ; reset extrusion distance
M82 ; use absolute distances for extrusion
G1 F1800.000 E-1.00000 ; retract
G92 E0 ; reset extrusion distance
G1 Z0.400 F7800.000 ; move to next layer (0)
G1 X64.240 Y52.690 ; move to first skirt point
G1 F1800.000 E1.00000 ; compensate retraction
G1 X65.260 Y51.850 F540.000 E1.05501 ; skirt
G1 X66.420 Y51.230 E1.10976 ; skirt
G1 X67.690 Y50.840 E1.16506 ; skirt
G1 X69.000 Y50.710 E1.21986 ; skirt
G1 X131.000 Y50.710 E3.80077 ; skirt
G1 X132.310 Y50.840 E3.85557 ; skirt
G1 X133.580 Y51.230 E3.91087 ; skirt
G1 X134.740 Y51.850 E3.96562 ; skirt
G1 X135.760 Y52.690 E4.02063 ; skirt
G1 X136.600 Y53.710 E4.07563 ; skirt
G1 X137.220 Y54.870 E4.13039 ; skirt
G1 X137.610 Y56.140 E4.18569 ; skirt
G1 X137.740 Y57.450 E4.24049 ; skirt
G1 X137.740 Y120.550 E6.86719 ; skirt
G1 X137.610 Y121.860 E6.92199 ; skirt
G1 X137.220 Y123.130 E6.97729 ; skirt
G1 X136.600 Y124.290 E7.03205 ; skirt
G1 X135.760 Y125.310 E7.08705 ; skirt
G1 X134.740 Y126.150 E7.14206 ; skirt
G1 X133.580 Y126.770 E7.19681 ; skirt
G1 X132.310 Y127.160 E7.25211 ; skirt
G1 X131.000 Y127.290 E7.30691 ; skirt
G1 X69.000 Y127.290 E9.88782 ; skirt
G1 X67.690 Y127.160 E9.94262 ; skirt
G1 X66.420 Y126.770 E9.99792 ; skirt
G1 X65.260 Y126.150 E10.05267 ; skirt
G1 X64.240 Y125.310 E10.10768 ; skirt
G1 X63.400 Y124.290 E10.16269 ; skirt
G1 X62.780 Y123.130 E10.21744 ; skirt
G1 X62.390 Y121.860 E10.27274 ; skirt
G1 X62.260 Y120.550 E10.32754 ; skirt
G1 X62.260 Y57.450 E12.95424 ; skirt
G1 X62.390 Y56.140 E13.00904 ; skirt
G1 X62.780 Y54.870 E13.06434 ; skirt
G1 X63.400 Y53.710 E13.11910 ; skirt
G1 X64.170 Y52.775 E13.16951 ; skirt
G1 F1800.000 E12.16951 ; retract
G92 E0 ; reset extrusion distance
G1 X70.839 Y59.289 F7800.000 ; move to first perimeter point
G1 F1800.000 E1.00000 ; compensate retraction
G1 X129.161 Y59.289 F540.000 E3.42780 ; perimeter
G1 X129.161 Y118.711 E5.90139 ; perimeter
G1 X70.839 Y118.711 E8.32918 ; perimeter
G1 X70.839 Y59.399 E10.79818 ; perimeter
G1 F1800.000 E9.79818 ; retract
G92 E0 ; reset extrusion distance
G1 X129.897 Y58.553 F7800.000 ; move to first perimeter point
G1 F1800.000 E1.00000 ; compensate retraction
G1 X129.897 Y119.447 F540.000 E3.53483 ; perimeter
G1 X70.103 Y119.447 E6.02387 ; perimeter
G1 X70.103 Y58.553 E8.55871 ; perimeter
G1 X129.786 Y58.553 E11.04315 ; perimeter
G1 X130.632 Y57.818 F7800.000 ; move to first perimeter point
G1 X130.632 Y120.182 F540.000 E13.63923 ; perimeter
G1 X69.368 Y120.182 E16.18952 ; perimeter
G1 X69.368 Y57.818 E18.78559 ; perimeter
G1 X130.522 Y57.818 E21.33128 ; perimeter
G1 X130.264 Y58.455 F7800.000 ; move inwards before travel
G1 F1800.000 E20.33128 ; retract
G92 E0 ; reset extrusion distance
G1 X127.833 Y59.822 F7800.000 ; move to first fill point
G1 F1800.000 E1.00000 ; compensate retraction
G1 X128.628 Y60.617 F1080.000 E1.04682 ; fill
G1 X128.628 Y61.658 E1.09016 ; fill
G1 X126.792 Y59.822 E1.19826 ; fill
G1 X125.751 Y59.822 E1.24160 ; fill
G1 X128.628 Y62.699 E1.41100 ; fill
G1 X128.628 Y63.739 E1.45433 ; fill
G1 X124.711 Y59.822 E1.68502 ; fill
G1 X123.670 Y59.822 E1.72835 ; fill
G1 X128.628 Y64.780 E2.02032 ; fill
G1 X128.628 Y65.821 E2.06366 ; fill
G1 X122.629 Y59.822 E2.41692 ; fill
G1 X121.589 Y59.822 E2.46026 ; fill
G1 X128.628 Y66.861 E2.87480 ; fill
G1 X128.628 Y67.902 E2.91814 ; fill
G1 X120.548 Y59.822 E3.39397 ; fill
G1 X119.507 Y59.822 E3.43731 ; fill
G1 X128.628 Y68.943 E3.97443 ; fill
G1 X128.628 Y69.984 E4.01777 ; fill
G1 X118.466 Y59.822 E4.61618 ; fill
G1 X117.426 Y59.822 E4.65952 ; fill
G1 X128.628 Y71.024 E5.31922 ; fill
G1 X128.628 Y72.065 E5.36255 ; fill
G1 X116.385 Y59.822 E6.08354 ; fill
G1 X115.344 Y59.822 E6.12688 ; fill
G1 X128.628 Y73.106 E6.90915 ; fill
G1 X128.628 Y74.146 E6.95249 ; fill
G1 X114.304 Y59.822 E7.79605 ; fill
G1 X113.263 Y59.822 E7.83939 ; fill
G1 X128.628 Y75.187 E8.74424 ; fill
G1 X128.628 Y76.228 E8.78758 ; fill
G1 X112.222 Y59.822 E9.75371 ; fill
G1 X111.182 Y59.822 E9.79705 ; fill
G1 X128.628 Y77.268 E10.82448 ; fill
G1 X128.628 Y78.309 E10.86781 ; fill
G1 X110.141 Y59.822 E11.95653 ; fill
G1 X109.100 Y59.822 E11.99986 ; fill
G1 X128.628 Y79.350 E13.14987 ; fill
G1 X128.628 Y80.390 E13.19320 ; fill
G1 X108.060 Y59.822 E14.40449 ; fill
G1 X107.019 Y59.822 E14.44783 ; fill
G1 X128.628 Y81.431 E15.72041 ; fill
G1 X128.628 Y82.472 E15.76374 ; fill
G1 X105.978 Y59.822 E17.09761 ; fill
G1 X104.937 Y59.822 E17.14095 ; fill
G1 X128.628 Y83.513 E18.53610 ; fill
G1 X128.628 Y84.553 E18.57944 ; fill
G1 X103.897 Y59.822 E20.03588 ; fill
G1 X102.856 Y59.822 E20.07922 ; fill
G1 X128.628 Y85.594 E21.59695 ; fill
G1 X128.628 Y86.635 E21.64028 ; fill
G1 X101.815 Y59.822 E23.21930 ; fill
G1 X100.775 Y59.822 E23.26264 ; fill
G1 X128.628 Y87.675 E24.90294 ; fill
G1 X128.628 Y88.716 E24.94628 ; fill
G1 X99.734 Y59.822 E26.64787 ; fill
G1 X98.693 Y59.822 E26.69121 ; fill
G1 X128.628 Y89.757 E28.45409 ; fill
G1 X128.628 Y90.797 E28.49743 ; fill
G1 X97.653 Y59.822 E30.32160 ; fill
G1 X96.612 Y59.822 E30.36493 ; fill
G1 X128.628 Y91.838 E32.25039 ; fill
G1 X128.628 Y92.879 E32.29373 ; fill
G1 X95.571 Y59.822 E34.24047 ; fill
G1 X94.530 Y59.822 E34.28381 ; fill
G1 X128.628 Y93.920 E36.29184 ; fill
G1 X128.628 Y94.960 E36.33518 ; fill
G1 X93.490 Y59.822 E38.40450 ; fill
G1 X92.449 Y59.822 E38.44784 ; fill
G1 X128.628 Y96.001 E40.57845 ; fill
G1 X128.628 Y97.042 E40.62178 ; fill
G1 X91.408 Y59.822 E42.81368 ; fill
G1 X90.368 Y59.822 E42.85702 ; fill
G1 X128.628 Y98.082 E45.11020 ; fill
G1 X128.628 Y99.123 E45.15354 ; fill
G1 X89.327 Y59.822 E47.46801 ; fill
G1 X88.286 Y59.822 E47.51135 ; fill
G1 X128.628 Y100.164 E49.88711 ; fill
G1 X128.628 Y101.204 E49.93044 ; fill
G1 X87.246 Y59.822 E52.36749 ; fill
G1 X86.205 Y59.822 E52.41083 ; fill
G1 X128.628 Y102.245 E54.90917 ; fill
G1 X128.628 Y103.286 E54.95250 ; fill
G1 X85.164 Y59.822 E57.51213 ; fill
G1 X84.124 Y59.822 E57.55546 ; fill
G1 X128.628 Y104.326 E60.17638 ; fill
G1 X128.628 Y105.367 E60.21971 ; fill
G1 X83.083 Y59.822 E62.90191 ; fill
G1 X82.042 Y59.822 E62.94525 ; fill
G1 X128.628 Y106.408 E65.68874 ; fill
G1 X128.628 Y107.449 E65.73208 ; fill
G1 X81.001 Y59.822 E68.53685 ; fill
G1 X79.961 Y59.822 E68.58019 ; fill
G1 X128.628 Y108.489 E71.44625 ; fill
G1 X128.628 Y109.530 E71.48959 ; fill
G1 X78.920 Y59.822 E74.41694 ; fill
G1 X77.879 Y59.822 E74.46028 ; fill
G1 X128.628 Y110.571 E77.44892 ; fill
G1 X128.628 Y111.611 E77.49225 ; fill
G1 X76.839 Y59.822 E80.54218 ; fill
G1 X75.798 Y59.822 E80.58552 ; fill
G1 X128.628 Y112.652 E83.69673 ; fill
G1 X128.628 Y113.693 E83.74007 ; fill
G1 X74.757 Y59.822 E86.91257 ; fill
G1 X73.717 Y59.822 E86.95591 ; fill
G1 X128.628 Y114.733 E90.18970 ; fill
G1 X128.628 Y115.774 E90.23304 ; fill
G1 X72.676 Y59.822 E93.52812 ; fill
G1 X71.635 Y59.822 E93.57146 ; fill
G1 X128.628 Y116.815 E96.92782 ; fill
G1 X128.628 Y117.856 E96.97116 ; fill
G1 X71.372 Y60.600 E100.34301 ; fill
G1 X71.372 Y61.641 E100.38635 ; fill
G1 X127.909 Y118.178 E103.71589 ; fill
G1 X126.869 Y118.178 E103.75923 ; fill
G1 X71.372 Y62.681 E107.02748 ; fill
G1 X71.372 Y63.722 E107.07082 ; fill
G1 X125.828 Y118.178 E110.27778 ; fill
G1 X124.787 Y118.178 E110.32112 ; fill
G1 X71.372 Y64.763 E113.46679 ; fill
G1 X71.372 Y65.803 E113.51013 ; fill
G1 X123.747 Y118.178 E116.59452 ; fill
G1 X122.706 Y118.178 E116.63786 ; fill
G1 X71.372 Y66.844 E119.66096 ; fill
G1 X71.372 Y67.885 E119.70430 ; fill
G1 X121.665 Y118.178 E122.66611 ; fill
G1 X120.624 Y118.178 E122.70945 ; fill
G1 X71.372 Y68.926 E125.60997 ; fill
G1 X71.372 Y69.966 E125.65331 ; fill
G1 X119.584 Y118.178 E128.49255 ; fill
G1 X118.543 Y118.178 E128.53588 ; fill
G1 X71.372 Y71.007 E131.31383 ; fill
G1 X71.372 Y72.048 E131.35717 ; fill
G1 X117.502 Y118.178 E134.07383 ; fill
G1 X116.462 Y118.178 E134.11717 ; fill
G1 X71.372 Y73.088 E136.77254 ; fill
G1 X71.372 Y74.129 E136.81588 ; fill
G1 X115.421 Y118.178 E139.40996 ; fill
G1 X114.380 Y118.178 E139.45330 ; fill
G1 X71.372 Y75.170 E141.98610 ; fill
G1 X71.372 Y76.210 E142.02943 ; fill
G1 X113.340 Y118.178 E144.50094 ; fill
G1 X112.299 Y118.178 E144.54428 ; fill
G1 X71.372 Y77.251 E146.95450 ; fill
G1 X71.372 Y78.292 E146.99784 ; fill
G1 X111.258 Y118.178 E149.34677 ; fill
G1 X110.217 Y118.178 E149.39011 ; fill
G1 X71.372 Y79.333 E151.67776 ; fill
G1 X71.372 Y80.373 E151.72109 ; fill
G1 X109.177 Y118.178 E153.94745 ; fill
G1 X108.136 Y118.178 E153.99079 ; fill
G1 X71.372 Y81.414 E156.15586 ; fill
G1 X71.372 Y82.455 E156.19920 ; fill
G1 X107.095 Y118.178 E158.30298 ; fill
G1 X106.055 Y118.178 E158.34632 ; fill
G1 X71.372 Y83.495 E160.38881 ; fill
G1 X71.372 Y84.536 E160.43215 ; fill
G1 X105.014 Y118.178 E162.41335 ; fill
G1 X103.973 Y118.178 E162.45669 ; fill
G1 X71.372 Y85.577 E164.37661 ; fill
G1 X71.372 Y86.617 E164.41995 ; fill
G1 X102.933 Y118.178 E166.27858 ; fill
G1 X101.892 Y118.178 E166.32191 ; fill
G1 X71.372 Y87.658 E168.11926 ; fill
G1 X71.372 Y88.699 E168.16259 ; fill
G1 X100.851 Y118.178 E169.89865 ; fill
G1 X99.811 Y118.178 E169.94198 ; fill
G1 X71.372 Y89.739 E171.61675 ; fill
G1 X71.372 Y90.780 E171.66009 ; fill
G1 X98.770 Y118.178 E173.27357 ; fill
G1 X97.729 Y118.178 E173.31690 ; fill
G1 X71.372 Y91.821 E174.86909 ; fill
G1 X71.372 Y92.862 E174.91243 ; fill
G1 X96.688 Y118.178 E176.40333 ; fill
G1 X95.648 Y118.178 E176.44667 ; fill
G1 X71.372 Y93.902 E177.87629 ; fill
G1 X71.372 Y94.943 E177.91962 ; fill
G1 X94.607 Y118.178 E179.28795 ; fill
G1 X93.566 Y118.178 E179.33129 ; fill
G1 X71.372 Y95.984 E180.63833 ; fill
G1 X71.372 Y97.024 E180.68166 ; fill
G1 X92.526 Y118.178 E181.92741 ; fill
G1 X91.485 Y118.178 E181.97075 ; fill
G1 X71.372 Y98.065 E183.15522 ; fill
G1 X71.372 Y99.106 E183.19855 ; fill
G1 X90.444 Y118.178 E184.32173 ; fill
G1 X89.404 Y118.178 E184.36506 ; fill
G1 X71.372 Y100.146 E185.42695 ; fill
G1 X71.372 Y101.187 E185.47029 ; fill
G1 X88.363 Y118.178 E186.47089 ; fill
G1 X87.322 Y118.178 E186.51423 ; fill
G1 X71.372 Y102.228 E187.45354 ; fill
G1 X71.372 Y103.269 E187.49687 ; fill
G1 X86.281 Y118.178 E188.37490 ; fill
G1 X85.241 Y118.178 E188.41824 ; fill
G1 X71.372 Y104.309 E189.23497 ; fill
G1 X71.372 Y105.350 E189.27831 ; fill
G1 X84.200 Y118.178 E190.03376 ; fill
G1 X83.159 Y118.178 E190.07709 ; fill
G1 X71.372 Y106.391 E190.77125 ; fill
G1 X71.372 Y107.431 E190.81459 ; fill
G1 X82.119 Y118.178 E191.44746 ; fill
G1 X81.078 Y118.178 E191.49080 ; fill
G1 X71.372 Y108.472 E192.06238 ; fill
G1 X71.372 Y109.513 E192.10572 ; fill
G1 X80.037 Y118.178 E192.61602 ; fill
G1 X78.997 Y118.178 E192.65935 ; fill
G1 X71.372 Y110.553 E193.10836 ; fill
G1 X71.372 Y111.594 E193.15170 ; fill
G1 X77.956 Y118.178 E193.53942 ; fill
G1 X76.915 Y118.178 E193.58276 ; fill
G1 X71.372 Y112.635 E193.90919 ; fill
G1 X71.372 Y113.675 E193.95253 ; fill
G1 X75.875 Y118.178 E194.21767 ; fill
G1 X74.834 Y118.178 E194.26101 ; fill
G1 X71.372 Y114.716 E194.46486 ; fill
G1 X71.372 Y115.757 E194.50820 ; fill
G1 X73.793 Y118.178 E194.65077 ; fill
G1 X72.752 Y118.178 E194.69411 ; fill
G1 X71.372 Y116.798 E194.77539 ; fill
G1 X71.372 Y117.838 E194.81872 ; fill
G1 X71.712 Y118.178 E194.83872 ; fill
M104 S175 ; set temperature
G1 F1800.000 E193.83872 ; retract
G92 E0 ; reset extrusion distance
G1 Z0.800 F7800.000 ; move to next layer (1)
G1 X70.299 Y119.251 ; move to first perimeter point
G1 F1800.000 E1.00000 ; compensate retraction
G1 X70.299 Y58.749 F1800.000 E2.77908 ; perimeter
G1 X129.701 Y58.749 E4.52581 ; perimeter
G1 X129.701 Y119.251 E6.30488 ; perimeter
G1 X70.377 Y119.251 E8.04932 ; perimeter
G1 F1800.000 E7.04932 ; retract
G92 E0 ; reset extrusion distance
G1 X130.221 Y119.771 F7800.000 ; move to first perimeter point
G1 F1800.000 E1.00000 ; compensate retraction
G1 X69.779 Y119.771 F1800.000 E2.77729 ; perimeter
G1 X69.779 Y58.229 E4.58693 ; perimeter
G1 X130.221 Y58.229 E6.36422 ; perimeter
G1 X130.221 Y119.693 E8.17156 ; perimeter
G1 X130.740 Y120.290 F7800.000 ; move to first perimeter point
G1 X69.260 Y120.290 F1800.000 E9.97941 ; perimeter
G1 X69.260 Y57.710 E11.81961 ; perimeter
G1 X130.740 Y57.710 E13.62746 ; perimeter
G1 X130.740 Y120.212 E15.46536 ; perimeter
G1 X130.290 Y120.030 F7800.000 ; move inwards before travel
G1 X129.324 Y118.757 ; move to first fill point
G1 X129.207 Y118.874 F3600.000 E15.47026 ; fill
G1 X128.470 Y118.874 E15.49200 ; fill
G1 X129.324 Y118.020 E15.52766 ; fill
G1 X129.324 Y117.282 E15.54940 ; fill
G1 X127.732 Y118.874 E15.61580 ; fill
G1 X126.995 Y118.874 E15.63755 ; fill
G1 X129.324 Y116.545 E15.73470 ; fill
G1 X129.324 Y115.808 E15.75644 ; fill
G1 X126.258 Y118.874 E15.88434 ; fill
G1 X125.521 Y118.874 E15.90609 ; fill
G1 X129.324 Y115.071 E16.06474 ; fill
G1 X129.324 Y114.334 E16.08649 ; fill
G1 X124.784 Y118.874 E16.27589 ; fill
G1 X124.047 Y118.874 E16.29763 ; fill
G1 X129.324 Y113.597 E16.51779 ; fill
G1 X129.324 Y112.860 E16.53953 ; fill
G1 X123.310 Y118.874 E16.79044 ; fill
G1 X122.572 Y118.874 E16.81218 ; fill
G1 X129.324 Y112.122 E17.09383 ; fill
G1 X129.324 Y111.385 E17.11558 ; fill
G1 X121.835 Y118.874 E17.42798 ; fill
G1 X121.098 Y118.874 E17.44973 ; fill
G1 X129.324 Y110.648 E17.79288 ; fill
G1 X129.324 Y109.911 E17.81463 ; fill
G1 X120.361 Y118.874 E18.18853 ; fill
G1 X119.624 Y118.874 E18.21028 ; fill
G1 X129.324 Y109.174 E18.61493 ; fill
G1 X129.324 Y108.437 E18.63668 ; fill
G1 X118.887 Y118.874 E19.07209 ; fill
G1 X118.149 Y118.874 E19.09383 ; fill
G1 X129.324 Y107.699 E19.55999 ; fill
G1 X129.324 Y106.962 E19.58173 ; fill
G1 X117.412 Y118.874 E20.07864 ; fill
G1 X116.675 Y118.874 E20.10038 ; fill
G1 X129.324 Y106.225 E20.62804 ; fill
G1 X129.324 Y105.488 E20.64978 ; fill
G1 X115.938 Y118.874 E21.20819 ; fill
G1 X115.201 Y118.874 E21.22994 ; fill
G1 X129.324 Y104.751 E21.81910 ; fill
G1 X129.324 Y104.014 E21.84084 ; fill
G1 X114.464 Y118.874 E22.46075 ; fill
G1 X113.726 Y118.874 E22.48249 ; fill
G1 X129.324 Y103.276 E23.13315 ; fill
G1 X129.324 Y102.539 E23.15490 ; fill
G1 X112.989 Y118.874 E23.83631 ; fill
G1 X112.252 Y118.874 E23.85805 ; fill
G1 X129.324 Y101.802 E24.57021 ; fill
G1 X129.324 Y101.065 E24.59196 ; fill
G1 X111.515 Y118.874 E25.33487 ; fill
G1 X110.778 Y118.874 E25.35661 ; fill
G1 X129.324 Y100.328 E26.13028 ; fill
G1 X129.324 Y99.591 E26.15202 ; fill
G1 X110.041 Y118.874 E26.95643 ; fill
G1 X109.303 Y118.874 E26.97818 ; fill
G1 X129.324 Y98.853 E27.81334 ; fill
G1 X129.324 Y98.116 E27.83508 ; fill
G1 X108.566 Y118.874 E28.70100 ; fill
G1 X107.829 Y118.874 E28.72274 ; fill
G1 X129.324 Y97.379 E29.61940 ; fill
G1 X129.324 Y96.642 E29.64115 ; fill
G1 X107.092 Y118.874 E30.56856 ; fill
G1 X106.355 Y118.874 E30.59031 ; fill
G1 X129.324 Y95.905 E31.54847 ; fill
G1 X129.324 Y95.168 E31.57021 ; fill
G1 X105.618 Y118.874 E32.55913 ; fill
G1 X104.881 Y118.874 E32.58087 ; fill
G1 X129.324 Y94.431 E33.60054 ; fill
G1 X129.324 Y93.693 E33.62228 ; fill
G1 X104.143 Y118.874 E34.67270 ; fill
G1 X103.406 Y118.874 E34.69444 ; fill
G1 X129.324 Y92.956 E35.77561 ; fill
G1 X129.324 Y92.219 E35.79735 ; fill
G1 X102.669 Y118.874 E36.90927 ; fill
G1 X101.932 Y118.874 E36.93101 ; fill
G1 X129.324 Y91.482 E38.07368 ; fill
G1 X129.324 Y90.745 E38.09542 ; fill
G1 X101.195 Y118.874 E39.26884 ; fill
G1 X100.458 Y118.874 E39.29059 ; fill
G1 X129.324 Y90.008 E40.49475 ; fill
G1 X129.324 Y89.270 E40.51650 ; fill
G1 X99.720 Y118.874 E41.75142 ; fill
