; generated by Slic3r 0.9.10b on 2013-09-15 at 12:43:38

; layer_height = 0.4
; perimeters = 3
; top_solid_layers = 3
; bottom_solid_layers = 3
; fill_density = 0.4
; perimeter_speed = 30
; infill_speed = 60
; travel_speed = 130
; nozzle_diameter = 0.5
; filament_diameter = 3
; extrusion_multiplier = 1
; perimeters extrusion width = 0.53mm
; infill extrusion width = 0.53mm
; solid infill extrusion width = 0.53mm
; top infill extrusion width = 0.53mm
; first layer extrusion width = 0.80mm

G21 ; set units to millimeters
M190 S60 ; wait for bed temperature to be reached
M104 S180 ; set temperature
G28 ; home all axes
G1 Z5 F5000 ; lift nozzle
G92 E0 ;reset extruder
M109 S180 ; wait for temperature to be reached
G90 ; use absolute coordinates
G92 E0 ; reset extrusion distance
M82 ; use absolute distances for extrusion
G1 F1800.000 E-1.00000 ; retract
G92 E0 ; reset extrusion distance
G1 Z0.400 F7800.000 ; move to next layer (0)
G1 X61.790 Y50.690 ; move to first skirt point
G1 F1800.000 E1.00000 ; compensate retraction
G1 X62.810 Y49.850 F540.000 E1.05501 ; skirt
G1 X63.970 Y49.230 E1.10976 ; skirt
G1 X65.240 Y48.840 E1.16506 ; skirt
G1 X66.550 Y48.710 E1.21986 ; skirt
G1 X133.450 Y48.710 E4.00474 ; skirt
G1 X134.760 Y48.840 E4.05954 ; skirt
G1 X136.030 Y49.230 E4.11485 ; skirt
G1 X137.190 Y49.850 E4.16960 ; skirt
G1 X138.210 Y50.690 E4.22460 ; skirt
G1 X139.050 Y51.710 E4.27961 ; skirt
G1 X139.670 Y52.870 E4.33436 ; skirt
G1 X140.060 Y54.140 E4.38967 ; skirt
G1 X140.190 Y55.450 E4.44447 ; skirt
G1 X140.190 Y122.550 E7.23767 ; skirt
G1 X140.060 Y123.860 E7.29247 ; skirt
G1 X139.670 Y125.130 E7.34778 ; skirt
G1 X139.050 Y126.290 E7.40253 ; skirt
G1 X138.210 Y127.310 E7.45754 ; skirt
G1 X137.190 Y128.150 E7.51254 ; skirt
G1 X136.030 Y128.770 E7.56729 ; skirt
G1 X134.760 Y129.160 E7.62260 ; skirt
G1 X133.450 Y129.290 E7.67740 ; skirt
G1 X66.550 Y129.290 E10.46228 ; skirt
G1 X65.240 Y129.160 E10.51708 ; skirt
G1 X63.970 Y128.770 E10.57238 ; skirt
G1 X62.810 Y128.150 E10.62714 ; skirt
G1 X61.790 Y127.310 E10.68214 ; skirt
G1 X60.950 Y126.290 E10.73715 ; skirt
G1 X60.330 Y125.130 E10.79190 ; skirt
G1 X59.940 Y123.860 E10.84720 ; skirt
G1 X59.810 Y122.550 E10.90200 ; skirt
G1 X59.810 Y55.450 E13.69521 ; skirt
G1 X59.940 Y54.140 E13.75001 ; skirt
G1 X60.330 Y52.870 E13.80531 ; skirt
G1 X60.950 Y51.710 E13.86007 ; skirt
G1 X61.720 Y50.775 E13.91048 ; skirt
G1 F1800.000 E12.91048 ; retract
G92 E0 ; reset extrusion distance
G1 X68.389 Y57.289 F7800.000 ; move to first perimeter point
G1 F1800.000 E1.00000 ; compensate retraction
G1 X131.611 Y57.289 F540.000 E3.63177 ; perimeter
G1 X131.611 Y120.711 E6.27187 ; perimeter
G1 X68.389 Y120.711 E8.90364 ; perimeter
G1 X68.389 Y57.399 E11.53915 ; perimeter
G1 X67.653 Y56.553 F7800.000 ; move to first perimeter point
G1 X132.347 Y56.553 F540.000 E14.23216 ; perimeter
G1 X132.347 Y121.447 E16.93351 ; perimeter
G1 X67.653 Y121.447 E19.62652 ; perimeter
G1 X67.653 Y56.664 E22.32327 ; perimeter
G1 X66.918 Y55.818 F7800.000 ; move to first perimeter point
G1 X133.082 Y55.818 F540.000 E25.07753 ; perimeter
G1 X133.082 Y122.182 E27.84012 ; perimeter
G1 X66.918 Y122.182 E30.59438 ; perimeter
G1 X66.918 Y55.928 E33.35237 ; perimeter
G1 X67.555 Y56.186 F7800.000 ; move inwards before travel
G1 F1800.000 E32.35237 ; retract
G92 E0 ; reset extrusion distance
G1 X130.214 Y57.822 F7800.000 ; move to first fill point
G1 F1800.000 E1.00000 ; compensate retraction
G1 X131.078 Y58.686 F1080.000 E1.05091 ; fill
G1 X131.078 Y59.727 E1.09429 ; fill
G1 X129.173 Y57.822 E1.20655 ; fill
G1 X128.131 Y57.822 E1.24993 ; fill
G1 X131.078 Y60.769 E1.42354 ; fill
G1 X131.078 Y61.810 E1.46693 ; fill
G1 X127.090 Y57.822 E1.70189 ; fill
G1 X126.049 Y57.822 E1.74527 ; fill
G1 X131.078 Y62.851 E2.04159 ; fill
G1 X131.078 Y63.892 E2.08497 ; fill
G1 X125.008 Y57.822 E2.44263 ; fill
G1 X123.966 Y57.822 E2.48602 ; fill
G1 X131.078 Y64.934 E2.90503 ; fill
G1 X131.078 Y65.975 E2.94842 ; fill
G1 X122.925 Y57.822 E3.42879 ; fill
G1 X121.884 Y57.822 E3.47217 ; fill
G1 X131.078 Y67.016 E4.01389 ; fill
G1 X131.078 Y68.057 E4.05727 ; fill
G1 X120.843 Y57.822 E4.66034 ; fill
G1 X119.801 Y57.822 E4.70372 ; fill
G1 X131.078 Y69.099 E5.36815 ; fill
G1 X131.078 Y70.140 E5.41153 ; fill
G1 X118.760 Y57.822 E6.13730 ; fill
G1 X117.719 Y57.822 E6.18069 ; fill
G1 X131.078 Y71.181 E6.96781 ; fill
G1 X131.078 Y72.222 E7.01119 ; fill
G1 X116.678 Y57.822 E7.85967 ; fill
G1 X115.636 Y57.822 E7.90305 ; fill
G1 X131.078 Y73.264 E8.81288 ; fill
G1 X131.078 Y74.305 E8.85627 ; fill
G1 X114.595 Y57.822 E9.82745 ; fill
G1 X113.554 Y57.822 E9.87083 ; fill
G1 X131.078 Y75.346 E10.90336 ; fill
G1 X131.078 Y76.387 E10.94674 ; fill
G1 X112.513 Y57.822 E12.04063 ; fill
G1 X111.472 Y57.822 E12.08401 ; fill
G1 X131.078 Y77.428 E13.23924 ; fill
G1 X131.078 Y78.470 E13.28263 ; fill
G1 X110.430 Y57.822 E14.49921 ; fill
G1 X109.389 Y57.822 E14.54259 ; fill
G1 X131.078 Y79.511 E15.82053 ; fill
G1 X131.078 Y80.552 E15.86391 ; fill
G1 X108.348 Y57.822 E17.20320 ; fill
G1 X107.307 Y57.822 E17.24659 ; fill
G1 X131.078 Y81.593 E18.64723 ; fill
G1 X131.078 Y82.635 E18.69061 ; fill
G1 X106.265 Y57.822 E20.15260 ; fill
G1 X105.224 Y57.822 E20.19598 ; fill
G1 X131.078 Y83.676 E21.71933 ; fill
G1 X131.078 Y84.717 E21.76271 ; fill
G1 X104.183 Y57.822 E23.34740 ; fill
G1 X103.142 Y57.822 E23.39079 ; fill
G1 X131.078 Y85.758 E25.03683 ; fill
G1 X131.078 Y86.800 E25.08022 ; fill
G1 X102.100 Y57.822 E26.78761 ; fill
G1 X101.059 Y57.822 E26.83100 ; fill
G1 X131.078 Y87.841 E28.59975 ; fill
G1 X131.078 Y88.882 E28.64313 ; fill
G1 X100.018 Y57.822 E30.47323 ; fill
G1 X98.977 Y57.822 E30.51661 ; fill
G1 X131.078 Y89.923 E32.40806 ; fill
G1 X131.078 Y90.965 E32.45145 ; fill
G1 X97.935 Y57.822 E34.40425 ; fill
G1 X96.894 Y57.822 E34.44763 ; fill
G1 X131.078 Y92.006 E36.46179 ; fill
G1 X131.078 Y93.047 E36.50517 ; fill
G1 X95.853 Y57.822 E38.58068 ; fill
G1 X94.812 Y57.822 E38.62406 ; fill
G1 X131.078 Y94.088 E40.76092 ; fill
G1 X131.078 Y95.129 E40.80430 ; fill
G1 X93.771 Y57.822 E43.00251 ; fill
G1 X92.729 Y57.822 E43.04589 ; fill
G1 X131.078 Y96.171 E45.30545 ; fill
G1 X131.078 Y97.212 E45.34883 ; fill
G1 X91.688 Y57.822 E47.66975 ; fill
G1 X90.647 Y57.822 E47.71313 ; fill
G1 X131.078 Y98.253 E50.09539 ; fill
G1 X131.078 Y99.294 E50.13878 ; fill
G1 X89.606 Y57.822 E52.58239 ; fill
G1 X88.564 Y57.822 E52.62577 ; fill
G1 X131.078 Y100.336 E55.13074 ; fill
G1 X131.078 Y101.377 E55.17412 ; fill
G1 X87.523 Y57.822 E57.74044 ; fill
G1 X86.482 Y57.822 E57.78382 ; fill
G1 X131.078 Y102.418 E60.41149 ; fill
G1 X131.078 Y103.459 E60.45488 ; fill
G1 X85.441 Y57.822 E63.14390 ; fill
G1 X84.399 Y57.822 E63.18728 ; fill
G1 X131.078 Y104.501 E65.93765 ; fill
G1 X131.078 Y105.542 E65.98104 ; fill
G1 X83.358 Y57.822 E68.79276 ; fill
G1 X82.317 Y57.822 E68.83614 ; fill
G1 X131.078 Y106.583 E71.70922 ; fill
G1 X131.078 Y107.624 E71.75260 ; fill
G1 X81.276 Y57.822 E74.68703 ; fill
G1 X80.234 Y57.822 E74.73041 ; fill
G1 X131.078 Y108.666 E77.72619 ; fill
G1 X131.078 Y109.707 E77.76957 ; fill
G1 X79.193 Y57.822 E80.82670 ; fill
G1 X78.152 Y57.822 E80.87008 ; fill
G1 X131.078 Y110.748 E83.98857 ; fill
G1 X131.078 Y111.789 E84.03195 ; fill
G1 X77.111 Y57.822 E87.21178 ; fill
G1 X76.070 Y57.822 E87.25516 ; fill
G1 X131.078 Y112.830 E90.49635 ; fill
G1 X131.078 Y113.872 E90.53973 ; fill
G1 X75.028 Y57.822 E93.84227 ; fill
G1 X73.987 Y57.822 E93.88565 ; fill
G1 X131.078 Y114.913 E97.24954 ; fill
G1 X131.078 Y115.954 E97.29292 ; fill
G1 X72.946 Y57.822 E100.71816 ; fill
G1 X71.905 Y57.822 E100.76154 ; fill
G1 X131.078 Y116.995 E104.24813 ; fill
G1 X131.078 Y118.037 E104.29151 ; fill
G1 X70.863 Y57.822 E107.83945 ; fill
G1 X69.822 Y57.822 E107.88284 ; fill
G1 X131.078 Y119.078 E111.49213 ; fill
G1 X131.078 Y120.119 E111.53551 ; fill
G1 X68.922 Y57.964 E115.19783 ; fill
G1 X68.922 Y59.005 E115.24121 ; fill
G1 X130.095 Y120.178 E118.84563 ; fill
G1 X129.054 Y120.178 E118.88901 ; fill
G1 X68.922 Y60.046 E122.43208 ; fill
G1 X68.922 Y61.087 E122.47546 ; fill
G1 X128.013 Y120.178 E125.95718 ; fill
G1 X126.971 Y120.178 E126.00056 ; fill
G1 X68.922 Y62.129 E129.42092 ; fill
G1 X68.922 Y63.170 E129.46431 ; fill
G1 X125.930 Y120.178 E132.82332 ; fill
G1 X124.889 Y120.178 E132.86670 ; fill
G1 X68.922 Y64.211 E136.16436 ; fill
G1 X68.922 Y65.252 E136.20775 ; fill
G1 X123.848 Y120.178 E139.44406 ; fill
G1 X122.807 Y120.178 E139.48744 ; fill
G1 X68.922 Y66.293 E142.66240 ; fill
G1 X68.922 Y67.335 E142.70578 ; fill
G1 X121.765 Y120.178 E145.81939 ; fill
G1 X120.724 Y120.178 E145.86277 ; fill
G1 X68.922 Y68.376 E148.91503 ; fill
G1 X68.922 Y69.417 E148.95841 ; fill
G1 X119.683 Y120.178 E151.94931 ; fill
G1 X118.642 Y120.178 E151.99269 ; fill
G1 X68.922 Y70.458 E154.92225 ; fill
G1 X68.922 Y71.500 E154.96563 ; fill
G1 X117.600 Y120.178 E157.83383 ; fill
G1 X116.559 Y120.178 E157.87721 ; fill
G1 X68.922 Y72.541 E160.68406 ; fill
G1 X68.922 Y73.582 E160.72745 ; fill
G1 X115.518 Y120.178 E163.47295 ; fill
G1 X114.477 Y120.178 E163.51633 ; fill
G1 X68.922 Y74.623 E166.20047 ; fill
G1 X68.922 Y75.665 E166.24386 ; fill
G1 X113.435 Y120.178 E168.86665 ; fill
G1 X112.394 Y120.178 E168.91003 ; fill
G1 X68.922 Y76.706 E171.47148 ; fill
G1 X68.922 Y77.747 E171.51486 ; fill
G1 X111.353 Y120.178 E174.01495 ; fill
G1 X110.312 Y120.178 E174.05834 ; fill
G1 X68.922 Y78.788 E176.49708 ; fill
G1 X68.922 Y79.830 E176.54046 ; fill
G1 X109.270 Y120.178 E178.91785 ; fill
G1 X108.229 Y120.178 E178.96123 ; fill
G1 X68.922 Y80.871 E181.27727 ; fill
G1 X68.922 Y81.912 E181.32065 ; fill
G1 X107.188 Y120.178 E183.57534 ; fill
G1 X106.147 Y120.178 E183.61872 ; fill
G1 X68.922 Y82.953 E185.81206 ; fill
G1 X68.922 Y83.994 E185.85544 ; fill
G1 X105.106 Y120.178 E187.98742 ; fill
G1 X104.064 Y120.178 E188.03081 ; fill
G1 X68.922 Y85.036 E190.10144 ; fill
G1 X68.922 Y86.077 E190.14482 ; fill
G1 X103.023 Y120.178 E192.15410 ; fill
G1 X101.982 Y120.178 E192.19748 ; fill
G1 X68.922 Y87.118 E194.14541 ; fill
G1 X68.922 Y88.159 E194.18880 ; fill
G1 X100.941 Y120.178 E196.07537 ; fill
G1 X99.899 Y120.178 E196.11876 ; fill
G1 X68.922 Y89.201 E197.94398 ; fill
G1 X68.922 Y90.242 E197.98737 ; fill
G1 X98.858 Y120.178 E199.75124 ; fill
G1 X97.817 Y120.178 E199.79462 ; fill
G1 X68.922 Y91.283 E201.49715 ; fill
G1 X68.922 Y92.324 E201.54053 ; fill
G1 X96.776 Y120.178 E203.18170 ; fill
G1 X95.734 Y120.178 E203.22508 ; fill
G1 X68.922 Y93.366 E204.80490 ; fill
G1 X68.922 Y94.407 E204.84829 ; fill
G1 X94.693 Y120.178 E206.36676 ; fill
G1 X93.652 Y120.178 E206.41014 ; fill
G1 X68.922 Y95.448 E207.86726 ; fill
G1 X68.922 Y96.489 E207.91064 ; fill
G1 X92.611 Y120.178 E209.30641 ; fill
G1 X91.569 Y120.178 E209.34979 ; fill
G1 X68.922 Y97.531 E210.68420 ; fill
G1 X68.922 Y98.572 E210.72758 ; fill
G1 X90.528 Y120.178 E212.00065 ; fill
G1 X89.487 Y120.178 E212.04403 ; fill
G1 X68.922 Y99.613 E213.25574 ; fill
G1 X68.922 Y100.654 E213.29912 ; fill
G1 X88.446 Y120.178 E214.44949 ; fill
G1 X87.405 Y120.178 E214.49287 ; fill
G1 X68.922 Y101.695 E215.58188 ; fill
G1 X68.922 Y102.737 E215.62526 ; fill
G1 X86.363 Y120.178 E216.65292 ; fill
G1 X85.322 Y120.178 E216.69630 ; fill
G1 X68.922 Y103.778 E217.66261 ; fill
G1 X68.922 Y104.819 E217.70599 ; fill
G1 X84.281 Y120.178 E218.61094 ; fill
G1 X83.240 Y120.178 E218.65432 ; fill
G1 X68.922 Y105.860 E219.49793 ; fill
G1 X68.922 Y106.902 E219.54131 ; fill
G1 X82.198 Y120.178 E220.32356 ; fill
G1 X81.157 Y120.178 E220.36694 ; fill
G1 X68.922 Y107.943 E221.08784 ; fill
G1 X68.922 Y108.984 E221.13123 ; fill
G1 X80.116 Y120.178 E221.79078 ; fill
G1 X79.075 Y120.178 E221.83416 ; fill
G1 X68.922 Y110.025 E222.43236 ; fill
G1 X68.922 Y111.067 E222.47574 ; fill
G1 X78.033 Y120.178 E223.01258 ; fill
G1 X76.992 Y120.178 E223.05597 ; fill
G1 X68.922 Y112.108 E223.53146 ; fill
G1 X68.922 Y113.149 E223.57484 ; fill
G1 X75.951 Y120.178 E223.98899 ; fill
G1 X74.910 Y120.178 E224.03237 ; fill
G1 X68.922 Y114.190 E224.38516 ; fill
G1 X68.922 Y115.232 E224.42854 ; fill
G1 X73.868 Y120.178 E224.71998 ; fill
G1 X72.827 Y120.178 E224.76336 ; fill
G1 X68.922 Y116.273 E224.99345 ; fill
G1 X68.922 Y117.314 E225.03683 ; fill
G1 X71.786 Y120.178 E225.20557 ; fill
G1 X70.745 Y120.178 E225.24895 ; fill
G1 X68.922 Y118.355 E225.35634 ; fill
G1 X68.922 Y119.396 E225.39972 ; fill
G1 X69.704 Y120.178 E225.44576 ; fill
M104 S175 ; set temperature
G1 F1800.000 E224.44576 ; retract
G92 E0 ; reset extrusion distance
G1 Z0.800 F7800.000 ; move to next layer (1)
G1 X67.849 Y121.251 ; move to first perimeter point
G1 F1800.000 E1.00000 ; compensate retraction
G1 X67.849 Y56.749 F1800.000 E2.89670 ; perimeter
G1 X132.151 Y56.749 E4.78751 ; perimeter
G1 X132.151 Y121.251 E6.68421 ; perimeter
G1 X67.927 Y121.251 E8.57273 ; perimeter
G1 X67.329 Y121.771 F7800.000 ; move to first perimeter point
G1 X67.329 Y56.229 F1800.000 E10.49999 ; perimeter
G1 X132.671 Y56.229 E12.42137 ; perimeter
G1 X132.671 Y121.771 E14.34862 ; perimeter
G1 X67.407 Y121.771 E16.26771 ; perimeter
G1 X66.810 Y122.290 F7800.000 ; move to first perimeter point
G1 X66.810 Y55.710 F1800.000 E18.22553 ; perimeter
G1 X133.190 Y55.710 E20.17746 ; perimeter
G1 X133.190 Y122.290 E22.13528 ; perimeter
G1 X66.888 Y122.290 E24.08492 ; perimeter
G1 X67.070 Y121.840 F7800.000 ; move inwards before travel
G1 F1800.000 E23.08492 ; retract
G92 E0 ; reset extrusion distance
G1 X68.226 Y57.461 F7800.000 ; move to first fill point
G1 F1800.000 E1.00000 ; compensate retraction
G1 X68.561 Y57.126 F3600.000 E1.01398 ; fill
G1 X69.298 Y57.126 E1.03574 ; fill
G1 X68.226 Y58.198 E1.08049 ; fill
G1 X68.226 Y58.936 E1.10225 ; fill
G1 X70.036 Y57.126 E1.17777 ; fill
G1 X70.773 Y57.126 E1.19952 ; fill
G1 X68.226 Y59.673 E1.30581 ; fill
G1 X68.226 Y60.410 E1.32757 ; fill
G1 X71.510 Y57.126 E1.46463 ; fill
G1 X72.248 Y57.126 E1.48638 ; fill
G1 X68.226 Y61.148 E1.65421 ; fill
G1 X68.226 Y61.885 E1.67596 ; fill
G1 X72.985 Y57.126 E1.87456 ; fill
G1 X73.722 Y57.126 E1.89631 ; fill
G1 X68.226 Y62.622 E2.12567 ; fill
G1 X68.226 Y63.360 E2.14743 ; fill
G1 X74.460 Y57.126 E2.40756 ; fill
G1 X75.197 Y57.126 E2.42932 ; fill
G1 X68.226 Y64.097 E2.72021 ; fill
G1 X68.226 Y64.835 E2.74197 ; fill
G1 X75.935 Y57.126 E3.06364 ; fill
G1 X76.672 Y57.126 E3.08539 ; fill
G1 X68.226 Y65.572 E3.43783 ; fill
G1 X68.226 Y66.309 E3.45958 ; fill
G1 X77.409 Y57.126 E3.84278 ; fill
G1 X78.147 Y57.126 E3.86454 ; fill
G1 X68.226 Y67.047 E4.27851 ; fill
G1 X68.226 Y67.784 E4.30027 ; fill
G1 X78.884 Y57.126 E4.74501 ; fill
G1 X79.621 Y57.126 E4.76676 ; fill
G1 X68.226 Y68.521 E5.24227 ; fill
G1 X68.226 Y69.259 E5.26403 ; fill
G1 X80.359 Y57.126 E5.77030 ; fill
G1 X81.096 Y57.126 E5.79206 ; fill
G1 X68.226 Y69.996 E6.32910 ; fill
G1 X68.226 Y70.734 E6.35086 ; fill
G1 X81.834 Y57.126 E6.91867 ; fill
G1 X82.571 Y57.126 E6.94043 ; fill
G1 X68.226 Y71.471 E7.53901 ; fill
G1 X68.226 Y72.208 E7.56076 ; fill
G1 X83.308 Y57.126 E8.19011 ; fill
G1 X84.046 Y57.126 E8.21187 ; fill
G1 X68.226 Y72.946 E8.87198 ; fill
G1 X68.226 Y73.683 E8.89374 ; fill
G1 X84.783 Y57.126 E9.58462 ; fill
G1 X85.520 Y57.126 E9.60638 ; fill
G1 X68.226 Y74.420 E10.32803 ; fill
G1 X68.226 Y75.158 E10.34979 ; fill
G1 X86.258 Y57.126 E11.10221 ; fill
G1 X86.995 Y57.126 E11.12397 ; fill
G1 X68.226 Y75.895 E11.90716 ; fill
G1 X68.226 Y76.633 E11.92891 ; fill
G1 X87.733 Y57.126 E12.74287 ; fill
G1 X88.470 Y57.126 E12.76463 ; fill
G1 X68.226 Y77.370 E13.60935 ; fill
G1 X68.226 Y78.107 E13.63111 ; fill
G1 X89.207 Y57.126 E14.50660 ; fill
G1 X89.945 Y57.126 E14.52836 ; fill
G1 X68.226 Y78.845 E15.43462 ; fill
G1 X68.226 Y79.582 E15.45638 ; fill
G1 X90.682 Y57.126 E16.39341 ; fill
G1 X91.419 Y57.126 E16.41516 ; fill
G1 X68.226 Y80.319 E17.38296 ; fill
G1 X68.226 Y81.057 E17.40472 ; fill
G1 X92.157 Y57.126 E18.40329 ; fill
G1 X92.894 Y57.126 E18.42504 ; fill
G1 X68.226 Y81.794 E19.45438 ; fill
G1 X68.226 Y82.532 E19.47613 ; fill
G1 X93.632 Y57.126 E20.53624 ; fill
G1 X94.369 Y57.126 E20.55799 ; fill
G1 X68.226 Y83.269 E21.64887 ; fill
G1 X68.226 Y84.006 E21.67062 ; fill
