; generated by Slic3r 0.9.10b on 2013-09-15 at 12:46:52

; layer_height = 0.4
; perimeters = 3
; top_solid_layers = 3
; bottom_solid_layers = 3
; fill_density = 0.4
; perimeter_speed = 30
; infill_speed = 60
; travel_speed = 130
; nozzle_diameter = 0.5
; filament_diameter = 3
; extrusion_multiplier = 1
; perimeters extrusion width = 0.53mm
; infill extrusion width = 0.53mm
; solid infill extrusion width = 0.53mm
; top infill extrusion width = 0.53mm
; first layer extrusion width = 0.80mm

G21 ; set units to millimeters
M190 S60 ; wait for bed temperature to be reached
M104 S180 ; set temperature
G28 ; home all axes
G1 Z5 F5000 ; lift nozzle
G92 E0 ;reset extruder
M109 S180 ; wait for temperature to be reached
G90 ; use absolute coordinates
G92 E0 ; reset extrusion distance
M82 ; use absolute distances for extrusion
G1 F1800.000 E-1.00000 ; retract
G92 E0 ; reset extrusion distance
G1 Z0.400 F7800.000 ; move to next layer (0)
G1 X61.791 Y50.691 ; move to first skirt point
G1 F1800.000 E1.00000 ; compensate retraction
G1 X62.811 Y49.851 F540.000 E1.05501 ; skirt
G1 X63.971 Y49.231 E1.10976 ; skirt
G1 X65.241 Y48.841 E1.16506 ; skirt
G1 X66.551 Y48.711 E1.21986 ; skirt
G1 X133.441 Y48.711 E4.00433 ; skirt
G1 X134.751 Y48.841 E4.05913 ; skirt
G1 X136.021 Y49.231 E4.11443 ; skirt
G1 X137.181 Y49.851 E4.16918 ; skirt
G1 X138.201 Y50.691 E4.22419 ; skirt
G1 X139.041 Y51.711 E4.27919 ; skirt
G1 X139.661 Y52.871 E4.33395 ; skirt
G1 X140.051 Y54.141 E4.38925 ; skirt
G1 X140.181 Y55.451 E4.44405 ; skirt
G1 X140.181 Y122.541 E7.23684 ; skirt
G1 X140.051 Y123.851 E7.29164 ; skirt
G1 X139.661 Y125.121 E7.34695 ; skirt
G1 X139.041 Y126.281 E7.40170 ; skirt
G1 X138.201 Y127.301 E7.45670 ; skirt
G1 X137.181 Y128.141 E7.51171 ; skirt
G1 X136.021 Y128.761 E7.56646 ; skirt
G1 X134.751 Y129.151 E7.62176 ; skirt
G1 X133.441 Y129.281 E7.67656 ; skirt
G1 X66.551 Y129.281 E10.46103 ; skirt
G1 X65.241 Y129.151 E10.51583 ; skirt
G1 X63.971 Y128.761 E10.57113 ; skirt
G1 X62.811 Y128.141 E10.62589 ; skirt
G1 X61.791 Y127.301 E10.68089 ; skirt
G1 X60.951 Y126.281 E10.73590 ; skirt
G1 X60.331 Y125.121 E10.79065 ; skirt
G1 X59.941 Y123.851 E10.84595 ; skirt
G1 X59.811 Y122.541 E10.90075 ; skirt
G1 X59.811 Y55.451 E13.69354 ; skirt
G1 X59.941 Y54.141 E13.74834 ; skirt
G1 X60.331 Y52.871 E13.80365 ; skirt
G1 X60.951 Y51.711 E13.85840 ; skirt
G1 X61.721 Y50.776 E13.90881 ; skirt
G1 F1800.000 E12.90881 ; retract
G92 E0 ; reset extrusion distance
G1 X68.390 Y57.290 F7800.000 ; move to first perimeter point
G1 F1800.000 E1.00000 ; compensate retraction
G1 X131.610 Y57.290 F540.000 E3.63169 ; perimeter
G1 X131.610 Y120.710 E6.27170 ; perimeter
G1 X68.390 Y120.710 E8.90339 ; perimeter
G1 X68.390 Y57.400 E11.53881 ; perimeter
G1 F1800.000 E10.53881 ; retract
G92 E0 ; reset extrusion distance
G1 X132.346 Y56.554 F7800.000 ; move to first perimeter point
G1 F1800.000 E1.00000 ; compensate retraction
G1 X132.346 Y121.446 F540.000 E3.70126 ; perimeter
G1 X67.654 Y121.446 E6.39419 ; perimeter
G1 X67.654 Y56.554 E9.09545 ; perimeter
G1 X132.235 Y56.554 E11.78379 ; perimeter
G1 X133.081 Y55.819 F7800.000 ; move to first perimeter point
G1 X133.081 Y122.181 F540.000 E14.54629 ; perimeter
G1 X66.919 Y122.181 E17.30047 ; perimeter
G1 X66.919 Y55.819 E20.06297 ; perimeter
G1 X132.971 Y55.819 E22.81256 ; perimeter
G1 X132.713 Y56.456 F7800.000 ; move inwards before travel
G1 F1800.000 E21.81256 ; retract
G92 E0 ; reset extrusion distance
G1 X130.213 Y57.823 F7800.000 ; move to first fill point
G1 F1800.000 E1.00000 ; compensate retraction
G1 X131.077 Y58.687 F1080.000 E1.05090 ; fill
G1 X131.077 Y59.728 E1.09428 ; fill
G1 X129.172 Y57.823 E1.20652 ; fill
G1 X128.130 Y57.823 E1.24990 ; fill
G1 X131.077 Y60.769 E1.42349 ; fill
G1 X131.077 Y61.811 E1.46687 ; fill
G1 X127.089 Y57.823 E1.70181 ; fill
G1 X126.048 Y57.823 E1.74519 ; fill
G1 X131.077 Y62.852 E2.04148 ; fill
G1 X131.077 Y63.893 E2.08486 ; fill
G1 X125.007 Y57.823 E2.44250 ; fill
G1 X123.966 Y57.823 E2.48588 ; fill
G1 X131.077 Y64.934 E2.90486 ; fill
G1 X131.077 Y65.976 E2.94824 ; fill
G1 X122.924 Y57.823 E3.42857 ; fill
G1 X121.883 Y57.823 E3.47195 ; fill
G1 X131.077 Y67.017 E4.01363 ; fill
G1 X131.077 Y68.058 E4.05701 ; fill
G1 X120.842 Y57.823 E4.66004 ; fill
G1 X119.801 Y57.823 E4.70342 ; fill
G1 X131.077 Y69.099 E5.36779 ; fill
G1 X131.077 Y70.140 E5.41117 ; fill
G1 X118.760 Y57.823 E6.13690 ; fill
G1 X117.718 Y57.823 E6.18028 ; fill
G1 X131.077 Y71.182 E6.96735 ; fill
G1 X131.077 Y72.223 E7.01073 ; fill
G1 X116.677 Y57.823 E7.85915 ; fill
G1 X115.636 Y57.823 E7.90253 ; fill
G1 X131.077 Y73.264 E8.81229 ; fill
G1 X131.077 Y74.305 E8.85567 ; fill
G1 X114.595 Y57.823 E9.82679 ; fill
G1 X113.554 Y57.823 E9.87017 ; fill
G1 X131.077 Y75.346 E10.90263 ; fill
G1 X131.077 Y76.388 E10.94601 ; fill
G1 X112.512 Y57.823 E12.03982 ; fill
G1 X111.471 Y57.823 E12.08320 ; fill
G1 X131.077 Y77.429 E13.23835 ; fill
G1 X131.077 Y78.470 E13.28173 ; fill
G1 X110.430 Y57.823 E14.49824 ; fill
G1 X109.389 Y57.823 E14.54162 ; fill
G1 X131.077 Y79.511 E15.81947 ; fill
G1 X131.077 Y80.552 E15.86285 ; fill
G1 X108.348 Y57.823 E17.20205 ; fill
G1 X107.306 Y57.823 E17.24543 ; fill
G1 X131.077 Y81.594 E18.64598 ; fill
G1 X131.077 Y82.635 E18.68936 ; fill
G1 X106.265 Y57.823 E20.15126 ; fill
G1 X105.224 Y57.823 E20.19464 ; fill
G1 X131.077 Y83.676 E21.71788 ; fill
G1 X131.077 Y84.717 E21.76126 ; fill
G1 X104.183 Y57.823 E23.34585 ; fill
G1 X103.142 Y57.823 E23.38923 ; fill
G1 X131.077 Y85.758 E25.03517 ; fill
G1 X131.077 Y86.800 E25.07855 ; fill
G1 X102.100 Y57.823 E26.78584 ; fill
G1 X101.059 Y57.823 E26.82922 ; fill
G1 X131.077 Y87.841 E28.59786 ; fill
G1 X131.077 Y88.882 E28.64124 ; fill
G1 X100.018 Y57.823 E30.47122 ; fill
G1 X98.977 Y57.823 E30.51460 ; fill
G1 X131.077 Y89.923 E32.40593 ; fill
G1 X131.077 Y90.964 E32.44931 ; fill
G1 X97.936 Y57.823 E34.40199 ; fill
G1 X96.894 Y57.823 E34.44537 ; fill
G1 X131.077 Y92.006 E36.45940 ; fill
G1 X131.077 Y93.047 E36.50278 ; fill
G1 X95.853 Y57.823 E38.57815 ; fill
G1 X94.812 Y57.823 E38.62153 ; fill
G1 X131.077 Y94.088 E40.75825 ; fill
G1 X131.077 Y95.129 E40.80163 ; fill
G1 X93.771 Y57.823 E42.99970 ; fill
G1 X92.730 Y57.823 E43.04308 ; fill
G1 X131.077 Y96.170 E45.30250 ; fill
G1 X131.077 Y97.212 E45.34588 ; fill
G1 X91.688 Y57.823 E47.66665 ; fill
G1 X90.647 Y57.823 E47.71003 ; fill
G1 X131.077 Y98.253 E50.09214 ; fill
G1 X131.077 Y99.294 E50.13552 ; fill
G1 X89.606 Y57.823 E52.57898 ; fill
G1 X88.565 Y57.823 E52.62236 ; fill
G1 X131.077 Y100.335 E55.12717 ; fill
G1 X131.077 Y101.376 E55.17055 ; fill
G1 X87.524 Y57.823 E57.73671 ; fill
G1 X86.482 Y57.823 E57.78009 ; fill
G1 X131.077 Y102.418 E60.40759 ; fill
G1 X131.077 Y103.459 E60.45097 ; fill
G1 X85.441 Y57.823 E63.13983 ; fill
G1 X84.400 Y57.823 E63.18320 ; fill
G1 X131.077 Y104.500 E65.93341 ; fill
G1 X131.077 Y105.541 E65.97679 ; fill
G1 X83.359 Y57.823 E68.78833 ; fill
G1 X82.318 Y57.823 E68.83171 ; fill
G1 X131.077 Y106.582 E71.70461 ; fill
G1 X131.077 Y107.624 E71.74799 ; fill
G1 X81.276 Y57.823 E74.68223 ; fill
G1 X80.235 Y57.823 E74.72561 ; fill
G1 X131.077 Y108.665 E77.72120 ; fill
G1 X131.077 Y109.706 E77.76458 ; fill
G1 X79.194 Y57.823 E80.82152 ; fill
G1 X78.153 Y57.823 E80.86490 ; fill
G1 X131.077 Y110.747 E83.98319 ; fill
G1 X131.077 Y111.788 E84.02657 ; fill
G1 X77.112 Y57.823 E87.20621 ; fill
G1 X76.070 Y57.823 E87.24959 ; fill
G1 X131.077 Y112.830 E90.49057 ; fill
G1 X131.077 Y113.871 E90.53395 ; fill
G1 X75.029 Y57.823 E93.83628 ; fill
G1 X73.988 Y57.823 E93.87966 ; fill
G1 X131.077 Y114.912 E97.24334 ; fill
G1 X131.077 Y115.953 E97.28672 ; fill
G1 X72.947 Y57.823 E100.71174 ; fill
G1 X71.905 Y57.823 E100.75512 ; fill
G1 X131.077 Y116.994 E104.24150 ; fill
G1 X131.077 Y118.036 E104.28488 ; fill
G1 X70.864 Y57.823 E107.83260 ; fill
G1 X69.823 Y57.823 E107.87598 ; fill
G1 X131.077 Y119.077 E111.48505 ; fill
G1 X131.077 Y120.118 E111.52843 ; fill
G1 X68.923 Y57.965 E115.19052 ; fill
G1 X68.923 Y59.006 E115.23390 ; fill
G1 X130.094 Y120.177 E118.83809 ; fill
G1 X129.053 Y120.177 E118.88147 ; fill
G1 X68.923 Y60.047 E122.42432 ; fill
G1 X68.923 Y61.088 E122.46770 ; fill
G1 X128.012 Y120.177 E125.94920 ; fill
G1 X126.971 Y120.177 E125.99258 ; fill
G1 X68.923 Y62.129 E129.41273 ; fill
G1 X68.923 Y63.171 E129.45611 ; fill
G1 X125.929 Y120.177 E132.81492 ; fill
G1 X124.888 Y120.177 E132.85830 ; fill
G1 X68.923 Y64.212 E136.15575 ; fill
G1 X68.923 Y65.253 E136.19913 ; fill
G1 X123.847 Y120.177 E139.43524 ; fill
G1 X122.806 Y120.177 E139.47862 ; fill
G1 X68.923 Y66.294 E142.65338 ; fill
G1 X68.923 Y67.335 E142.69676 ; fill
G1 X121.765 Y120.177 E145.81018 ; fill
G1 X120.723 Y120.177 E145.85356 ; fill
G1 X68.923 Y68.377 E148.90562 ; fill
G1 X68.923 Y69.418 E148.94900 ; fill
G1 X119.682 Y120.177 E151.93972 ; fill
G1 X118.641 Y120.177 E151.98310 ; fill
G1 X68.923 Y70.459 E154.91247 ; fill
G1 X68.923 Y71.500 E154.95585 ; fill
G1 X117.600 Y120.177 E157.82387 ; fill
G1 X116.559 Y120.177 E157.86725 ; fill
G1 X68.923 Y72.541 E160.67392 ; fill
G1 X68.923 Y73.583 E160.71730 ; fill
G1 X115.517 Y120.177 E163.46263 ; fill
G1 X114.476 Y120.177 E163.50601 ; fill
G1 X68.923 Y74.624 E166.18999 ; fill
G1 X68.923 Y75.665 E166.23337 ; fill
G1 X113.435 Y120.177 E168.85600 ; fill
G1 X112.394 Y120.177 E168.89938 ; fill
G1 X68.923 Y76.706 E171.46066 ; fill
G1 X68.923 Y77.747 E171.50404 ; fill
G1 X111.353 Y120.177 E174.00398 ; fill
G1 X110.311 Y120.177 E174.04736 ; fill
G1 X68.923 Y78.789 E176.48594 ; fill
G1 X68.923 Y79.830 E176.52932 ; fill
G1 X109.270 Y120.177 E178.90656 ; fill
G1 X108.229 Y120.177 E178.94994 ; fill
G1 X68.923 Y80.871 E181.26584 ; fill
G1 X68.923 Y81.912 E181.30921 ; fill
G1 X107.188 Y120.177 E183.56376 ; fill
G1 X106.146 Y120.177 E183.60714 ; fill
G1 X68.923 Y82.954 E185.80034 ; fill
G1 X68.923 Y83.995 E185.84371 ; fill
G1 X105.105 Y120.177 E187.97556 ; fill
G1 X104.064 Y120.177 E188.01894 ; fill
G1 X68.923 Y85.036 E190.08944 ; fill
G1 X68.923 Y86.077 E190.13282 ; fill
G1 X103.023 Y120.177 E192.14198 ; fill
G1 X101.982 Y120.177 E192.18536 ; fill
G1 X68.923 Y87.118 E194.13316 ; fill
G1 X68.923 Y88.160 E194.17654 ; fill
G1 X100.940 Y120.177 E196.06300 ; fill
G1 X99.899 Y120.177 E196.10638 ; fill
G1 X68.923 Y89.201 E197.93149 ; fill
G1 X68.923 Y90.242 E197.97487 ; fill
G1 X98.858 Y120.177 E199.73863 ; fill
G1 X97.817 Y120.177 E199.78201 ; fill
G1 X68.923 Y91.283 E201.48442 ; fill
G1 X68.923 Y92.324 E201.52780 ; fill
G1 X96.776 Y120.177 E203.16887 ; fill
G1 X95.734 Y120.177 E203.21225 ; fill
G1 X68.923 Y93.366 E204.79197 ; fill
G1 X68.923 Y94.407 E204.83534 ; fill
G1 X94.693 Y120.177 E206.35372 ; fill
G1 X93.652 Y120.177 E206.39710 ; fill
G1 X68.923 Y95.448 E207.85412 ; fill
G1 X68.923 Y96.489 E207.89750 ; fill
G1 X92.611 Y120.177 E209.29317 ; fill
G1 X91.570 Y120.177 E209.33655 ; fill
G1 X68.923 Y97.530 E210.67088 ; fill
G1 X68.923 Y98.572 E210.71426 ; fill
G1 X90.528 Y120.177 E211.98724 ; fill
G1 X89.487 Y120.177 E212.03062 ; fill
G1 X68.923 Y99.613 E213.24225 ; fill
G1 X68.923 Y100.654 E213.28563 ; fill
G1 X88.446 Y120.177 E214.43591 ; fill
G1 X87.405 Y120.177 E214.47929 ; fill
G1 X68.923 Y101.695 E215.56823 ; fill
G1 X68.923 Y102.736 E215.61161 ; fill
G1 X86.364 Y120.177 E216.63920 ; fill
G1 X85.322 Y120.177 E216.68257 ; fill
G1 X68.923 Y103.778 E217.64882 ; fill
G1 X68.923 Y104.819 E217.69219 ; fill
G1 X84.281 Y120.177 E218.59709 ; fill
G1 X83.240 Y120.177 E218.64047 ; fill
G1 X68.923 Y105.860 E219.48401 ; fill
G1 X68.923 Y106.901 E219.52739 ; fill
G1 X82.199 Y120.177 E220.30959 ; fill
G1 X81.158 Y120.177 E220.35297 ; fill
G1 X68.923 Y107.942 E221.07382 ; fill
G1 X68.923 Y108.984 E221.11720 ; fill
G1 X80.116 Y120.177 E221.77670 ; fill
G1 X79.075 Y120.177 E221.82008 ; fill
G1 X68.923 Y110.025 E222.41823 ; fill
G1 X68.923 Y111.066 E222.46161 ; fill
G1 X78.034 Y120.177 E222.99842 ; fill
G1 X76.993 Y120.177 E223.04180 ; fill
G1 X68.923 Y112.107 E223.51725 ; fill
G1 X68.923 Y113.148 E223.56063 ; fill
G1 X75.952 Y120.177 E223.97474 ; fill
G1 X74.910 Y120.177 E224.01812 ; fill
G1 X68.923 Y114.190 E224.37088 ; fill
G1 X68.923 Y115.231 E224.41426 ; fill
G1 X73.869 Y120.177 E224.70568 ; fill
G1 X72.828 Y120.177 E224.74906 ; fill
G1 X68.923 Y116.272 E224.97912 ; fill
G1 X68.923 Y117.313 E225.02250 ; fill
G1 X71.787 Y120.177 E225.19122 ; fill
G1 X70.746 Y120.177 E225.23460 ; fill
G1 X68.923 Y118.354 E225.34197 ; fill
G1 X68.923 Y119.396 E225.38535 ; fill
G1 X69.704 Y120.177 E225.43138 ; fill
M104 S175 ; set temperature
G1 F1800.000 E224.43138 ; retract
G92 E0 ; reset extrusion distance
G1 Z0.800 F7800.000 ; move to next layer (1)
G1 X67.850 Y121.250 ; move to first perimeter point
G1 F1800.000 E1.00000 ; compensate retraction
G1 X67.850 Y56.750 F1800.000 E2.89664 ; perimeter
G1 X132.150 Y56.750 E4.78740 ; perimeter
G1 X132.150 Y121.250 E6.68403 ; perimeter
G1 X67.928 Y121.250 E8.57250 ; perimeter
G1 F1800.000 E7.57250 ; retract
G92 E0 ; reset extrusion distance
G1 X132.670 Y121.770 F7800.000 ; move to first perimeter point
G1 F1800.000 E1.00000 ; compensate retraction
G1 X67.330 Y121.770 F1800.000 E2.92132 ; perimeter
G1 X67.330 Y56.230 E4.84852 ; perimeter
G1 X132.670 Y56.230 E6.76983 ; perimeter
G1 X132.670 Y121.692 E8.69474 ; perimeter
G1 X133.189 Y122.289 F7800.000 ; move to first perimeter point
G1 X66.811 Y122.289 F1800.000 E10.64662 ; perimeter
G1 X66.811 Y55.711 E12.60437 ; perimeter
G1 X133.189 Y55.711 E14.55625 ; perimeter
G1 X133.189 Y122.211 E16.51172 ; perimeter
G1 X132.739 Y122.029 F7800.000 ; move inwards before travel
G1 X131.773 Y120.740 ; move to first fill point
G1 X131.640 Y120.873 F3600.000 E16.51730 ; fill
G1 X130.902 Y120.873 E16.53905 ; fill
G1 X131.773 Y120.002 E16.57540 ; fill
G1 X131.773 Y119.265 E16.59716 ; fill
G1 X130.165 Y120.873 E16.66427 ; fill
G1 X129.427 Y120.873 E16.68602 ; fill
G1 X131.773 Y118.528 E16.78390 ; fill
G1 X131.773 Y117.790 E16.80566 ; fill
G1 X128.690 Y120.873 E16.93431 ; fill
G1 X127.953 Y120.873 E16.95606 ; fill
G1 X131.773 Y117.053 E17.11547 ; fill
G1 X131.773 Y116.315 E17.13723 ; fill
G1 X127.215 Y120.873 E17.32741 ; fill
G1 X126.478 Y120.873 E17.34916 ; fill
G1 X131.773 Y115.578 E17.57011 ; fill
G1 X131.773 Y114.841 E17.59186 ; fill
G1 X125.741 Y120.873 E17.84357 ; fill
G1 X125.003 Y120.873 E17.86533 ; fill
G1 X131.773 Y114.103 E18.14781 ; fill
G1 X131.773 Y113.366 E18.16956 ; fill
G1 X124.266 Y120.873 E18.48281 ; fill
G1 X123.529 Y120.873 E18.50456 ; fill
G1 X131.773 Y112.629 E18.84857 ; fill
G1 X131.773 Y111.891 E18.87033 ; fill
G1 X122.791 Y120.873 E19.24510 ; fill
G1 X122.054 Y120.873 E19.26686 ; fill
G1 X131.773 Y111.154 E19.67240 ; fill
G1 X131.773 Y110.417 E19.69416 ; fill
G1 X121.317 Y120.873 E20.13047 ; fill
G1 X120.579 Y120.873 E20.15222 ; fill
G1 X131.773 Y109.679 E20.61930 ; fill
G1 X131.773 Y108.942 E20.64106 ; fill
G1 X119.842 Y120.873 E21.13890 ; fill
G1 X119.105 Y120.873 E21.16065 ; fill
G1 X131.773 Y108.205 E21.68926 ; fill
G1 X131.773 Y107.467 E21.71102 ; fill
G1 X118.367 Y120.873 E22.27039 ; fill
G1 X117.630 Y120.873 E22.29215 ; fill
G1 X131.773 Y106.730 E22.88229 ; fill
G1 X131.773 Y105.993 E22.90405 ; fill
G1 X116.893 Y120.873 E23.52495 ; fill
G1 X116.155 Y120.873 E23.54671 ; fill
G1 X131.773 Y105.255 E24.19838 ; fill
G1 X131.773 Y104.518 E24.22014 ; fill
G1 X115.418 Y120.873 E24.90258 ; fill
G1 X114.680 Y120.873 E24.92433 ; fill
G1 X131.773 Y103.780 E25.63754 ; fill
G1 X131.773 Y103.043 E25.65930 ; fill
G1 X113.943 Y120.873 E26.40327 ; fill
G1 X113.206 Y120.873 E26.42503 ; fill
G1 X131.773 Y102.306 E27.19977 ; fill
G1 X131.773 Y101.568 E27.22152 ; fill
G1 X112.468 Y120.873 E28.02703 ; fill
G1 X111.731 Y120.873 E28.04878 ; fill
G1 X131.773 Y100.831 E28.88506 ; fill
G1 X131.773 Y100.094 E28.90681 ; fill
G1 X110.994 Y120.873 E29.77385 ; fill
G1 X110.256 Y120.873 E29.79561 ; fill
G1 X131.773 Y99.356 E30.69341 ; fill
G1 X131.773 Y98.619 E30.71517 ; fill
G1 X109.519 Y120.873 E31.64374 ; fill
G1 X108.782 Y120.873 E31.66550 ; fill
G1 X131.773 Y97.882 E32.62483 ; fill
G1 X131.773 Y97.144 E32.64659 ; fill
G1 X108.044 Y120.873 E33.63669 ; fill
