; generated by Slic3r 1.1.7 on 2015-02-14 at 10:44:39

; perimeters extrusion width = 0.50mm
; infill extrusion width = 0.52mm
; solid infill extrusion width = 0.52mm
; top infill extrusion width = 0.52mm

G21 ; set units to millimeters
M107
M190 S65 ; wait for bed temperature to be reached
M104 S185 ; set temperature
G28 ; home all axes
G1 Z5 F5000 ; lift nozzle

M109 S185 ; wait for temperature to be reached
G90 ; use absolute coordinates
G92 E0
M82 ; use absolute distances for extrusion
G1 F1800.000 E-1.00000
G1 Z0.850 F7800.000
G92 E0
G1 X46.256 Y54.578 F7800.000
G1 Z0.350 F7800.000
G1 E1.00000 F1800.000
G1 X46.637 Y54.255 E1.01626 F1080.000
G1 X48.792 Y53.453 E1.09106
G1 X50.000 Y53.343 E1.13051
G1 X150.000 Y53.343 E4.38403
G1 X152.265 Y53.740 E4.45883
G1 X154.259 Y54.884 E4.53363 F1080.000
G1 X155.745 Y56.637 E4.60843
G1 X156.547 Y58.792 E4.68323
G1 X156.657 Y60.000 E4.72269
G1 X156.657 Y118.000 E6.60973
G1 X156.260 Y120.265 E6.68453
G1 X155.116 Y122.259 E6.75933
G1 X153.363 Y123.745 E6.83413
G1 X151.208 Y124.547 E6.90893
G1 X150.000 Y124.657 E6.94839
G1 X50.000 Y124.657 E10.20191
G1 X47.735 Y124.260 E10.27671
G1 X45.741 Y123.116 E10.35151
G1 X44.255 Y121.363 E10.42631
G1 X43.453 Y119.208 E10.50111
G1 X43.343 Y118.000 E10.54056
G1 X43.343 Y60.000 E12.42761
G1 X43.740 Y57.735 E12.50241
G1 X44.884 Y55.741 E12.57721
G1 X46.199 Y54.626 E12.63331
G1 F1800.000 E11.63331
G1 Z0.850 F7800.000
G92 E0
G1 X98.638 Y113.565 F7800.000
G1 Z0.350 F7800.000
G1 E1.00000 F1800.000
G1 X58.836 Y113.564 E2.29497 F540.000
G1 X58.836 Y64.436 E3.89337
G1 X98.664 Y64.437 E5.18920
G1 X98.638 Y113.490 E6.78516
G1 X97.983 Y112.908 F7800.000
G1 X59.493 Y112.907 E8.03745 F540.000
G1 X59.493 Y65.093 E9.59309
G1 X98.007 Y65.094 E10.84616
G1 X97.984 Y112.833 E12.39936
G1 X97.329 Y112.251 F7800.000
G1 X60.150 Y112.250 E13.60897 F378.000
G1 X60.150 Y65.750 E15.12186
G1 X97.350 Y65.751 E16.33217
G1 X97.329 Y112.176 E17.84262
G1 X97.328 Y112.751 F7800.000
G1 F1800.000 E16.84262
G1 Z0.850 F7800.000
G92 E0
G1 X136.690 Y104.964 F7800.000
G1 Z0.350 F7800.000
G1 E1.00000 F1800.000
G1 X136.690 Y113.664 E1.28306 F540.000
G1 X101.336 Y113.664 E2.43331
G1 X101.336 Y64.436 E4.03496
G1 X136.664 Y64.436 E5.18436
G1 X136.664 Y73.336 E5.47392
G1 X145.664 Y73.336 E5.76674
G1 X145.664 Y104.964 E6.79577
G1 X136.765 Y104.964 E7.08531
G1 X136.033 Y104.307 F7800.000
G1 X136.033 Y113.007 E7.36837 F540.000
G1 X101.993 Y113.007 E8.47587
G1 X101.993 Y65.093 E10.03476
G1 X136.007 Y65.093 E11.14140
G1 X136.007 Y73.993 E11.43097
G1 X145.007 Y73.993 E11.72379
G1 X145.007 Y104.307 E12.71006
G1 X136.108 Y104.307 E12.99960
G1 X135.376 Y103.650 F7800.000
G1 X135.376 Y112.350 E13.28266 F378.000
G1 X102.650 Y112.350 E14.34740
G1 X102.650 Y65.750 E15.86354
G1 X135.350 Y65.750 E16.92742
G1 X135.350 Y74.650 E17.21699
G1 X144.350 Y74.650 E17.50980
G1 X144.350 Y103.650 E18.45333
G1 X135.451 Y103.650 E18.74286
G1 X135.626 Y104.083 F7800.000
G1 X148.336 Y116.336 F7800.000
G1 X51.664 Y116.336 E21.88810 F540.000
G1 X51.664 Y61.664 E23.66685
G1 X148.336 Y61.664 E26.81209
G1 X148.336 Y116.261 E28.58840
G1 X148.993 Y116.993 F7800.000
G1 X51.007 Y116.993 E31.77639 F540.000
G1 X51.007 Y61.007 E33.59790
G1 X148.993 Y61.007 E36.78589
G1 X148.993 Y116.918 E38.60496
G1 X149.650 Y117.650 F7800.000
G1 X50.350 Y117.650 E41.83571 F378.000
G1 X50.350 Y60.350 E43.69998
G1 X149.650 Y60.350 E46.93072
G1 X149.650 Y117.575 E48.79255
G1 X149.217 Y117.400 F7800.000
G1 F1800.000 E47.79255
G1 Z0.850 F7800.000
G92 E0
G1 X137.121 Y71.949 F7800.000
G1 Z0.350 F7800.000
G1 E1.00000 F1800.000
G1 X138.051 Y72.879 E1.04280 F1080.000
G1 X138.985 Y72.879 E1.07319
G1 X137.121 Y71.015 E1.15896
G1 X137.121 Y70.081 E1.18935
G1 X139.919 Y72.879 E1.31810
G1 X140.853 Y72.879 E1.34849
G1 X137.121 Y69.147 E1.52021
G1 X137.121 Y68.213 E1.55060
G1 X141.787 Y72.879 E1.76529
G1 X142.721 Y72.879 E1.79568
G1 X137.121 Y67.279 E2.05335
G1 X137.121 Y66.345 E2.08374
G1 X143.655 Y72.879 E2.38439
G1 X144.589 Y72.879 E2.41478
G1 X137.121 Y65.411 E2.75840
G1 X133.830 Y62.121 F7800.000
G1 X135.689 Y63.979 E2.84393 F1080.000
G1 X134.755 Y63.979 E2.87432
G1 X132.896 Y62.121 E2.95985
G1 X131.962 Y62.121 E2.99024
G1 X133.821 Y63.979 E3.07577
G1 X132.887 Y63.979 E3.10616
G1 X131.028 Y62.121 E3.19169
G1 X130.094 Y62.121 E3.22208
G1 X131.953 Y63.979 E3.30762
G1 X131.019 Y63.979 E3.33800
G1 X129.160 Y62.121 E3.42354
G1 X128.226 Y62.121 E3.45392
G1 X130.085 Y63.979 E3.53946
G1 X129.151 Y63.979 E3.56985
G1 X127.292 Y62.121 E3.65538
G1 X126.358 Y62.121 E3.68577
G1 X128.217 Y63.979 E3.77130
G1 X127.283 Y63.979 E3.80169
G1 X125.424 Y62.121 E3.88722
G1 X124.490 Y62.121 E3.91761
G1 X126.349 Y63.979 E4.00314
G1 X125.415 Y63.979 E4.03353
G1 X123.556 Y62.121 E4.11906
G1 X122.622 Y62.121 E4.14945
G1 X124.481 Y63.979 E4.23498
G1 X123.547 Y63.979 E4.26537
G1 X121.688 Y62.121 E4.35091
G1 X120.754 Y62.121 E4.38129
G1 X122.613 Y63.979 E4.46683
G1 X121.679 Y63.979 E4.49721
G1 X119.820 Y62.121 E4.58275
G1 X118.886 Y62.121 E4.61313
G1 X120.745 Y63.979 E4.69867
G1 X119.811 Y63.979 E4.72906
G1 X117.952 Y62.121 E4.81459
G1 X117.018 Y62.121 E4.84498
G1 X118.877 Y63.979 E4.93051
G1 X117.943 Y63.979 E4.96090
G1 X116.084 Y62.121 E5.04643
G1 X115.150 Y62.121 E5.07682
G1 X117.009 Y63.979 E5.16235
G1 X116.075 Y63.979 E5.19274
G1 X114.216 Y62.121 E5.27827
G1 X113.282 Y62.121 E5.30866
G1 X115.141 Y63.979 E5.39419
G1 X114.207 Y63.979 E5.42458
G1 X112.348 Y62.121 E5.51011
G1 X111.414 Y62.121 E5.54050
G1 X113.273 Y63.979 E5.62603
G1 X112.339 Y63.979 E5.65642
G1 X110.480 Y62.121 E5.74195
G1 X109.546 Y62.121 E5.77234
G1 X111.405 Y63.979 E5.85787
G1 X110.471 Y63.979 E5.88826
G1 X108.612 Y62.121 E5.97380
G1 X107.678 Y62.121 E6.00418
G1 X109.537 Y63.979 E6.08972
G1 X108.603 Y63.979 E6.12010
G1 X106.744 Y62.121 E6.20564
G1 X105.810 Y62.121 E6.23602
G1 X107.669 Y63.979 E6.32156
G1 X106.735 Y63.979 E6.35194
G1 X104.876 Y62.121 E6.43748
G1 X103.942 Y62.121 E6.46786
G1 X105.801 Y63.979 E6.55340
G1 X104.867 Y63.979 E6.58378
G1 X103.008 Y62.121 E6.66932
G1 X102.074 Y62.121 E6.69970
G1 X103.933 Y63.979 E6.78524
G1 X102.999 Y63.979 E6.81562
G1 X101.140 Y62.121 E6.90116
G1 X100.206 Y62.121 E6.93154
G1 X102.065 Y63.979 E7.01708
G1 X101.131 Y63.979 E7.04747
G1 X99.272 Y62.121 E7.13300
G1 X98.338 Y62.121 E7.16339
G1 X100.880 Y64.662 E7.28034
G1 X147.839 Y62.121 F7800.000
G1 X147.879 Y62.161 E7.28218 F1080.000
G1 X147.879 Y63.095 E7.31257
G1 X146.905 Y62.121 E7.35738
G1 X145.972 Y62.121 E7.38777
G1 X147.879 Y64.028 E7.47556
G1 X147.879 Y64.962 E7.50594
G1 X145.038 Y62.121 E7.63671
G1 X144.104 Y62.121 E7.66710
G1 X147.879 Y65.896 E7.84083
G1 X147.879 Y66.830 E7.87122
G1 X143.170 Y62.121 E8.08793
G1 X142.236 Y62.121 E8.11832
G1 X147.879 Y67.764 E8.37801
G1 X147.879 Y68.698 E8.40840
G1 X141.302 Y62.121 E8.71106
G1 X140.368 Y62.121 E8.74144
G1 X147.879 Y69.632 E9.08708
G1 X147.879 Y70.566 E9.11747
G1 X139.434 Y62.121 E9.50608
G1 X138.500 Y62.121 E9.53646
G1 X147.879 Y71.500 E9.96805
G1 X147.879 Y72.434 E9.99844
G1 X137.566 Y62.121 E10.47299
G1 X136.632 Y62.121 E10.50338
G1 X147.879 Y73.368 E11.02091
G1 X147.879 Y74.302 E11.05130
G1 X135.698 Y62.121 E11.61181
G1 X134.764 Y62.121 E11.64220
G1 X147.879 Y75.236 E12.24568
G1 X147.879 Y76.170 E12.27607
G1 X146.121 Y74.411 E12.35700
G1 X146.121 Y75.345 E12.38739
G1 X147.879 Y77.104 E12.46832
G1 X147.879 Y78.038 E12.49871
G1 X146.121 Y76.279 E12.57964
G1 X146.121 Y77.213 E12.61003
G1 X147.879 Y78.972 E12.69096
G1 X147.879 Y79.906 E12.72134
G1 X146.121 Y78.147 E12.80228
G1 X146.121 Y79.081 E12.83266
G1 X147.879 Y80.840 E12.91360
G1 X147.879 Y81.774 E12.94398
G1 X146.121 Y80.015 E13.02492
G1 X146.121 Y80.949 E13.05530
G1 X147.879 Y82.708 E13.13624
G1 X147.879 Y83.642 E13.16662
G1 X146.121 Y81.883 E13.24756
G1 X146.121 Y82.817 E13.27794
G1 X147.879 Y84.576 E13.35888
G1 X147.879 Y85.510 E13.38926
G1 X146.121 Y83.751 E13.47020
G1 X146.121 Y84.685 E13.50058
G1 X147.879 Y86.444 E13.58152
G1 X147.879 Y87.378 E13.61190
G1 X146.121 Y85.619 E13.69284
G1 X146.121 Y86.553 E13.72322
G1 X147.879 Y88.312 E13.80416
G1 X147.879 Y89.246 E13.83454
G1 X146.121 Y87.487 E13.91548
G1 X146.121 Y88.421 E13.94586
G1 X147.879 Y90.180 E14.02680
G1 X147.879 Y91.114 E14.05718
G1 X146.121 Y89.355 E14.13812
G1 X146.121 Y90.289 E14.16850
G1 X147.879 Y92.048 E14.24944
G1 X147.879 Y92.982 E14.27982
G1 X146.121 Y91.223 E14.36076
G1 X146.121 Y92.157 E14.39114
G1 X147.879 Y93.916 E14.47208
G1 X147.879 Y94.850 E14.50246
G1 X146.121 Y93.091 E14.58340
G1 X146.121 Y94.025 E14.61378
G1 X147.879 Y95.784 E14.69472
G1 X147.879 Y96.718 E14.72510
G1 X146.121 Y94.959 E14.80603
G1 X146.121 Y95.893 E14.83642
G1 X147.879 Y97.652 E14.91735
G1 X147.879 Y98.586 E14.94774
G1 X146.121 Y96.827 E15.02867
G1 X146.121 Y97.761 E15.05906
G1 X147.879 Y99.520 E15.13999
G1 X147.879 Y100.454 E15.17038
G1 X146.121 Y98.695 E15.25131
G1 X146.121 Y99.629 E15.28170
G1 X147.879 Y101.388 E15.36263
G1 X147.879 Y102.322 E15.39302
G1 X146.121 Y100.563 E15.47395
G1 X146.121 Y101.497 E15.50434
G1 X147.879 Y103.256 E15.58527
G1 X147.879 Y104.190 E15.61566
G1 X146.121 Y102.431 E15.69659
G1 X146.121 Y103.365 E15.72698
G1 X147.879 Y105.124 E15.80791
G1 X147.879 Y106.058 E15.83830
G1 X146.121 Y104.299 E15.91923
G1 X146.121 Y105.233 E15.94962
G1 X147.879 Y106.992 E16.03055
G1 X147.879 Y107.926 E16.06094
G1 X145.374 Y105.421 E16.17622
G1 X144.440 Y105.421 E16.20660
G1 X147.879 Y108.860 E16.36485
G1 X147.879 Y109.794 E16.39524
G1 X143.506 Y105.421 E16.59647
G1 X142.572 Y105.421 E16.62685
G1 X147.879 Y110.728 E16.87105
G1 X147.879 Y111.662 E16.90144
G1 X141.638 Y105.421 E17.18861
G1 X140.704 Y105.421 E17.21900
G1 X147.879 Y112.596 E17.54915
G1 X147.879 Y113.530 E17.57954
G1 X139.770 Y105.421 E17.95266
G1 X138.836 Y105.421 E17.98305
G1 X147.879 Y114.464 E18.39914
G1 X147.879 Y115.398 E18.42953
G1 X137.902 Y105.421 E18.88860
G1 X137.146 Y105.599 E18.91387
G1 X147.427 Y115.879 E19.38691
G1 X146.493 Y115.879 E19.41730
G1 X137.146 Y106.533 E19.84737
G1 X137.146 Y107.467 E19.87775
G1 X145.559 Y115.879 E20.26485
G1 X144.625 Y115.879 E20.29524
G1 X137.146 Y108.401 E20.63935
G1 X137.146 Y109.335 E20.66974
G1 X143.691 Y115.879 E20.97089
G1 X142.757 Y115.879 E21.00127
G1 X137.146 Y110.269 E21.25944
G1 X137.146 Y111.203 E21.28983
G1 X141.823 Y115.879 E21.50503
G1 X140.889 Y115.879 E21.53542
G1 X137.146 Y112.136 E21.70764
G1 X137.146 Y113.070 E21.73802
G1 X139.955 Y115.879 E21.86727
G1 X139.021 Y115.879 E21.89766
G1 X137.146 Y114.004 E21.98393
G1 X136.328 Y114.121 E22.01081
G1 X138.087 Y115.879 E22.09174
G1 X137.153 Y115.879 E22.12213
G1 X135.394 Y114.121 E22.20306
G1 X134.460 Y114.121 E22.23345
G1 X136.219 Y115.879 E22.31438
G1 X135.285 Y115.879 E22.34477
G1 X133.526 Y114.121 E22.42570
G1 X132.592 Y114.121 E22.45609
G1 X134.351 Y115.879 E22.53702
G1 X133.417 Y115.879 E22.56741
G1 X131.658 Y114.121 E22.64834
G1 X130.724 Y114.121 E22.67873
G1 X132.483 Y115.879 E22.75966
G1 X131.549 Y115.879 E22.79005
G1 X129.790 Y114.121 E22.87099
G1 X128.856 Y114.121 E22.90137
G1 X130.615 Y115.879 E22.98231
G1 X129.681 Y115.879 E23.01269
G1 X127.922 Y114.121 E23.09363
G1 X126.988 Y114.121 E23.12401
G1 X128.747 Y115.879 E23.20495
G1 X127.813 Y115.879 E23.23533
G1 X126.055 Y114.121 E23.31627
G1 X125.121 Y114.121 E23.34666
G1 X126.879 Y115.879 E23.42759
G1 X125.945 Y115.879 E23.45798
G1 X124.187 Y114.121 E23.53891
G1 X123.253 Y114.121 E23.56930
G1 X125.012 Y115.879 E23.65023
G1 X124.078 Y115.879 E23.68062
G1 X122.319 Y114.121 E23.76155
G1 X121.385 Y114.121 E23.79194
G1 X123.144 Y115.879 E23.87287
G1 X122.210 Y115.879 E23.90326
G1 X120.451 Y114.121 E23.98419
G1 X119.517 Y114.121 E24.01458
G1 X121.276 Y115.879 E24.09551
G1 X120.342 Y115.879 E24.12590
G1 X118.583 Y114.121 E24.20683
G1 X117.649 Y114.121 E24.23722
G1 X119.408 Y115.879 E24.31816
G1 X118.474 Y115.879 E24.34854
G1 X116.715 Y114.121 E24.42948
G1 X115.781 Y114.121 E24.45986
G1 X117.540 Y115.879 E24.54080
G1 X116.606 Y115.879 E24.57119
G1 X114.847 Y114.121 E24.65212
G1 X113.913 Y114.121 E24.68251
G1 X115.672 Y115.879 E24.76344
G1 X114.738 Y115.879 E24.79383
G1 X112.979 Y114.121 E24.87476
G1 X112.045 Y114.121 E24.90515
G1 X113.804 Y115.879 E24.98608
G1 X112.870 Y115.879 E25.01647
G1 X111.111 Y114.120 E25.09740
G1 X110.177 Y114.120 E25.12779
G1 X111.936 Y115.879 E25.20873
G1 X111.002 Y115.879 E25.23911
G1 X109.243 Y114.120 E25.32005
G1 X108.309 Y114.120 E25.35043
G1 X110.068 Y115.879 E25.43137
G1 X109.134 Y115.879 E25.46176
G1 X107.375 Y114.120 E25.54269
G1 X106.441 Y114.120 E25.57308
G1 X108.200 Y115.879 E25.65401
G1 X107.266 Y115.879 E25.68440
G1 X105.507 Y114.120 E25.76533
G1 X104.573 Y114.120 E25.79572
G1 X106.332 Y115.879 E25.87665
G1 X105.398 Y115.879 E25.90704
G1 X103.639 Y114.120 E25.98798
G1 X102.705 Y114.120 E26.01836
G1 X104.464 Y115.879 E26.09930
G1 X103.530 Y115.879 E26.12969
G1 X101.771 Y114.120 E26.21062
G1 X100.880 Y113.229 F7800.000
G1 X99.096 Y111.445 E26.29270 F1080.000
G1 X99.095 Y112.379 E26.32307
G1 X102.596 Y115.879 E26.48415
G1 X101.662 Y115.879 E26.51454
G1 X99.095 Y113.312 E26.63266
G1 X98.870 Y114.022 E26.65688
G1 X100.728 Y115.879 E26.74235
G1 X99.794 Y115.879 E26.77274
G1 X97.936 Y114.022 E26.85822
G1 X97.002 Y114.022 E26.88861
G1 X98.860 Y115.879 E26.97409
G1 X97.926 Y115.879 E27.00448
G1 X96.068 Y114.022 E27.08996
G1 X95.134 Y114.022 E27.12035
G1 X96.992 Y115.879 E27.20583
G1 X96.058 Y115.879 E27.23622
G1 X94.200 Y114.022 E27.32170
G1 X93.266 Y114.022 E27.35209
G1 X95.124 Y115.879 E27.43757
G1 X94.190 Y115.879 E27.46796
G1 X92.332 Y114.022 E27.55345
G1 X91.398 Y114.022 E27.58384
G1 X93.256 Y115.879 E27.66933
G1 X92.322 Y115.879 E27.69971
G1 X90.464 Y114.021 E27.78520
G1 X89.530 Y114.021 E27.81559
G1 X91.388 Y115.879 E27.90108
G1 X90.454 Y115.879 E27.93147
G1 X88.596 Y114.021 E28.01696
G1 X87.662 Y114.021 E28.04735
G1 X89.520 Y115.879 E28.13285
G1 X88.586 Y115.879 E28.16323
G1 X86.728 Y114.021 E28.24873
G1 X85.794 Y114.021 E28.27912
G1 X87.652 Y115.879 E28.36461
G1 X86.718 Y115.879 E28.39500
G1 X84.860 Y114.021 E28.48050
G1 X83.926 Y114.021 E28.51089
G1 X85.784 Y115.879 E28.59639
G1 X84.850 Y115.879 E28.62677
G1 X82.992 Y114.021 E28.71227
G1 X82.058 Y114.021 E28.74266
G1 X83.916 Y115.879 E28.82817
G1 X82.982 Y115.879 E28.85855
G1 X81.124 Y114.021 E28.94406
G1 X80.190 Y114.021 E28.97444
G1 X82.048 Y115.879 E29.05995
G1 X81.114 Y115.879 E29.09034
G1 X79.256 Y114.021 E29.17584
G1 X78.322 Y114.021 E29.20623
G1 X80.180 Y115.879 E29.29174
G1 X79.246 Y115.879 E29.32213
G1 X77.388 Y114.021 E29.40764
G1 X76.454 Y114.021 E29.43802
G1 X78.312 Y115.879 E29.52353
G1 X77.378 Y115.879 E29.55392
G1 X75.520 Y114.021 E29.63943
G1 X74.586 Y114.021 E29.66982
G1 X76.444 Y115.879 E29.75533
G1 X75.510 Y115.879 E29.78572
G1 X73.652 Y114.021 E29.87124
G1 X72.718 Y114.021 E29.90163
G1 X74.576 Y115.879 E29.98714
G1 X73.642 Y115.879 E30.01753
G1 X71.784 Y114.021 E30.10305
G1 X70.850 Y114.021 E30.13343
G1 X72.708 Y115.879 E30.21895
G1 X71.774 Y115.879 E30.24934
G1 X69.916 Y114.021 E30.33486
G1 X68.982 Y114.021 E30.36525
G1 X70.840 Y115.879 E30.45077
G1 X69.906 Y115.879 E30.48116
G1 X68.048 Y114.021 E30.56668
G1 X67.114 Y114.021 E30.59707
G1 X68.972 Y115.879 E30.68259
G1 X68.038 Y115.879 E30.71298
G1 X66.180 Y114.021 E30.79851
G1 X65.246 Y114.021 E30.82889
G1 X67.104 Y115.879 E30.91442
G1 X66.170 Y115.879 E30.94481
G1 X64.311 Y114.021 E31.03034
G1 X63.377 Y114.021 E31.06072
G1 X65.236 Y115.879 E31.14625
G1 X64.302 Y115.879 E31.17664
G1 X62.443 Y114.021 E31.26217
G1 X61.509 Y114.021 E31.29256
G1 X63.368 Y115.879 E31.37809
G1 X62.434 Y115.879 E31.40848
G1 X60.575 Y114.021 E31.49401
G1 X59.641 Y114.020 E31.52440
G1 X61.500 Y115.879 E31.60994
G1 X60.566 Y115.879 E31.64032
G1 X52.121 Y107.434 E32.02893
G1 X52.121 Y106.500 E32.05932
G1 X58.379 Y112.759 E32.34731
G1 X58.379 Y111.825 E32.37770
G1 X52.121 Y105.566 E32.66568
G1 X52.121 Y104.632 E32.69607
G1 X58.379 Y110.891 E32.98405
G1 X58.379 Y109.957 E33.01444
G1 X52.121 Y103.698 E33.30243
G1 X52.121 Y102.764 E33.33281
G1 X58.379 Y109.023 E33.62080
G1 X58.379 Y108.089 E33.65119
G1 X52.121 Y101.830 E33.93917
G1 X52.121 Y100.896 E33.96956
