; generated by Slic3r 0.9.8-dev on 2013-01-14 at 07:10:49

; layer_height = 0.4
; perimeters = 3
; top_solid_layers = 3
; bottom_solid_layers = 3
; fill_density = 0.40
; perimeter_speed = 30
; infill_speed = 60
; travel_speed = 130
; scale = 1
; nozzle_diameter = 0.5
; filament_diameter = 3
; extrusion_multiplier = 1
; perimeters extrusion width = 0.53mm
; infill extrusion width = 0.53mm
; first layer extrusion width = 0.80mm

M190 S60 ; wait for bed temperature to be reached
M104 S175 ; set temperature
G28 ; home all axes
G92 E0 ;reset extruder
M109 S175 ; wait for temperature to be reached
G90 ; use absolute coordinates
G21 ; set units to millimeters
G92 E0 ; reset extrusion distance
M82 ; use absolute distances for extrusion
G1 F1800.000 E-1.00000 ; retract
G1 Z1.400 ; move to next layer (0) and lift
G92 E0 ; reset extrusion distance
G1 X123.430 Y104.130 F7800.000 ; move to first skirt point
G1 Z0.400 ; restore layer Z
G1 F1800.000 E1.00000 ; compensate retraction
G1 X122.970 Y104.420 F900.000 E1.02264 ; skirt
G1 X122.490 Y104.680 E1.04536 ; skirt
G1 X121.730 Y104.980 E1.07937 ; skirt
G1 X121.210 Y105.130 E1.10190 ; skirt
G1 X120.680 Y105.240 E1.12443 ; skirt
G1 X120.410 Y105.280 E1.13580 ; skirt
G1 X119.600 Y105.330 E1.16958 ; skirt
G1 X80.400 Y105.330 E2.80138 ; skirt
G1 X79.590 Y105.280 E2.83516 ; skirt
G1 X79.050 Y105.190 E2.85795 ; skirt
G1 X78.530 Y105.060 E2.88026 ; skirt
G1 X78.010 Y104.890 E2.90304 ; skirt
G1 X77.510 Y104.680 E2.92561 ; skirt
G1 X76.800 Y104.280 E2.95954 ; skirt
G1 X76.140 Y103.810 E2.99326 ; skirt
G1 X75.540 Y103.260 E3.02715 ; skirt
G1 X75.020 Y102.640 E3.06083 ; skirt
G1 X74.570 Y101.960 E3.09477 ; skirt
G1 X74.310 Y101.480 E3.11750 ; skirt
G1 X74.200 Y101.230 E3.12887 ; skirt
G1 X73.930 Y100.460 E3.16284 ; skirt
G1 X73.800 Y99.940 E3.18515 ; skirt
G1 X73.710 Y99.400 E3.20794 ; skirt
G1 X73.660 Y98.590 E3.24172 ; skirt
G1 X73.660 Y79.400 E4.04055 ; skirt
G1 X73.710 Y78.590 E4.07433 ; skirt
G1 X73.800 Y78.050 E4.09712 ; skirt
G1 X74.010 Y77.270 E4.13075 ; skirt
G1 X74.310 Y76.510 E4.16476 ; skirt
G1 X74.570 Y76.030 E4.18749 ; skirt
G1 X74.860 Y75.570 E4.21012 ; skirt
G1 X75.180 Y75.140 E4.23243 ; skirt
G1 X75.360 Y74.930 E4.24395 ; skirt
G1 X75.730 Y74.540 E4.26633 ; skirt
G1 X76.350 Y74.020 E4.30001 ; skirt
G1 X76.800 Y73.710 E4.32276 ; skirt
G1 X77.510 Y73.310 E4.35668 ; skirt
G1 X78.270 Y73.010 E4.39069 ; skirt
G1 X78.790 Y72.860 E4.41322 ; skirt
G1 X79.320 Y72.750 E4.43576 ; skirt
G1 X79.590 Y72.710 E4.44712 ; skirt
G1 X80.400 Y72.660 E4.48090 ; skirt
G1 X119.600 Y72.660 E6.11270 ; skirt
G1 X120.410 Y72.710 E6.14648 ; skirt
G1 X120.950 Y72.800 E6.16927 ; skirt
G1 X121.470 Y72.930 E6.19158 ; skirt
G1 X121.990 Y73.100 E6.21436 ; skirt
G1 X122.490 Y73.310 E6.23693 ; skirt
G1 X123.200 Y73.710 E6.27086 ; skirt
G1 X123.860 Y74.180 E6.30458 ; skirt
G1 X124.460 Y74.730 E6.33847 ; skirt
G1 X124.980 Y75.350 E6.37215 ; skirt
G1 X125.430 Y76.030 E6.40610 ; skirt
G1 X125.690 Y76.510 E6.42882 ; skirt
G1 X125.800 Y76.760 E6.44019 ; skirt
G1 X126.070 Y77.530 E6.47416 ; skirt
G1 X126.200 Y78.050 E6.49647 ; skirt
G1 X126.290 Y78.590 E6.51926 ; skirt
G1 X126.340 Y79.400 E6.55304 ; skirt
G1 X126.340 Y98.590 E7.35187 ; skirt
G1 X126.290 Y99.400 E7.38566 ; skirt
G1 X126.200 Y99.940 E7.40844 ; skirt
G1 X125.990 Y100.720 E7.44207 ; skirt
G1 X125.690 Y101.480 E7.47608 ; skirt
G1 X125.430 Y101.960 E7.49881 ; skirt
G1 X124.980 Y102.640 E7.53275 ; skirt
G1 X124.460 Y103.260 E7.56644 ; skirt
G1 X123.860 Y103.810 E7.60032 ; skirt
G1 X123.519 Y104.065 E7.61804 ; skirt
G1 X123.430 Y104.130 E7.62263 ; skirt
G1 F1800.000 E6.62263 ; retract
G1 Z1.400 ; move to next layer (0) and lift
G92 E0 ; reset extrusion distance
G1 X117.936 Y96.936 F7800.000 ; move to first perimeter point
G1 Z0.400 ; restore layer Z
G1 F1800.000 E1.00000 ; compensate retraction
G1 X101.864 Y96.936 F900.000 E1.66901 ; perimeter
G1 X101.864 Y94.236 E1.78140 ; perimeter
G1 X98.136 Y94.236 E1.93662 ; perimeter
G1 X98.136 Y96.936 E2.04901 ; perimeter
G1 X82.064 Y96.936 E2.71802 ; perimeter
G1 X82.064 Y81.064 E3.37870 ; perimeter
G1 X98.136 Y81.064 E4.04771 ; perimeter
G1 X98.136 Y83.764 E4.16010 ; perimeter
G1 X101.864 Y83.764 E4.31532 ; perimeter
G1 X101.864 Y81.064 E4.42772 ; perimeter
G1 X117.936 Y81.064 E5.09672 ; perimeter
G1 X117.936 Y96.825 E5.75281 ; perimeter
G1 X117.936 Y96.936 E5.75740 ; perimeter
G1 X117.200 Y96.200 F7800.000 ; move to first perimeter point
G1 X102.600 Y96.200 F900.000 E6.36516 ; perimeter
G1 X102.600 Y81.800 E6.96460 ; perimeter
G1 X117.200 Y81.800 E7.57236 ; perimeter
G1 X117.200 Y96.090 E8.16721 ; perimeter
G1 X117.200 Y96.200 E8.17180 ; perimeter
G1 X117.200 Y96.936 F7800.000 ; move inwards before travel
G1 F1800.000 E7.17180 ; retract
G1 Z1.400 ; lift plate during travel
G92 E0 ; reset extrusion distance
G1 X101.000 Y93.500 F7800.000 ; move to first perimeter point
G1 Z0.400 ; restore layer Z
G1 F1800.000 E1.00000 ; compensate retraction
G1 X99.000 Y93.500 F720.000 E1.08326 ; perimeter
G1 X99.000 Y84.500 E1.45790 ; perimeter
G1 X101.000 Y84.500 E1.54116 ; perimeter
G1 X101.000 Y93.390 E1.91121 ; perimeter
G1 X101.000 Y93.500 E1.91581 ; perimeter
G1 X101.000 Y94.236 F7800.000 ; move inwards before travel
G1 F1800.000 E0.91581 ; retract
G1 Z1.400 ; lift plate during travel
G92 E0 ; reset extrusion distance
G1 X97.400 Y96.200 F7800.000 ; move to first perimeter point
G1 Z0.400 ; restore layer Z
G1 F1800.000 E1.00000 ; compensate retraction
G1 X82.800 Y96.200 F900.000 E1.60776 ; perimeter
G1 X82.800 Y81.800 E2.20720 ; perimeter
G1 X97.400 Y81.800 E2.81496 ; perimeter
G1 X97.400 Y96.090 E3.40980 ; perimeter
G1 X97.400 Y96.200 E3.41440 ; perimeter
G1 X97.400 Y96.936 F7800.000 ; move inwards before travel
G1 X98.871 Y97.129 ; move to first perimeter point
G1 X98.871 Y94.971 F720.000 E3.50421 ; perimeter
G1 X101.129 Y94.971 E3.59818 ; perimeter
G1 X101.129 Y97.129 E3.68799 ; perimeter
G1 X98.982 Y97.129 E3.77737 ; perimeter
G1 X98.871 Y97.129 E3.78196 ; perimeter
G1 F1800.000 E2.78196 ; retract
G1 Z1.400 ; lift plate during travel
G92 E0 ; reset extrusion distance
G1 X101.129 Y83.029 F7800.000 ; move to first perimeter point
G1 Z0.400 ; restore layer Z
G1 F1800.000 E1.00000 ; compensate retraction
G1 X98.871 Y83.029 F720.000 E1.09398 ; perimeter
G1 X98.871 Y80.871 E1.18379 ; perimeter
G1 X101.129 Y80.871 E1.27776 ; perimeter
G1 X101.129 Y82.918 E1.36298 ; perimeter
G1 X101.129 Y83.029 E1.36757 ; perimeter
G1 F1800.000 E0.36757 ; retract
G1 Z1.400 ; lift plate during travel
G92 E0 ; reset extrusion distance
G1 X118.864 Y80.136 F7800.000 ; move to first perimeter point
G1 Z0.400 ; restore layer Z
G1 F1800.000 E1.00000 ; compensate retraction
G1 X118.864 Y97.864 F900.000 E1.73800 ; perimeter
G1 X81.136 Y97.864 E3.30856 ; perimeter
G1 X81.136 Y80.136 E4.04656 ; perimeter
G1 X118.754 Y80.136 E5.61252 ; perimeter
G1 X118.864 Y80.136 E5.61711 ; perimeter
G1 X119.600 Y79.400 F7800.000 ; move to first perimeter point
G1 X119.600 Y98.600 F900.000 E6.41636 ; perimeter
G1 X80.400 Y98.600 E8.04816 ; perimeter
G1 X80.400 Y79.400 E8.84740 ; perimeter
G1 X119.490 Y79.400 E10.47461 ; perimeter
G1 X119.600 Y79.400 E10.47920 ; perimeter
G1 X119.232 Y80.037 F7800.000 ; move inwards before travel
G1 F1800.000 E9.47920 ; retract
G1 Z1.400 ; lift plate during travel
G92 E0 ; reset extrusion distance
G1 X100.194 Y96.515 F7800.000 ; move to first fill point
G1 Z0.400 ; restore layer Z
G1 F1800.000 E1.00000 ; compensate retraction
G1 X99.484 Y95.806 F600.000 E1.06324 ; fill
G1 F1800.000 E0.06324 ; retract
G1 Z1.400 ; lift plate during travel
G92 E0 ; reset extrusion distance
G1 X98.402 Y93.702 F7800.000 ; move to first fill point
G1 Z0.400 ; restore layer Z
G1 F1800.000 E1.00000 ; compensate retraction
G1 X97.934 Y93.234 F600.000 E1.02982 ; fill
G1 X98.466 Y92.641 E1.06568 ; fill
G1 X97.934 Y92.109 E1.09959 ; fill
G1 X98.466 Y91.516 E1.13545 ; fill
G1 X97.934 Y90.984 E1.16937 ; fill
G1 X98.466 Y90.391 E1.20523 ; fill
G1 X97.934 Y89.859 E1.23915 ; fill
G1 X98.466 Y89.266 E1.27501 ; fill
G1 X97.934 Y88.734 E1.30892 ; fill
G1 X98.466 Y88.141 E1.34478 ; fill
G1 X97.934 Y87.609 E1.37870 ; fill
G1 X98.466 Y87.016 E1.41456 ; fill
G1 X97.934 Y86.484 E1.44848 ; fill
G1 X98.466 Y85.891 E1.48434 ; fill
G1 X97.934 Y85.359 E1.51826 ; fill
G1 X98.466 Y84.766 E1.55412 ; fill
G1 X97.998 Y84.298 E1.58393 ; fill
G1 F1800.000 E0.58393 ; retract
G1 Z1.400 ; lift plate during travel
G92 E0 ; reset extrusion distance
G1 X102.002 Y93.702 F7800.000 ; move to first fill point
G1 Z0.400 ; restore layer Z
G1 F1800.000 E1.00000 ; compensate retraction
G1 X101.534 Y93.234 F600.000 E1.02982 ; fill
G1 X102.066 Y92.641 E1.06568 ; fill
G1 X101.534 Y92.109 E1.09959 ; fill
G1 X102.066 Y91.516 E1.13545 ; fill
G1 X101.534 Y90.984 E1.16937 ; fill
G1 X102.066 Y90.391 E1.20523 ; fill
G1 X101.534 Y89.859 E1.23915 ; fill
G1 X102.066 Y89.266 E1.27501 ; fill
G1 X101.534 Y88.734 E1.30892 ; fill
G1 X102.066 Y88.141 E1.34478 ; fill
G1 X101.534 Y87.609 E1.37870 ; fill
G1 X102.066 Y87.016 E1.41456 ; fill
G1 X101.534 Y86.484 E1.44848 ; fill
G1 X102.066 Y85.891 E1.48434 ; fill
G1 X101.534 Y85.359 E1.51826 ; fill
G1 X102.066 Y84.766 E1.55412 ; fill
G1 X101.598 Y84.298 E1.58393 ; fill
G1 F1800.000 E0.58393 ; retract
G1 Z1.400 ; lift plate during travel
G92 E0 ; reset extrusion distance
G1 X100.194 Y82.416 F7800.000 ; move to first fill point
G1 Z0.400 ; restore layer Z
G1 F1800.000 E1.00000 ; compensate retraction
G1 X99.484 Y81.706 F600.000 E1.06324 ; fill
G1 F1800.000 E0.06324 ; retract
G1 Z1.800 ; move to next layer (1) and lift
G92 E0 ; reset extrusion distance
G1 X98.302 Y80.898 F7800.000 ; move to first perimeter point
G1 Z0.800 ; restore layer Z
G1 F1800.000 E1.00000 ; compensate retraction
G1 X98.302 Y83.598 F1800.000 E1.07939 ; perimeter
G1 X101.698 Y83.598 E1.17927 ; perimeter
G1 X101.698 Y80.898 E1.25866 ; perimeter
G1 X118.102 Y80.898 E1.74101 ; perimeter
G1 X118.102 Y97.102 E2.21748 ; perimeter
G1 X101.698 Y97.102 E2.69984 ; perimeter
G1 X101.698 Y94.402 E2.77923 ; perimeter
G1 X98.302 Y94.402 E2.87910 ; perimeter
G1 X98.302 Y97.102 E2.95850 ; perimeter
G1 X81.898 Y97.102 E3.44085 ; perimeter
G1 X81.898 Y80.898 E3.91732 ; perimeter
G1 X98.224 Y80.898 E4.39738 ; perimeter
G1 X98.302 Y80.898 E4.39967 ; perimeter
G1 F1800.000 E3.39967 ; retract
G1 Z1.800 ; lift plate during travel
G92 E0 ; reset extrusion distance
G1 X102.218 Y81.418 F7800.000 ; move to first perimeter point
G1 Z0.800 ; restore layer Z
G1 F1800.000 E1.00000 ; compensate retraction
G1 X117.582 Y81.418 F1800.000 E1.45179 ; perimeter
G1 X117.582 Y96.582 E1.89770 ; perimeter
G1 X102.218 Y96.582 E2.34949 ; perimeter
G1 X102.218 Y81.496 E2.79311 ; perimeter
G1 X102.218 Y81.418 E2.79540 ; perimeter
G1 X102.737 Y81.937 F7800.000 ; move to first perimeter point
G1 X117.062 Y81.937 F1800.000 E3.21663 ; perimeter
G1 X117.062 Y96.062 E3.63198 ; perimeter
G1 X102.737 Y96.062 E4.05322 ; perimeter
G1 X102.737 Y82.015 E4.46627 ; perimeter
G1 X102.737 Y81.937 E4.46857 ; perimeter
G1 X102.737 Y81.418 F7800.000 ; move inwards before travel
G1 F1800.000 E3.46857 ; retract
G1 Z1.800 ; lift plate during travel
G92 E0 ; reset extrusion distance
G1 X101.382 Y84.118 F7800.000 ; move to first perimeter point
G1 Z0.800 ; restore layer Z
G1 F1800.000 E1.00000 ; compensate retraction
G1 X101.382 Y93.882 F1440.000 E1.28712 ; perimeter
G1 X98.618 Y93.882 E1.36841 ; perimeter
G1 X98.618 Y84.118 E1.65553 ; perimeter
G1 X101.304 Y84.118 E1.73452 ; perimeter
G1 X101.382 Y84.118 E1.73681 ; perimeter
G1 X100.862 Y84.637 F7800.000 ; move to first perimeter point
G1 X100.862 Y93.362 F1440.000 E1.99337 ; perimeter
G1 X99.137 Y93.362 E2.04410 ; perimeter
G1 X99.137 Y84.637 E2.30066 ; perimeter
G1 X100.785 Y84.637 E2.34909 ; perimeter
G1 X100.862 Y84.637 E2.35138 ; perimeter
G1 X101.382 Y84.637 F7800.000 ; move inwards before travel
G1 F1800.000 E1.35138 ; retract
G1 Z1.800 ; lift plate during travel
G92 E0 ; reset extrusion distance
G1 X97.782 Y81.418 F7800.000 ; move to first perimeter point
G1 Z0.800 ; restore layer Z
G1 F1800.000 E1.00000 ; compensate retraction
G1 X97.782 Y96.582 F1800.000 E1.44591 ; perimeter
G1 X82.418 Y96.582 E1.89770 ; perimeter
G1 X82.418 Y81.418 E2.34361 ; perimeter
G1 X97.704 Y81.418 E2.79311 ; perimeter
G1 X97.782 Y81.418 E2.79540 ; perimeter
G1 X97.263 Y81.937 F7800.000 ; move to first perimeter point
G1 X97.263 Y96.062 F1800.000 E3.21075 ; perimeter
G1 X82.937 Y96.062 E3.63198 ; perimeter
G1 X82.937 Y81.937 E4.04733 ; perimeter
G1 X97.185 Y81.937 E4.46627 ; perimeter
G1 X97.263 Y81.937 E4.46857 ; perimeter
G1 X97.782 Y81.937 F7800.000 ; move inwards before travel
G1 F1800.000 E3.46857 ; retract
G1 Z1.800 ; lift plate during travel
G92 E0 ; reset extrusion distance
G1 X118.698 Y80.302 F7800.000 ; move to first perimeter point
G1 Z0.800 ; restore layer Z
G1 F1800.000 E1.00000 ; compensate retraction
G1 X118.698 Y97.698 F1800.000 E1.51154 ; perimeter
G1 X81.302 Y97.698 E2.61120 ; perimeter
G1 X81.302 Y80.302 E3.12274 ; perimeter
G1 X118.620 Y80.302 E4.22010 ; perimeter
G1 X118.698 Y80.302 E4.22239 ; perimeter
G1 X119.218 Y79.782 F7800.000 ; move to first perimeter point
G1 X119.218 Y98.218 F1800.000 E4.76450 ; perimeter
G1 X80.782 Y98.218 E5.89471 ; perimeter
G1 X80.782 Y79.782 E6.43681 ; perimeter
G1 X119.140 Y79.782 E7.56473 ; perimeter
G1 X119.218 Y79.782 E7.56703 ; perimeter
G1 X119.737 Y79.263 F7800.000 ; move to first perimeter point
G1 X119.737 Y98.737 F1800.000 E8.13969 ; perimeter
G1 X80.263 Y98.737 E9.30047 ; perimeter
G1 X80.263 Y79.263 E9.87313 ; perimeter
G1 X119.660 Y79.263 E11.03161 ; perimeter
G1 X119.737 Y79.263 E11.03390 ; perimeter
G1 X119.478 Y79.713 F7800.000 ; move inwards before travel
G1 F1800.000 E10.03390 ; retract
G1 Z1.800 ; lift plate during travel
G92 E0 ; reset extrusion distance
G1 X101.344 Y97.013 F7800.000 ; move to first fill point
G1 Z0.800 ; restore layer Z
G1 F1800.000 E1.00000 ; compensate retraction
G1 X101.013 Y97.344 F3600.000 E1.01440 ; fill
G1 X100.244 Y97.344 E1.03807 ; fill
G1 X101.344 Y96.244 E1.08593 ; fill
G1 X101.344 Y95.475 E1.10960 ; fill
G1 X99.475 Y97.344 E1.19093 ; fill
G1 X98.706 Y97.344 E1.21460 ; fill
G1 X101.294 Y94.756 E1.32721 ; fill
G1 X100.525 Y94.756 E1.35088 ; fill
G1 X98.656 Y96.625 E1.43221 ; fill
G1 X98.656 Y95.856 E1.45588 ; fill
G1 X99.756 Y94.756 E1.50374 ; fill
G1 X98.987 Y94.756 E1.52740 ; fill
G1 X98.656 Y95.087 E1.54180 ; fill
G1 F1800.000 E0.54180 ; retract
G1 Z1.800 ; lift plate during travel
G92 E0 ; reset extrusion distance
G1 X101.927 Y93.911 F7800.000 ; move to first fill point
G1 Z0.800 ; restore layer Z
G1 F1800.000 E1.00000 ; compensate retraction
G1 X101.727 Y94.111 F1200.000 E1.00518 ; fill
G1 X101.673 Y93.706 E1.01265 ; fill
G1 X101.927 Y93.453 E1.01921 ; fill
G1 X101.673 Y93.248 E1.02518 ; fill
G1 X101.927 Y92.995 E1.03175 ; fill
G1 X101.673 Y92.790 E1.03771 ; fill
G1 X101.927 Y92.537 E1.04428 ; fill
G1 X101.673 Y92.332 E1.05024 ; fill
G1 X101.927 Y92.079 E1.05681 ; fill
G1 X101.673 Y91.874 E1.06278 ; fill
G1 X101.927 Y91.621 E1.06934 ; fill
G1 X101.673 Y91.416 E1.07531 ; fill
G1 X101.927 Y91.163 E1.08187 ; fill
G1 X101.673 Y90.958 E1.08784 ; fill
G1 X101.927 Y90.705 E1.09440 ; fill
G1 X101.673 Y90.501 E1.10037 ; fill
G1 X101.927 Y90.247 E1.10693 ; fill
G1 X101.673 Y90.043 E1.11290 ; fill
G1 X101.927 Y89.789 E1.11947 ; fill
G1 X101.673 Y89.585 E1.12543 ; fill
G1 X101.927 Y89.331 E1.13200 ; fill
G1 X101.673 Y89.127 E1.13796 ; fill
G1 X101.927 Y88.873 E1.14453 ; fill
G1 X101.673 Y88.669 E1.15049 ; fill
G1 X101.927 Y88.415 E1.15706 ; fill
G1 X101.673 Y88.211 E1.16303 ; fill
G1 X101.927 Y87.957 E1.16959 ; fill
G1 X101.673 Y87.753 E1.17556 ; fill
G1 X101.927 Y87.499 E1.18212 ; fill
G1 X101.673 Y87.295 E1.18809 ; fill
G1 X101.927 Y87.042 E1.19465 ; fill
G1 X101.673 Y86.837 E1.20062 ; fill
G1 X101.927 Y86.584 E1.20718 ; fill
G1 X101.673 Y86.379 E1.21315 ; fill
G1 X101.927 Y86.126 E1.21971 ; fill
G1 X101.673 Y85.921 E1.22568 ; fill
G1 X101.927 Y85.668 E1.23225 ; fill
G1 X101.673 Y85.463 E1.23821 ; fill
