; generated by Slic3r 0.9.8-dev on 2013-01-14 at 19:45:19

; layer_height = 0.4
; perimeters = 3
; top_solid_layers = 3
; bottom_solid_layers = 3
; fill_density = 0.40
; perimeter_speed = 30
; infill_speed = 60
; travel_speed = 130
; scale = 1
; nozzle_diameter = 0.5
; filament_diameter = 3
; extrusion_multiplier = 1
; perimeters extrusion width = 0.53mm
; infill extrusion width = 0.53mm
; first layer extrusion width = 0.80mm

M190 S60 ; wait for bed temperature to be reached
M104 S175 ; set temperature
G28 ; home all axes
G92 E0 ;reset extruder
M109 S175 ; wait for temperature to be reached
G90 ; use absolute coordinates
G21 ; set units to millimeters
G92 E0 ; reset extrusion distance
M82 ; use absolute distances for extrusion
G1 F1800.000 E-1.00000 ; retract
G1 Z1.400 ; move to next layer (0) and lift
G92 E0 ; reset extrusion distance
G1 X142.600 Y105.340 F7800.000 ; move to first skirt point
G1 Z0.400 ; restore layer Z
G1 F1800.000 E1.00000 ; compensate retraction
G1 X57.400 Y105.340 F900.000 E4.54667 ; skirt
G1 X56.590 Y105.290 E4.58045 ; skirt
G1 X56.320 Y105.250 E4.59181 ; skirt
G1 X55.790 Y105.140 E4.61434 ; skirt
G1 X55.010 Y104.900 E4.64832 ; skirt
G1 X54.510 Y104.690 E4.67089 ; skirt
G1 X54.030 Y104.430 E4.69362 ; skirt
G1 X53.570 Y104.140 E4.71625 ; skirt
G1 X53.140 Y103.820 E4.73856 ; skirt
G1 X52.730 Y103.460 E4.76128 ; skirt
G1 X52.180 Y102.860 E4.79516 ; skirt
G1 X51.710 Y102.200 E4.82889 ; skirt
G1 X51.310 Y101.490 E4.86281 ; skirt
G1 X51.010 Y100.730 E4.89682 ; skirt
G1 X50.860 Y100.210 E4.91935 ; skirt
G1 X50.750 Y99.680 E4.94189 ; skirt
G1 X50.710 Y99.410 E4.95325 ; skirt
G1 X50.660 Y98.600 E4.98703 ; skirt
G1 X50.670 Y79.130 E5.79752 ; skirt
G1 X50.710 Y78.590 E5.82006 ; skirt
G1 X50.800 Y78.050 E5.84285 ; skirt
G1 X51.010 Y77.270 E5.87647 ; skirt
G1 X51.200 Y76.760 E5.89913 ; skirt
G1 X51.310 Y76.510 E5.91050 ; skirt
G1 X51.570 Y76.030 E5.93322 ; skirt
G1 X51.860 Y75.570 E5.95586 ; skirt
G1 X52.180 Y75.140 E5.97817 ; skirt
G1 X52.540 Y74.730 E6.00088 ; skirt
G1 X53.140 Y74.180 E6.03477 ; skirt
G1 X53.570 Y73.860 E6.05708 ; skirt
G1 X54.030 Y73.570 E6.07972 ; skirt
G1 X54.510 Y73.310 E6.10244 ; skirt
G1 X55.010 Y73.100 E6.12501 ; skirt
G1 X55.790 Y72.860 E6.15899 ; skirt
G1 X56.590 Y72.710 E6.19287 ; skirt
G1 X57.130 Y72.670 E6.21541 ; skirt
G1 X142.600 Y72.660 E9.77332 ; skirt
G1 X143.410 Y72.710 E9.80710 ; skirt
G1 X143.680 Y72.750 E9.81846 ; skirt
G1 X144.210 Y72.860 E9.84099 ; skirt
G1 X144.990 Y73.100 E9.87496 ; skirt
G1 X145.490 Y73.310 E9.89754 ; skirt
G1 X145.970 Y73.570 E9.92026 ; skirt
G1 X146.430 Y73.860 E9.94290 ; skirt
G1 X146.860 Y74.180 E9.96521 ; skirt
G1 X147.270 Y74.540 E9.98793 ; skirt
G1 X147.820 Y75.140 E10.02181 ; skirt
G1 X148.290 Y75.800 E10.05554 ; skirt
G1 X148.690 Y76.510 E10.08946 ; skirt
G1 X148.990 Y77.270 E10.12347 ; skirt
G1 X149.140 Y77.790 E10.14600 ; skirt
G1 X149.250 Y78.320 E10.16853 ; skirt
G1 X149.290 Y78.590 E10.17990 ; skirt
G1 X149.340 Y79.400 E10.21368 ; skirt
G1 X149.330 Y98.870 E11.02417 ; skirt
G1 X149.290 Y99.410 E11.04671 ; skirt
G1 X149.140 Y100.210 E11.08059 ; skirt
G1 X148.900 Y100.990 E11.11456 ; skirt
G1 X148.690 Y101.490 E11.13714 ; skirt
G1 X148.430 Y101.970 E11.15986 ; skirt
G1 X148.140 Y102.430 E11.18250 ; skirt
G1 X147.820 Y102.860 E11.20481 ; skirt
G1 X147.270 Y103.460 E11.23869 ; skirt
G1 X146.860 Y103.820 E11.26140 ; skirt
G1 X146.430 Y104.140 E11.28372 ; skirt
G1 X145.970 Y104.430 E11.30635 ; skirt
G1 X145.490 Y104.690 E11.32908 ; skirt
G1 X145.240 Y104.800 E11.34045 ; skirt
G1 X144.730 Y104.990 E11.36310 ; skirt
G1 X143.950 Y105.200 E11.39673 ; skirt
G1 X143.410 Y105.290 E11.41952 ; skirt
G1 X142.710 Y105.336 E11.44871 ; skirt
G1 X142.600 Y105.340 E11.45330 ; skirt
G1 F1800.000 E10.45330 ; retract
G1 Z1.400 ; move to next layer (0) and lift
G92 E0 ; reset extrusion distance
G1 X140.936 Y96.936 F7800.000 ; move to first perimeter point
G1 Z0.400 ; restore layer Z
G1 F1800.000 E1.00000 ; compensate retraction
G1 X124.864 Y96.936 F900.000 E1.66901 ; perimeter
G1 X124.864 Y94.286 E1.77932 ; perimeter
G1 X121.136 Y94.286 E1.93454 ; perimeter
G1 X121.136 Y96.936 E2.04485 ; perimeter
G1 X105.064 Y96.936 E2.71386 ; perimeter
G1 X105.064 Y81.064 E3.37454 ; perimeter
G1 X121.136 Y81.064 E4.04354 ; perimeter
G1 X121.136 Y83.714 E4.15386 ; perimeter
G1 X124.864 Y83.714 E4.30908 ; perimeter
G1 X124.864 Y81.064 E4.41939 ; perimeter
G1 X140.936 Y81.064 E5.08840 ; perimeter
G1 X140.936 Y96.825 E5.74448 ; perimeter
G1 X140.936 Y96.936 E5.74908 ; perimeter
G1 X140.200 Y96.200 F7800.000 ; move to first perimeter point
G1 X125.600 Y96.200 F900.000 E6.35684 ; perimeter
G1 X125.600 Y81.800 E6.95628 ; perimeter
G1 X140.200 Y81.800 E7.56404 ; perimeter
G1 X140.200 Y96.090 E8.15888 ; perimeter
G1 X140.200 Y96.200 E8.16347 ; perimeter
G1 X140.200 Y96.936 F7800.000 ; move inwards before travel
G1 F1800.000 E7.16347 ; retract
G1 Z1.400 ; lift plate during travel
G92 E0 ; reset extrusion distance
G1 X124.050 Y93.550 F7800.000 ; move to first perimeter point
G1 Z0.400 ; restore layer Z
G1 F1800.000 E1.00000 ; compensate retraction
G1 X121.950 Y93.550 F720.000 E1.08742 ; perimeter
G1 X121.950 Y84.450 E1.46623 ; perimeter
G1 X124.050 Y84.450 E1.55365 ; perimeter
G1 X124.050 Y93.440 E1.92786 ; perimeter
G1 X124.050 Y93.550 E1.93246 ; perimeter
G1 X124.050 Y94.286 F7800.000 ; move inwards before travel
G1 F1800.000 E0.93246 ; retract
G1 Z1.400 ; lift plate during travel
G92 E0 ; reset extrusion distance
G1 X120.400 Y96.200 F7800.000 ; move to first perimeter point
G1 Z0.400 ; restore layer Z
G1 F1800.000 E1.00000 ; compensate retraction
G1 X105.800 Y96.200 F900.000 E1.60776 ; perimeter
G1 X105.800 Y81.800 E2.20720 ; perimeter
G1 X120.400 Y81.800 E2.81496 ; perimeter
G1 X120.400 Y96.090 E3.40980 ; perimeter
G1 X120.400 Y96.200 E3.41440 ; perimeter
G1 X120.400 Y96.936 F7800.000 ; move inwards before travel
G1 X121.871 Y97.129 ; move to first perimeter point
G1 X121.871 Y95.021 F720.000 E3.50213 ; perimeter
G1 X124.129 Y95.021 E3.59610 ; perimeter
G1 X124.129 Y97.129 E3.68383 ; perimeter
G1 X121.982 Y97.129 E3.77322 ; perimeter
G1 X121.871 Y97.129 E3.77781 ; perimeter
G1 F1800.000 E2.77781 ; retract
G1 Z1.400 ; lift plate during travel
G92 E0 ; reset extrusion distance
G1 X124.129 Y80.871 F7800.000 ; move to first perimeter point
G1 Z0.400 ; restore layer Z
G1 F1800.000 E1.00000 ; compensate retraction
G1 X124.129 Y82.979 F720.000 E1.08773 ; perimeter
G1 X121.871 Y82.979 E1.18171 ; perimeter
G1 X121.871 Y80.871 E1.26944 ; perimeter
G1 X124.018 Y80.871 E1.35882 ; perimeter
G1 X124.129 Y80.871 E1.36341 ; perimeter
G1 F1800.000 E0.36341 ; retract
G1 Z1.400 ; lift plate during travel
G92 E0 ; reset extrusion distance
G1 X141.864 Y80.136 F7800.000 ; move to first perimeter point
G1 Z0.400 ; restore layer Z
G1 F1800.000 E1.00000 ; compensate retraction
G1 X141.864 Y97.864 F900.000 E1.73800 ; perimeter
G1 X104.136 Y97.864 E3.30856 ; perimeter
G1 X104.136 Y80.136 E4.04657 ; perimeter
G1 X141.754 Y80.136 E5.61253 ; perimeter
G1 X141.864 Y80.136 E5.61712 ; perimeter
G1 X142.600 Y79.400 F7800.000 ; move to first perimeter point
G1 X142.600 Y98.600 F900.000 E6.41637 ; perimeter
G1 X103.400 Y98.600 E8.04817 ; perimeter
G1 X103.400 Y79.400 E8.84742 ; perimeter
G1 X142.490 Y79.400 E10.47462 ; perimeter
G1 X142.600 Y79.400 E10.47922 ; perimeter
G1 X142.232 Y80.037 F7800.000 ; move inwards before travel
G1 F1800.000 E9.47922 ; retract
G1 Z1.400 ; lift plate during travel
G92 E0 ; reset extrusion distance
G1 X123.194 Y96.516 F7800.000 ; move to first fill point
G1 Z0.400 ; restore layer Z
G1 F1800.000 E1.00000 ; compensate retraction
G1 X122.484 Y95.806 F600.000 E1.06324 ; fill
G1 F1800.000 E0.06324 ; retract
G1 Z1.400 ; lift plate during travel
G92 E0 ; reset extrusion distance
G1 X121.402 Y93.752 F7800.000 ; move to first fill point
G1 Z0.400 ; restore layer Z
G1 F1800.000 E1.00000 ; compensate retraction
G1 X120.934 Y93.284 F600.000 E1.02998 ; fill
G1 X121.416 Y92.635 E1.06658 ; fill
G1 X120.934 Y92.152 E1.09749 ; fill
G1 X121.416 Y91.504 E1.13408 ; fill
G1 X120.934 Y91.021 E1.16498 ; fill
G1 X121.416 Y90.373 E1.20158 ; fill
G1 X120.934 Y89.890 E1.23248 ; fill
G1 X121.416 Y89.241 E1.26907 ; fill
G1 X120.934 Y88.759 E1.29998 ; fill
G1 X121.416 Y88.110 E1.33657 ; fill
G1 X120.934 Y87.627 E1.36747 ; fill
G1 X121.416 Y86.979 E1.40407 ; fill
G1 X120.934 Y86.496 E1.43497 ; fill
G1 X121.416 Y85.848 E1.47156 ; fill
G1 X120.934 Y85.365 E1.50247 ; fill
G1 X121.416 Y84.716 E1.53907 ; fill
G1 X120.948 Y84.248 E1.56905 ; fill
G1 F1800.000 E0.56905 ; retract
G1 Z1.400 ; lift plate during travel
G92 E0 ; reset extrusion distance
G1 X125.052 Y93.752 F7800.000 ; move to first fill point
G1 Z0.400 ; restore layer Z
G1 F1800.000 E1.00000 ; compensate retraction
G1 X124.584 Y93.284 F600.000 E1.02998 ; fill
G1 X125.066 Y92.635 E1.06658 ; fill
G1 X124.584 Y92.152 E1.09749 ; fill
G1 X125.066 Y91.504 E1.13408 ; fill
G1 X124.584 Y91.021 E1.16498 ; fill
G1 X125.066 Y90.373 E1.20158 ; fill
G1 X124.584 Y89.890 E1.23248 ; fill
G1 X125.066 Y89.241 E1.26907 ; fill
G1 X124.584 Y88.759 E1.29998 ; fill
G1 X125.066 Y88.110 E1.33657 ; fill
G1 X124.584 Y87.627 E1.36747 ; fill
G1 X125.066 Y86.979 E1.40407 ; fill
G1 X124.584 Y86.496 E1.43497 ; fill
G1 X125.066 Y85.848 E1.47156 ; fill
G1 X124.584 Y85.365 E1.50247 ; fill
G1 X125.066 Y84.716 E1.53907 ; fill
G1 X124.598 Y84.248 E1.56905 ; fill
G1 F1800.000 E0.56905 ; retract
G1 Z1.400 ; lift plate during travel
G92 E0 ; reset extrusion distance
G1 X123.194 Y82.366 F7800.000 ; move to first fill point
G1 Z0.400 ; restore layer Z
G1 F1800.000 E1.00000 ; compensate retraction
G1 X122.484 Y81.656 F600.000 E1.06324 ; fill
G1 F1800.000 E0.06324 ; retract
G1 Z1.400 ; move to next layer (0) and lift
G92 E0 ; reset extrusion distance
G1 X59.064 Y81.064 F7800.000 ; move to first perimeter point
G1 Z0.400 ; restore layer Z
G1 F1800.000 E1.00000 ; compensate retraction
G1 X75.136 Y81.064 F900.000 E1.66901 ; perimeter
G1 X75.136 Y83.714 E1.77932 ; perimeter
G1 X78.864 Y83.714 E1.93454 ; perimeter
G1 X78.864 Y81.064 E2.04485 ; perimeter
G1 X94.936 Y81.064 E2.71386 ; perimeter
G1 X94.936 Y96.936 E3.37454 ; perimeter
G1 X78.864 Y96.936 E4.04354 ; perimeter
G1 X78.864 Y94.286 E4.15386 ; perimeter
G1 X75.136 Y94.286 E4.30908 ; perimeter
G1 X75.136 Y96.936 E4.41939 ; perimeter
G1 X59.064 Y96.936 E5.08840 ; perimeter
G1 X59.064 Y81.175 E5.74448 ; perimeter
G1 X59.064 Y81.064 E5.74908 ; perimeter
G1 F1800.000 E4.74908 ; retract
G1 Z1.400 ; lift plate during travel
G92 E0 ; reset extrusion distance
G1 X79.600 Y81.800 F7800.000 ; move to first perimeter point
G1 Z0.400 ; restore layer Z
G1 F1800.000 E1.00000 ; compensate retraction
G1 X94.200 Y81.800 F900.000 E1.60776 ; perimeter
G1 X94.200 Y96.200 E2.20720 ; perimeter
G1 X79.600 Y96.200 E2.81496 ; perimeter
G1 X79.600 Y81.910 E3.40980 ; perimeter
G1 X79.600 Y81.800 E3.41440 ; perimeter
G1 X79.600 Y81.064 F7800.000 ; move inwards before travel
G1 F1800.000 E2.41440 ; retract
G1 Z1.400 ; lift plate during travel
G92 E0 ; reset extrusion distance
G1 X78.050 Y84.450 F7800.000 ; move to first perimeter point
G1 Z0.400 ; restore layer Z
G1 F1800.000 E1.00000 ; compensate retraction
G1 X78.050 Y93.550 F720.000 E1.37881 ; perimeter
G1 X75.950 Y93.550 E1.46623 ; perimeter
G1 X75.950 Y84.450 E1.84504 ; perimeter
G1 X77.940 Y84.450 E1.92786 ; perimeter
G1 X78.050 Y84.450 E1.93246 ; perimeter
G1 X78.786 Y84.450 F7800.000 ; move inwards before travel
G1 F1800.000 E0.93246 ; retract
G1 Z1.400 ; lift plate during travel
G92 E0 ; reset extrusion distance
G1 X74.400 Y81.800 F7800.000 ; move to first perimeter point
G1 Z0.400 ; restore layer Z
G1 F1800.000 E1.00000 ; compensate retraction
G1 X74.400 Y96.200 F900.000 E1.59944 ; perimeter
G1 X59.800 Y96.200 E2.20720 ; perimeter
G1 X59.800 Y81.800 E2.80664 ; perimeter
G1 X74.290 Y81.800 E3.40980 ; perimeter
G1 X74.400 Y81.800 E3.41440 ; perimeter
G1 X75.136 Y81.800 F7800.000 ; move inwards before travel
G1 F1800.000 E2.41440 ; retract
G1 Z1.400 ; lift plate during travel
G92 E0 ; reset extrusion distance
G1 X75.871 Y95.021 F7800.000 ; move to first perimeter point
G1 Z0.400 ; restore layer Z
G1 F1800.000 E1.00000 ; compensate retraction
G1 X78.129 Y95.021 F720.000 E1.09398 ; perimeter
G1 X78.129 Y97.129 E1.18171 ; perimeter
G1 X75.871 Y97.129 E1.27568 ; perimeter
G1 X75.871 Y95.132 E1.35882 ; perimeter
G1 X75.871 Y95.021 E1.36341 ; perimeter
G1 F1800.000 E0.36341 ; retract
G1 Z1.400 ; lift plate during travel
G92 E0 ; reset extrusion distance
G1 X78.129 Y80.871 F7800.000 ; move to first perimeter point
G1 Z0.400 ; restore layer Z
G1 F1800.000 E1.00000 ; compensate retraction
G1 X78.129 Y82.979 F720.000 E1.08773 ; perimeter
G1 X75.871 Y82.979 E1.18171 ; perimeter
G1 X75.871 Y80.871 E1.26944 ; perimeter
G1 X78.018 Y80.871 E1.35882 ; perimeter
G1 X78.129 Y80.871 E1.36341 ; perimeter
G1 F1800.000 E0.36341 ; retract
G1 Z1.400 ; lift plate during travel
G92 E0 ; reset extrusion distance
G1 X95.864 Y80.136 F7800.000 ; move to first perimeter point
G1 Z0.400 ; restore layer Z
G1 F1800.000 E1.00000 ; compensate retraction
G1 X95.864 Y97.864 F900.000 E1.73800 ; perimeter
G1 X58.136 Y97.864 E3.30856 ; perimeter
G1 X58.136 Y80.136 E4.04657 ; perimeter
G1 X95.754 Y80.136 E5.61253 ; perimeter
G1 X95.864 Y80.136 E5.61712 ; perimeter
G1 X96.600 Y79.400 F7800.000 ; move to first perimeter point
G1 X96.600 Y98.600 F900.000 E6.41637 ; perimeter
G1 X57.400 Y98.600 E8.04817 ; perimeter
G1 X57.400 Y79.400 E8.84742 ; perimeter
G1 X96.490 Y79.400 E10.47462 ; perimeter
G1 X96.600 Y79.400 E10.47922 ; perimeter
G1 X96.232 Y80.037 F7800.000 ; move inwards before travel
G1 F1800.000 E9.47922 ; retract
G1 Z1.400 ; lift plate during travel
G92 E0 ; reset extrusion distance
G1 X77.194 Y96.516 F7800.000 ; move to first fill point
G1 Z0.400 ; restore layer Z
G1 F1800.000 E1.00000 ; compensate retraction
G1 X76.484 Y95.806 F600.000 E1.06324 ; fill
G1 F1800.000 E0.06324 ; retract
G1 Z1.400 ; lift plate during travel
G92 E0 ; reset extrusion distance
G1 X75.402 Y93.752 F7800.000 ; move to first fill point
G1 Z0.400 ; restore layer Z
G1 F1800.000 E1.00000 ; compensate retraction
G1 X74.934 Y93.284 F600.000 E1.02998 ; fill
G1 X75.416 Y92.635 E1.06658 ; fill
G1 X74.934 Y92.152 E1.09749 ; fill
G1 X75.416 Y91.504 E1.13408 ; fill
G1 X74.934 Y91.021 E1.16498 ; fill
G1 X75.416 Y90.373 E1.20158 ; fill
G1 X74.934 Y89.890 E1.23248 ; fill
G1 X75.416 Y89.241 E1.26907 ; fill
G1 X74.934 Y88.759 E1.29998 ; fill
G1 X75.416 Y88.110 E1.33657 ; fill
G1 X74.934 Y87.627 E1.36747 ; fill
G1 X75.416 Y86.979 E1.40407 ; fill
G1 X74.934 Y86.496 E1.43497 ; fill
G1 X75.416 Y85.848 E1.47156 ; fill
G1 X74.934 Y85.365 E1.50247 ; fill
G1 X75.416 Y84.716 E1.53907 ; fill
G1 X74.948 Y84.248 E1.56905 ; fill
G1 F1800.000 E0.56905 ; retract
G1 Z1.400 ; lift plate during travel
G92 E0 ; reset extrusion distance
G1 X79.052 Y93.752 F7800.000 ; move to first fill point
G1 Z0.400 ; restore layer Z
G1 F1800.000 E1.00000 ; compensate retraction
G1 X78.584 Y93.284 F600.000 E1.02998 ; fill
G1 X79.066 Y92.635 E1.06658 ; fill
G1 X78.584 Y92.152 E1.09749 ; fill
G1 X79.066 Y91.504 E1.13408 ; fill
G1 X78.584 Y91.021 E1.16498 ; fill
G1 X79.066 Y90.373 E1.20158 ; fill
G1 X78.584 Y89.890 E1.23248 ; fill
G1 X79.066 Y89.241 E1.26907 ; fill
G1 X78.584 Y88.759 E1.29998 ; fill
G1 X79.066 Y88.110 E1.33657 ; fill
G1 X78.584 Y87.627 E1.36747 ; fill
G1 X79.066 Y86.979 E1.40407 ; fill
G1 X78.584 Y86.496 E1.43497 ; fill
G1 X79.066 Y85.848 E1.47156 ; fill
G1 X78.584 Y85.365 E1.50247 ; fill
G1 X79.066 Y84.716 E1.53907 ; fill
G1 X78.598 Y84.248 E1.56905 ; fill
G1 F1800.000 E0.56905 ; retract
G1 Z1.400 ; lift plate during travel
G92 E0 ; reset extrusion distance
G1 X77.194 Y82.366 F7800.000 ; move to first fill point
G1 Z0.400 ; restore layer Z
G1 F1800.000 E1.00000 ; compensate retraction
G1 X76.484 Y81.656 F600.000 E1.06324 ; fill
G1 F1800.000 E0.06324 ; retract
G1 Z1.800 ; move to next layer (1) and lift
G92 E0 ; reset extrusion distance
G1 X141.102 Y80.898 F7800.000 ; move to first perimeter point
