; generated by Slic3r 0.9.8-dev on 2013-01-12 at 19:21:07

; layer_height = 0.4
; perimeters = 3
; top_solid_layers = 3
; bottom_solid_layers = 3
; fill_density = 0.40
; perimeter_speed = 30
; infill_speed = 60
; travel_speed = 130
; scale = 1
; nozzle_diameter = 0.5
; filament_diameter = 3
; extrusion_multiplier = 1
; perimeters extrusion width = 0.53mm
; infill extrusion width = 0.53mm
; first layer extrusion width = 0.80mm

M190 S60 ; wait for bed temperature to be reached
M104 S175 ; set temperature
G28 ; home all axes
G92 E0 ;reset extruder
M109 S175 ; wait for temperature to be reached
G90 ; use absolute coordinates
G21 ; set units to millimeters
G92 E0 ; reset extrusion distance
M82 ; use absolute distances for extrusion
G1 F1800.000 E-1.00000 ; retract
G1 Z1.400 ; move to next layer (0) and lift
G92 E0 ; reset extrusion distance
G1 X108.504 Y96.479 F7800.000 ; move to first skirt point
G1 Z0.400 ; restore layer Z
G1 F1800.000 E1.00000 ; compensate retraction
G1 X107.994 Y97.019 F900.000 E1.03092 ; skirt
G1 X107.574 Y97.419 E1.05506 ; skirt
G1 X106.874 Y97.999 E1.09291 ; skirt
G1 X106.404 Y98.339 E1.11705 ; skirt
G1 X105.744 Y98.759 E1.14962 ; skirt
G1 X105.244 Y99.039 E1.17347 ; skirt
G1 X104.394 Y99.439 E1.21258 ; skirt
G1 X103.854 Y99.649 E1.23670 ; skirt
G1 X103.044 Y99.899 E1.27199 ; skirt
G1 X102.484 Y100.039 E1.29601 ; skirt
G1 X101.794 Y100.179 E1.32532 ; skirt
G1 X101.224 Y100.259 E1.34928 ; skirt
G1 X100.284 Y100.329 E1.38852 ; skirt
G1 X99.704 Y100.329 E1.41267 ; skirt
G1 X98.764 Y100.259 E1.45190 ; skirt
G1 X98.194 Y100.179 E1.47586 ; skirt
G1 X97.504 Y100.039 E1.50517 ; skirt
G1 X96.944 Y99.899 E1.52920 ; skirt
G1 X96.134 Y99.649 E1.56449 ; skirt
G1 X95.594 Y99.439 E1.58861 ; skirt
G1 X94.744 Y99.039 E1.62771 ; skirt
G1 X94.244 Y98.759 E1.65157 ; skirt
G1 X93.584 Y98.339 E1.68413 ; skirt
G1 X93.114 Y97.999 E1.70828 ; skirt
G1 X92.414 Y97.419 E1.74612 ; skirt
G1 X91.994 Y97.019 E1.77027 ; skirt
G1 X91.484 Y96.479 E1.80119 ; skirt
G1 X91.114 Y96.039 E1.82512 ; skirt
G1 X90.584 Y95.299 E1.86301 ; skirt
G1 X90.274 Y94.809 E1.88715 ; skirt
G1 X89.894 Y94.129 E1.91957 ; skirt
G1 X89.644 Y93.609 E1.94359 ; skirt
G1 X89.274 Y92.679 E1.98526 ; skirt
G1 X89.104 Y92.129 E2.00922 ; skirt
G1 X88.934 Y91.419 E2.03961 ; skirt
G1 X88.824 Y90.849 E2.06378 ; skirt
G1 X88.714 Y90.039 E2.09780 ; skirt
G1 X88.674 Y89.469 E2.12159 ; skirt
G1 X88.674 Y88.539 E2.16030 ; skirt
G1 X88.714 Y87.959 E2.18450 ; skirt
G1 X88.824 Y87.139 E2.21894 ; skirt
G1 X88.934 Y86.569 E2.24311 ; skirt
G1 X89.104 Y85.859 E2.27350 ; skirt
G1 X89.274 Y85.309 E2.29747 ; skirt
G1 X89.644 Y84.379 E2.33913 ; skirt
G1 X89.894 Y83.859 E2.36315 ; skirt
G1 X90.274 Y83.179 E2.39557 ; skirt
G1 X90.584 Y82.689 E2.41971 ; skirt
G1 X91.114 Y81.949 E2.45760 ; skirt
G1 X91.484 Y81.509 E2.48153 ; skirt
G1 X91.994 Y80.969 E2.51245 ; skirt
G1 X92.414 Y80.569 E2.53660 ; skirt
G1 X93.114 Y79.989 E2.57444 ; skirt
G1 X93.584 Y79.649 E2.59859 ; skirt
G1 X94.244 Y79.229 E2.63115 ; skirt
G1 X94.744 Y78.949 E2.65501 ; skirt
G1 X95.594 Y78.549 E2.69411 ; skirt
G1 X96.134 Y78.339 E2.71823 ; skirt
G1 X96.944 Y78.089 E2.75352 ; skirt
G1 X97.504 Y77.949 E2.77755 ; skirt
G1 X98.314 Y77.789 E2.81192 ; skirt
G1 X98.884 Y77.719 E2.83582 ; skirt
G1 X99.704 Y77.669 E2.87002 ; skirt
G1 X100.284 Y77.669 E2.89417 ; skirt
G1 X101.104 Y77.719 E2.92836 ; skirt
G1 X101.674 Y77.789 E2.95227 ; skirt
G1 X102.484 Y77.949 E2.98664 ; skirt
G1 X103.044 Y78.089 E3.01067 ; skirt
G1 X103.854 Y78.339 E3.04596 ; skirt
G1 X104.394 Y78.549 E3.07007 ; skirt
G1 X105.244 Y78.949 E3.10918 ; skirt
G1 X105.744 Y79.229 E3.13304 ; skirt
G1 X106.404 Y79.649 E3.16560 ; skirt
G1 X106.874 Y79.989 E3.18975 ; skirt
G1 X107.574 Y80.569 E3.22759 ; skirt
G1 X107.994 Y80.969 E3.25173 ; skirt
G1 X108.504 Y81.509 E3.28265 ; skirt
G1 X108.874 Y81.949 E3.30659 ; skirt
G1 X109.404 Y82.689 E3.34448 ; skirt
G1 X109.714 Y83.179 E3.36861 ; skirt
G1 X110.094 Y83.859 E3.40104 ; skirt
G1 X110.344 Y84.379 E3.42506 ; skirt
G1 X110.674 Y85.199 E3.46185 ; skirt
G1 X110.854 Y85.749 E3.48594 ; skirt
G1 X111.084 Y86.689 E3.52623 ; skirt
G1 X111.184 Y87.259 E3.55032 ; skirt
G1 X111.274 Y87.959 E3.57970 ; skirt
G1 X111.314 Y88.539 E3.60390 ; skirt
G1 X111.314 Y89.469 E3.64261 ; skirt
G1 X111.274 Y90.039 E3.66640 ; skirt
G1 X111.184 Y90.729 E3.69536 ; skirt
G1 X111.084 Y91.299 E3.71945 ; skirt
G1 X110.854 Y92.239 E3.75974 ; skirt
G1 X110.674 Y92.789 E3.78383 ; skirt
G1 X110.344 Y93.609 E3.82062 ; skirt
G1 X110.094 Y94.129 E3.84464 ; skirt
G1 X109.714 Y94.809 E3.87707 ; skirt
G1 X109.404 Y95.299 E3.90120 ; skirt
G1 X108.874 Y96.039 E3.93909 ; skirt
G1 X108.575 Y96.394 E3.95843 ; skirt
G1 X108.504 Y96.479 E3.96303 ; skirt
G1 F1800.000 E2.96303 ; retract
G1 Z1.400 ; move to next layer (0) and lift
G92 E0 ; reset extrusion distance
G1 X101.932 Y90.815 F7800.000 ; move to first perimeter point
G1 Z0.400 ; restore layer Z
G1 F1800.000 E1.00000 ; compensate retraction
G1 X101.690 Y91.042 F720.000 E1.01386 ; perimeter
G1 X101.420 Y91.238 E1.02771 ; perimeter
G1 X101.129 Y91.399 E1.04157 ; perimeter
G1 X100.784 Y91.530 E1.05693 ; perimeter
G1 X100.497 Y91.604 E1.06927 ; perimeter
G1 X100.166 Y91.646 E1.08313 ; perimeter
G1 X99.834 Y91.646 E1.09699 ; perimeter
G1 X99.503 Y91.604 E1.11085 ; perimeter
G1 X99.181 Y91.521 E1.12471 ; perimeter
G1 X98.871 Y91.398 E1.13856 ; perimeter
G1 X98.580 Y91.238 E1.15242 ; perimeter
G1 X98.310 Y91.042 E1.16628 ; perimeter
G1 X98.068 Y90.815 E1.18013 ; perimeter
G1 X97.855 Y90.558 E1.19399 ; perimeter
G1 X97.677 Y90.277 E1.20785 ; perimeter
G1 X97.535 Y89.976 E1.22171 ; perimeter
G1 X97.432 Y89.659 E1.23556 ; perimeter
G1 X97.370 Y89.332 E1.24942 ; perimeter
G1 X97.349 Y89.000 E1.26328 ; perimeter
G1 X97.370 Y88.668 E1.27714 ; perimeter
G1 X97.432 Y88.341 E1.29099 ; perimeter
G1 X97.535 Y88.024 E1.30485 ; perimeter
G1 X97.677 Y87.723 E1.31871 ; perimeter
G1 X97.855 Y87.442 E1.33256 ; perimeter
G1 X98.068 Y87.185 E1.34642 ; perimeter
G1 X98.310 Y86.958 E1.36028 ; perimeter
G1 X98.580 Y86.762 E1.37414 ; perimeter
G1 X98.871 Y86.602 E1.38799 ; perimeter
G1 X99.181 Y86.479 E1.40185 ; perimeter
G1 X99.503 Y86.396 E1.41571 ; perimeter
G1 X99.834 Y86.354 E1.42957 ; perimeter
G1 X100.166 Y86.354 E1.44342 ; perimeter
G1 X100.497 Y86.396 E1.45728 ; perimeter
G1 X100.784 Y86.470 E1.46962 ; perimeter
G1 X101.129 Y86.601 E1.48499 ; perimeter
G1 X101.420 Y86.762 E1.49884 ; perimeter
G1 X101.690 Y86.958 E1.51270 ; perimeter
G1 X101.932 Y87.185 E1.52656 ; perimeter
G1 X102.145 Y87.442 E1.54041 ; perimeter
G1 X102.323 Y87.723 E1.55427 ; perimeter
G1 X102.465 Y88.024 E1.56813 ; perimeter
G1 X102.568 Y88.341 E1.58199 ; perimeter
G1 X102.630 Y88.668 E1.59584 ; perimeter
G1 X102.651 Y89.000 E1.60970 ; perimeter
G1 X102.630 Y89.332 E1.62356 ; perimeter
G1 X102.568 Y89.659 E1.63742 ; perimeter
G1 X102.465 Y89.976 E1.65127 ; perimeter
G1 X102.323 Y90.277 E1.66513 ; perimeter
G1 X102.145 Y90.558 E1.67899 ; perimeter
G1 X102.003 Y90.730 E1.68825 ; perimeter
G1 X101.932 Y90.815 E1.69285 ; perimeter
G1 X102.130 Y91.523 F7800.000 ; move inwards before travel
G1 X102.932 Y92.544 ; move to first perimeter point
G1 X102.464 Y92.883 F720.000 E1.71689 ; perimeter
G1 X101.958 Y93.161 E1.74093 ; perimeter
G1 X101.421 Y93.374 E1.76498 ; perimeter
G1 X100.862 Y93.518 E1.78902 ; perimeter
G1 X100.289 Y93.590 E1.81306 ; perimeter
G1 X99.711 Y93.590 E1.83710 ; perimeter
G1 X99.138 Y93.518 E1.86115 ; perimeter
G1 X98.579 Y93.374 E1.88519 ; perimeter
G1 X98.042 Y93.161 E1.90923 ; perimeter
G1 X97.536 Y92.883 E1.93328 ; perimeter
G1 X97.068 Y92.544 E1.95732 ; perimeter
G1 X96.647 Y92.148 E1.98136 ; perimeter
G1 X96.279 Y91.703 E2.00540 ; perimeter
G1 X95.970 Y91.216 E2.02945 ; perimeter
G1 X95.724 Y90.693 E2.05349 ; perimeter
G1 X95.545 Y90.144 E2.07753 ; perimeter
G1 X95.437 Y89.576 E2.10158 ; perimeter
G1 X95.401 Y89.000 E2.12562 ; perimeter
G1 X95.437 Y88.424 E2.14966 ; perimeter
G1 X95.545 Y87.856 E2.17371 ; perimeter
G1 X95.724 Y87.307 E2.19775 ; perimeter
G1 X95.970 Y86.784 E2.22179 ; perimeter
G1 X96.279 Y86.297 E2.24583 ; perimeter
G1 X96.647 Y85.852 E2.26988 ; perimeter
G1 X97.068 Y85.456 E2.29392 ; perimeter
G1 X97.536 Y85.117 E2.31796 ; perimeter
G1 X98.042 Y84.839 E2.34201 ; perimeter
G1 X98.579 Y84.626 E2.36605 ; perimeter
G1 X99.138 Y84.482 E2.39009 ; perimeter
G1 X99.711 Y84.410 E2.41413 ; perimeter
G1 X100.289 Y84.410 E2.43818 ; perimeter
G1 X100.862 Y84.482 E2.46222 ; perimeter
G1 X101.421 Y84.626 E2.48626 ; perimeter
G1 X101.958 Y84.839 E2.51031 ; perimeter
G1 X102.464 Y85.117 E2.53435 ; perimeter
G1 X102.932 Y85.456 E2.55839 ; perimeter
G1 X103.353 Y85.852 E2.58244 ; perimeter
G1 X103.721 Y86.297 E2.60648 ; perimeter
G1 X104.030 Y86.784 E2.63052 ; perimeter
G1 X104.276 Y87.307 E2.65457 ; perimeter
G1 X104.455 Y87.856 E2.67861 ; perimeter
G1 X104.563 Y88.424 E2.70265 ; perimeter
G1 X104.599 Y89.000 E2.72669 ; perimeter
G1 X104.563 Y89.576 E2.75074 ; perimeter
G1 X104.455 Y90.144 E2.77478 ; perimeter
G1 X104.276 Y90.693 E2.79882 ; perimeter
G1 X104.030 Y91.216 E2.82287 ; perimeter
G1 X103.721 Y91.703 E2.84691 ; perimeter
G1 X103.353 Y92.148 E2.87095 ; perimeter
G1 X103.012 Y92.468 E2.89040 ; perimeter
G1 X102.932 Y92.544 E2.89499 ; perimeter
G1 F1800.000 E1.89499 ; retract
G1 Z1.400 ; lift plate during travel
G92 E0 ; reset extrusion distance
G1 X97.711 Y91.841 F7800.000 ; move to first fill point
G1 Z0.400 ; restore layer Z
G1 F1800.000 E1.00000 ; compensate retraction
G1 X96.028 Y88.448 F600.000 E1.25915 ; fill
G1 X97.092 Y87.802 E1.34432 ; fill
G1 X96.376 Y87.086 E1.41360 ; fill
G1 X97.083 Y86.083 E1.49758 ; fill
G1 X97.798 Y86.798 E1.56683 ; fill
G1 X98.797 Y86.087 E1.65074 ; fill
G1 X98.082 Y85.371 E1.72001 ; fill
G1 X99.443 Y85.023 E1.81619 ; fill
G1 X100.161 Y85.741 E1.88570 ; fill
G1 X102.289 Y86.159 E2.03406 ; fill
G1 X103.972 Y89.552 E2.29321 ; fill
G1 X102.908 Y90.198 E2.37838 ; fill
G1 X103.624 Y90.914 E2.44766 ; fill
G1 X102.917 Y91.917 E2.53164 ; fill
G1 X102.202 Y91.202 E2.60088 ; fill
G1 X101.203 Y91.913 E2.68480 ; fill
G1 X101.918 Y92.629 E2.75407 ; fill
G1 X100.557 Y92.977 E2.85024 ; fill
G1 X99.839 Y92.259 E2.91975 ; fill
G1 F1800.000 E1.91975 ; retract
G1 Z1.800 ; move to next layer (1) and lift
G92 E0 ; reset extrusion distance
G1 X99.810 Y92.028 F7800.000 ; move to first perimeter point
G1 Z0.800 ; restore layer Z
G1 F1800.000 E1.00000 ; compensate retraction
G1 X99.351 Y91.959 F1440.000 E1.01363 ; perimeter
G1 X99.063 Y91.885 E1.02239 ; perimeter
G1 X98.708 Y91.745 E1.03359 ; perimeter
G1 X98.374 Y91.561 E1.04479 ; perimeter
G1 X98.066 Y91.337 E1.05600 ; perimeter
G1 X97.789 Y91.077 E1.06720 ; perimeter
G1 X97.501 Y90.713 E1.08083 ; perimeter
G1 X97.342 Y90.461 E1.08959 ; perimeter
G1 X97.179 Y90.117 E1.10079 ; perimeter
G1 X97.062 Y89.754 E1.11199 ; perimeter
G1 X96.990 Y89.380 E1.12320 ; perimeter
G1 X96.966 Y89.000 E1.13440 ; perimeter
G1 X96.990 Y88.620 E1.14560 ; perimeter
G1 X97.062 Y88.246 E1.15681 ; perimeter
G1 X97.179 Y87.883 E1.16801 ; perimeter
G1 X97.342 Y87.539 E1.17921 ; perimeter
G1 X97.501 Y87.287 E1.18797 ; perimeter
G1 X97.789 Y86.923 E1.20160 ; perimeter
G1 X98.066 Y86.663 E1.21280 ; perimeter
G1 X98.374 Y86.439 E1.22400 ; perimeter
G1 X98.708 Y86.255 E1.23521 ; perimeter
G1 X99.063 Y86.115 E1.24641 ; perimeter
G1 X99.351 Y86.041 E1.25517 ; perimeter
G1 X99.810 Y85.972 E1.26880 ; perimeter
G1 X100.190 Y85.972 E1.28000 ; perimeter
G1 X100.486 Y86.010 E1.28876 ; perimeter
G1 X100.937 Y86.115 E1.30239 ; perimeter
G1 X101.292 Y86.255 E1.31359 ; perimeter
G1 X101.626 Y86.439 E1.32480 ; perimeter
G1 X101.934 Y86.663 E1.33600 ; perimeter
G1 X102.211 Y86.923 E1.34720 ; perimeter
G1 X102.454 Y87.217 E1.35840 ; perimeter
G1 X102.658 Y87.539 E1.36961 ; perimeter
G1 X102.821 Y87.883 E1.38081 ; perimeter
G1 X102.938 Y88.246 E1.39201 ; perimeter
G1 X103.010 Y88.620 E1.40322 ; perimeter
G1 X103.034 Y89.000 E1.41442 ; perimeter
G1 X103.010 Y89.380 E1.42562 ; perimeter
G1 X102.938 Y89.754 E1.43682 ; perimeter
G1 X102.821 Y90.117 E1.44803 ; perimeter
G1 X102.658 Y90.461 E1.45923 ; perimeter
G1 X102.454 Y90.783 E1.47043 ; perimeter
G1 X102.211 Y91.077 E1.48163 ; perimeter
G1 X101.934 Y91.337 E1.49284 ; perimeter
G1 X101.626 Y91.561 E1.50404 ; perimeter
G1 X101.292 Y91.745 E1.51524 ; perimeter
G1 X100.937 Y91.885 E1.52644 ; perimeter
G1 X100.568 Y91.980 E1.53765 ; perimeter
G1 X100.190 Y92.028 E1.54885 ; perimeter
G1 X99.887 Y92.028 E1.55776 ; perimeter
G1 X99.810 Y92.028 E1.56005 ; perimeter
G1 X99.842 Y91.508 F7800.000 ; move to first perimeter point
G1 X99.480 Y91.456 F1440.000 E1.57080 ; perimeter
G1 X99.223 Y91.390 E1.57860 ; perimeter
G1 X98.930 Y91.274 E1.58788 ; perimeter
G1 X98.653 Y91.122 E1.59716 ; perimeter
G1 X98.398 Y90.936 E1.60644 ; perimeter
G1 X98.168 Y90.720 E1.61572 ; perimeter
G1 X97.967 Y90.477 E1.62500 ; perimeter
G1 X97.798 Y90.211 E1.63428 ; perimeter
G1 X97.663 Y89.925 E1.64356 ; perimeter
G1 X97.566 Y89.625 E1.65284 ; perimeter
G1 X97.507 Y89.315 E1.66212 ; perimeter
G1 X97.487 Y89.000 E1.67140 ; perimeter
G1 X97.507 Y88.685 E1.68068 ; perimeter
G1 X97.566 Y88.375 E1.68996 ; perimeter
G1 X97.663 Y88.075 E1.69924 ; perimeter
G1 X97.798 Y87.789 E1.70852 ; perimeter
G1 X97.967 Y87.523 E1.71780 ; perimeter
G1 X98.168 Y87.280 E1.72708 ; perimeter
G1 X98.398 Y87.064 E1.73636 ; perimeter
G1 X98.653 Y86.878 E1.74564 ; perimeter
G1 X98.930 Y86.726 E1.75492 ; perimeter
G1 X99.223 Y86.610 E1.76420 ; perimeter
G1 X99.480 Y86.544 E1.77200 ; perimeter
G1 X99.842 Y86.492 E1.78275 ; perimeter
G1 X100.158 Y86.492 E1.79203 ; perimeter
G1 X100.421 Y86.525 E1.79983 ; perimeter
G1 X100.777 Y86.610 E1.81058 ; perimeter
G1 X101.070 Y86.726 E1.81986 ; perimeter
G1 X101.347 Y86.878 E1.82914 ; perimeter
G1 X101.602 Y87.064 E1.83842 ; perimeter
G1 X101.832 Y87.280 E1.84770 ; perimeter
G1 X102.033 Y87.523 E1.85698 ; perimeter
G1 X102.202 Y87.789 E1.86626 ; perimeter
G1 X102.337 Y88.075 E1.87554 ; perimeter
G1 X102.434 Y88.375 E1.88482 ; perimeter
G1 X102.493 Y88.685 E1.89410 ; perimeter
G1 X102.513 Y89.000 E1.90338 ; perimeter
G1 X102.493 Y89.315 E1.91266 ; perimeter
G1 X102.434 Y89.625 E1.92194 ; perimeter
G1 X102.337 Y89.925 E1.93122 ; perimeter
G1 X102.202 Y90.211 E1.94050 ; perimeter
G1 X102.033 Y90.477 E1.94978 ; perimeter
G1 X101.832 Y90.720 E1.95906 ; perimeter
G1 X101.602 Y90.936 E1.96834 ; perimeter
G1 X101.347 Y91.122 E1.97762 ; perimeter
G1 X101.070 Y91.274 E1.98690 ; perimeter
G1 X100.777 Y91.390 E1.99618 ; perimeter
G1 X100.471 Y91.469 E2.00546 ; perimeter
G1 X100.158 Y91.508 E2.01474 ; perimeter
G1 X99.920 Y91.508 E2.02173 ; perimeter
G1 X99.842 Y91.508 E2.02402 ; perimeter
G1 X99.541 Y91.931 F7800.000 ; move inwards before travel
G1 F1800.000 E1.02402 ; retract
G1 Z1.800 ; lift plate during travel
G92 E0 ; reset extrusion distance
G1 X103.920 Y90.552 F7800.000 ; move to first perimeter point
G1 Z0.800 ; restore layer Z
G1 F1800.000 E1.00000 ; compensate retraction
G1 X103.671 Y91.069 F1440.000 E1.01688 ; perimeter
G1 X103.411 Y91.478 E1.03113 ; perimeter
G1 X103.074 Y91.886 E1.04670 ; perimeter
G1 X102.688 Y92.249 E1.06227 ; perimeter
G1 X102.259 Y92.560 E1.07784 ; perimeter
G1 X101.795 Y92.815 E1.09341 ; perimeter
G1 X101.303 Y93.010 E1.10898 ; perimeter
G1 X100.790 Y93.142 E1.12455 ; perimeter
G1 X100.265 Y93.208 E1.14012 ; perimeter
G1 X99.735 Y93.208 E1.15569 ; perimeter
G1 X99.210 Y93.142 E1.17126 ; perimeter
G1 X98.697 Y93.010 E1.18683 ; perimeter
G1 X98.205 Y92.815 E1.20240 ; perimeter
G1 X97.741 Y92.560 E1.21797 ; perimeter
G1 X97.312 Y92.249 E1.23354 ; perimeter
G1 X96.926 Y91.886 E1.24911 ; perimeter
G1 X96.589 Y91.478 E1.26468 ; perimeter
G1 X96.305 Y91.031 E1.28025 ; perimeter
G1 X96.080 Y90.552 E1.29582 ; perimeter
G1 X95.916 Y90.049 E1.31139 ; perimeter
G1 X95.817 Y89.528 E1.32696 ; perimeter
G1 X95.784 Y89.000 E1.34253 ; perimeter
G1 X95.817 Y88.472 E1.35810 ; perimeter
G1 X95.916 Y87.951 E1.37367 ; perimeter
G1 X96.066 Y87.491 E1.38791 ; perimeter
G1 X96.305 Y86.969 E1.40480 ; perimeter
G1 X96.589 Y86.522 E1.42037 ; perimeter
