; generated by Slic3r 0.9.8-dev on 2013-01-09 at 18:39:51

; layer_height = 0.4
; perimeters = 3
; top_solid_layers = 3
; bottom_solid_layers = 3
; fill_density = 0.40
; perimeter_speed = 30
; infill_speed = 60
; travel_speed = 130
; scale = 1
; nozzle_diameter = 0.5
; filament_diameter = 3
; extrusion_multiplier = 1
; perimeters extrusion width = 0.53mm
; infill extrusion width = 0.53mm
; first layer extrusion width = 0.80mm

M190 S60 ; wait for bed temperature to be reached
M104 S180 ; set temperature
G28 ; home all axes
G92 E0 ;reset extruder
M109 S180 ; wait for temperature to be reached
G90 ; use absolute coordinates
G21 ; set units to millimeters
G92 E0 ; reset extrusion distance
M82 ; use absolute distances for extrusion
G1 F1800.000 E-1.00000 ; retract
G1 Z0.900 ; move to next layer (0) and lift
G92 E0 ; reset extrusion distance
G1 X122.340 Y121.046 F7800.000 ; move to first skirt point
G1 Z0.400 ; restore layer Z
G1 F1800.000 E1.00000 ; compensate retraction
G1 X122.290 Y121.856 F540.000 E1.03378 ; skirt
G1 X122.200 Y122.396 E1.05657 ; skirt
G1 X121.990 Y123.176 E1.09020 ; skirt
G1 X121.800 Y123.686 E1.11285 ; skirt
G1 X121.690 Y123.936 E1.12422 ; skirt
G1 X121.430 Y124.416 E1.14695 ; skirt
G1 X121.140 Y124.876 E1.16958 ; skirt
G1 X120.820 Y125.306 E1.19190 ; skirt
G1 X120.460 Y125.716 E1.21461 ; skirt
G1 X119.860 Y126.266 E1.24849 ; skirt
G1 X119.430 Y126.586 E1.27080 ; skirt
G1 X118.970 Y126.876 E1.29344 ; skirt
G1 X118.490 Y127.136 E1.31616 ; skirt
G1 X118.240 Y127.246 E1.32753 ; skirt
G1 X117.730 Y127.436 E1.35019 ; skirt
G1 X116.950 Y127.646 E1.38381 ; skirt
G1 X116.410 Y127.736 E1.40660 ; skirt
G1 X115.600 Y127.786 E1.44039 ; skirt
G1 X84.400 Y127.786 E2.73917 ; skirt
G1 X83.590 Y127.736 E2.77295 ; skirt
G1 X83.320 Y127.696 E2.78431 ; skirt
G1 X82.790 Y127.586 E2.80684 ; skirt
G1 X82.010 Y127.346 E2.84081 ; skirt
G1 X81.510 Y127.136 E2.86339 ; skirt
G1 X81.030 Y126.876 E2.88611 ; skirt
G1 X80.570 Y126.586 E2.90875 ; skirt
G1 X80.140 Y126.266 E2.93106 ; skirt
G1 X79.730 Y125.906 E2.95378 ; skirt
G1 X79.180 Y125.306 E2.98766 ; skirt
G1 X78.860 Y124.876 E3.00997 ; skirt
G1 X78.570 Y124.416 E3.03261 ; skirt
G1 X78.310 Y123.936 E3.05533 ; skirt
G1 X78.100 Y123.436 E3.07791 ; skirt
G1 X77.860 Y122.656 E3.11188 ; skirt
G1 X77.750 Y122.126 E3.13441 ; skirt
G1 X77.710 Y121.856 E3.14577 ; skirt
G1 X77.660 Y121.046 E3.17955 ; skirt
G1 X77.660 Y89.506 E4.49249 ; skirt
G1 X77.710 Y88.696 E4.52627 ; skirt
G1 X77.750 Y88.426 E4.53763 ; skirt
G1 X77.860 Y87.896 E4.56017 ; skirt
G1 X78.100 Y87.116 E4.59414 ; skirt
G1 X78.310 Y86.616 E4.61671 ; skirt
G1 X78.570 Y86.136 E4.63944 ; skirt
G1 X78.860 Y85.676 E4.66207 ; skirt
G1 X79.180 Y85.246 E4.68438 ; skirt
G1 X79.540 Y84.836 E4.70710 ; skirt
G1 X80.140 Y84.286 E4.74098 ; skirt
G1 X80.570 Y83.966 E4.76329 ; skirt
G1 X81.030 Y83.676 E4.78593 ; skirt
G1 X81.510 Y83.416 E4.80865 ; skirt
G1 X82.010 Y83.206 E4.83123 ; skirt
G1 X82.790 Y82.966 E4.86520 ; skirt
G1 X83.320 Y82.856 E4.88773 ; skirt
G1 X83.590 Y82.816 E4.89909 ; skirt
G1 X84.400 Y82.766 E4.93288 ; skirt
G1 X115.870 Y82.776 E6.24290 ; skirt
G1 X116.410 Y82.816 E6.26544 ; skirt
G1 X117.210 Y82.966 E6.29932 ; skirt
G1 X117.990 Y83.206 E6.33329 ; skirt
G1 X118.490 Y83.416 E6.35587 ; skirt
G1 X118.970 Y83.676 E6.37859 ; skirt
G1 X119.430 Y83.966 E6.40123 ; skirt
G1 X119.860 Y84.286 E6.42354 ; skirt
G1 X120.460 Y84.836 E6.45742 ; skirt
G1 X120.820 Y85.246 E6.48013 ; skirt
G1 X121.140 Y85.676 E6.50245 ; skirt
G1 X121.430 Y86.136 E6.52508 ; skirt
G1 X121.690 Y86.616 E6.54781 ; skirt
G1 X121.800 Y86.866 E6.55918 ; skirt
G1 X121.990 Y87.376 E6.58183 ; skirt
G1 X122.200 Y88.156 E6.61546 ; skirt
G1 X122.290 Y88.696 E6.63825 ; skirt
G1 X122.330 Y89.236 E6.66079 ; skirt
G1 X122.340 Y120.935 E7.98037 ; skirt
G1 X122.340 Y121.046 E7.98496 ; skirt
G1 F1800.000 E6.98496 ; retract
G1 Z0.900 ; lift plate during travel
G92 E0 ; reset extrusion distance
G1 X103.886 Y107.698 F7800.000 ; move to first perimeter point
G1 Z0.400 ; restore layer Z
G1 F1800.000 E1.00000 ; compensate retraction
G1 X103.173 Y108.628 F324.000 E1.04877 ; perimeter
G1 X102.244 Y109.341 E1.09753 ; perimeter
G1 X101.161 Y109.789 E1.14630 ; perimeter
G1 X100.000 Y109.942 E1.19506 ; perimeter
G1 X98.839 Y109.789 E1.24383 ; perimeter
G1 X97.756 Y109.341 E1.29259 ; perimeter
G1 X96.827 Y108.628 E1.34135 ; perimeter
G1 X96.114 Y107.698 E1.39012 ; perimeter
G1 X95.666 Y106.616 E1.43888 ; perimeter
G1 X95.513 Y105.454 E1.48765 ; perimeter
G1 X95.666 Y104.293 E1.53641 ; perimeter
G1 X96.114 Y103.211 E1.58517 ; perimeter
G1 X96.827 Y102.281 E1.63394 ; perimeter
G1 X97.543 Y101.732 E1.67151 ; perimeter
G1 X97.756 Y101.568 E1.68270 ; perimeter
G1 X98.839 Y101.120 E1.73147 ; perimeter
G1 X100.000 Y100.967 E1.78023 ; perimeter
G1 X100.895 Y101.085 E1.81781 ; perimeter
G1 X101.162 Y101.120 E1.82900 ; perimeter
G1 X102.244 Y101.568 E1.87776 ; perimeter
G1 X103.173 Y102.281 E1.92652 ; perimeter
G1 X103.886 Y103.211 E1.97529 ; perimeter
G1 X104.334 Y104.293 E2.02405 ; perimeter
G1 X104.487 Y105.455 E2.07282 ; perimeter
G1 X104.334 Y106.616 E2.12159 ; perimeter
G1 X103.928 Y107.596 E2.16575 ; perimeter
G1 X103.886 Y107.698 E2.17034 ; perimeter
G1 X103.244 Y107.327 F7800.000 ; move to first perimeter point
G1 X102.648 Y108.103 F324.000 E2.21105 ; perimeter
G1 X101.873 Y108.698 E2.25175 ; perimeter
G1 X100.969 Y109.072 E2.29245 ; perimeter
G1 X100.000 Y109.200 E2.33315 ; perimeter
G1 X99.031 Y109.072 E2.37385 ; perimeter
G1 X98.127 Y108.698 E2.41455 ; perimeter
G1 X97.352 Y108.103 E2.45525 ; perimeter
G1 X96.756 Y107.327 E2.49596 ; perimeter
G1 X96.382 Y106.424 E2.53666 ; perimeter
G1 X96.255 Y105.454 E2.57736 ; perimeter
G1 X96.382 Y104.485 E2.61806 ; perimeter
G1 X96.756 Y103.582 E2.65876 ; perimeter
G1 X97.352 Y102.806 E2.69946 ; perimeter
G1 X97.991 Y102.316 E2.73300 ; perimeter
G1 X98.127 Y102.211 E2.74016 ; perimeter
G1 X99.031 Y101.837 E2.78087 ; perimeter
G1 X100.000 Y101.709 E2.82156 ; perimeter
G1 X100.799 Y101.814 E2.85511 ; perimeter
G1 X100.969 Y101.837 E2.86227 ; perimeter
G1 X101.873 Y102.211 E2.90297 ; perimeter
G1 X102.648 Y102.806 E2.94367 ; perimeter
G1 X103.244 Y103.582 E2.98437 ; perimeter
G1 X103.618 Y104.485 E3.02507 ; perimeter
G1 X103.745 Y105.455 E3.06578 ; perimeter
G1 X103.618 Y106.424 E3.10648 ; perimeter
G1 X103.286 Y107.225 E3.14258 ; perimeter
G1 X103.244 Y107.327 E3.14717 ; perimeter
G1 X102.601 Y106.956 F7800.000 ; move to first perimeter point
G1 X102.124 Y107.578 F324.000 E3.17981 ; perimeter
G1 X101.502 Y108.056 E3.21245 ; perimeter
G1 X100.777 Y108.356 E3.24509 ; perimeter
G1 X100.000 Y108.458 E3.27773 ; perimeter
G1 X99.223 Y108.356 E3.31037 ; perimeter
G1 X98.498 Y108.056 E3.34301 ; perimeter
G1 X97.876 Y107.578 E3.37564 ; perimeter
G1 X97.399 Y106.956 E3.40828 ; perimeter
G1 X97.099 Y106.232 E3.44092 ; perimeter
G1 X96.997 Y105.454 E3.47356 ; perimeter
G1 X97.099 Y104.677 E3.50620 ; perimeter
G1 X97.399 Y103.953 E3.53884 ; perimeter
G1 X97.876 Y103.331 E3.57148 ; perimeter
G1 X98.439 Y102.899 E3.60098 ; perimeter
G1 X98.498 Y102.853 E3.60411 ; perimeter
G1 X99.223 Y102.553 E3.63675 ; perimeter
G1 X100.000 Y102.451 E3.66939 ; perimeter
G1 X100.703 Y102.544 E3.69890 ; perimeter
G1 X100.777 Y102.553 E3.70203 ; perimeter
G1 X101.502 Y102.853 E3.73467 ; perimeter
G1 X102.124 Y103.331 E3.76731 ; perimeter
G1 X102.601 Y103.953 E3.79994 ; perimeter
G1 X102.901 Y104.677 E3.83258 ; perimeter
G1 X103.003 Y105.454 E3.86522 ; perimeter
G1 X102.901 Y106.232 E3.89786 ; perimeter
G1 X102.643 Y106.854 E3.92590 ; perimeter
G1 X102.601 Y106.956 E3.93050 ; perimeter
G1 X102.941 Y107.609 F7800.000 ; move inwards before travel
G1 F1800.000 E2.93050 ; retract
G1 Z0.900 ; lift plate during travel
G92 E0 ; reset extrusion distance
G1 X85.871 Y90.979 F7800.000 ; move to first perimeter point
G1 Z0.400 ; restore layer Z
G1 F1800.000 E1.00000 ; compensate retraction
G1 X114.129 Y90.979 F540.000 E2.17629 ; perimeter
G1 X114.129 Y119.583 E3.36700 ; perimeter
G1 X85.871 Y119.583 E4.54329 ; perimeter
G1 X85.871 Y91.090 E5.72941 ; perimeter
G1 X85.871 Y90.979 E5.73401 ; perimeter
G1 X85.136 Y90.244 F7800.000 ; move to first perimeter point
G1 X114.864 Y90.244 F540.000 E6.97154 ; perimeter
G1 X114.864 Y120.319 E8.22350 ; perimeter
G1 X85.136 Y120.319 E9.46103 ; perimeter
G1 X85.136 Y90.354 E10.70839 ; perimeter
G1 X85.136 Y90.244 E10.71299 ; perimeter
G1 X84.400 Y89.508 F7800.000 ; move to first perimeter point
G1 X115.600 Y89.508 F540.000 E12.01177 ; perimeter
G1 X115.600 Y121.054 E13.32497 ; perimeter
G1 X84.400 Y121.054 E14.62374 ; perimeter
G1 X84.400 Y89.618 E15.93235 ; perimeter
G1 X84.400 Y89.508 E15.93694 ; perimeter
G1 X85.037 Y89.876 F7800.000 ; move inwards before travel
G1 F1800.000 E14.93694 ; retract
G1 Z0.900 ; lift plate during travel
G92 E0 ; reset extrusion distance
G1 X86.841 Y119.082 F7800.000 ; move to first fill point
G1 Z0.400 ; restore layer Z
G1 F1800.000 E1.00000 ; compensate retraction
G1 X86.373 Y118.613 F1080.000 E1.02802 ; fill
G1 X86.373 Y117.556 E1.07274 ; fill
G1 X87.898 Y119.082 E1.16401 ; fill
G1 X88.955 Y119.082 E1.20874 ; fill
G1 X86.373 Y116.499 E1.36326 ; fill
G1 X86.373 Y115.442 E1.40799 ; fill
G1 X90.013 Y119.082 E1.62577 ; fill
G1 X91.070 Y119.081 E1.67048 ; fill
G1 X86.373 Y114.384 E1.95149 ; fill
G1 X86.373 Y113.327 E1.99621 ; fill
G1 X92.127 Y119.082 E2.34048 ; fill
G1 X93.185 Y119.082 E2.38522 ; fill
G1 X86.373 Y112.270 E2.79277 ; fill
G1 X86.373 Y111.213 E2.83750 ; fill
G1 X94.242 Y119.082 E3.30827 ; fill
G1 X95.299 Y119.082 E3.35301 ; fill
G1 X86.373 Y110.156 E3.88705 ; fill
G1 X86.373 Y109.098 E3.93178 ; fill
G1 X96.356 Y119.082 E4.52905 ; fill
G1 X97.413 Y119.082 E4.57379 ; fill
G1 X86.373 Y108.041 E5.23432 ; fill
G1 X86.373 Y106.984 E5.27905 ; fill
G1 X98.470 Y119.081 E6.00282 ; fill
G1 X99.528 Y119.082 E6.04755 ; fill
G1 X86.373 Y105.927 E6.83459 ; fill
G1 X86.373 Y104.869 E6.87932 ; fill
G1 X100.585 Y119.082 E7.72962 ; fill
G1 X101.642 Y119.082 E7.77433 ; fill
G1 X86.373 Y103.812 E8.68786 ; fill
G1 X86.373 Y102.755 E8.73259 ; fill
G1 X102.700 Y119.082 E9.70939 ; fill
G1 X103.757 Y119.082 E9.75410 ; fill
G1 X86.373 Y101.698 E10.79413 ; fill
G1 X86.373 Y100.640 E10.83885 ; fill
G1 X104.814 Y119.082 E11.94215 ; fill
G1 X105.872 Y119.082 E11.98689 ; fill
G1 X86.373 Y99.583 E13.15346 ; fill
G1 X86.373 Y98.526 E13.19818 ; fill
G1 X95.391 Y107.544 E13.73774 ; fill
G1 X95.067 Y106.163 E13.79774 ; fill
G1 X86.373 Y97.469 E14.31792 ; fill
G1 X86.373 Y96.412 E14.36265 ; fill
G1 X95.080 Y105.119 E14.88357 ; fill
G1 X95.233 Y104.215 E14.92237 ; fill
G1 X86.373 Y95.354 E15.45245 ; fill
G1 X86.373 Y94.297 E15.49718 ; fill
G1 X95.543 Y103.467 E16.04579 ; fill
G1 X95.923 Y102.790 E16.07863 ; fill
G1 X86.373 Y93.240 E16.65001 ; fill
G1 X86.373 Y92.183 E16.69474 ; fill
G1 X96.382 Y102.192 E17.29357 ; fill
G1 F1800.000 E16.29357 ; retract
G1 Z0.900 ; lift plate during travel
G92 E0 ; reset extrusion distance
G1 X103.262 Y109.072 F7800.000 ; move to first fill point
G1 Z0.400 ; restore layer Z
G1 F1800.000 E1.00000 ; compensate retraction
G1 X113.272 Y119.082 F1080.000 E1.59886 ; fill
G1 X112.215 Y119.082 E1.64360 ; fill
G1 X102.664 Y109.532 E2.21497 ; fill
G1 X101.987 Y109.912 E2.24781 ; fill
G1 X111.157 Y119.081 E2.79642 ; fill
G1 X110.100 Y119.082 E2.84113 ; fill
G1 X101.240 Y110.222 E3.37120 ; fill
G1 X100.336 Y110.375 E3.40999 ; fill
G1 X109.043 Y119.082 E3.93089 ; fill
G1 X107.986 Y119.082 E3.97560 ; fill
G1 X99.291 Y110.387 E4.49577 ; fill
G1 X97.910 Y110.063 E4.55579 ; fill
G1 X106.928 Y119.082 E5.09534 ; fill
G1 F1800.000 E4.09534 ; retract
G1 Z0.900 ; lift plate during travel
G92 E0 ; reset extrusion distance
G1 X96.934 Y101.686 F7800.000 ; move to first fill point
G1 Z0.400 ; restore layer Z
G1 F1800.000 E1.00000 ; compensate retraction
G1 X86.728 Y91.481 F1080.000 E1.61056 ; fill
G1 X87.785 Y91.481 E1.65529 ; fill
G1 X97.532 Y101.227 E2.23839 ; fill
G1 X98.257 Y100.896 E2.27214 ; fill
G1 X88.843 Y91.481 E2.83541 ; fill
G1 X89.900 Y91.481 E2.88014 ; fill
G1 X99.036 Y100.617 E3.42674 ; fill
G1 X99.970 Y100.494 E3.46660 ; fill
G1 X90.957 Y91.481 E4.00584 ; fill
G1 X92.014 Y91.481 E4.05056 ; fill
G1 X101.108 Y100.574 E4.59461 ; fill
G1 X102.681 Y101.091 E4.66467 ; fill
G1 X93.072 Y91.481 E5.23960 ; fill
G1 X94.129 Y91.481 E5.28433 ; fill
G1 X113.628 Y110.980 E6.45089 ; fill
G1 X113.627 Y112.036 E6.49560 ; fill
G1 X104.364 Y102.773 E7.04979 ; fill
G1 X104.880 Y104.346 E7.11983 ; fill
G1 X113.628 Y113.094 E7.64318 ; fill
G1 X113.627 Y114.151 E7.68789 ; fill
G1 X104.961 Y105.484 E8.20638 ; fill
G1 X104.837 Y106.418 E8.24622 ; fill
G1 X113.627 Y115.208 E8.77211 ; fill
G1 X113.627 Y116.265 E8.81682 ; fill
G1 X104.559 Y107.197 E9.35933 ; fill
G1 X104.227 Y107.922 E9.39307 ; fill
G1 X113.627 Y117.323 E9.95547 ; fill
G1 X113.628 Y118.380 E10.00021 ; fill
G1 X103.768 Y108.521 E10.59006 ; fill
G1 F1800.000 E9.59006 ; retract
G1 Z0.900 ; lift plate during travel
G92 E0 ; reset extrusion distance
G1 X113.627 Y109.922 F7800.000 ; move to first fill point
G1 Z0.400 ; restore layer Z
G1 F1800.000 E1.00000 ; compensate retraction
G1 X95.186 Y91.481 F1080.000 E2.10329 ; fill
G1 X96.243 Y91.481 E2.14802 ; fill
G1 X113.627 Y108.865 E3.18805 ; fill
G1 X113.627 Y107.808 E3.23275 ; fill
G1 X97.300 Y91.481 E4.20956 ; fill
G1 X98.358 Y91.481 E4.25428 ; fill
G1 X113.627 Y106.750 E5.16781 ; fill
G1 X113.628 Y105.693 E5.21252 ; fill
G1 X99.415 Y91.481 E6.06282 ; fill
G1 X100.472 Y91.481 E6.10755 ; fill
G1 X113.627 Y104.636 E6.89458 ; fill
G1 X113.628 Y103.579 E6.93929 ; fill
G1 X101.529 Y91.481 E7.66309 ; fill
G1 X102.587 Y91.481 E7.70782 ; fill
G1 X113.627 Y102.521 E8.36835 ; fill
G1 X113.627 Y101.464 E8.41309 ; fill
G1 X103.644 Y91.481 E9.01036 ; fill
G1 X104.701 Y91.481 E9.05508 ; fill
G1 X113.627 Y100.407 E9.58912 ; fill
G1 X113.627 Y99.350 E9.63386 ; fill
G1 X105.758 Y91.481 E10.10463 ; fill
G1 X106.816 Y91.481 E10.14935 ; fill
G1 X113.628 Y98.293 E10.55690 ; fill
G1 X113.627 Y97.235 E10.60164 ; fill
G1 X107.873 Y91.481 E10.94591 ; fill
G1 X108.930 Y91.481 E10.99064 ; fill
G1 X113.627 Y96.178 E11.27165 ; fill
G1 X113.627 Y95.121 E11.31635 ; fill
G1 X109.987 Y91.481 E11.53413 ; fill
G1 X111.045 Y91.481 E11.57885 ; fill
G1 X113.627 Y94.064 E11.73337 ; fill
G1 X113.627 Y93.006 E11.77810 ; fill
G1 X112.102 Y91.481 E11.86937 ; fill
G1 X113.159 Y91.481 E11.91410 ; fill
G1 X113.627 Y91.949 E11.94212 ; fill
M104 S175 ; set temperature
G1 F1800.000 E10.94212 ; retract
G1 Z1.300 ; move to next layer (1) and lift
G92 E0 ; reset extrusion distance
G1 X102.767 Y102.688 F7800.000 ; move to first perimeter point
G1 Z0.800 ; restore layer Z
G1 F1800.000 E1.00000 ; compensate retraction
G1 X103.389 Y103.498 F1080.000 E1.03004 ; perimeter
G1 X103.780 Y104.442 E1.06008 ; perimeter
G1 X103.913 Y105.454 E1.09011 ; perimeter
G1 X103.780 Y106.467 E1.12015 ; perimeter
G1 X103.389 Y107.411 E1.15019 ; perimeter
G1 X102.767 Y108.221 E1.18022 ; perimeter
G1 X101.957 Y108.843 E1.21026 ; perimeter
G1 X101.234 Y109.143 E1.23326 ; perimeter
G1 X101.013 Y109.234 E1.24030 ; perimeter
G1 X100.000 Y109.367 E1.27034 ; perimeter
G1 X98.987 Y109.234 E1.30037 ; perimeter
G1 X98.044 Y108.843 E1.33041 ; perimeter
G1 X97.233 Y108.221 E1.36045 ; perimeter
G1 X96.611 Y107.411 E1.39049 ; perimeter
G1 X96.520 Y107.190 E1.39752 ; perimeter
G1 X96.220 Y106.467 E1.42052 ; perimeter
G1 X96.087 Y105.454 E1.45056 ; perimeter
G1 X96.220 Y104.442 E1.48060 ; perimeter
G1 X96.312 Y104.221 E1.48763 ; perimeter
G1 X96.611 Y103.498 E1.51064 ; perimeter
G1 X97.233 Y102.688 E1.54067 ; perimeter
G1 X98.043 Y102.066 E1.57071 ; perimeter
G1 X98.766 Y101.766 E1.59371 ; perimeter
G1 X98.987 Y101.675 E1.60075 ; perimeter
G1 X100.000 Y101.541 E1.63079 ; perimeter
G1 X101.013 Y101.675 E1.66082 ; perimeter
G1 X101.957 Y102.066 E1.69086 ; perimeter
G1 X102.705 Y102.640 E1.71861 ; perimeter
G1 X102.767 Y102.688 E1.72090 ; perimeter
G1 X102.396 Y103.058 F7800.000 ; move to first perimeter point
G1 X102.935 Y103.760 F1080.000 E1.74691 ; perimeter
G1 X103.273 Y104.577 E1.77293 ; perimeter
