; generated by Slic3r 0.9.8-dev on 2013-01-09 at 18:36:05

; layer_height = 0.4
; perimeters = 3
; top_solid_layers = 3
; bottom_solid_layers = 3
; fill_density = 0.40
; perimeter_speed = 30
; infill_speed = 60
; travel_speed = 130
; scale = 1
; nozzle_diameter = 0.5
; filament_diameter = 3
; extrusion_multiplier = 1
; perimeters extrusion width = 0.53mm
; infill extrusion width = 0.53mm
; first layer extrusion width = 0.80mm

M190 S60 ; wait for bed temperature to be reached
M104 S180 ; set temperature
G28 ; home all axes
G92 E0 ;reset extruder
M109 S180 ; wait for temperature to be reached
G90 ; use absolute coordinates
G21 ; set units to millimeters
G92 E0 ; reset extrusion distance
M82 ; use absolute distances for extrusion
G1 F1800.000 E-1.00000 ; retract
G1 Z0.900 ; move to next layer (0) and lift
G92 E0 ; reset extrusion distance
G1 X120.300 Y76.120 F7800.000 ; move to first skirt point
G1 Z0.400 ; restore layer Z
G1 F1800.000 E1.00000 ; compensate retraction
G1 X119.900 Y76.460 F540.000 E1.02185 ; skirt
G1 X119.470 Y76.770 E1.04392 ; skirt
G1 X119.020 Y77.050 E1.06598 ; skirt
G1 X118.550 Y77.290 E1.08795 ; skirt
G1 X118.310 Y77.390 E1.09877 ; skirt
G1 X117.810 Y77.580 E1.12104 ; skirt
G1 X117.040 Y77.780 E1.15416 ; skirt
G1 X116.520 Y77.860 E1.17606 ; skirt
G1 X115.990 Y77.900 E1.19818 ; skirt
G1 X84.260 Y77.910 E2.51902 ; skirt
G1 X83.470 Y77.860 E2.55198 ; skirt
G1 X82.950 Y77.780 E2.57388 ; skirt
G1 X82.690 Y77.720 E2.58499 ; skirt
G1 X82.180 Y77.580 E2.60700 ; skirt
G1 X81.930 Y77.490 E2.61806 ; skirt
G1 X81.440 Y77.290 E2.64009 ; skirt
G1 X80.970 Y77.050 E2.66206 ; skirt
G1 X80.300 Y76.620 E2.69520 ; skirt
G1 X79.690 Y76.120 E2.72803 ; skirt
G1 X79.310 Y75.740 E2.75040 ; skirt
G1 X78.970 Y75.340 E2.77226 ; skirt
G1 X78.660 Y74.910 E2.79432 ; skirt
G1 X78.380 Y74.460 E2.81639 ; skirt
G1 X78.140 Y73.990 E2.83836 ; skirt
G1 X77.940 Y73.500 E2.86039 ; skirt
G1 X77.850 Y73.250 E2.87145 ; skirt
G1 X77.710 Y72.740 E2.89346 ; skirt
G1 X77.650 Y72.480 E2.90457 ; skirt
G1 X77.570 Y71.960 E2.92647 ; skirt
G1 X77.520 Y71.170 E2.95942 ; skirt
G1 X77.570 Y70.380 E2.99237 ; skirt
G1 X77.650 Y69.860 E3.01428 ; skirt
G1 X77.850 Y69.090 E3.04739 ; skirt
G1 X78.140 Y68.350 E3.08048 ; skirt
G1 X78.380 Y67.880 E3.10245 ; skirt
G1 X78.660 Y67.430 E3.12451 ; skirt
G1 X78.970 Y67.000 E3.14657 ; skirt
G1 X79.310 Y66.600 E3.16843 ; skirt
G1 X79.690 Y66.220 E3.19080 ; skirt
G1 X80.090 Y65.880 E3.21265 ; skirt
G1 X80.520 Y65.570 E3.23472 ; skirt
G1 X80.970 Y65.290 E3.25678 ; skirt
G1 X81.440 Y65.050 E3.27875 ; skirt
G1 X81.680 Y64.950 E3.28957 ; skirt
G1 X82.180 Y64.760 E3.31184 ; skirt
G1 X82.950 Y64.560 E3.34496 ; skirt
G1 X83.470 Y64.480 E3.36686 ; skirt
G1 X84.000 Y64.440 E3.38898 ; skirt
G1 X115.730 Y64.430 E4.70982 ; skirt
G1 X116.520 Y64.480 E4.74278 ; skirt
G1 X117.040 Y64.560 E4.76468 ; skirt
G1 X117.300 Y64.620 E4.77578 ; skirt
G1 X117.810 Y64.760 E4.79780 ; skirt
G1 X118.060 Y64.850 E4.80886 ; skirt
G1 X118.550 Y65.050 E4.83089 ; skirt
G1 X119.020 Y65.290 E4.85286 ; skirt
G1 X119.690 Y65.720 E4.88600 ; skirt
G1 X120.300 Y66.220 E4.91883 ; skirt
G1 X120.680 Y66.600 E4.94120 ; skirt
G1 X121.020 Y67.000 E4.96306 ; skirt
G1 X121.470 Y67.650 E4.99597 ; skirt
G1 X121.610 Y67.880 E5.00718 ; skirt
G1 X121.850 Y68.350 E5.02914 ; skirt
G1 X122.050 Y68.840 E5.05117 ; skirt
G1 X122.210 Y69.340 E5.07303 ; skirt
G1 X122.340 Y69.860 E5.09534 ; skirt
G1 X122.420 Y70.380 E5.11724 ; skirt
G1 X122.470 Y71.170 E5.15019 ; skirt
G1 X122.420 Y71.960 E5.18314 ; skirt
G1 X122.340 Y72.480 E5.20505 ; skirt
G1 X122.210 Y73.000 E5.22736 ; skirt
G1 X122.140 Y73.250 E5.23817 ; skirt
G1 X121.950 Y73.750 E5.26043 ; skirt
G1 X121.850 Y73.990 E5.27125 ; skirt
G1 X121.610 Y74.460 E5.29322 ; skirt
G1 X121.330 Y74.910 E5.31528 ; skirt
G1 X121.020 Y75.340 E5.33735 ; skirt
G1 X120.680 Y75.740 E5.35920 ; skirt
G1 X120.378 Y76.042 E5.37698 ; skirt
G1 X120.300 Y76.120 E5.38158 ; skirt
G1 F1800.000 E4.38158 ; retract
G1 Z0.900 ; lift plate during travel
G92 E0 ; reset extrusion distance
G1 X112.962 Y71.179 F7800.000 ; move to first perimeter point
G1 Z0.400 ; restore layer Z
G1 F1800.000 E1.00000 ; compensate retraction
G1 X115.732 Y71.179 F324.000 E1.11529 ; perimeter
G1 F1800.000 E0.11529 ; retract
G1 Z0.900 ; lift plate during travel
G92 E0 ; reset extrusion distance
G1 X108.911 Y71.179 F7800.000 ; move to first perimeter point
G1 Z0.400 ; restore layer Z
G1 F1800.000 E1.00000 ; compensate retraction
G1 X112.962 Y71.179 F324.000 E1.16862 ; perimeter
G1 F1800.000 E0.16862 ; retract
G1 Z0.900 ; lift plate during travel
G92 E0 ; reset extrusion distance
G1 X97.570 Y71.179 F7800.000 ; move to first perimeter point
G1 Z0.400 ; restore layer Z
G1 F1800.000 E1.00000 ; compensate retraction
G1 X108.911 Y71.179 F324.000 E1.47213 ; perimeter
G1 F1800.000 E0.47213 ; retract
G1 Z0.900 ; lift plate during travel
G92 E0 ; reset extrusion distance
G1 X87.848 Y71.179 F7800.000 ; move to first perimeter point
G1 Z0.400 ; restore layer Z
G1 F1800.000 E1.00000 ; compensate retraction
G1 X97.570 Y71.179 F324.000 E1.40468 ; perimeter
G1 F1800.000 E0.40468 ; retract
G1 Z0.900 ; lift plate during travel
G92 E0 ; reset extrusion distance
G1 X84.608 Y71.179 F7800.000 ; move to first perimeter point
G1 Z0.400 ; restore layer Z
G1 F1800.000 E1.00000 ; compensate retraction
G1 X87.848 Y71.179 F324.000 E1.13489 ; perimeter
G1 F1800.000 E0.13489 ; retract
G1 Z0.900 ; lift plate during travel
G92 E0 ; reset extrusion distance
G1 X84.268 Y71.179 F7800.000 ; move to first perimeter point
G1 Z0.400 ; restore layer Z
G1 F1800.000 E1.00000 ; compensate retraction
G1 X84.608 Y71.179 F324.000 E1.01412 ; perimeter
M104 S175 ; set temperature
G1 F1800.000 E0.01412 ; retract
G1 Z1.300 ; move to next layer (1) and lift
G92 E0 ; reset extrusion distance
G1 X115.737 Y71.378 F7800.000 ; move to first perimeter point
G1 Z0.800 ; restore layer Z
G1 F1800.000 E1.00000 ; compensate retraction
G1 X84.262 Y71.378 F1800.000 E1.92553 ; perimeter
G1 X84.262 Y70.517 E1.95084 ; perimeter
G1 X115.737 Y70.517 E2.87637 ; perimeter
G1 X115.737 Y71.300 E2.89939 ; perimeter
G1 X115.737 Y71.378 E2.90168 ; perimeter
G1 X115.446 Y70.887 F7800.000 ; move to first fill point
G1 X115.247 Y71.087 F1200.000 E2.90672 ; fill
G1 X115.079 Y70.809 E2.91252 ; fill
G1 X114.801 Y71.087 E2.91954 ; fill
G1 X114.633 Y70.809 E2.92533 ; fill
G1 X114.355 Y71.087 E2.93236 ; fill
G1 X114.187 Y70.809 E2.93815 ; fill
G1 X113.909 Y71.087 E2.94517 ; fill
G1 X113.741 Y70.809 E2.95097 ; fill
G1 X113.463 Y71.087 E2.95799 ; fill
G1 X113.295 Y70.809 E2.96379 ; fill
G1 X113.017 Y71.087 E2.97081 ; fill
G1 X112.849 Y70.809 E2.97660 ; fill
G1 X112.571 Y71.087 E2.98362 ; fill
G1 X112.403 Y70.809 E2.98942 ; fill
G1 X112.125 Y71.087 E2.99644 ; fill
G1 X111.957 Y70.809 E3.00224 ; fill
G1 X111.679 Y71.087 E3.00926 ; fill
G1 X111.511 Y70.809 E3.01506 ; fill
G1 X111.233 Y71.087 E3.02208 ; fill
G1 X111.065 Y70.809 E3.02788 ; fill
G1 X110.787 Y71.087 E3.03490 ; fill
G1 X110.619 Y70.809 E3.04069 ; fill
G1 X110.341 Y71.087 E3.04771 ; fill
G1 X110.173 Y70.809 E3.05351 ; fill
G1 X109.895 Y71.087 E3.06053 ; fill
G1 X109.727 Y70.809 E3.06633 ; fill
G1 X109.449 Y71.087 E3.07335 ; fill
G1 X109.281 Y70.809 E3.07915 ; fill
G1 X109.003 Y71.087 E3.08617 ; fill
G1 X108.835 Y70.809 E3.09196 ; fill
G1 X108.557 Y71.087 E3.09899 ; fill
G1 X108.389 Y70.809 E3.10478 ; fill
G1 X108.111 Y71.087 E3.11180 ; fill
G1 X107.943 Y70.809 E3.11760 ; fill
G1 X107.665 Y71.087 E3.12462 ; fill
G1 X107.497 Y70.809 E3.13042 ; fill
G1 X107.219 Y71.087 E3.13744 ; fill
G1 X107.051 Y70.809 E3.14324 ; fill
G1 X106.773 Y71.087 E3.15026 ; fill
G1 X106.606 Y70.809 E3.15605 ; fill
G1 X106.327 Y71.087 E3.16307 ; fill
G1 X106.160 Y70.809 E3.16887 ; fill
G1 X105.881 Y71.087 E3.17589 ; fill
G1 X105.714 Y70.809 E3.18169 ; fill
G1 X105.435 Y71.087 E3.18871 ; fill
G1 X105.268 Y70.809 E3.19451 ; fill
G1 X104.989 Y71.087 E3.20153 ; fill
G1 X104.822 Y70.809 E3.20733 ; fill
G1 X104.544 Y71.087 E3.21435 ; fill
G1 X104.376 Y70.809 E3.22014 ; fill
G1 X104.097 Y71.087 E3.22716 ; fill
G1 X103.930 Y70.809 E3.23296 ; fill
G1 X103.652 Y71.087 E3.23998 ; fill
G1 X103.484 Y70.809 E3.24578 ; fill
G1 X103.206 Y71.087 E3.25280 ; fill
G1 X103.038 Y70.809 E3.25860 ; fill
G1 X102.760 Y71.087 E3.26562 ; fill
G1 X102.592 Y70.809 E3.27141 ; fill
G1 X102.314 Y71.087 E3.27843 ; fill
G1 X102.146 Y70.809 E3.28423 ; fill
G1 X101.868 Y71.087 E3.29125 ; fill
G1 X101.700 Y70.809 E3.29705 ; fill
G1 X101.422 Y71.087 E3.30407 ; fill
G1 X101.254 Y70.809 E3.30987 ; fill
G1 X100.976 Y71.087 E3.31689 ; fill
G1 X100.808 Y70.809 E3.32269 ; fill
G1 X100.530 Y71.087 E3.32971 ; fill
G1 X100.362 Y70.809 E3.33551 ; fill
G1 X100.084 Y71.087 E3.34253 ; fill
G1 X99.916 Y70.809 E3.34832 ; fill
G1 X99.638 Y71.087 E3.35534 ; fill
G1 X99.470 Y70.809 E3.36114 ; fill
G1 X99.192 Y71.087 E3.36816 ; fill
G1 X99.024 Y70.809 E3.37396 ; fill
G1 X98.746 Y71.087 E3.38098 ; fill
G1 X98.578 Y70.809 E3.38677 ; fill
G1 X98.300 Y71.087 E3.39380 ; fill
G1 X98.132 Y70.809 E3.39960 ; fill
G1 X97.854 Y71.087 E3.40662 ; fill
G1 X97.686 Y70.809 E3.41241 ; fill
G1 X97.408 Y71.087 E3.41943 ; fill
G1 X97.240 Y70.809 E3.42523 ; fill
G1 X96.962 Y71.087 E3.43225 ; fill
G1 X96.794 Y70.809 E3.43805 ; fill
G1 X96.516 Y71.087 E3.44507 ; fill
G1 X96.348 Y70.809 E3.45086 ; fill
G1 X96.070 Y71.087 E3.45789 ; fill
G1 X95.902 Y70.809 E3.46368 ; fill
G1 X95.624 Y71.087 E3.47070 ; fill
G1 X95.456 Y70.809 E3.47650 ; fill
G1 X95.178 Y71.087 E3.48352 ; fill
G1 X95.010 Y70.809 E3.48932 ; fill
G1 X94.732 Y71.087 E3.49634 ; fill
G1 X94.565 Y70.809 E3.50214 ; fill
G1 X94.286 Y71.087 E3.50916 ; fill
G1 X94.119 Y70.809 E3.51496 ; fill
G1 X93.840 Y71.087 E3.52198 ; fill
G1 X93.673 Y70.809 E3.52777 ; fill
G1 X93.394 Y71.087 E3.53479 ; fill
G1 X93.227 Y70.809 E3.54059 ; fill
G1 X92.948 Y71.087 E3.54761 ; fill
G1 X92.781 Y70.809 E3.55341 ; fill
G1 X92.502 Y71.087 E3.56043 ; fill
G1 X92.335 Y70.809 E3.56623 ; fill
G1 X92.057 Y71.087 E3.57325 ; fill
G1 X91.889 Y70.809 E3.57905 ; fill
G1 X91.611 Y71.087 E3.58607 ; fill
G1 X91.443 Y70.809 E3.59186 ; fill
G1 X91.165 Y71.087 E3.59888 ; fill
G1 X90.997 Y70.809 E3.60468 ; fill
G1 X90.719 Y71.087 E3.61170 ; fill
G1 X90.551 Y70.809 E3.61750 ; fill
G1 X90.273 Y71.087 E3.62452 ; fill
G1 X90.105 Y70.809 E3.63032 ; fill
G1 X89.827 Y71.087 E3.63734 ; fill
G1 X89.659 Y70.809 E3.64313 ; fill
G1 X89.381 Y71.087 E3.65015 ; fill
G1 X89.213 Y70.809 E3.65595 ; fill
G1 X88.935 Y71.087 E3.66297 ; fill
G1 X88.767 Y70.809 E3.66877 ; fill
G1 X88.489 Y71.087 E3.67579 ; fill
G1 X88.321 Y70.809 E3.68159 ; fill
G1 X88.043 Y71.087 E3.68861 ; fill
G1 X87.875 Y70.809 E3.69441 ; fill
G1 X87.597 Y71.087 E3.70143 ; fill
G1 X87.429 Y70.809 E3.70722 ; fill
G1 X87.151 Y71.087 E3.71424 ; fill
G1 X86.983 Y70.809 E3.72004 ; fill
G1 X86.705 Y71.087 E3.72706 ; fill
G1 X86.537 Y70.809 E3.73286 ; fill
G1 X86.259 Y71.087 E3.73988 ; fill
G1 X86.091 Y70.809 E3.74568 ; fill
G1 X85.813 Y71.087 E3.75270 ; fill
G1 X85.645 Y70.809 E3.75850 ; fill
G1 X85.367 Y71.087 E3.76552 ; fill
G1 X85.199 Y70.809 E3.77131 ; fill
G1 X84.921 Y71.087 E3.77833 ; fill
G1 X84.753 Y70.809 E3.78413 ; fill
G1 X84.554 Y71.008 E3.78917 ; fill
G1 F1800.000 E2.78917 ; retract
G1 Z1.700 ; move to next layer (2) and lift
G92 E0 ; reset extrusion distance
G1 X84.782 Y71.089 F7800.000 ; move to first perimeter point
G1 Z1.200 ; restore layer Z
G1 F1800.000 E1.00000 ; compensate retraction
G1 X84.782 Y70.344 F1800.000 E1.02191 ; perimeter
G1 X115.218 Y70.344 E1.91688 ; perimeter
G1 X115.218 Y71.089 E1.93879 ; perimeter
G1 X84.860 Y71.089 E2.83147 ; perimeter
G1 X84.782 Y71.089 E2.83377 ; perimeter
G1 X84.262 Y71.609 F7800.000 ; move to first perimeter point
G1 X84.262 Y69.825 F1800.000 E2.88624 ; perimeter
G1 X115.737 Y69.825 E3.81177 ; perimeter
G1 X115.737 Y71.609 E3.86424 ; perimeter
G1 X84.340 Y71.609 E4.78748 ; perimeter
G1 X84.262 Y71.609 E4.78977 ; perimeter
G1 X84.522 Y71.159 F7800.000 ; move inwards before travel
G1 F1800.000 E3.78977 ; retract
G1 Z2.100 ; move to next layer (3) and lift
G92 E0 ; reset extrusion distance
G1 X114.698 Y70.171 F7800.000 ; move to first perimeter point
G1 Z1.600 ; restore layer Z
G1 F1800.000 E1.00000 ; compensate retraction
G1 X114.698 Y70.801 F1800.000 E1.01851 ; perimeter
G1 X85.302 Y70.801 E1.88293 ; perimeter
G1 X85.302 Y70.171 E1.90144 ; perimeter
G1 X114.620 Y70.171 E2.76356 ; perimeter
G1 X114.698 Y70.171 E2.76585 ; perimeter
G1 X115.218 Y69.651 F7800.000 ; move to first perimeter point
G1 X115.218 Y71.320 F1800.000 E2.81493 ; perimeter
G1 X84.782 Y71.320 E3.70990 ; perimeter
G1 X84.782 Y69.651 E3.75897 ; perimeter
G1 X115.140 Y69.651 E4.65166 ; perimeter
G1 X115.218 Y69.651 E4.65395 ; perimeter
G1 X115.737 Y69.132 F7800.000 ; move to first perimeter point
G1 X115.737 Y71.840 F1800.000 E4.73358 ; perimeter
G1 X84.262 Y71.840 E5.65911 ; perimeter
G1 X84.262 Y69.132 E5.73875 ; perimeter
G1 X115.660 Y69.132 E6.66199 ; perimeter
G1 X115.737 Y69.132 E6.66428 ; perimeter
G1 X115.478 Y69.582 F7800.000 ; move inwards before travel
G1 F1800.000 E5.66428 ; retract
G1 Z2.500 ; move to next layer (4) and lift
G92 E0 ; reset extrusion distance
G1 X114.698 Y69.478 F7800.000 ; move to first perimeter point
G1 Z2.000 ; restore layer Z
G1 F1800.000 E1.00000 ; compensate retraction
G1 X114.698 Y71.032 F1800.000 E1.04568 ; perimeter
G1 X85.302 Y71.032 E1.91009 ; perimeter
G1 X85.302 Y69.478 E1.95577 ; perimeter
G1 X114.620 Y69.478 E2.81789 ; perimeter
G1 X114.698 Y69.478 E2.82018 ; perimeter
G1 X115.218 Y68.959 F7800.000 ; move to first perimeter point
G1 X115.218 Y71.551 F1800.000 E2.89642 ; perimeter
G1 X84.782 Y71.551 E3.79139 ; perimeter
G1 X84.782 Y68.959 E3.86763 ; perimeter
G1 X115.140 Y68.959 E4.76031 ; perimeter
G1 X115.218 Y68.959 E4.76260 ; perimeter
G1 X115.737 Y68.439 F7800.000 ; move to first perimeter point
G1 X115.737 Y72.071 F1800.000 E4.86940 ; perimeter
G1 X84.262 Y72.071 E5.79493 ; perimeter
G1 X84.262 Y68.439 E5.90173 ; perimeter
G1 X115.660 Y68.439 E6.82497 ; perimeter
G1 X115.737 Y68.439 E6.82726 ; perimeter
G1 X115.478 Y68.889 F7800.000 ; move inwards before travel
G1 F1800.000 E5.82726 ; retract
G1 Z2.500 ; lift plate during travel
G92 E0 ; reset extrusion distance
G1 X86.186 Y70.609 F7800.000 ; move to first fill point
G1 Z2.000 ; restore layer Z
G1 F1800.000 E1.00000 ; compensate retraction
G1 X85.724 Y70.147 F1200.000 E1.02744 ; fill
G1 X86.527 Y69.901 E1.06272 ; fill
G1 X87.236 Y70.609 E1.10479 ; fill
G1 X87.577 Y69.901 E1.13780 ; fill
G1 X88.285 Y70.609 E1.17987 ; fill
G1 X88.626 Y69.901 E1.21289 ; fill
G1 X89.335 Y70.609 E1.25495 ; fill
G1 X89.676 Y69.901 E1.28797 ; fill
G1 X90.384 Y70.609 E1.33004 ; fill
G1 X90.725 Y69.901 E1.36305 ; fill
G1 X91.434 Y70.609 E1.40512 ; fill
G1 X91.775 Y69.901 E1.43814 ; fill
G1 X92.483 Y70.609 E1.48020 ; fill
G1 X92.824 Y69.901 E1.51322 ; fill
G1 X93.533 Y70.609 E1.55529 ; fill
G1 X93.874 Y69.901 E1.58830 ; fill
G1 X94.582 Y70.609 E1.63036 ; fill
G1 X94.923 Y69.901 E1.66338 ; fill
G1 X95.632 Y70.609 E1.70545 ; fill
G1 X95.973 Y69.901 E1.73846 ; fill
G1 X96.681 Y70.609 E1.78053 ; fill
G1 X97.022 Y69.901 E1.81355 ; fill
G1 X97.731 Y70.609 E1.85562 ; fill
G1 X98.072 Y69.901 E1.88864 ; fill
G1 X98.780 Y70.609 E1.93070 ; fill
G1 X99.121 Y69.901 E1.96372 ; fill
G1 X99.829 Y70.609 E2.00579 ; fill
G1 X100.171 Y69.901 E2.03880 ; fill
G1 X100.879 Y70.609 E2.08086 ; fill
G1 X101.220 Y69.901 E2.11388 ; fill
G1 X101.928 Y70.609 E2.15594 ; fill
G1 X102.269 Y69.901 E2.18896 ; fill
G1 X102.978 Y70.609 E2.23103 ; fill
G1 X103.319 Y69.901 E2.26405 ; fill
G1 X104.027 Y70.609 E2.30612 ; fill
G1 X104.368 Y69.901 E2.33913 ; fill
G1 X105.077 Y70.609 E2.38120 ; fill
G1 X105.418 Y69.901 E2.41422 ; fill
G1 X106.126 Y70.609 E2.45629 ; fill
G1 X106.467 Y69.901 E2.48930 ; fill
G1 X107.176 Y70.609 E2.53137 ; fill
G1 X107.517 Y69.901 E2.56438 ; fill
G1 X108.225 Y70.609 E2.60644 ; fill
G1 X108.566 Y69.901 E2.63946 ; fill
G1 X109.275 Y70.609 E2.68153 ; fill
G1 X109.616 Y69.901 E2.71454 ; fill
G1 X110.324 Y70.609 E2.75661 ; fill
G1 X110.665 Y69.901 E2.78963 ; fill
