; generated by Slic3r 1.0.1 on 2014-07-03 at 13:39:03

; layer_height = 0.4
; perimeters = 3
; top_solid_layers = 3
; bottom_solid_layers = 3
; fill_density = 0.4
; perimeter_speed = 30
; infill_speed = 60
; travel_speed = 130
; nozzle_diameter = 0.5
; filament_diameter = 3
; extrusion_multiplier = 1
; perimeters extrusion width = 0.50mm
; infill extrusion width = 0.53mm
; solid infill extrusion width = 0.53mm
; top infill extrusion width = 0.53mm
; first layer extrusion width = 0.70mm

G21 ; set units to millimeters
M190 S60 ; wait for bed temperature to be reached
M104 S185 ; set temperature
G28 ; home all axes
G1 Z5 F5000 ; lift nozzle
G92 E0 ;reset extruder
M109 S185 ; wait for temperature to be reached
G90 ; use absolute coordinates
G92 E0 ; reset extrusion distance
M82 ; use absolute distances for extrusion
G1 F1800.000 E-1.00000 ; retract
G1 Z0.850 F7800.000 ; move to next layer (0) and lift
G92 E0 ; reset extrusion distance
G1 X65.290 Y54.790 F7800.000 ; move to first skirt point
G1 Z0.350 F7800.000 ; restore layer Z
G1 E1.00000 F1800.000 ; compensate retraction
G1 X66.300 Y53.960 E1.04253 F540.000 ; skirt
G1 X67.450 Y53.350 E1.08489 ; skirt
G1 X68.700 Y52.970 E1.12739 ; skirt
G1 X70.000 Y52.840 E1.16990 ; skirt
G1 X130.000 Y52.840 E3.12201 ; skirt
G1 X131.300 Y52.970 E3.16452 ; skirt
G1 X132.550 Y53.350 E3.20703 ; skirt
G1 X133.700 Y53.960 E3.24938 ; skirt
G1 X134.710 Y54.790 E3.29191 ; skirt
G1 X135.540 Y55.800 E3.33444 ; skirt
G1 X136.150 Y56.950 E3.37680 ; skirt
G1 X136.530 Y58.200 E3.41930 ; skirt
G1 X136.660 Y59.500 E3.46181 ; skirt
G1 X136.660 Y118.500 E5.38139 ; skirt
G1 X136.530 Y119.800 E5.42390 ; skirt
G1 X136.150 Y121.050 E5.46640 ; skirt
G1 X135.540 Y122.200 E5.50876 ; skirt
G1 X134.710 Y123.210 E5.55129 ; skirt
G1 X133.700 Y124.040 E5.59382 ; skirt
G1 X132.550 Y124.650 E5.63618 ; skirt
G1 X131.300 Y125.030 E5.67868 ; skirt
G1 X130.000 Y125.160 E5.72119 ; skirt
G1 X70.000 Y125.160 E7.67330 ; skirt
G1 X68.700 Y125.030 E7.71581 ; skirt
G1 X67.450 Y124.650 E7.75831 ; skirt
G1 X66.300 Y124.040 E7.80067 ; skirt
G1 X65.290 Y123.210 E7.84320 ; skirt
G1 X64.460 Y122.200 E7.88573 ; skirt
G1 X63.850 Y121.050 E7.92809 ; skirt
G1 X63.470 Y119.800 E7.97059 ; skirt
G1 X63.340 Y118.500 E8.01310 ; skirt
G1 X63.340 Y59.500 E9.93268 ; skirt
G1 X63.470 Y58.200 E9.97518 ; skirt
G1 X63.850 Y56.950 E10.01769 ; skirt
G1 X64.460 Y55.800 E10.06004 ; skirt
G1 X65.227 Y54.866 E10.09937 ; skirt
G1 F1800.000 E9.09937 ; retract
G1 Z0.850 F7800.000 ; lift plate during travel
G92 E0 ; reset extrusion distance
G1 X71.993 Y71.493 F7800.000 ; move to first perimeter point
G1 Z0.350 F7800.000 ; restore layer Z
G1 E1.00000 F1800.000 ; compensate retraction
G1 X82.493 Y71.493 E1.34162 F540.000 ; perimeter
G1 X82.493 Y61.493 E1.66697 ; perimeter
G1 X117.507 Y61.493 E2.80617 ; perimeter
G1 X117.507 Y71.493 E3.13152 ; perimeter
G1 X128.007 Y71.493 E3.47314 ; perimeter
G1 X128.007 Y106.507 E4.61233 ; perimeter
G1 X117.507 Y106.507 E4.95395 ; perimeter
G1 X117.507 Y116.507 E5.27930 ; perimeter
G1 X82.493 Y116.507 E6.41850 ; perimeter
G1 X82.493 Y106.507 E6.74385 ; perimeter
G1 X71.993 Y106.507 E7.08547 ; perimeter
G1 X71.993 Y71.591 E8.22145 ; perimeter
G1 X72.650 Y72.150 F7800.000 ; move to first perimeter point
G1 X83.150 Y72.150 E8.56307 F378.000 ; perimeter
G1 X83.150 Y62.150 E8.88843 ; perimeter
G1 X116.850 Y62.150 E9.98486 ; perimeter
G1 X116.850 Y72.150 E10.31021 ; perimeter
G1 X127.350 Y72.150 E10.65183 ; perimeter
G1 X127.350 Y105.850 E11.74827 ; perimeter
G1 X116.850 Y105.850 E12.08989 ; perimeter
G1 X116.850 Y115.850 E12.41524 ; perimeter
G1 X83.150 Y115.850 E13.51168 ; perimeter
G1 X83.150 Y105.850 E13.83703 ; perimeter
G1 X72.650 Y105.850 E14.17865 ; perimeter
G1 X72.650 Y72.249 E15.27188 ; perimeter
G1 X72.650 Y71.493 F7800.000 ; move inwards before travel
G1 F1800.000 E14.27188 ; retract
G1 Z0.850 F7800.000 ; lift plate during travel
G92 E0 ; reset extrusion distance
G1 X118.164 Y107.164 F7800.000 ; move to first perimeter point
G1 Z0.350 F7800.000 ; restore layer Z
G1 E1.00000 F1800.000 ; compensate retraction
G1 X128.336 Y107.164 E1.33094 F324.000 ; perimeter
G1 X128.336 Y116.836 E1.64561 ; perimeter
G1 X118.164 Y116.836 E1.97655 ; perimeter
G1 X118.164 Y107.263 E2.28801 ; perimeter
G1 F1800.000 E1.28801 ; retract
G1 Z0.850 F7800.000 ; lift plate during travel
G92 E0 ; reset extrusion distance
G1 X118.164 Y70.836 F7800.000 ; move to first perimeter point
G1 Z0.350 F7800.000 ; restore layer Z
G1 E1.00000 F1800.000 ; compensate retraction
G1 X118.164 Y61.164 E1.31467 F324.000 ; perimeter
G1 X128.336 Y61.164 E1.64561 ; perimeter
G1 X128.336 Y70.836 E1.96028 ; perimeter
G1 X118.263 Y70.836 E2.28801 ; perimeter
G1 F1800.000 E1.28801 ; retract
G1 Z0.850 F7800.000 ; lift plate during travel
G92 E0 ; reset extrusion distance
G1 X81.836 Y70.836 F7800.000 ; move to first perimeter point
G1 Z0.350 F7800.000 ; restore layer Z
G1 E1.00000 F1800.000 ; compensate retraction
G1 X71.664 Y70.836 E1.33094 F324.000 ; perimeter
G1 X71.664 Y61.164 E1.64561 ; perimeter
G1 X81.836 Y61.164 E1.97655 ; perimeter
G1 X81.836 Y70.737 E2.28801 ; perimeter
G1 F1800.000 E1.28801 ; retract
G1 Z0.850 F7800.000 ; lift plate during travel
G92 E0 ; reset extrusion distance
G1 X81.836 Y107.164 F7800.000 ; move to first perimeter point
G1 Z0.350 F7800.000 ; restore layer Z
G1 E1.00000 F1800.000 ; compensate retraction
G1 X81.836 Y116.836 E1.31467 F324.000 ; perimeter
G1 X71.664 Y116.836 E1.64561 ; perimeter
G1 X71.664 Y107.164 E1.96028 ; perimeter
G1 X81.737 Y107.164 E2.28801 ; perimeter
G1 F1800.000 E1.28801 ; retract
G1 Z0.850 F7800.000 ; lift plate during travel
G92 E0 ; reset extrusion distance
G1 X128.993 Y117.493 F7800.000 ; move to first perimeter point
G1 Z0.350 F7800.000 ; restore layer Z
G1 E1.00000 F1800.000 ; compensate retraction
G1 X71.007 Y117.493 E2.88658 F540.000 ; perimeter
G1 X71.007 Y60.507 E4.74063 ; perimeter
G1 X128.993 Y60.507 E6.62721 ; perimeter
G1 X128.993 Y117.394 E8.47805 ; perimeter
G1 X129.650 Y118.150 F7800.000 ; move to first perimeter point
G1 X70.350 Y118.150 E10.40739 F378.000 ; perimeter
G1 X70.350 Y59.850 E12.30419 ; perimeter
G1 X129.650 Y59.850 E14.23353 ; perimeter
G1 X129.650 Y118.051 E16.12713 ; perimeter
G1 X129.081 Y117.821 F7800.000 ; move inwards before travel
G1 X127.869 Y107.651 F7800.000 ; move to first fill point
G1 X127.849 Y107.631 E16.12806 F1080.000 ; fill
G1 X126.905 Y107.631 E16.15927 ; fill
G1 X127.869 Y108.595 E16.20433 ; fill
G1 X127.869 Y109.539 E16.23554 ; fill
G1 X125.961 Y107.631 E16.32474 ; fill
G1 X125.017 Y107.631 E16.35595 ; fill
G1 X127.869 Y110.483 E16.48929 ; fill
G1 X127.869 Y111.427 E16.52050 ; fill
G1 X124.073 Y107.631 E16.69797 ; fill
G1 X123.129 Y107.631 E16.72917 ; fill
G1 X127.869 Y112.371 E16.95078 ; fill
G1 X127.869 Y113.315 E16.98198 ; fill
G1 X122.185 Y107.631 E17.24772 ; fill
G1 X121.241 Y107.631 E17.27893 ; fill
G1 X127.869 Y114.259 E17.58880 ; fill
G1 X127.869 Y115.203 E17.62001 ; fill
G1 X120.297 Y107.631 E17.97402 ; fill
G1 X119.353 Y107.631 E18.00522 ; fill
G1 X127.869 Y116.147 E18.40336 ; fill
G1 X127.147 Y116.369 E18.42833 ; fill
G1 X118.631 Y107.853 E18.82647 ; fill
G1 X118.631 Y108.797 E18.85768 ; fill
G1 X126.203 Y116.369 E19.21169 ; fill
G1 X125.259 Y116.369 E19.24290 ; fill
G1 X118.631 Y109.741 E19.55277 ; fill
G1 X118.631 Y110.685 E19.58398 ; fill
G1 X124.315 Y116.369 E19.84972 ; fill
G1 X123.371 Y116.369 E19.88092 ; fill
G1 X118.631 Y111.629 E20.10253 ; fill
G1 X118.631 Y112.573 E20.13374 ; fill
G1 X122.427 Y116.369 E20.31121 ; fill
G1 X121.483 Y116.369 E20.34241 ; fill
G1 X118.631 Y113.517 E20.47575 ; fill
G1 X118.631 Y114.461 E20.50696 ; fill
G1 X120.539 Y116.369 E20.59616 ; fill
G1 X119.595 Y116.369 E20.62737 ; fill
G1 X118.631 Y115.405 E20.67244 ; fill
G1 X118.631 Y116.349 E20.70365 ; fill
G1 X118.651 Y116.369 E20.70458 ; fill
G1 X117.706 Y116.986 F7800.000 ; move to first fill point
G1 X117.686 Y116.966 E20.70504 F360.000 ; fill
G1 X117.288 Y117.034 E20.71163 F360.000 ; fill
G1 X117.219 Y116.966 E20.71322 F360.000 ; fill
G1 X116.822 Y117.034 E20.71980 F360.000 ; fill
G1 X116.753 Y116.966 E20.72139 F360.000 ; fill
G1 X116.355 Y117.034 E20.72798 F360.000 ; fill
G1 X116.287 Y116.966 E20.72957 F360.000 ; fill
G1 X115.889 Y117.034 E20.73615 F360.000 ; fill
G1 X115.820 Y116.966 E20.73774 F360.000 ; fill
G1 X115.423 Y117.034 E20.74433 F360.000 ; fill
G1 X115.354 Y116.966 E20.74592 F360.000 ; fill
G1 X114.957 Y117.034 E20.75250 F360.000 ; fill
G1 X114.888 Y116.966 E20.75409 F360.000 ; fill
G1 X114.490 Y117.034 E20.76068 F360.000 ; fill
G1 X114.421 Y116.966 E20.76227 F360.000 ; fill
G1 X114.024 Y117.034 E20.76885 F360.000 ; fill
G1 X113.955 Y116.966 E20.77044 F360.000 ; fill
G1 X113.558 Y117.034 E20.77703 F360.000 ; fill
G1 X113.489 Y116.966 E20.77862 F360.000 ; fill
G1 X113.091 Y117.034 E20.78520 F360.000 ; fill
G1 X113.022 Y116.966 E20.78679 F360.000 ; fill
G1 X112.625 Y117.034 E20.79338 F360.000 ; fill
G1 X112.556 Y116.966 E20.79497 F360.000 ; fill
G1 X112.159 Y117.034 E20.80155 F360.000 ; fill
G1 X112.090 Y116.966 E20.80314 F360.000 ; fill
G1 X111.692 Y117.034 E20.80973 F360.000 ; fill
G1 X111.624 Y116.966 E20.81131 F360.000 ; fill
G1 X111.226 Y117.034 E20.81790 F360.000 ; fill
G1 X111.157 Y116.966 E20.81949 F360.000 ; fill
G1 X110.760 Y117.034 E20.82608 F360.000 ; fill
G1 X110.691 Y116.966 E20.82766 F360.000 ; fill
G1 X110.293 Y117.034 E20.83425 F360.000 ; fill
G1 X110.225 Y116.966 E20.83584 F360.000 ; fill
G1 X109.827 Y117.034 E20.84243 F360.000 ; fill
G1 X109.758 Y116.966 E20.84401 F360.000 ; fill
G1 X109.361 Y117.034 E20.85060 F360.000 ; fill
G1 X109.292 Y116.966 E20.85219 F360.000 ; fill
G1 X108.894 Y117.034 E20.85878 F360.000 ; fill
G1 X108.826 Y116.966 E20.86036 F360.000 ; fill
G1 X108.428 Y117.034 E20.86695 F360.000 ; fill
G1 X108.359 Y116.966 E20.86854 F360.000 ; fill
G1 X107.962 Y117.034 E20.87513 F360.000 ; fill
G1 X107.893 Y116.966 E20.87671 F360.000 ; fill
G1 X107.495 Y117.034 E20.88330 F360.000 ; fill
G1 X107.427 Y116.966 E20.88489 F360.000 ; fill
G1 X107.029 Y117.034 E20.89148 F360.000 ; fill
G1 X106.960 Y116.966 E20.89306 F360.000 ; fill
G1 X106.563 Y117.034 E20.89965 F360.000 ; fill
G1 X106.494 Y116.966 E20.90124 F360.000 ; fill
G1 X106.097 Y117.034 E20.90783 F360.000 ; fill
G1 X106.028 Y116.966 E20.90941 F360.000 ; fill
G1 X105.630 Y117.034 E20.91600 F360.000 ; fill
G1 X105.561 Y116.966 E20.91759 F360.000 ; fill
G1 X105.164 Y117.034 E20.92418 F360.000 ; fill
G1 X105.095 Y116.966 E20.92576 F360.000 ; fill
G1 X104.698 Y117.034 E20.93235 F360.000 ; fill
G1 X104.629 Y116.966 E20.93394 F360.000 ; fill
G1 X104.231 Y117.034 E20.94053 F360.000 ; fill
G1 X104.162 Y116.966 E20.94211 F360.000 ; fill
G1 X103.765 Y117.034 E20.94870 F360.000 ; fill
G1 X103.696 Y116.966 E20.95029 F360.000 ; fill
G1 X103.299 Y117.034 E20.95687 F360.000 ; fill
G1 X103.230 Y116.966 E20.95846 F360.000 ; fill
G1 X102.832 Y117.034 E20.96505 F360.000 ; fill
G1 X102.764 Y116.966 E20.96664 F360.000 ; fill
G1 X102.366 Y117.034 E20.97322 F360.000 ; fill
G1 X102.297 Y116.966 E20.97481 F360.000 ; fill
G1 X101.900 Y117.034 E20.98140 F360.000 ; fill
G1 X101.831 Y116.966 E20.98299 F360.000 ; fill
G1 X101.433 Y117.034 E20.98957 F360.000 ; fill
G1 X101.365 Y116.966 E20.99116 F360.000 ; fill
G1 X100.967 Y117.034 E20.99775 F360.000 ; fill
G1 X100.898 Y116.966 E20.99934 F360.000 ; fill
G1 X100.501 Y117.034 E21.00592 F360.000 ; fill
G1 X100.432 Y116.966 E21.00751 F360.000 ; fill
G1 X100.034 Y117.034 E21.01410 F360.000 ; fill
G1 X99.966 Y116.966 E21.01569 F360.000 ; fill
G1 X99.568 Y117.034 E21.02227 F360.000 ; fill
G1 X99.499 Y116.966 E21.02386 F360.000 ; fill
G1 X99.102 Y117.034 E21.03045 F360.000 ; fill
G1 X99.033 Y116.966 E21.03204 F360.000 ; fill
G1 X98.635 Y117.034 E21.03862 F360.000 ; fill
G1 X98.567 Y116.966 E21.04021 F360.000 ; fill
G1 X98.169 Y117.034 E21.04680 F360.000 ; fill
G1 X98.100 Y116.966 E21.04839 F360.000 ; fill
G1 X97.703 Y117.034 E21.05497 F360.000 ; fill
G1 X97.634 Y116.966 E21.05656 F360.000 ; fill
G1 X97.237 Y117.034 E21.06315 F360.000 ; fill
G1 X97.168 Y116.966 E21.06474 F360.000 ; fill
G1 X96.770 Y117.034 E21.07132 F360.000 ; fill
G1 X96.701 Y116.966 E21.07291 F360.000 ; fill
G1 X96.304 Y117.034 E21.07950 F360.000 ; fill
G1 X96.235 Y116.966 E21.08109 F360.000 ; fill
G1 X95.838 Y117.034 E21.08767 F360.000 ; fill
G1 X95.769 Y116.966 E21.08926 F360.000 ; fill
G1 X95.371 Y117.034 E21.09585 F360.000 ; fill
G1 X95.302 Y116.966 E21.09744 F360.000 ; fill
G1 X94.905 Y117.034 E21.10402 F360.000 ; fill
G1 X94.836 Y116.966 E21.10561 F360.000 ; fill
G1 X94.439 Y117.034 E21.11220 F360.000 ; fill
G1 X94.370 Y116.966 E21.11379 F360.000 ; fill
G1 X93.972 Y117.034 E21.12037 F360.000 ; fill
G1 X93.904 Y116.966 E21.12196 F360.000 ; fill
G1 X93.506 Y117.034 E21.12855 F360.000 ; fill
G1 X93.437 Y116.966 E21.13014 F360.000 ; fill
G1 X93.040 Y117.034 E21.13672 F360.000 ; fill
G1 X92.971 Y116.966 E21.13831 F360.000 ; fill
G1 X92.573 Y117.034 E21.14490 F360.000 ; fill
G1 X92.505 Y116.966 E21.14648 F360.000 ; fill
G1 X92.107 Y117.034 E21.15307 F360.000 ; fill
G1 X92.038 Y116.966 E21.15466 F360.000 ; fill
G1 X91.641 Y117.034 E21.16125 F360.000 ; fill
G1 X91.572 Y116.966 E21.16283 F360.000 ; fill
G1 X91.174 Y117.034 E21.16942 F360.000 ; fill
G1 X91.106 Y116.966 E21.17101 F360.000 ; fill
G1 X90.708 Y117.034 E21.17760 F360.000 ; fill
G1 X90.639 Y116.966 E21.17918 F360.000 ; fill
G1 X90.242 Y117.034 E21.18577 F360.000 ; fill
G1 X90.173 Y116.966 E21.18736 F360.000 ; fill
G1 X89.775 Y117.034 E21.19395 F360.000 ; fill
G1 X89.707 Y116.966 E21.19553 F360.000 ; fill
G1 X89.309 Y117.034 E21.20212 F360.000 ; fill
G1 X89.240 Y116.966 E21.20371 F360.000 ; fill
G1 X88.843 Y117.034 E21.21030 F360.000 ; fill
G1 X88.774 Y116.966 E21.21188 F360.000 ; fill
G1 X88.376 Y117.034 E21.21847 F360.000 ; fill
G1 X88.308 Y116.966 E21.22006 F360.000 ; fill
G1 X87.910 Y117.034 E21.22665 F360.000 ; fill
G1 X87.841 Y116.966 E21.22823 F360.000 ; fill
G1 X87.444 Y117.034 E21.23482 F360.000 ; fill
G1 X87.375 Y116.966 E21.23641 F360.000 ; fill
G1 X86.978 Y117.034 E21.24300 F360.000 ; fill
G1 X86.909 Y116.966 E21.24458 F360.000 ; fill
G1 X86.511 Y117.034 E21.25117 F360.000 ; fill
G1 X86.442 Y116.966 E21.25276 F360.000 ; fill
G1 X86.045 Y117.034 E21.25935 F360.000 ; fill
G1 X85.976 Y116.966 E21.26093 F360.000 ; fill
G1 X85.579 Y117.034 E21.26752 F360.000 ; fill
G1 X85.510 Y116.966 E21.26911 F360.000 ; fill
G1 X85.112 Y117.034 E21.27570 F360.000 ; fill
G1 X85.044 Y116.966 E21.27728 F360.000 ; fill
G1 X84.646 Y117.034 E21.28387 F360.000 ; fill
G1 X84.577 Y116.966 E21.28546 F360.000 ; fill
G1 X84.180 Y117.034 E21.29204 F360.000 ; fill
G1 X84.111 Y116.966 E21.29363 F360.000 ; fill
G1 X83.713 Y117.034 E21.30022 F360.000 ; fill
G1 X83.645 Y116.966 E21.30181 F360.000 ; fill
G1 X83.247 Y117.034 E21.30839 F360.000 ; fill
G1 X83.178 Y116.966 E21.30998 F360.000 ; fill
G1 X82.781 Y117.034 E21.31657 F360.000 ; fill
G1 X82.712 Y116.966 E21.31816 F360.000 ; fill
G1 X82.294 Y117.014 E21.32502 F360.000 ; fill
G1 X82.314 Y117.034 E21.32548 F360.000 ; fill
G1 X71.486 Y106.706 F7800.000 ; move to first fill point
G1 X71.466 Y106.686 E21.32594 F360.000 ; fill
G1 X71.534 Y106.288 E21.33253 F360.000 ; fill
G1 X71.466 Y106.219 E21.33412 F360.000 ; fill
G1 X71.534 Y105.822 E21.34071 F360.000 ; fill
G1 X71.466 Y105.753 E21.34229 F360.000 ; fill
G1 X71.534 Y105.355 E21.34888 F360.000 ; fill
G1 X71.466 Y105.287 E21.35047 F360.000 ; fill
G1 X71.534 Y104.889 E21.35706 F360.000 ; fill
G1 X71.466 Y104.820 E21.35864 F360.000 ; fill
G1 X71.534 Y104.423 E21.36523 F360.000 ; fill
G1 X71.466 Y104.354 E21.36682 F360.000 ; fill
G1 X71.534 Y103.956 E21.37341 F360.000 ; fill
G1 X71.466 Y103.888 E21.37499 F360.000 ; fill
G1 X71.534 Y103.490 E21.38158 F360.000 ; fill
G1 X71.466 Y103.421 E21.38317 F360.000 ; fill
G1 X71.534 Y103.024 E21.38976 F360.000 ; fill
G1 X71.466 Y102.955 E21.39134 F360.000 ; fill
G1 X71.534 Y102.558 E21.39793 F360.000 ; fill
G1 X71.466 Y102.489 E21.39952 F360.000 ; fill
G1 X71.534 Y102.091 E21.40611 F360.000 ; fill
