; generated by Slic3r 0.9.8-dev on 2012-12-28 at 22:17:18

; layer_height = 0.4
; perimeters = 3
; top_solid_layers = 3
; bottom_solid_layers = 3
; fill_density = 0.4
; perimeter_speed = 30
; infill_speed = 60
; travel_speed = 130
; scale = 1
; nozzle_diameter = 0.5
; filament_diameter = 3
; extrusion_multiplier = 1
; perimeters extrusion width = 0.53mm
; infill extrusion width = 0.53mm
; first layer extrusion width = 0.80mm

M107 ; disable fan
M190 S60 ; wait for bed temperature to be reached
M104 S185 ; set temperature
M106 S100 ; fan on
M104 S185 ; set extruder temperature
G28 ; home all axes
M109 S185 ; wait for temperature to be reached
G90 ; use absolute coordinates
G21 ; set units to millimeters
G92 E0 ; reset extrusion distance
M82 ; use absolute distances for extrusion
G1 F1800.000 E-1.00000 ; retract
G92 E0 ; reset extrusion distance
G1 Z0.400 F7800.000 ; move to next layer (0)
G1 X114.820 Y102.860 ; move to first skirt point
G1 F1800.000 E1.00000 ; compensate retraction
G1 X114.460 Y103.270 F540.000 E1.02271 ; skirt
G1 X113.860 Y103.820 E1.05660 ; skirt
G1 X113.200 Y104.290 E1.09032 ; skirt
G1 X112.490 Y104.690 E1.12425 ; skirt
G1 X111.730 Y104.990 E1.15826 ; skirt
G1 X110.950 Y105.200 E1.19189 ; skirt
G1 X110.410 Y105.290 E1.21467 ; skirt
G1 X109.600 Y105.340 E1.24846 ; skirt
G1 X90.400 Y105.340 E2.04771 ; skirt
G1 X89.590 Y105.290 E2.08149 ; skirt
G1 X89.050 Y105.200 E2.10428 ; skirt
G1 X88.530 Y105.070 E2.12659 ; skirt
G1 X88.010 Y104.900 E2.14936 ; skirt
G1 X87.510 Y104.690 E2.17194 ; skirt
G1 X87.030 Y104.430 E2.19466 ; skirt
G1 X86.570 Y104.140 E2.21730 ; skirt
G1 X86.140 Y103.820 E2.23961 ; skirt
G1 X85.730 Y103.460 E2.26232 ; skirt
G1 X85.180 Y102.860 E2.29621 ; skirt
G1 X84.860 Y102.430 E2.31852 ; skirt
G1 X84.570 Y101.970 E2.34116 ; skirt
G1 X84.310 Y101.490 E2.36388 ; skirt
G1 X84.200 Y101.240 E2.37525 ; skirt
G1 X84.010 Y100.730 E2.39790 ; skirt
G1 X83.800 Y99.950 E2.43153 ; skirt
G1 X83.710 Y99.410 E2.45432 ; skirt
G1 X83.660 Y98.600 E2.48810 ; skirt
G1 X83.670 Y79.130 E3.29859 ; skirt
G1 X83.710 Y78.590 E3.32113 ; skirt
G1 X83.800 Y78.050 E3.34392 ; skirt
G1 X83.930 Y77.530 E3.36623 ; skirt
G1 X84.100 Y77.010 E3.38901 ; skirt
G1 X84.310 Y76.510 E3.41158 ; skirt
G1 X84.570 Y76.030 E3.43431 ; skirt
G1 X85.020 Y75.350 E3.46825 ; skirt
G1 X85.540 Y74.730 E3.50193 ; skirt
G1 X86.140 Y74.180 E3.53582 ; skirt
G1 X86.800 Y73.710 E3.56954 ; skirt
G1 X87.510 Y73.310 E3.60347 ; skirt
G1 X88.270 Y73.010 E3.63748 ; skirt
G1 X89.050 Y72.800 E3.67111 ; skirt
G1 X89.590 Y72.710 E3.69390 ; skirt
G1 X90.400 Y72.660 E3.72768 ; skirt
G1 X109.600 Y72.660 E4.52693 ; skirt
G1 X110.410 Y72.710 E4.56071 ; skirt
G1 X110.950 Y72.800 E4.58350 ; skirt
G1 X111.470 Y72.930 E4.60581 ; skirt
G1 X111.990 Y73.100 E4.62858 ; skirt
G1 X112.490 Y73.310 E4.65116 ; skirt
G1 X112.970 Y73.570 E4.67388 ; skirt
G1 X113.430 Y73.860 E4.69652 ; skirt
G1 X113.860 Y74.180 E4.71883 ; skirt
G1 X114.270 Y74.540 E4.74154 ; skirt
G1 X114.820 Y75.140 E4.77543 ; skirt
G1 X115.140 Y75.570 E4.79774 ; skirt
G1 X115.430 Y76.030 E4.82038 ; skirt
G1 X115.690 Y76.510 E4.84310 ; skirt
G1 X115.800 Y76.760 E4.85447 ; skirt
G1 X115.990 Y77.270 E4.87713 ; skirt
G1 X116.200 Y78.050 E4.91075 ; skirt
G1 X116.290 Y78.590 E4.93354 ; skirt
G1 X116.340 Y79.400 E4.96732 ; skirt
G1 X116.330 Y98.870 E5.77781 ; skirt
G1 X116.290 Y99.410 E5.80035 ; skirt
G1 X116.200 Y99.950 E5.82314 ; skirt
G1 X116.070 Y100.470 E5.84545 ; skirt
G1 X115.900 Y100.990 E5.86823 ; skirt
G1 X115.690 Y101.490 E5.89080 ; skirt
G1 X115.430 Y101.970 E5.91353 ; skirt
G1 X115.140 Y102.430 E5.93616 ; skirt
G1 X114.887 Y102.772 E5.95388 ; skirt
G1 X114.820 Y102.860 E5.95848 ; skirt
G1 F1800.000 E4.95848 ; retract
G92 E0 ; reset extrusion distance
G1 X91.871 Y80.871 F7800.000 ; move to first perimeter point
G1 F1800.000 E1.00000 ; compensate retraction
G1 X108.129 Y80.871 F540.000 E1.67676 ; perimeter
G1 X108.129 Y97.129 E2.35352 ; perimeter
G1 X91.871 Y97.129 E3.03028 ; perimeter
G1 X91.871 Y80.982 E3.70245 ; perimeter
G1 X91.871 Y80.871 E3.70704 ; perimeter
G1 X91.136 Y80.136 F7800.000 ; move to first perimeter point
G1 X108.864 Y80.136 F540.000 E4.44505 ; perimeter
G1 X108.864 Y97.864 E5.18305 ; perimeter
G1 X91.136 Y97.864 E5.92106 ; perimeter
G1 X91.136 Y80.246 E6.65447 ; perimeter
G1 X91.136 Y80.136 E6.65906 ; perimeter
G1 X90.400 Y79.400 F7800.000 ; move to first perimeter point
G1 X109.600 Y79.400 F540.000 E7.45831 ; perimeter
G1 X109.600 Y98.600 E8.25756 ; perimeter
G1 X90.400 Y98.600 E9.05681 ; perimeter
G1 X90.400 Y79.510 E9.85146 ; perimeter
G1 X90.400 Y79.400 E9.85606 ; perimeter
G1 X91.037 Y79.768 F7800.000 ; move inwards before travel
G1 F1800.000 E8.85606 ; retract
G92 E0 ; reset extrusion distance
G1 X92.841 Y96.627 F7800.000 ; move to first fill point
G1 F1800.000 E1.00000 ; compensate retraction
G1 X92.373 Y96.159 F1080.000 E1.02799 ; fill
G1 X92.373 Y95.103 E1.07262 ; fill
G1 X93.897 Y96.627 E1.16374 ; fill
G1 X94.953 Y96.627 E1.20838 ; fill
G1 X92.373 Y94.047 E1.36262 ; fill
G1 X92.373 Y92.990 E1.40725 ; fill
G1 X96.010 Y96.627 E1.62461 ; fill
G1 X97.066 Y96.627 E1.66925 ; fill
G1 X92.373 Y91.934 E1.94973 ; fill
G1 X92.373 Y90.878 E1.99437 ; fill
G1 X98.122 Y96.627 E2.33798 ; fill
G1 X99.178 Y96.627 E2.38261 ; fill
G1 X92.373 Y89.822 E2.78935 ; fill
G1 X92.373 Y88.766 E2.83399 ; fill
G1 X100.234 Y96.627 E3.30384 ; fill
G1 X101.290 Y96.627 E3.34848 ; fill
G1 X92.373 Y87.710 E3.88146 ; fill
G1 X92.373 Y86.654 E3.92609 ; fill
G1 X102.346 Y96.627 E4.52219 ; fill
G1 X103.403 Y96.627 E4.56683 ; fill
G1 X92.373 Y85.597 E5.22606 ; fill
G1 X92.373 Y84.541 E5.27069 ; fill
G1 X104.459 Y96.627 E5.99304 ; fill
G1 X105.515 Y96.627 E6.03768 ; fill
G1 X92.373 Y83.485 E6.82315 ; fill
G1 X92.373 Y82.429 E6.86779 ; fill
G1 X106.571 Y96.627 E7.71638 ; fill
G1 X107.627 Y96.627 E7.76101 ; fill
G1 X92.373 Y81.373 E8.67272 ; fill
G1 X93.429 Y81.373 E8.71735 ; fill
G1 X107.627 Y95.571 E9.56595 ; fill
G1 X107.627 Y94.515 E9.61058 ; fill
G1 X94.485 Y81.373 E10.39606 ; fill
G1 X95.541 Y81.373 E10.44069 ; fill
G1 X107.627 Y93.459 E11.16304 ; fill
G1 X107.627 Y92.403 E11.20768 ; fill
G1 X96.597 Y81.373 E11.86690 ; fill
G1 X97.654 Y81.373 E11.91154 ; fill
G1 X107.627 Y91.346 E12.50764 ; fill
G1 X107.627 Y90.290 E12.55227 ; fill
G1 X98.710 Y81.373 E13.08525 ; fill
G1 X99.766 Y81.373 E13.12989 ; fill
G1 X107.627 Y89.234 E13.59974 ; fill
G1 X107.627 Y88.178 E13.64438 ; fill
G1 X100.822 Y81.373 E14.05111 ; fill
G1 X101.878 Y81.373 E14.09575 ; fill
G1 X107.627 Y87.122 E14.43935 ; fill
G1 X107.627 Y86.066 E14.48399 ; fill
G1 X102.934 Y81.373 E14.76447 ; fill
G1 X103.990 Y81.373 E14.80910 ; fill
G1 X107.627 Y85.010 E15.02647 ; fill
G1 X107.627 Y83.953 E15.07110 ; fill
G1 X105.047 Y81.373 E15.22534 ; fill
G1 X106.103 Y81.373 E15.26998 ; fill
G1 X107.627 Y82.897 E15.36109 ; fill
G1 X107.627 Y81.841 E15.40572 ; fill
G1 X107.159 Y81.373 E15.43371 ; fill
G1 F1800.000 E14.43371 ; retract
G92 E0 ; reset extrusion distance
G1 Z0.800 F7800.000 ; move to next layer (1)
G1 X108.698 Y97.698 ; move to first perimeter point
G1 F1800.000 E1.00000 ; compensate retraction
G1 X91.302 Y97.698 F1800.000 E1.51155 ; perimeter
G1 X91.302 Y80.302 E2.02310 ; perimeter
G1 X108.698 Y80.302 E2.53465 ; perimeter
G1 X108.698 Y97.620 E3.04390 ; perimeter
G1 X108.698 Y97.698 E3.04619 ; perimeter
G1 X109.218 Y98.218 F7800.000 ; move to first perimeter point
G1 X90.782 Y98.218 F1800.000 E3.58830 ; perimeter
G1 X90.782 Y79.782 E4.13041 ; perimeter
G1 X109.218 Y79.782 E4.67252 ; perimeter
G1 X109.218 Y98.140 E5.21234 ; perimeter
G1 X109.218 Y98.218 E5.21463 ; perimeter
G1 X109.737 Y98.737 F7800.000 ; move to first perimeter point
G1 X90.263 Y98.737 F1800.000 E5.78730 ; perimeter
G1 X90.263 Y79.263 E6.35997 ; perimeter
G1 X109.737 Y79.263 E6.93263 ; perimeter
G1 X109.737 Y98.660 E7.50301 ; perimeter
G1 X109.737 Y98.737 E7.50530 ; perimeter
G1 X109.287 Y98.478 F7800.000 ; move inwards before travel
G1 X108.344 Y97.013 ; move to first fill point
G1 X108.013 Y97.344 F3000.000 E7.51922 ; fill
G1 X107.270 Y97.344 E7.54134 ; fill
G1 X108.344 Y96.270 E7.58655 ; fill
G1 X108.344 Y95.526 E7.60867 ; fill
G1 X106.526 Y97.344 E7.68515 ; fill
G1 X105.783 Y97.344 E7.70728 ; fill
G1 X108.344 Y94.783 E7.81505 ; fill
G1 X108.344 Y94.039 E7.83717 ; fill
G1 X105.039 Y97.344 E7.97622 ; fill
G1 X104.296 Y97.344 E7.99834 ; fill
G1 X108.344 Y93.296 E8.16868 ; fill
G1 X108.344 Y92.552 E8.19080 ; fill
G1 X103.552 Y97.344 E8.39241 ; fill
G1 X102.809 Y97.344 E8.41453 ; fill
G1 X108.344 Y91.809 E8.64743 ; fill
G1 X108.344 Y91.065 E8.66955 ; fill
G1 X102.065 Y97.344 E8.93374 ; fill
G1 X101.322 Y97.344 E8.95586 ; fill
G1 X108.344 Y90.322 E9.25132 ; fill
G1 X108.344 Y89.578 E9.27344 ; fill
G1 X100.578 Y97.344 E9.60019 ; fill
G1 X99.835 Y97.344 E9.62231 ; fill
G1 X108.344 Y88.835 E9.98034 ; fill
G1 X108.344 Y88.091 E10.00246 ; fill
G1 X99.091 Y97.344 E10.39177 ; fill
G1 X98.348 Y97.344 E10.41389 ; fill
G1 X108.344 Y87.348 E10.83449 ; fill
G1 X108.344 Y86.604 E10.85661 ; fill
G1 X97.604 Y97.344 E11.30849 ; fill
G1 X96.860 Y97.344 E11.33061 ; fill
G1 X108.344 Y85.860 E11.81377 ; fill
G1 X108.344 Y85.117 E11.83589 ; fill
G1 X96.117 Y97.344 E12.35033 ; fill
G1 X95.373 Y97.344 E12.37245 ; fill
G1 X108.344 Y84.374 E12.91818 ; fill
G1 X108.344 Y83.630 E12.94030 ; fill
G1 X94.630 Y97.344 E13.51731 ; fill
G1 X93.886 Y97.344 E13.53943 ; fill
G1 X108.344 Y82.886 E14.14772 ; fill
G1 X108.344 Y82.143 E14.16984 ; fill
G1 X93.143 Y97.344 E14.80941 ; fill
G1 X92.399 Y97.344 E14.83153 ; fill
G1 X108.344 Y81.399 E15.50239 ; fill
G1 X108.344 Y80.656 E15.52450 ; fill
G1 X91.656 Y97.344 E16.22663 ; fill
G1 X91.656 Y96.600 E16.24875 ; fill
G1 X107.600 Y80.656 E16.91961 ; fill
G1 X106.857 Y80.656 E16.94173 ; fill
G1 X91.656 Y95.857 E17.58130 ; fill
G1 X91.656 Y95.114 E17.60342 ; fill
G1 X106.114 Y80.656 E18.21170 ; fill
G1 X105.370 Y80.656 E18.23383 ; fill
G1 X91.656 Y94.370 E18.81083 ; fill
G1 X91.656 Y93.626 E18.83295 ; fill
G1 X104.626 Y80.656 E19.37868 ; fill
G1 X103.883 Y80.656 E19.40080 ; fill
G1 X91.656 Y92.883 E19.91524 ; fill
G1 X91.656 Y92.139 E19.93736 ; fill
G1 X103.139 Y80.656 E20.42052 ; fill
G1 X102.396 Y80.656 E20.44263 ; fill
G1 X91.656 Y91.396 E20.89451 ; fill
G1 X91.656 Y90.652 E20.91663 ; fill
G1 X101.652 Y80.656 E21.33722 ; fill
G1 X100.909 Y80.656 E21.35934 ; fill
G1 X91.656 Y89.909 E21.74865 ; fill
G1 X91.656 Y89.165 E21.77077 ; fill
G1 X100.165 Y80.656 E22.12880 ; fill
G1 X99.422 Y80.656 E22.15092 ; fill
G1 X91.656 Y88.422 E22.47767 ; fill
G1 X91.656 Y87.678 E22.49979 ; fill
G1 X98.678 Y80.656 E22.79525 ; fill
G1 X97.935 Y80.656 E22.81737 ; fill
G1 X91.656 Y86.935 E23.08155 ; fill
G1 X91.656 Y86.191 E23.10367 ; fill
G1 X97.191 Y80.656 E23.33657 ; fill
G1 X96.448 Y80.656 E23.35869 ; fill
G1 X91.656 Y85.448 E23.56031 ; fill
G1 X91.656 Y84.704 E23.58243 ; fill
G1 X95.704 Y80.656 E23.75276 ; fill
G1 X94.961 Y80.656 E23.77488 ; fill
G1 X91.656 Y83.961 E23.91393 ; fill
G1 X91.656 Y83.217 E23.93605 ; fill
G1 X94.217 Y80.656 E24.04382 ; fill
G1 X93.474 Y80.656 E24.06594 ; fill
G1 X91.656 Y82.474 E24.14242 ; fill
G1 X91.656 Y81.730 E24.16454 ; fill
G1 X92.730 Y80.656 E24.20974 ; fill
G1 X91.987 Y80.656 E24.23186 ; fill
G1 X91.656 Y80.987 E24.24578 ; fill
M106 S255 ; enable fan
G1 F1800.000 E23.24578 ; retract
G92 E0 ; reset extrusion distance
G1 Z1.200 F7800.000 ; move to next layer (2)
G1 X108.052 Y98.504 ; move to first perimeter point
G1 F1800.000 E1.00000 ; compensate retraction
G1 X109.351 Y98.447 F600.000 E1.03823 ; perimeter
G1 X109.504 Y98.091 E1.04963 ; perimeter
G1 X109.504 Y79.909 E1.58427 ; perimeter
G1 X109.416 Y79.584 E1.59417 ; perimeter
G1 X109.091 Y79.496 E1.60407 ; perimeter
G1 X90.909 Y79.496 E2.13871 ; perimeter
G1 X90.584 Y79.584 E2.14861 ; perimeter
G1 X90.390 Y79.390 E2.15671 ; perimeter
G1 F1800.000 E1.15671 ; retract
G92 E0 ; reset extrusion distance
G1 X90.497 Y83.545 F7800.000 ; move to first perimeter point
G1 F1800.000 E1.00000 ; compensate retraction
G1 X90.496 Y79.909 F600.000 E1.10693 ; perimeter
G1 X90.584 Y79.584 E1.11683 ; perimeter
G1 F1800.000 E0.11683 ; retract
G92 E0 ; reset extrusion distance
G1 X90.499 Y91.857 F7800.000 ; move to first perimeter point
G1 F1800.000 E1.00000 ; compensate retraction
G1 X90.497 Y83.545 F600.000 E1.24441 ; perimeter
G1 F1800.000 E0.24441 ; retract
G92 E0 ; reset extrusion distance
G1 X90.498 Y93.935 F7800.000 ; move to first perimeter point
G1 F1800.000 E1.00000 ; compensate retraction
G1 X90.499 Y91.857 F600.000 E1.06110 ; perimeter
G1 F1800.000 E0.06110 ; retract
G92 E0 ; reset extrusion distance
G1 X90.497 Y94.974 F7800.000 ; move to first perimeter point
G1 F1800.000 E1.00000 ; compensate retraction
G1 X90.498 Y93.935 F600.000 E1.03055 ; perimeter
G1 X90.497 Y94.974 F7800.000 ; move to first perimeter point
G1 X90.497 Y95.494 F600.000 E1.04583 ; perimeter
G1 X90.553 Y98.351 E1.12986 ; perimeter
G1 X90.909 Y98.504 E1.14126 ; perimeter
G1 X91.652 Y98.496 E1.16311 ; perimeter
G1 X100.519 Y98.500 E1.42386 ; perimeter
G1 X108.052 Y98.504 E1.64535 ; perimeter
G1 X109.416 Y98.416 F7800.000 ; move to first perimeter point
G1 X109.610 Y98.610 F600.000 E1.65345 ; perimeter
G1 F1800.000 E0.65345 ; retract
G92 E0 ; reset extrusion distance
G1 X90.390 Y98.610 F7800.000 ; move to first perimeter point
G1 F1800.000 E1.00000 ; compensate retraction
G1 X90.584 Y98.416 F600.000 E1.00810 ; perimeter
G1 F1800.000 E0.00810 ; retract
G92 E0 ; reset extrusion distance
G1 X109.416 Y79.584 F7800.000 ; move to first perimeter point
G1 F1800.000 E1.00000 ; compensate retraction
G1 X109.610 Y79.390 F600.000 E1.00810 ; perimeter
G1 X109.610 Y79.390 ; perimeter
G1 F1800.000 E0.00810 ; retract
G92 E0 ; reset extrusion distance
G1 Z1.600 F7800.000 ; move to next layer (3)
G1 X108.052 Y98.504 ; move to first perimeter point
G1 F1800.000 E1.00000 ; compensate retraction
G1 X109.351 Y98.447 F600.000 E1.03823 ; perimeter
G1 X109.504 Y98.091 E1.04963 ; perimeter
G1 X109.504 Y79.909 E1.58427 ; perimeter
G1 X109.416 Y79.584 E1.59417 ; perimeter
G1 X109.091 Y79.496 E1.60407 ; perimeter
G1 X90.909 Y79.496 E2.13871 ; perimeter
G1 X90.584 Y79.584 E2.14861 ; perimeter
G1 X90.390 Y79.390 E2.15671 ; perimeter
G1 F1800.000 E1.15671 ; retract
G92 E0 ; reset extrusion distance
G1 X90.497 Y83.545 F7800.000 ; move to first perimeter point
G1 F1800.000 E1.00000 ; compensate retraction
G1 X90.496 Y79.909 F600.000 E1.10693 ; perimeter
G1 X90.584 Y79.584 E1.11683 ; perimeter
G1 F1800.000 E0.11683 ; retract
G92 E0 ; reset extrusion distance
G1 X90.499 Y91.857 F7800.000 ; move to first perimeter point
G1 F1800.000 E1.00000 ; compensate retraction
G1 X90.497 Y83.545 F600.000 E1.24441 ; perimeter
G1 F1800.000 E0.24441 ; retract
G92 E0 ; reset extrusion distance
G1 X90.498 Y93.935 F7800.000 ; move to first perimeter point
G1 F1800.000 E1.00000 ; compensate retraction
G1 X90.499 Y91.857 F600.000 E1.06110 ; perimeter
G1 F1800.000 E0.06110 ; retract
G92 E0 ; reset extrusion distance
G1 X90.497 Y94.974 F7800.000 ; move to first perimeter point
G1 F1800.000 E1.00000 ; compensate retraction
G1 X90.498 Y93.935 F600.000 E1.03055 ; perimeter
G1 X90.497 Y94.974 F7800.000 ; move to first perimeter point
G1 X90.497 Y95.494 F600.000 E1.04583 ; perimeter
G1 X90.553 Y98.351 E1.12986 ; perimeter
G1 X90.909 Y98.504 E1.14126 ; perimeter
G1 X91.652 Y98.496 E1.16311 ; perimeter
G1 X100.519 Y98.500 E1.42386 ; perimeter
G1 X108.052 Y98.504 E1.64535 ; perimeter
G1 X109.416 Y98.416 F7800.000 ; move to first perimeter point
G1 X109.610 Y98.610 F600.000 E1.65345 ; perimeter
G1 F1800.000 E0.65345 ; retract
G92 E0 ; reset extrusion distance
G1 X90.390 Y98.610 F7800.000 ; move to first perimeter point
G1 F1800.000 E1.00000 ; compensate retraction
G1 X90.584 Y98.416 F600.000 E1.00810 ; perimeter
G1 F1800.000 E0.00810 ; retract
G92 E0 ; reset extrusion distance
G1 X109.416 Y79.584 F7800.000 ; move to first perimeter point
G1 F1800.000 E1.00000 ; compensate retraction
G1 X109.610 Y79.390 F600.000 E1.00810 ; perimeter
G1 X109.610 Y79.390 ; perimeter
G1 F1800.000 E0.00810 ; retract
