; generated by Slic3r 0.9.8-dev on 2013-01-12 at 12:07:08

; layer_height = 0.4
; perimeters = 3
; top_solid_layers = 3
; bottom_solid_layers = 3
; fill_density = 0.40
; perimeter_speed = 30
; infill_speed = 60
; travel_speed = 130
; scale = 1
; nozzle_diameter = 0.5
; filament_diameter = 3
; extrusion_multiplier = 1
; perimeters extrusion width = 0.53mm
; infill extrusion width = 0.53mm
; first layer extrusion width = 0.80mm

M190 S60 ; wait for bed temperature to be reached
M104 S180 ; set temperature
G28 ; home all axes
G92 E0 ;reset extruder
M109 S180 ; wait for temperature to be reached
G90 ; use absolute coordinates
G21 ; set units to millimeters
G92 E0 ; reset extrusion distance
M82 ; use absolute distances for extrusion
G1 F1800.000 E-1.00000 ; retract
G1 Z1.400 ; move to next layer (0) and lift
G92 E0 ; reset extrusion distance
G1 X115.043 Y52.653 F7800.000 ; move to first skirt point
G1 Z0.400 ; restore layer Z
G1 F1800.000 E1.00000 ; compensate retraction
G1 X115.533 Y52.693 F540.000 E1.02047 ; skirt
G1 X121.423 Y53.463 E1.26774 ; skirt
G1 X122.123 Y53.593 E1.29738 ; skirt
G1 X122.463 Y53.683 E1.31202 ; skirt
G1 X123.123 Y53.923 E1.34125 ; skirt
G1 X128.613 Y56.193 E1.58855 ; skirt
G1 X128.943 Y56.333 E1.60347 ; skirt
G1 X129.563 Y56.673 E1.63291 ; skirt
G1 X129.863 Y56.863 E1.64769 ; skirt
G1 X130.143 Y57.073 E1.66226 ; skirt
G1 X134.853 Y60.693 E1.90954 ; skirt
G1 X135.393 Y61.143 E1.93881 ; skirt
G1 X135.643 Y61.393 E1.95352 ; skirt
G1 X136.093 Y61.933 E1.98278 ; skirt
G1 X139.713 Y66.643 E2.23007 ; skirt
G1 X139.923 Y66.923 E2.24464 ; skirt
G1 X140.113 Y67.223 E2.25942 ; skirt
G1 X140.453 Y67.843 E2.28886 ; skirt
G1 X140.593 Y68.173 E2.30378 ; skirt
G1 X142.863 Y73.663 E2.55108 ; skirt
G1 X143.103 Y74.323 E2.58031 ; skirt
G1 X143.193 Y74.663 E2.59495 ; skirt
G1 X143.323 Y75.363 E2.62459 ; skirt
G1 X144.093 Y81.253 E2.87186 ; skirt
G1 X144.133 Y81.603 E2.88653 ; skirt
G1 X144.143 Y81.943 E2.90069 ; skirt
G1 X144.133 Y82.643 E2.92983 ; skirt
G1 X144.093 Y82.993 E2.94449 ; skirt
G1 X143.323 Y88.883 E3.19177 ; skirt
G1 X143.193 Y89.583 E3.22140 ; skirt
G1 X143.103 Y89.923 E3.23605 ; skirt
G1 X142.863 Y90.583 E3.26528 ; skirt
G1 X140.453 Y96.403 E3.52750 ; skirt
G1 X140.293 Y96.713 E3.54202 ; skirt
G1 X139.923 Y97.323 E3.57172 ; skirt
G1 X136.093 Y102.313 E3.83358 ; skirt
G1 X135.643 Y102.853 E3.86284 ; skirt
G1 X135.393 Y103.103 E3.87755 ; skirt
G1 X134.853 Y103.553 E3.90682 ; skirt
G1 X130.143 Y107.173 E4.15410 ; skirt
G1 X129.593 Y107.563 E4.18217 ; skirt
G1 X129.293 Y107.733 E4.19652 ; skirt
G1 X128.683 Y108.033 E4.22482 ; skirt
G1 X83.953 Y127.103 E6.24898 ; skirt
G1 X83.193 Y127.373 E6.28255 ; skirt
G1 X82.393 Y127.553 E6.31669 ; skirt
G1 X82.123 Y127.593 E6.32805 ; skirt
G1 X81.583 Y127.633 E6.35059 ; skirt
G1 X81.043 Y127.633 E6.37307 ; skirt
G1 X80.503 Y127.593 E6.39561 ; skirt
G1 X80.233 Y127.553 E6.40697 ; skirt
G1 X79.443 Y127.373 E6.44070 ; skirt
G1 X78.673 Y127.103 E6.47467 ; skirt
G1 X78.423 Y126.993 E6.48604 ; skirt
G1 X77.943 Y126.733 E6.50876 ; skirt
G1 X77.263 Y126.283 E6.54270 ; skirt
G1 X76.643 Y125.763 E6.57639 ; skirt
G1 X76.093 Y125.163 E6.61027 ; skirt
G1 X75.773 Y124.733 E6.63258 ; skirt
G1 X75.483 Y124.273 E6.65522 ; skirt
G1 X56.743 Y91.803 E8.21583 ; skirt
G1 X56.473 Y91.283 E8.24022 ; skirt
G1 X56.243 Y90.733 E8.26504 ; skirt
G1 X56.063 Y90.173 E8.28952 ; skirt
G1 X55.993 Y89.893 E8.30154 ; skirt
G1 X55.893 Y89.313 E8.32604 ; skirt
G1 X55.833 Y88.433 E8.36276 ; skirt
G1 X55.833 Y56.943 E9.67361 ; skirt
G1 X55.883 Y56.133 E9.70739 ; skirt
G1 X55.973 Y55.593 E9.73018 ; skirt
G1 X56.183 Y54.813 E9.76380 ; skirt
G1 X56.483 Y54.053 E9.79782 ; skirt
G1 X56.743 Y53.573 E9.82054 ; skirt
G1 X57.033 Y53.113 E9.84318 ; skirt
G1 X57.353 Y52.683 E9.86549 ; skirt
G1 X57.533 Y52.473 E9.87700 ; skirt
G1 X57.903 Y52.083 E9.89938 ; skirt
G1 X58.313 Y51.723 E9.92209 ; skirt
G1 X58.973 Y51.253 E9.95582 ; skirt
G1 X59.683 Y50.853 E9.98975 ; skirt
G1 X60.183 Y50.643 E10.01232 ; skirt
G1 X60.703 Y50.473 E10.03509 ; skirt
G1 X61.223 Y50.343 E10.05741 ; skirt
G1 X61.763 Y50.253 E10.08020 ; skirt
G1 X62.573 Y50.203 E10.11398 ; skirt
G1 X71.773 Y50.203 E10.49695 ; skirt
G1 X114.933 Y52.647 E12.29647 ; skirt
G1 X115.043 Y52.653 E12.30106 ; skirt
G1 F1800.000 E11.30106 ; retract
G1 Z1.400 ; move to next layer (0) and lift
G92 E0 ; reset extrusion distance
G1 X121.190 Y93.429 F7800.000 ; move to first perimeter point
G1 Z0.400 ; restore layer Z
G1 F1800.000 E1.00000 ; compensate retraction
G1 X118.044 Y94.733 F540.000 E1.14179 ; perimeter
G1 X114.667 Y95.177 E1.28357 ; perimeter
G1 X111.290 Y94.733 E1.42536 ; perimeter
G1 X108.143 Y93.429 E1.56714 ; perimeter
G1 X105.441 Y91.356 E1.70893 ; perimeter
G1 X103.367 Y88.654 E1.85072 ; perimeter
G1 X102.064 Y85.507 E1.99250 ; perimeter
G1 X101.619 Y82.130 E2.13428 ; perimeter
G1 X102.064 Y78.753 E2.27607 ; perimeter
G1 X102.174 Y78.487 E2.28806 ; perimeter
G1 X103.367 Y75.606 E2.41786 ; perimeter
G1 X105.441 Y72.904 E2.55964 ; perimeter
G1 X108.143 Y70.831 E2.70143 ; perimeter
G1 X111.024 Y69.637 E2.83123 ; perimeter
G1 X111.290 Y69.527 E2.84321 ; perimeter
G1 X114.667 Y69.082 E2.98500 ; perimeter
G1 X118.044 Y69.527 E3.12679 ; perimeter
G1 X121.190 Y70.831 E3.26857 ; perimeter
G1 X123.893 Y72.904 E3.41035 ; perimeter
G1 X125.966 Y75.606 E3.55214 ; perimeter
G1 X127.269 Y78.753 E3.69393 ; perimeter
G1 X127.714 Y82.130 E3.83571 ; perimeter
G1 X127.269 Y85.507 E3.97750 ; perimeter
G1 X125.966 Y88.654 E4.11928 ; perimeter
G1 X123.893 Y91.356 E4.26107 ; perimeter
G1 X121.278 Y93.362 E4.39826 ; perimeter
G1 X121.190 Y93.429 E4.40285 ; perimeter
G1 X120.819 Y92.787 F7800.000 ; move to first perimeter point
G1 X117.852 Y94.016 F540.000 E4.53658 ; perimeter
G1 X114.667 Y94.435 E4.67030 ; perimeter
G1 X111.482 Y94.016 E4.80402 ; perimeter
G1 X108.514 Y92.787 E4.93774 ; perimeter
G1 X105.965 Y90.831 E5.07147 ; perimeter
G1 X104.010 Y88.283 E5.20519 ; perimeter
G1 X102.781 Y85.315 E5.33891 ; perimeter
G1 X102.361 Y82.130 E5.47263 ; perimeter
G1 X102.781 Y78.945 E5.60636 ; perimeter
G1 X102.854 Y78.768 E5.61431 ; perimeter
G1 X104.010 Y75.977 E5.74008 ; perimeter
G1 X105.965 Y73.429 E5.87380 ; perimeter
G1 X108.514 Y71.473 E6.00752 ; perimeter
G1 X111.305 Y70.317 E6.13329 ; perimeter
G1 X111.482 Y70.244 E6.14125 ; perimeter
G1 X114.667 Y69.824 E6.27497 ; perimeter
G1 X117.852 Y70.244 E6.40869 ; perimeter
G1 X120.819 Y71.473 E6.54242 ; perimeter
G1 X123.368 Y73.429 E6.67614 ; perimeter
G1 X125.323 Y75.977 E6.80986 ; perimeter
G1 X126.553 Y78.945 E6.94358 ; perimeter
G1 X126.972 Y82.130 E7.07731 ; perimeter
G1 X126.553 Y85.315 E7.21103 ; perimeter
G1 X125.323 Y88.283 E7.34475 ; perimeter
G1 X123.368 Y90.831 E7.47847 ; perimeter
G1 X120.907 Y92.720 E7.60760 ; perimeter
G1 X120.819 Y92.787 E7.61220 ; perimeter
G1 X120.448 Y92.144 F7800.000 ; move to first perimeter point
G1 X117.660 Y93.299 F540.000 E7.73786 ; perimeter
G1 X114.760 Y93.681 E7.85959 ; perimeter
G1 X114.667 Y93.693 E7.86352 ; perimeter
G1 X111.674 Y93.299 E7.98918 ; perimeter
G1 X108.885 Y92.144 E8.11483 ; perimeter
G1 X106.490 Y90.306 E8.24049 ; perimeter
G1 X104.652 Y87.912 E8.36615 ; perimeter
G1 X103.497 Y85.123 E8.49181 ; perimeter
G1 X103.103 Y82.130 E8.61747 ; perimeter
G1 X103.497 Y79.137 E8.74313 ; perimeter
G1 X104.652 Y76.348 E8.86879 ; perimeter
G1 X106.490 Y73.953 E8.99445 ; perimeter
G1 X108.885 Y72.116 E9.12011 ; perimeter
G1 X111.674 Y70.960 E9.24577 ; perimeter
G1 X114.667 Y70.566 E9.37143 ; perimeter
G1 X117.660 Y70.960 E9.49709 ; perimeter
G1 X120.448 Y72.116 E9.62275 ; perimeter
G1 X122.843 Y73.953 E9.74841 ; perimeter
G1 X124.681 Y76.348 E9.87407 ; perimeter
G1 X125.836 Y79.137 E9.99973 ; perimeter
G1 X126.230 Y82.130 E10.12539 ; perimeter
G1 X125.836 Y85.123 E10.25105 ; perimeter
G1 X124.681 Y87.912 E10.37671 ; perimeter
G1 X122.843 Y90.306 E10.50237 ; perimeter
G1 X120.536 Y92.077 E10.62344 ; perimeter
G1 X120.448 Y92.144 E10.62803 ; perimeter
G1 X120.416 Y92.879 F7800.000 ; move inwards before travel
G1 F1800.000 E9.62803 ; retract
G1 Z1.400 ; lift plate during travel
G92 E0 ; reset extrusion distance
G1 X125.303 Y100.553 F7800.000 ; move to first perimeter point
G1 Z0.400 ; restore layer Z
G1 F1800.000 E1.00000 ; compensate retraction
G1 X120.172 Y102.678 F540.000 E1.23117 ; perimeter
G1 X114.667 Y103.402 E1.46234 ; perimeter
G1 X109.161 Y102.678 E1.69351 ; perimeter
G1 X104.030 Y100.553 E1.92468 ; perimeter
G1 X99.625 Y97.172 E2.15584 ; perimeter
G1 X96.244 Y92.766 E2.38701 ; perimeter
G1 X94.119 Y87.636 E2.61818 ; perimeter
G1 X93.394 Y82.130 E2.84935 ; perimeter
G1 X94.119 Y76.624 E3.08052 ; perimeter
G1 X96.244 Y71.494 E3.31169 ; perimeter
G1 X99.625 Y67.088 E3.54286 ; perimeter
G1 X104.030 Y63.707 E3.77403 ; perimeter
G1 X109.161 Y61.582 E4.00520 ; perimeter
G1 X109.316 Y61.562 E4.01172 ; perimeter
G1 X114.667 Y60.857 E4.23636 ; perimeter
G1 X120.172 Y61.582 E4.46753 ; perimeter
G1 X125.303 Y63.707 E4.69870 ; perimeter
G1 X129.709 Y67.088 E4.92987 ; perimeter
G1 X133.089 Y71.494 E5.16104 ; perimeter
G1 X135.214 Y76.624 E5.39221 ; perimeter
G1 X135.939 Y82.130 E5.62338 ; perimeter
G1 X135.214 Y87.636 E5.85455 ; perimeter
G1 X133.089 Y92.766 E6.08571 ; perimeter
G1 X129.709 Y97.172 E6.31688 ; perimeter
G1 X125.391 Y100.485 E6.54346 ; perimeter
G1 X125.303 Y100.553 E6.54805 ; perimeter
G1 X125.674 Y101.195 F7800.000 ; move to first perimeter point
G1 X120.364 Y103.394 F540.000 E6.78728 ; perimeter
G1 X114.667 Y104.144 E7.02652 ; perimeter
G1 X108.969 Y103.394 E7.26575 ; perimeter
G1 X103.659 Y101.195 E7.50498 ; perimeter
G1 X99.100 Y97.697 E7.74421 ; perimeter
G1 X95.601 Y93.137 E7.98344 ; perimeter
G1 X93.402 Y87.828 E8.22267 ; perimeter
G1 X92.652 Y82.130 E8.46191 ; perimeter
G1 X93.402 Y76.432 E8.70114 ; perimeter
G1 X95.601 Y71.123 E8.94037 ; perimeter
G1 X99.100 Y66.563 E9.17960 ; perimeter
G1 X103.659 Y63.065 E9.41883 ; perimeter
G1 X108.969 Y60.865 E9.65807 ; perimeter
G1 X109.220 Y60.832 E9.66862 ; perimeter
G1 X114.667 Y60.115 E9.89730 ; perimeter
G1 X120.364 Y60.865 E10.13653 ; perimeter
G1 X125.674 Y63.065 E10.37576 ; perimeter
G1 X130.233 Y66.563 E10.61499 ; perimeter
G1 X133.732 Y71.123 E10.85422 ; perimeter
G1 X135.931 Y76.432 E11.09346 ; perimeter
G1 X136.681 Y82.130 E11.33269 ; perimeter
G1 X135.931 Y87.828 E11.57192 ; perimeter
G1 X133.732 Y93.137 E11.81115 ; perimeter
G1 X130.233 Y97.697 E12.05038 ; perimeter
G1 X125.761 Y101.128 E12.28502 ; perimeter
G1 X125.674 Y101.195 E12.28962 ; perimeter
G1 X126.045 Y101.838 F7800.000 ; move to first perimeter point
G1 X120.556 Y104.111 F540.000 E12.53691 ; perimeter
G1 X114.667 Y104.886 E12.78420 ; perimeter
G1 X108.777 Y104.111 E13.03150 ; perimeter
G1 X103.288 Y101.838 E13.27879 ; perimeter
G1 X98.575 Y98.221 E13.52609 ; perimeter
G1 X94.959 Y93.508 E13.77338 ; perimeter
G1 X92.686 Y88.020 E14.02068 ; perimeter
G1 X91.910 Y82.130 E14.26797 ; perimeter
G1 X92.686 Y76.240 E14.51527 ; perimeter
G1 X94.959 Y70.752 E14.76256 ; perimeter
G1 X98.575 Y66.039 E15.00986 ; perimeter
G1 X103.288 Y62.422 E15.25715 ; perimeter
G1 X108.777 Y60.149 E15.50445 ; perimeter
G1 X109.124 Y60.103 E15.51903 ; perimeter
G1 X114.667 Y59.373 E15.75174 ; perimeter
G1 X120.556 Y60.149 E15.99904 ; perimeter
G1 X126.045 Y62.422 E16.24633 ; perimeter
G1 X130.758 Y66.039 E16.49363 ; perimeter
G1 X134.374 Y70.752 E16.74092 ; perimeter
G1 X136.648 Y76.240 E16.98821 ; perimeter
G1 X137.423 Y82.130 E17.23551 ; perimeter
G1 X136.648 Y88.020 E17.48280 ; perimeter
G1 X134.374 Y93.508 E17.73010 ; perimeter
G1 X130.758 Y98.221 E17.97739 ; perimeter
G1 X126.132 Y101.770 E18.22010 ; perimeter
G1 X126.045 Y101.838 E18.22469 ; perimeter
G1 X125.425 Y101.442 F7800.000 ; move inwards before travel
G1 F1800.000 E17.22469 ; retract
G1 Z1.400 ; lift plate during travel
G92 E0 ; reset extrusion distance
G1 X100.384 Y96.882 F7800.000 ; move to first fill point
G1 Z0.400 ; restore layer Z
G1 F1800.000 E1.00000 ; compensate retraction
G1 X99.915 Y96.413 F1080.000 E1.02804 ; fill
G1 F1800.000 E0.02804 ; retract
G1 Z1.400 ; lift plate during travel
G92 E0 ; reset extrusion distance
G1 X96.605 Y92.047 F7800.000 ; move to first fill point
G1 Z0.400 ; restore layer Z
G1 F1800.000 E1.00000 ; compensate retraction
G1 X104.749 Y100.191 F1080.000 E1.48656 ; fill
G1 X106.551 Y100.938 E1.56898 ; fill
G1 X95.859 Y90.245 E2.20783 ; fill
G1 X95.112 Y88.443 E2.29025 ; fill
G1 X108.354 Y101.684 E3.08139 ; fill
G1 X109.971 Y102.246 E3.15371 ; fill
G1 X94.551 Y86.826 E4.07501 ; fill
G1 X94.391 Y85.610 E4.12682 ; fill
G1 X111.187 Y102.406 E5.13033 ; fill
G1 X112.403 Y102.566 E5.18214 ; fill
G1 X94.231 Y84.394 E6.26785 ; fill
G1 X94.071 Y83.178 E6.31966 ; fill
G1 X113.619 Y102.726 E7.48759 ; fill
G1 X114.834 Y102.886 E7.53940 ; fill
G1 X93.911 Y81.962 E8.78953 ; fill
G1 X94.018 Y81.014 E8.82986 ; fill
G1 X115.783 Y102.779 E10.13024 ; fill
G1 X116.716 Y102.656 E10.16999 ; fill
G1 X108.152 Y94.092 E10.68164 ; fill
G1 X109.955 Y94.839 E10.76406 ; fill
G1 X117.649 Y102.533 E11.22376 ; fill
G1 X118.582 Y102.410 E11.26352 ; fill
G1 X111.466 Y95.294 E11.68865 ; fill
G1 X112.682 Y95.455 E11.74046 ; fill
G1 X119.515 Y102.287 E12.14869 ; fill
G1 X120.401 Y102.118 E12.18682 ; fill
G1 X113.898 Y95.615 E12.57536 ; fill
G1 X114.955 Y95.616 E12.62003 ; fill
G1 X121.148 Y101.809 E12.99000 ; fill
G1 X121.894 Y101.499 E13.02414 ; fill
G1 X115.888 Y95.493 E13.38298 ; fill
G1 X116.821 Y95.371 E13.42273 ; fill
G1 X122.641 Y101.190 E13.77043 ; fill
G1 X123.387 Y100.881 E13.80457 ; fill
G1 X117.754 Y95.248 E14.14113 ; fill
G1 X118.550 Y94.988 E14.17650 ; fill
G1 X124.134 Y100.572 E14.51011 ; fill
G1 X124.881 Y100.262 E14.54425 ; fill
G1 X119.297 Y94.679 E14.87785 ; fill
G1 X120.043 Y94.369 E14.91199 ; fill
G1 X125.535 Y99.861 E15.24010 ; fill
G1 X126.133 Y99.403 E15.27191 ; fill
G1 X120.790 Y94.060 E15.59111 ; fill
G1 X121.495 Y93.709 E15.62437 ; fill
G1 X126.730 Y98.944 E15.93715 ; fill
G1 X127.327 Y98.486 E15.96896 ; fill
G1 X122.092 Y93.251 E16.28174 ; fill
G1 X122.690 Y92.792 E16.31356 ; fill
G1 X127.925 Y98.027 E16.62634 ; fill
G1 X128.522 Y97.569 E16.65815 ; fill
G1 X123.287 Y92.334 E16.97093 ; fill
G1 X123.884 Y91.875 E17.00274 ; fill
G1 X129.119 Y97.111 E17.31552 ; fill
G1 X129.647 Y96.583 E17.34706 ; fill
G1 X124.412 Y91.348 E17.65984 ; fill
G1 X124.871 Y90.750 E17.69166 ; fill
G1 X130.106 Y95.985 E18.00444 ; fill
G1 X130.564 Y95.388 E18.03625 ; fill
G1 X125.329 Y90.153 E18.34902 ; fill
G1 X125.787 Y89.555 E18.38084 ; fill
G1 X131.023 Y94.790 E18.69362 ; fill
G1 X131.481 Y94.193 E18.72543 ; fill
G1 X126.246 Y88.958 E19.03822 ; fill
G1 X126.597 Y88.253 E19.07147 ; fill
G1 X131.939 Y93.596 E19.39067 ; fill
G1 X132.398 Y92.998 E19.42248 ; fill
G1 X126.906 Y87.507 E19.75059 ; fill
G1 X127.215 Y86.760 E19.78473 ; fill
G1 X132.799 Y92.344 E20.11834 ; fill
G1 X133.108 Y91.597 E20.15247 ; fill
G1 X127.525 Y86.014 E20.48608 ; fill
G1 X127.784 Y85.218 E20.52146 ; fill
G1 X133.418 Y90.851 E20.85802 ; fill
G1 X133.727 Y90.104 E20.89216 ; fill
G1 X127.907 Y84.285 E21.23986 ; fill
G1 X128.030 Y83.352 E21.27961 ; fill
G1 X134.036 Y89.358 E21.63845 ; fill
G1 X134.345 Y88.611 E21.67259 ; fill
G1 X128.153 Y82.419 E22.04256 ; fill
G1 X128.151 Y81.361 E22.08723 ; fill
G1 X134.655 Y87.864 E22.47577 ; fill
G1 X134.824 Y86.978 E22.51390 ; fill
G1 X127.991 Y80.145 E22.92213 ; fill
G1 X127.831 Y78.929 E22.97394 ; fill
G1 X134.947 Y86.045 E23.39907 ; fill
G1 X135.070 Y85.112 E23.43883 ; fill
G1 X127.375 Y77.418 E23.89853 ; fill
G1 X126.629 Y75.615 E23.98095 ; fill
G1 X135.193 Y84.179 E24.49260 ; fill
G1 X135.315 Y83.246 E24.53236 ; fill
G1 X113.550 Y61.481 E25.83274 ; fill
G1 X112.617 Y61.604 E25.87249 ; fill
G1 X121.181 Y70.168 E26.38414 ; fill
G1 X119.379 Y69.421 E26.46657 ; fill
G1 X111.685 Y61.727 E26.92627 ; fill
G1 X110.751 Y61.850 E26.96603 ; fill
G1 X117.867 Y68.965 E27.39116 ; fill
G1 X116.651 Y68.805 E27.44297 ; fill
G1 X109.819 Y61.973 E27.85120 ; fill
G1 X108.932 Y62.142 E27.88932 ; fill
G1 X115.435 Y68.645 E28.27787 ; fill
G1 X114.378 Y68.644 E28.32254 ; fill
G1 X108.186 Y62.451 E28.69251 ; fill
