; generated by Slic3r 0.9.8-dev on 2013-01-12 at 13:25:31

; layer_height = 0.4
; perimeters = 3
; top_solid_layers = 3
; bottom_solid_layers = 3
; fill_density = 0.40
; perimeter_speed = 30
; infill_speed = 60
; travel_speed = 130
; scale = 1
; nozzle_diameter = 0.5
; filament_diameter = 3
; extrusion_multiplier = 1
; perimeters extrusion width = 0.53mm
; infill extrusion width = 0.53mm
; first layer extrusion width = 0.80mm

M190 S60 ; wait for bed temperature to be reached
M104 S180 ; set temperature
G28 ; home all axes
G92 E0 ;reset extruder
M109 S180 ; wait for temperature to be reached
G90 ; use absolute coordinates
G21 ; set units to millimeters
G92 E0 ; reset extrusion distance
M82 ; use absolute distances for extrusion
G1 F1800.000 E-1.00000 ; retract
G1 Z1.400 ; move to next layer (0) and lift
G92 E0 ; reset extrusion distance
G1 X121.610 Y109.350 F7800.000 ; move to first skirt point
G1 Z0.400 ; restore layer Z
G1 F1800.000 E1.00000 ; compensate retraction
G1 X121.150 Y109.900 F540.000 E1.02985 ; skirt
G1 X120.630 Y110.390 E1.05959 ; skirt
G1 X120.350 Y110.610 E1.07441 ; skirt
G1 X115.580 Y114.260 E1.32444 ; skirt
G1 X115.010 Y114.650 E1.35319 ; skirt
G1 X114.700 Y114.830 E1.36811 ; skirt
G1 X114.070 Y115.130 E1.39716 ; skirt
G1 X108.530 Y117.430 E1.64686 ; skirt
G1 X107.870 Y117.670 E1.67609 ; skirt
G1 X107.530 Y117.760 E1.69074 ; skirt
G1 X106.830 Y117.890 E1.72037 ; skirt
G1 X101.230 Y118.630 E1.95551 ; skirt
G1 X100.410 Y118.710 E1.98981 ; skirt
G1 X100.090 Y118.720 E2.00314 ; skirt
G1 X99.760 Y118.720 E2.01687 ; skirt
G1 X99.110 Y118.670 E2.04401 ; skirt
G1 X93.160 Y117.890 E2.29382 ; skirt
G1 X92.470 Y117.760 E2.32304 ; skirt
G1 X92.130 Y117.670 E2.33768 ; skirt
G1 X91.460 Y117.430 E2.36731 ; skirt
G1 X86.120 Y115.220 E2.60789 ; skirt
G1 X85.510 Y114.940 E2.63583 ; skirt
G1 X84.940 Y114.630 E2.66284 ; skirt
G1 X84.410 Y114.260 E2.68974 ; skirt
G1 X79.640 Y110.610 E2.93977 ; skirt
G1 X79.090 Y110.150 E2.96962 ; skirt
G1 X78.600 Y109.630 E2.99936 ; skirt
G1 X74.730 Y104.580 E3.26421 ; skirt
G1 X74.340 Y104.010 E3.29296 ; skirt
G1 X74.160 Y103.700 E3.30788 ; skirt
G1 X73.860 Y103.070 E3.33693 ; skirt
G1 X71.430 Y97.200 E3.60139 ; skirt
G1 X71.230 Y96.520 E3.63090 ; skirt
G1 X71.100 Y95.820 E3.66053 ; skirt
G1 X70.320 Y89.860 E3.91075 ; skirt
G1 X70.280 Y89.520 E3.92500 ; skirt
G1 X70.270 Y88.810 E3.95456 ; skirt
G1 X70.280 Y88.460 E3.96914 ; skirt
G1 X70.320 Y88.110 E3.98380 ; skirt
G1 X71.150 Y81.850 E4.24667 ; skirt
G1 X71.290 Y81.230 E4.27313 ; skirt
G1 X71.490 Y80.630 E4.29946 ; skirt
G1 X73.860 Y74.920 E4.55681 ; skirt
G1 X74.000 Y74.600 E4.57135 ; skirt
G1 X74.330 Y73.990 E4.60022 ; skirt
G1 X74.520 Y73.690 E4.61500 ; skirt
G1 X74.730 Y73.410 E4.62957 ; skirt
G1 X78.380 Y68.640 E4.87960 ; skirt
G1 X78.840 Y68.090 E4.90945 ; skirt
G1 X79.360 Y67.600 E4.93919 ; skirt
G1 X79.640 Y67.380 E4.95401 ; skirt
G1 X84.410 Y63.730 E5.20404 ; skirt
G1 X84.980 Y63.340 E5.23279 ; skirt
G1 X85.290 Y63.160 E5.24771 ; skirt
G1 X85.920 Y62.860 E5.27676 ; skirt
G1 X91.460 Y60.560 E5.52646 ; skirt
G1 X92.120 Y60.320 E5.55569 ; skirt
G1 X92.460 Y60.230 E5.57033 ; skirt
G1 X93.160 Y60.100 E5.59997 ; skirt
G1 X98.760 Y59.360 E5.83511 ; skirt
G1 X99.550 Y59.280 E5.86817 ; skirt
G1 X99.880 Y59.270 E5.88191 ; skirt
G1 X100.210 Y59.270 E5.89565 ; skirt
G1 X100.860 Y59.320 E5.92279 ; skirt
G1 X106.820 Y60.100 E6.17300 ; skirt
G1 X107.520 Y60.230 E6.20264 ; skirt
G1 X107.860 Y60.320 E6.21728 ; skirt
G1 X108.530 Y60.560 E6.24691 ; skirt
G1 X114.390 Y63.000 E6.51114 ; skirt
G1 X115.010 Y63.340 E6.54058 ; skirt
G1 X115.580 Y63.730 E6.56933 ; skirt
G1 X120.350 Y67.380 E6.81936 ; skirt
G1 X120.630 Y67.600 E6.83418 ; skirt
G1 X121.150 Y68.090 E6.86392 ; skirt
G1 X121.610 Y68.640 E6.89377 ; skirt
G1 X125.450 Y73.670 E7.15720 ; skirt
G1 X125.790 Y74.220 E7.18411 ; skirt
G1 X126.080 Y74.800 E7.21111 ; skirt
G1 X128.430 Y80.460 E7.46622 ; skirt
G1 X128.670 Y81.130 E7.49585 ; skirt
G1 X128.760 Y81.470 E7.51049 ; skirt
G1 X128.890 Y82.160 E7.53972 ; skirt
G1 X129.670 Y88.110 E7.78952 ; skirt
G1 X129.710 Y88.460 E7.80418 ; skirt
G1 X129.720 Y89.160 E7.83333 ; skirt
G1 X129.710 Y89.520 E7.84832 ; skirt
G1 X129.670 Y89.860 E7.86257 ; skirt
G1 X128.890 Y95.820 E8.11278 ; skirt
G1 X128.760 Y96.520 E8.14242 ; skirt
G1 X128.670 Y96.860 E8.15706 ; skirt
G1 X128.430 Y97.530 E8.18669 ; skirt
G1 X126.130 Y103.070 E8.43639 ; skirt
G1 X125.830 Y103.700 E8.46544 ; skirt
G1 X125.650 Y104.010 E8.48036 ; skirt
G1 X125.260 Y104.580 E8.50911 ; skirt
G1 X121.677 Y109.262 E8.75454 ; skirt
G1 X121.610 Y109.350 E8.75914 ; skirt
G1 F1800.000 E7.75914 ; retract
G1 Z1.400 ; move to next layer (0) and lift
G92 E0 ; reset extrusion distance
G1 X109.396 Y98.396 F7800.000 ; move to first perimeter point
G1 Z0.400 ; restore layer Z
G1 F1800.000 E1.00000 ; compensate retraction
G1 X106.644 Y100.507 F540.000 E1.14439 ; perimeter
G1 X103.439 Y101.835 E1.28879 ; perimeter
G1 X100.000 Y102.287 E1.43318 ; perimeter
G1 X96.561 Y101.835 E1.57758 ; perimeter
G1 X93.356 Y100.507 E1.72197 ; perimeter
G1 X90.604 Y98.396 E1.86636 ; perimeter
G1 X88.669 Y95.873 E1.99873 ; perimeter
G1 X88.493 Y95.644 E2.01076 ; perimeter
G1 X87.165 Y92.439 E2.15515 ; perimeter
G1 X86.713 Y89.000 E2.29954 ; perimeter
G1 X87.165 Y85.561 E2.44394 ; perimeter
G1 X88.493 Y82.356 E2.58833 ; perimeter
G1 X90.604 Y79.604 E2.73272 ; perimeter
G1 X93.356 Y77.493 E2.87712 ; perimeter
G1 X96.561 Y76.165 E3.02151 ; perimeter
G1 X100.000 Y75.713 E3.16590 ; perimeter
G1 X103.439 Y76.165 E3.31030 ; perimeter
G1 X106.644 Y77.493 E3.45469 ; perimeter
G1 X109.396 Y79.604 E3.59909 ; perimeter
G1 X111.507 Y82.356 E3.74348 ; perimeter
G1 X112.835 Y85.561 E3.88787 ; perimeter
G1 X113.287 Y89.000 E4.03227 ; perimeter
G1 X112.835 Y92.439 E4.17666 ; perimeter
G1 X111.507 Y95.644 E4.32105 ; perimeter
G1 X109.463 Y98.308 E4.46085 ; perimeter
G1 X109.396 Y98.396 E4.46545 ; perimeter
G1 X108.871 Y97.871 F7800.000 ; move to first perimeter point
G1 X106.273 Y99.865 F540.000 E4.60178 ; perimeter
G1 X103.247 Y101.118 E4.73811 ; perimeter
G1 X100.000 Y101.545 E4.87444 ; perimeter
G1 X96.753 Y101.118 E5.01077 ; perimeter
G1 X93.727 Y99.865 E5.14710 ; perimeter
G1 X91.129 Y97.871 E5.28343 ; perimeter
G1 X89.252 Y95.425 E5.41177 ; perimeter
G1 X89.135 Y95.273 E5.41976 ; perimeter
G1 X87.882 Y92.247 E5.55609 ; perimeter
G1 X87.455 Y89.000 E5.69242 ; perimeter
G1 X87.882 Y85.753 E5.82875 ; perimeter
G1 X89.135 Y82.727 E5.96509 ; perimeter
G1 X91.129 Y80.129 E6.10142 ; perimeter
G1 X93.727 Y78.135 E6.23775 ; perimeter
G1 X96.753 Y76.882 E6.37408 ; perimeter
G1 X100.000 Y76.455 E6.51041 ; perimeter
G1 X100.190 Y76.480 E6.51840 ; perimeter
G1 X103.247 Y76.882 E6.64674 ; perimeter
G1 X106.273 Y78.135 E6.78307 ; perimeter
G1 X108.871 Y80.129 E6.91940 ; perimeter
G1 X110.865 Y82.727 E7.05573 ; perimeter
G1 X112.118 Y85.753 E7.19206 ; perimeter
G1 X112.545 Y89.000 E7.32839 ; perimeter
G1 X112.118 Y92.247 E7.46472 ; perimeter
G1 X110.865 Y95.273 E7.60105 ; perimeter
G1 X108.938 Y97.783 E7.73279 ; perimeter
G1 X108.871 Y97.871 E7.73738 ; perimeter
G1 X108.346 Y97.346 F7800.000 ; move to first perimeter point
G1 X105.902 Y99.222 F540.000 E7.86565 ; perimeter
G1 X103.055 Y100.401 E7.99392 ; perimeter
G1 X100.000 Y100.803 E8.12219 ; perimeter
G1 X96.945 Y100.401 E8.25046 ; perimeter
G1 X94.098 Y99.222 E8.37872 ; perimeter
G1 X91.654 Y97.346 E8.50699 ; perimeter
G1 X89.836 Y94.977 E8.63130 ; perimeter
G1 X89.778 Y94.902 E8.63526 ; perimeter
G1 X88.599 Y92.055 E8.76353 ; perimeter
G1 X88.197 Y89.000 E8.89179 ; perimeter
G1 X88.599 Y85.945 E9.02006 ; perimeter
G1 X89.778 Y83.098 E9.14833 ; perimeter
G1 X91.654 Y80.654 E9.27660 ; perimeter
G1 X94.098 Y78.778 E9.40486 ; perimeter
G1 X96.945 Y77.599 E9.53313 ; perimeter
G1 X100.000 Y77.197 E9.66140 ; perimeter
G1 X100.094 Y77.209 E9.66536 ; perimeter
G1 X103.055 Y77.599 E9.78967 ; perimeter
G1 X105.902 Y78.778 E9.91794 ; perimeter
G1 X108.346 Y80.654 E10.04620 ; perimeter
G1 X110.222 Y83.098 E10.17447 ; perimeter
G1 X111.401 Y85.945 E10.30274 ; perimeter
G1 X111.803 Y89.000 E10.43101 ; perimeter
G1 X111.401 Y92.055 E10.55927 ; perimeter
G1 X110.222 Y94.902 E10.68754 ; perimeter
G1 X108.413 Y97.259 E10.81122 ; perimeter
G1 X108.346 Y97.346 E10.81581 ; perimeter
G1 X108.506 Y98.064 F7800.000 ; move inwards before travel
G1 F1800.000 E9.81581 ; retract
G1 Z1.400 ; lift plate during travel
G92 E0 ; reset extrusion distance
G1 X121.546 Y88.744 F7800.000 ; move to first perimeter point
G1 Z0.400 ; restore layer Z
G1 F1800.000 E1.00000 ; compensate retraction
G1 X120.780 Y94.568 F540.000 E1.24454 ; perimeter
G1 X118.630 Y99.756 E1.47832 ; perimeter
G1 X115.212 Y104.212 E1.71209 ; perimeter
G1 X110.756 Y107.630 E1.94587 ; perimeter
G1 X105.568 Y109.780 E2.17965 ; perimeter
G1 X100.000 Y110.513 E2.41342 ; perimeter
G1 X94.432 Y109.780 E2.64720 ; perimeter
G1 X89.244 Y107.630 E2.88098 ; perimeter
G1 X84.788 Y104.212 E3.11475 ; perimeter
G1 X81.370 Y99.756 E3.34853 ; perimeter
G1 X79.220 Y94.568 E3.58231 ; perimeter
G1 X78.487 Y89.000 E3.81608 ; perimeter
G1 X79.220 Y83.432 E4.04986 ; perimeter
G1 X81.370 Y78.244 E4.28364 ; perimeter
G1 X84.788 Y73.788 E4.51742 ; perimeter
G1 X89.244 Y70.370 E4.75119 ; perimeter
G1 X94.432 Y68.220 E4.98497 ; perimeter
G1 X100.000 Y67.487 E5.21875 ; perimeter
G1 X105.568 Y68.220 E5.45252 ; perimeter
G1 X110.756 Y70.370 E5.68630 ; perimeter
G1 X115.212 Y73.788 E5.92008 ; perimeter
G1 X118.630 Y78.244 E6.15385 ; perimeter
G1 X120.780 Y83.432 E6.38763 ; perimeter
G1 X121.473 Y88.701 E6.60886 ; perimeter
G1 X121.546 Y88.744 E6.61238 ; perimeter
G1 X122.255 Y89.000 F7800.000 ; move to first perimeter point
G1 X121.496 Y94.760 F540.000 E6.85422 ; perimeter
G1 X119.273 Y100.127 E7.09606 ; perimeter
G1 X115.736 Y104.736 E7.33790 ; perimeter
G1 X111.127 Y108.273 E7.57974 ; perimeter
G1 X105.998 Y110.398 E7.81085 ; perimeter
G1 X105.760 Y110.496 E7.82158 ; perimeter
G1 X100.000 Y111.255 E8.06342 ; perimeter
G1 X94.240 Y110.496 E8.30526 ; perimeter
G1 X89.111 Y108.372 E8.53637 ; perimeter
G1 X88.873 Y108.273 E8.54710 ; perimeter
G1 X84.264 Y104.736 E8.78894 ; perimeter
G1 X80.727 Y100.127 E9.03078 ; perimeter
G1 X78.504 Y94.760 E9.27262 ; perimeter
G1 X77.745 Y89.000 E9.51446 ; perimeter
G1 X78.504 Y83.240 E9.75630 ; perimeter
G1 X78.602 Y83.002 E9.76703 ; perimeter
G1 X80.727 Y77.873 E9.99814 ; perimeter
G1 X84.264 Y73.264 E10.23998 ; perimeter
G1 X88.873 Y69.727 E10.48182 ; perimeter
G1 X93.775 Y67.696 E10.70270 ; perimeter
G1 X94.240 Y67.504 E10.72366 ; perimeter
G1 X100.000 Y66.745 E10.96550 ; perimeter
G1 X105.760 Y67.504 E11.20734 ; perimeter
G1 X111.127 Y69.727 E11.44918 ; perimeter
G1 X115.736 Y73.264 E11.69102 ; perimeter
G1 X119.273 Y77.873 E11.93286 ; perimeter
G1 X121.496 Y83.240 E12.17470 ; perimeter
G1 X122.240 Y88.891 E12.41194 ; perimeter
G1 X122.255 Y89.000 E12.41654 ; perimeter
G1 X122.997 Y89.000 F7800.000 ; move to first perimeter point
G1 X122.213 Y94.952 F540.000 E12.66644 ; perimeter
G1 X119.916 Y100.498 E12.91634 ; perimeter
G1 X116.261 Y105.261 E13.16625 ; perimeter
G1 X111.498 Y108.916 E13.41615 ; perimeter
G1 X105.952 Y111.213 E13.66605 ; perimeter
G1 X100.000 Y111.997 E13.91595 ; perimeter
G1 X94.048 Y111.213 E14.16586 ; perimeter
G1 X88.829 Y109.051 E14.40100 ; perimeter
G1 X88.502 Y108.916 E14.41576 ; perimeter
G1 X83.739 Y105.261 E14.66566 ; perimeter
G1 X80.084 Y100.498 E14.91557 ; perimeter
G1 X77.787 Y94.952 E15.16547 ; perimeter
G1 X77.741 Y94.600 E15.18023 ; perimeter
G1 X77.003 Y89.000 E15.41537 ; perimeter
G1 X77.787 Y83.048 E15.66527 ; perimeter
G1 X80.084 Y77.502 E15.91518 ; perimeter
G1 X83.739 Y72.739 E16.16508 ; perimeter
G1 X88.502 Y69.084 E16.41498 ; perimeter
G1 X93.720 Y66.923 E16.65013 ; perimeter
G1 X94.048 Y66.787 E16.66489 ; perimeter
G1 X100.000 Y66.003 E16.91479 ; perimeter
G1 X105.952 Y66.787 E17.16469 ; perimeter
G1 X111.498 Y69.084 E17.41459 ; perimeter
G1 X116.261 Y72.739 E17.66450 ; perimeter
G1 X119.916 Y77.502 E17.91440 ; perimeter
G1 X122.213 Y83.048 E18.16430 ; perimeter
G1 X122.982 Y88.891 E18.40961 ; perimeter
G1 X122.997 Y89.000 E18.41421 ; perimeter
G1 X122.344 Y89.340 F7800.000 ; move inwards before travel
G1 F1800.000 E17.41421 ; retract
G1 Z1.400 ; lift plate during travel
G92 E0 ; reset extrusion distance
G1 X118.256 Y78.931 F7800.000 ; move to first fill point
G1 Z0.400 ; restore layer Z
G1 F1800.000 E1.00000 ; compensate retraction
G1 X110.069 Y70.744 F1080.000 E1.48605 ; fill
G1 X108.278 Y70.002 E1.56742 ; fill
G1 X118.998 Y80.722 E2.20382 ; fill
G1 X119.740 Y82.513 E2.28520 ; fill
G1 X106.487 Y69.260 E3.07196 ; fill
G1 X104.841 Y68.663 E3.14545 ; fill
G1 X120.337 Y84.159 E4.06534 ; fill
G1 X120.496 Y85.367 E4.11649 ; fill
G1 X103.633 Y68.504 E5.11755 ; fill
G1 X102.425 Y68.345 E5.16870 ; fill
G1 X120.655 Y86.575 E6.25093 ; fill
G1 X120.814 Y87.783 E6.30208 ; fill
G1 X101.217 Y68.186 E7.46546 ; fill
G1 X100.009 Y68.027 E7.51662 ; fill
G1 X120.973 Y88.991 E8.76117 ; fill
G1 X120.907 Y89.975 E8.80255 ; fill
G1 X99.025 Y68.093 E10.10160 ; fill
G1 X98.098 Y68.215 E10.14085 ; fill
G1 X106.769 Y76.886 E10.65561 ; fill
G1 X104.978 Y76.144 E10.73698 ; fill
G1 X97.171 Y68.337 E11.20045 ; fill
G1 X96.244 Y68.459 E11.23970 ; fill
G1 X103.408 Y75.623 E11.66499 ; fill
G1 X102.200 Y75.464 E11.71614 ; fill
G1 X95.317 Y68.581 E12.12474 ; fill
G1 X94.390 Y68.703 E12.16399 ; fill
G1 X100.992 Y75.305 E12.55590 ; fill
G1 X99.888 Y75.250 E12.60227 ; fill
G1 X93.648 Y69.010 E12.97272 ; fill
G1 X92.906 Y69.317 E13.00643 ; fill
G1 X98.961 Y75.372 E13.36588 ; fill
G1 X98.034 Y75.494 E13.40513 ; fill
G1 X92.165 Y69.625 E13.75359 ; fill
G1 X91.423 Y69.932 E13.78730 ; fill
G1 X97.107 Y75.616 E14.12476 ; fill
G1 X96.265 Y75.823 E14.16117 ; fill
G1 X90.681 Y70.239 E14.49266 ; fill
G1 X89.939 Y70.547 E14.52636 ; fill
G1 X95.523 Y76.130 E14.85784 ; fill
G1 X94.781 Y76.437 E14.89155 ; fill
G1 X89.234 Y70.890 E15.22085 ; fill
G1 X88.640 Y71.346 E15.25226 ; fill
G1 X94.039 Y76.745 E15.57277 ; fill
G1 X93.298 Y77.052 E15.60648 ; fill
G1 X88.047 Y71.801 E15.91819 ; fill
G1 X87.453 Y72.257 E15.94960 ; fill
G1 X92.688 Y77.492 E16.26039 ; fill
G1 X92.095 Y77.947 E16.29180 ; fill
G1 X86.860 Y72.712 E16.60258 ; fill
G1 X86.266 Y73.168 E16.63399 ; fill
G1 X91.501 Y78.403 E16.94477 ; fill
G1 X90.907 Y78.858 E16.97618 ; fill
G1 X85.672 Y73.623 E17.28697 ; fill
G1 X85.079 Y74.079 E17.31837 ; fill
G1 X90.314 Y79.314 E17.62916 ; fill
G1 X89.858 Y79.907 E17.66056 ; fill
G1 X84.623 Y74.672 E17.97135 ; fill
G1 X84.168 Y75.266 E18.00276 ; fill
G1 X89.403 Y80.501 E18.31354 ; fill
G1 X88.947 Y81.095 E18.34495 ; fill
G1 X83.712 Y75.860 E18.65574 ; fill
G1 X83.257 Y76.453 E18.68714 ; fill
G1 X88.492 Y81.688 E18.99793 ; fill
G1 X88.052 Y82.297 E19.02947 ; fill
G1 X82.801 Y77.047 E19.34118 ; fill
G1 X82.346 Y77.640 E19.37260 ; fill
G1 X87.745 Y83.039 E19.69311 ; fill
G1 X87.437 Y83.781 E19.72681 ; fill
G1 X81.890 Y78.234 E20.05612 ; fill
G1 X81.547 Y78.939 E20.08905 ; fill
G1 X87.130 Y84.523 E20.42053 ; fill
G1 X86.823 Y85.265 E20.45424 ; fill
G1 X81.239 Y79.681 E20.78572 ; fill
G1 X80.932 Y80.423 E20.81943 ; fill
G1 X86.616 Y86.107 E21.15689 ; fill
G1 X86.494 Y87.034 E21.19614 ; fill
G1 X80.625 Y81.165 E21.54460 ; fill
G1 X80.317 Y81.906 E21.57830 ; fill
G1 X86.372 Y87.961 E21.93775 ; fill
G1 X86.250 Y88.888 E21.97700 ; fill
G1 X80.010 Y82.648 E22.34745 ; fill
G1 X79.703 Y83.390 E22.38116 ; fill
G1 X86.305 Y89.992 E22.77307 ; fill
G1 X86.464 Y91.200 E22.82422 ; fill
G1 X79.581 Y84.317 E23.23282 ; fill
G1 X79.459 Y85.244 E23.27207 ; fill
G1 X86.623 Y92.408 E23.69735 ; fill
G1 X87.144 Y93.978 E23.76681 ; fill
G1 X79.337 Y86.171 E24.23029 ; fill
G1 X79.215 Y87.098 E24.26954 ; fill
G1 X87.886 Y95.769 E24.78429 ; fill
G1 F1800.000 E23.78429 ; retract
G1 Z1.400 ; lift plate during travel
G92 E0 ; reset extrusion distance
G1 X81.744 Y99.069 F7800.000 ; move to first fill point
G1 Z0.400 ; restore layer Z
G1 F1800.000 E1.00000 ; compensate retraction
G1 X89.931 Y107.256 F1080.000 E1.48605 ; fill
G1 X91.722 Y107.998 E1.56742 ; fill
