; generated by Slic3r 0.9.8-dev on 2013-01-10 at 22:08:03

; layer_height = 0.4
; perimeters = 3
; top_solid_layers = 3
; bottom_solid_layers = 3
; fill_density = 0.40
; perimeter_speed = 30
; infill_speed = 60
; travel_speed = 130
; scale = 1
; nozzle_diameter = 0.5
; filament_diameter = 3
; extrusion_multiplier = 1
; perimeters extrusion width = 0.53mm
; infill extrusion width = 0.53mm
; first layer extrusion width = 0.80mm

M190 S60 ; wait for bed temperature to be reached
M104 S180 ; set temperature
G28 ; home all axes
G92 E0 ;reset extruder
M109 S180 ; wait for temperature to be reached
G90 ; use absolute coordinates
G21 ; set units to millimeters
G92 E0 ; reset extrusion distance
M82 ; use absolute distances for extrusion
G1 F1800.000 E-1.00000 ; retract
G1 Z0.900 ; move to next layer (0) and lift
G92 E0 ; reset extrusion distance
G1 X119.563 Y116.326 F7800.000 ; move to first skirt point
G1 Z0.400 ; restore layer Z
G1 F1800.000 E1.00000 ; compensate retraction
G1 X119.583 Y116.866 F540.000 E1.02249 ; skirt
G1 X119.523 Y117.666 E1.05589 ; skirt
G1 X119.433 Y118.196 E1.07827 ; skirt
G1 X119.223 Y118.976 E1.11189 ; skirt
G1 X118.913 Y119.726 E1.14568 ; skirt
G1 X118.523 Y120.426 E1.17903 ; skirt
G1 X118.373 Y120.656 E1.19046 ; skirt
G1 X118.053 Y121.076 E1.21244 ; skirt
G1 X117.503 Y121.676 E1.24633 ; skirt
G1 X116.883 Y122.196 E1.28001 ; skirt
G1 X116.663 Y122.356 E1.29133 ; skirt
G1 X116.213 Y122.636 E1.31340 ; skirt
G1 X109.113 Y126.736 E1.65469 ; skirt
G1 X108.633 Y126.996 E1.67742 ; skirt
G1 X108.383 Y127.106 E1.68879 ; skirt
G1 X107.873 Y127.296 E1.71144 ; skirt
G1 X107.353 Y127.446 E1.73397 ; skirt
G1 X106.553 Y127.596 E1.76785 ; skirt
G1 X106.013 Y127.636 E1.79039 ; skirt
G1 X105.473 Y127.636 E1.81287 ; skirt
G1 X104.933 Y127.596 E1.83541 ; skirt
G1 X104.663 Y127.556 E1.84678 ; skirt
G1 X104.133 Y127.446 E1.86931 ; skirt
G1 X103.613 Y127.296 E1.89184 ; skirt
G1 X102.853 Y126.996 E1.92585 ; skirt
G1 X102.373 Y126.736 E1.94857 ; skirt
G1 X101.913 Y126.446 E1.97121 ; skirt
G1 X101.483 Y126.126 E1.99352 ; skirt
G1 X100.883 Y125.576 E2.02740 ; skirt
G1 X100.353 Y124.956 E2.06136 ; skirt
G1 X99.913 Y124.276 E2.09507 ; skirt
G1 X81.173 Y91.806 E3.65568 ; skirt
G1 X80.903 Y91.286 E3.68007 ; skirt
G1 X80.673 Y90.736 E3.70489 ; skirt
G1 X80.493 Y90.176 E3.72938 ; skirt
G1 X80.423 Y89.896 E3.74139 ; skirt
G1 X80.323 Y89.316 E3.76589 ; skirt
G1 X80.263 Y88.436 E3.80261 ; skirt
G1 X80.263 Y56.946 E5.11346 ; skirt
G1 X80.313 Y56.136 E5.14724 ; skirt
G1 X80.403 Y55.596 E5.17003 ; skirt
G1 X80.613 Y54.816 E5.20366 ; skirt
G1 X80.913 Y54.056 E5.23767 ; skirt
G1 X81.313 Y53.346 E5.27159 ; skirt
G1 X81.783 Y52.686 E5.30532 ; skirt
G1 X82.333 Y52.086 E5.33920 ; skirt
G1 X82.743 Y51.726 E5.36192 ; skirt
G1 X83.173 Y51.406 E5.38423 ; skirt
G1 X83.633 Y51.116 E5.40687 ; skirt
G1 X84.113 Y50.856 E5.42959 ; skirt
G1 X84.613 Y50.646 E5.45217 ; skirt
G1 X85.393 Y50.406 E5.48614 ; skirt
G1 X86.193 Y50.256 E5.52002 ; skirt
G1 X87.003 Y50.206 E5.55380 ; skirt
G1 X96.203 Y50.206 E5.93678 ; skirt
G1 X96.753 Y50.236 E5.95970 ; skirt
G1 X97.293 Y50.296 E5.98232 ; skirt
G1 X98.093 Y50.476 E6.01646 ; skirt
G1 X98.863 Y50.756 E6.05056 ; skirt
G1 X99.353 Y50.996 E6.07328 ; skirt
G1 X99.833 Y51.266 E6.09620 ; skirt
G1 X100.283 Y51.586 E6.11919 ; skirt
G1 X100.903 Y52.116 E6.15314 ; skirt
G1 X101.273 Y52.516 E6.17582 ; skirt
G1 X101.623 Y52.946 E6.19890 ; skirt
G1 X101.923 Y53.396 E6.22142 ; skirt
G1 X102.193 Y53.866 E6.24398 ; skirt
G1 X102.423 Y54.366 E6.26689 ; skirt
G1 X102.613 Y54.876 E6.28955 ; skirt
G1 X119.333 Y115.006 E8.88758 ; skirt
G1 X119.403 Y115.266 E8.89879 ; skirt
G1 X119.503 Y115.786 E8.92083 ; skirt
G1 X119.551 Y116.216 E8.93885 ; skirt
G1 X119.563 Y116.326 E8.94345 ; skirt
G1 F1800.000 E7.94345 ; retract
G1 Z0.900 ; lift plate during travel
G92 E0 ; reset extrusion distance
G1 X88.474 Y88.044 F7800.000 ; move to first perimeter point
G1 Z0.400 ; restore layer Z
G1 F1800.000 E1.00000 ; compensate retraction
G1 X88.474 Y58.417 F540.000 E2.23331 ; perimeter
G1 X94.732 Y58.417 E2.49380 ; perimeter
G1 X94.732 Y88.367 E3.74057 ; perimeter
G1 X110.841 Y116.270 E5.08175 ; perimeter
G1 X106.288 Y118.898 E5.30061 ; perimeter
G1 X88.529 Y88.140 E6.77910 ; perimeter
G1 X88.474 Y88.044 E6.78369 ; perimeter
G1 X87.739 Y88.241 F7800.000 ; move to first perimeter point
G1 X87.739 Y57.681 F540.000 E8.05583 ; perimeter
G1 X95.467 Y57.681 E8.37756 ; perimeter
G1 X95.467 Y88.170 E9.64675 ; perimeter
G1 X111.846 Y116.539 E11.01035 ; perimeter
G1 X106.019 Y119.903 E11.29045 ; perimeter
G1 X87.794 Y88.337 E12.80777 ; perimeter
G1 X87.739 Y88.241 E12.81236 ; perimeter
G1 X87.107 Y88.619 F7800.000 ; move to first perimeter point
G1 X87.003 Y88.438 F540.000 E12.82105 ; perimeter
G1 X87.003 Y56.946 E14.13202 ; perimeter
G1 X96.203 Y56.946 E14.51499 ; perimeter
G1 X96.203 Y87.973 E15.80660 ; perimeter
G1 X112.851 Y116.808 E17.19262 ; perimeter
G1 X105.749 Y120.908 E17.53396 ; perimeter
G1 X87.162 Y88.715 E19.08141 ; perimeter
G1 X87.107 Y88.619 E19.08600 ; perimeter
G1 X87.475 Y87.982 F7800.000 ; move inwards before travel
G1 F1800.000 E18.08600 ; retract
G1 Z0.900 ; lift plate during travel
G92 E0 ; reset extrusion distance
G1 X106.791 Y118.128 F7800.000 ; move to first fill point
G1 Z0.400 ; restore layer Z
G1 F1800.000 E1.00000 ; compensate retraction
G1 X106.323 Y117.659 F1080.000 E1.02783 ; fill
G1 X107.457 Y117.743 E1.07558 ; fill
G1 X104.889 Y115.176 E1.22807 ; fill
G1 X103.455 Y112.693 E1.34849 ; fill
G1 X108.122 Y117.359 E1.62565 ; fill
G1 X108.787 Y116.975 E1.65792 ; fill
G1 X102.022 Y110.209 E2.05976 ; fill
G1 X100.588 Y107.726 E2.18018 ; fill
G1 X109.453 Y116.591 E2.70669 ; fill
G1 X109.967 Y116.056 E2.73786 ; fill
G1 X99.154 Y105.243 E3.38008 ; fill
G1 X97.720 Y102.760 E3.50050 ; fill
G1 X108.534 Y113.573 E4.14271 ; fill
G1 X107.100 Y111.089 E4.26314 ; fill
G1 X96.287 Y100.276 E4.90535 ; fill
G1 X94.853 Y97.793 E5.02577 ; fill
G1 X105.666 Y108.606 E5.66798 ; fill
G1 X104.232 Y106.123 E5.78840 ; fill
G1 X93.419 Y95.310 E6.43062 ; fill
G1 X91.986 Y92.827 E6.55104 ; fill
G1 X102.799 Y103.640 E7.19325 ; fill
G1 X101.365 Y101.156 E7.31367 ; fill
G1 X90.552 Y90.343 E7.95588 ; fill
G1 X89.118 Y87.860 E8.07631 ; fill
G1 X99.931 Y98.673 E8.71852 ; fill
G1 X98.498 Y96.190 E8.83894 ; fill
G1 X88.976 Y86.668 E9.40448 ; fill
G1 X88.976 Y85.618 E9.44856 ; fill
G1 X97.064 Y93.707 E9.92894 ; fill
G1 X95.630 Y91.223 E10.04936 ; fill
G1 X88.976 Y84.569 E10.44460 ; fill
G1 X88.976 Y83.519 E10.48867 ; fill
G1 X94.230 Y88.774 E10.80076 ; fill
G1 X94.230 Y87.724 E10.84483 ; fill
G1 X88.976 Y82.470 E11.15692 ; fill
G1 X88.976 Y81.420 E11.20099 ; fill
G1 X94.230 Y86.675 E11.51308 ; fill
G1 X94.230 Y85.625 E11.55715 ; fill
G1 X88.976 Y80.371 E11.86924 ; fill
G1 X88.976 Y79.321 E11.91332 ; fill
G1 X94.230 Y84.576 E12.22540 ; fill
G1 X94.230 Y83.526 E12.26948 ; fill
G1 X88.976 Y78.271 E12.58157 ; fill
G1 X88.976 Y77.222 E12.62564 ; fill
G1 X94.230 Y82.477 E12.93773 ; fill
G1 X94.230 Y81.427 E12.98180 ; fill
G1 X88.976 Y76.172 E13.29389 ; fill
G1 X88.976 Y75.123 E13.33797 ; fill
G1 X94.230 Y80.378 E13.65005 ; fill
G1 X94.230 Y79.328 E13.69413 ; fill
G1 X88.976 Y74.073 E14.00622 ; fill
G1 X88.976 Y73.024 E14.05030 ; fill
G1 X94.230 Y78.278 E14.36238 ; fill
G1 X94.230 Y77.229 E14.40647 ; fill
G1 X88.976 Y71.974 E14.71855 ; fill
G1 X88.976 Y70.925 E14.76263 ; fill
G1 X94.230 Y76.179 E15.07471 ; fill
G1 X94.230 Y75.130 E15.11880 ; fill
G1 X88.976 Y69.875 E15.43088 ; fill
G1 X88.976 Y68.826 E15.47495 ; fill
G1 X94.230 Y74.080 E15.78704 ; fill
G1 X94.230 Y73.031 E15.83111 ; fill
G1 X88.976 Y67.776 E16.14320 ; fill
G1 X88.976 Y66.726 E16.18728 ; fill
G1 X94.230 Y71.981 E16.49936 ; fill
G1 X94.230 Y70.932 E16.54344 ; fill
G1 X88.976 Y65.677 E16.85553 ; fill
G1 X88.976 Y64.627 E16.89960 ; fill
G1 X94.230 Y69.882 E17.21169 ; fill
G1 X94.230 Y68.832 E17.25576 ; fill
G1 X88.976 Y63.578 E17.56785 ; fill
G1 X88.976 Y62.528 E17.61193 ; fill
G1 X94.230 Y67.783 E17.92401 ; fill
G1 X94.230 Y66.733 E17.96809 ; fill
G1 X88.976 Y61.479 E18.28017 ; fill
G1 X88.976 Y60.429 E18.32425 ; fill
G1 X94.230 Y65.684 E18.63634 ; fill
G1 X94.230 Y64.634 E18.68042 ; fill
G1 X88.976 Y59.380 E18.99250 ; fill
G1 X89.564 Y58.918 E19.02389 ; fill
G1 X94.230 Y63.585 E19.30105 ; fill
G1 X94.230 Y62.535 E19.34513 ; fill
G1 X90.613 Y58.918 E19.55995 ; fill
G1 X91.663 Y58.918 E19.60403 ; fill
G1 X94.230 Y61.486 E19.75651 ; fill
G1 X94.230 Y60.436 E19.80059 ; fill
G1 X92.712 Y58.918 E19.89074 ; fill
G1 X93.762 Y58.918 E19.93482 ; fill
G1 X94.230 Y59.386 E19.96263 ; fill
M104 S175 ; set temperature
G1 F1800.000 E18.96263 ; retract
G1 Z1.300 ; move to next layer (1) and lift
G92 E0 ; reset extrusion distance
G1 X87.905 Y88.197 F7800.000 ; move to first perimeter point
G1 Z0.800 ; restore layer Z
G1 F1800.000 E1.00000 ; compensate retraction
G1 X87.905 Y57.847 F1800.000 E1.89243 ; perimeter
G1 X95.301 Y57.847 E2.10993 ; perimeter
G1 X95.301 Y88.215 E3.00290 ; perimeter
G1 X111.619 Y116.478 E3.96255 ; perimeter
G1 X106.079 Y119.676 E4.15064 ; perimeter
G1 X87.944 Y88.264 E5.21722 ; perimeter
G1 X87.905 Y88.197 E5.21951 ; perimeter
G1 X87.506 Y88.546 F7800.000 ; move to first perimeter point
G1 X87.385 Y88.336 F1800.000 E5.22664 ; perimeter
G1 X87.385 Y57.328 E6.13845 ; perimeter
G1 X95.821 Y57.328 E6.38651 ; perimeter
G1 X95.821 Y88.076 E7.29066 ; perimeter
G1 X112.329 Y116.668 E8.26150 ; perimeter
G1 X105.889 Y120.386 E8.48015 ; perimeter
G1 X87.545 Y88.614 E9.55897 ; perimeter
G1 X87.506 Y88.546 E9.56126 ; perimeter
G1 X87.056 Y88.806 F7800.000 ; move to first perimeter point
G1 X86.865 Y88.475 F1800.000 E9.57249 ; perimeter
G1 X86.865 Y56.808 E10.50367 ; perimeter
G1 X96.340 Y56.808 E10.78229 ; perimeter
G1 X96.340 Y87.936 E11.69763 ; perimeter
G1 X113.039 Y116.858 E12.67966 ; perimeter
G1 X105.699 Y121.096 E12.92887 ; perimeter
G1 X87.095 Y88.873 E14.02296 ; perimeter
G1 X87.056 Y88.806 E14.02525 ; perimeter
G1 X87.316 Y88.356 F7800.000 ; move inwards before travel
G1 F1800.000 E13.02525 ; retract
G1 Z1.300 ; lift plate during travel
G92 E0 ; reset extrusion distance
G1 X111.074 Y116.122 F7800.000 ; move to first fill point
G1 Z0.800 ; restore layer Z
G1 F1800.000 E1.00000 ; compensate retraction
G1 X110.743 Y116.453 F3600.000 E1.01382 ; fill
G1 X110.804 Y115.655 E1.03746 ; fill
G1 X108.998 Y117.461 E1.11287 ; fill
G1 X107.253 Y118.469 E1.17235 ; fill
G1 X110.534 Y115.187 E1.30934 ; fill
G1 X110.264 Y114.719 E1.32528 ; fill
G1 X106.012 Y118.972 E1.50280 ; fill
G1 X105.742 Y118.504 E1.51874 ; fill
G1 X109.994 Y114.252 E1.69626 ; fill
G1 X109.724 Y113.784 E1.71220 ; fill
G1 X105.472 Y118.037 E1.88972 ; fill
G1 X105.202 Y117.569 E1.90566 ; fill
G1 X109.454 Y113.316 E2.08318 ; fill
G1 X109.184 Y112.849 E2.09912 ; fill
G1 X104.932 Y117.101 E2.27664 ; fill
G1 X104.662 Y116.634 E2.29258 ; fill
G1 X108.914 Y112.381 E2.47010 ; fill
G1 X108.644 Y111.913 E2.48603 ; fill
G1 X104.392 Y116.166 E2.66355 ; fill
G1 X104.122 Y115.698 E2.67949 ; fill
G1 X108.374 Y111.446 E2.85701 ; fill
G1 X108.104 Y110.978 E2.87295 ; fill
G1 X103.852 Y115.231 E3.05047 ; fill
G1 X103.582 Y114.763 E3.06641 ; fill
G1 X107.834 Y110.510 E3.24392 ; fill
G1 X107.564 Y110.043 E3.25986 ; fill
G1 X103.312 Y114.295 E3.43738 ; fill
G1 X103.042 Y113.828 E3.45332 ; fill
G1 X107.294 Y109.575 E3.63084 ; fill
G1 X107.024 Y109.107 E3.64678 ; fill
G1 X102.772 Y113.360 E3.82430 ; fill
G1 X102.502 Y112.892 E3.84024 ; fill
G1 X106.754 Y108.640 E4.01776 ; fill
G1 X106.484 Y108.172 E4.03369 ; fill
G1 X102.232 Y112.425 E4.21122 ; fill
G1 X101.962 Y111.957 E4.22716 ; fill
G1 X106.214 Y107.704 E4.40467 ; fill
G1 X105.944 Y107.237 E4.42061 ; fill
G1 X101.692 Y111.489 E4.59813 ; fill
G1 X101.422 Y111.022 E4.61407 ; fill
G1 X105.674 Y106.769 E4.79159 ; fill
G1 X105.404 Y106.301 E4.80753 ; fill
G1 X101.152 Y110.554 E4.98505 ; fill
G1 X100.882 Y110.086 E5.00099 ; fill
G1 X105.134 Y105.834 E5.17851 ; fill
G1 X104.864 Y105.366 E5.19445 ; fill
G1 X100.612 Y109.619 E5.37197 ; fill
G1 X100.342 Y109.151 E5.38791 ; fill
G1 X104.594 Y104.899 E5.56542 ; fill
G1 X104.324 Y104.431 E5.58136 ; fill
G1 X100.072 Y108.683 E5.75888 ; fill
G1 X99.802 Y108.216 E5.77482 ; fill
G1 X104.054 Y103.963 E5.95234 ; fill
G1 X103.784 Y103.495 E5.96828 ; fill
G1 X99.532 Y107.748 E6.14580 ; fill
G1 X99.262 Y107.280 E6.16174 ; fill
G1 X103.514 Y103.028 E6.33926 ; fill
G1 X103.244 Y102.560 E6.35520 ; fill
G1 X98.992 Y106.813 E6.53272 ; fill
G1 X98.722 Y106.345 E6.54866 ; fill
G1 X102.974 Y102.092 E6.72618 ; fill
G1 X102.704 Y101.625 E6.74212 ; fill
G1 X98.452 Y105.877 E6.91963 ; fill
G1 X98.182 Y105.410 E6.93557 ; fill
G1 X102.434 Y101.157 E7.11309 ; fill
G1 X102.164 Y100.690 E7.12903 ; fill
G1 X97.912 Y104.942 E7.30655 ; fill
G1 X97.642 Y104.474 E7.32249 ; fill
G1 X101.894 Y100.222 E7.50001 ; fill
G1 X101.624 Y99.754 E7.51594 ; fill
G1 X97.372 Y104.007 E7.69346 ; fill
G1 X97.102 Y103.539 E7.70940 ; fill
G1 X101.354 Y99.287 E7.88692 ; fill
G1 X101.084 Y98.819 E7.90286 ; fill
G1 X96.832 Y103.071 E8.08038 ; fill
G1 X96.562 Y102.604 E8.09632 ; fill
G1 X100.814 Y98.351 E8.27384 ; fill
G1 X100.544 Y97.884 E8.28978 ; fill
G1 X96.292 Y102.136 E8.46729 ; fill
G1 X96.022 Y101.668 E8.48323 ; fill
G1 X100.274 Y97.416 E8.66075 ; fill
G1 X100.004 Y96.948 E8.67669 ; fill
G1 X95.752 Y101.201 E8.85421 ; fill
G1 X95.482 Y100.733 E8.87015 ; fill
G1 X99.734 Y96.481 E9.04767 ; fill
G1 X99.464 Y96.013 E9.06361 ; fill
G1 X95.212 Y100.266 E9.24113 ; fill
G1 X94.942 Y99.798 E9.25707 ; fill
G1 X99.194 Y95.545 E9.43459 ; fill
G1 X98.924 Y95.078 E9.45053 ; fill
G1 X94.672 Y99.330 E9.62804 ; fill
G1 X94.402 Y98.863 E9.64398 ; fill
G1 X98.654 Y94.610 E9.82150 ; fill
G1 X98.384 Y94.142 E9.83744 ; fill
G1 X94.132 Y98.395 E10.01496 ; fill
G1 X93.862 Y97.927 E10.03090 ; fill
G1 X98.114 Y93.675 E10.20842 ; fill
G1 X97.844 Y93.207 E10.22436 ; fill
G1 X93.592 Y97.460 E10.40188 ; fill
G1 X93.322 Y96.992 E10.41782 ; fill
G1 X97.574 Y92.739 E10.59534 ; fill
G1 X97.304 Y92.272 E10.61128 ; fill
G1 X93.052 Y96.524 E10.78880 ; fill
G1 X92.782 Y96.057 E10.80473 ; fill
G1 X97.034 Y91.804 E10.98225 ; fill
G1 X96.764 Y91.336 E10.99819 ; fill
G1 X92.512 Y95.589 E11.17571 ; fill
G1 X92.242 Y95.121 E11.19165 ; fill
G1 X96.494 Y90.869 E11.36917 ; fill
G1 X96.224 Y90.401 E11.38511 ; fill
G1 X91.972 Y94.654 E11.56263 ; fill
G1 X91.702 Y94.186 E11.57857 ; fill
G1 X95.954 Y89.933 E11.75608 ; fill
G1 X95.684 Y89.466 E11.77203 ; fill
G1 X91.432 Y93.718 E11.94954 ; fill
G1 X91.162 Y93.251 E11.96548 ; fill
G1 X95.414 Y88.998 E12.14300 ; fill
G1 X95.144 Y88.530 E12.15894 ; fill
G1 X90.892 Y92.783 E12.33646 ; fill
G1 X90.622 Y92.315 E12.35240 ; fill
G1 X94.947 Y87.990 E12.53295 ; fill
G1 X94.947 Y87.252 E12.55473 ; fill
G1 X90.352 Y91.848 E12.74656 ; fill
G1 X90.082 Y91.380 E12.76250 ; fill
G1 X94.947 Y86.515 E12.96559 ; fill
G1 X94.947 Y85.777 E12.98737 ; fill
G1 X89.812 Y90.912 E13.20174 ; fill
G1 X89.542 Y90.445 E13.21768 ; fill
G1 X94.947 Y85.039 E13.44332 ; fill
G1 X94.947 Y84.301 E13.46509 ; fill
G1 X89.272 Y89.977 E13.70200 ; fill
G1 X89.002 Y89.509 E13.71794 ; fill
G1 X94.947 Y83.564 E13.96613 ; fill
G1 X94.947 Y82.826 E13.98790 ; fill
G1 X88.731 Y89.042 E14.24736 ; fill
G1 X88.462 Y88.574 E14.26330 ; fill
G1 X94.947 Y82.088 E14.53402 ; fill
G1 X94.947 Y81.351 E14.55579 ; fill
G1 X88.259 Y88.039 E14.83498 ; fill
G1 X88.259 Y87.301 E14.85675 ; fill
G1 X94.947 Y80.613 E15.13594 ; fill
G1 X94.947 Y79.875 E15.15771 ; fill
G1 X88.259 Y86.564 E15.43690 ; fill
G1 X88.259 Y85.826 E15.45867 ; fill
G1 X94.947 Y79.138 E15.73786 ; fill
G1 X94.947 Y78.400 E15.75963 ; fill
G1 X88.259 Y85.088 E16.03881 ; fill
G1 X88.259 Y84.351 E16.06059 ; fill
G1 X94.947 Y77.662 E16.33977 ; fill
G1 X94.947 Y76.925 E16.36155 ; fill
G1 X88.259 Y83.613 E16.64073 ; fill
G1 X88.259 Y82.875 E16.66251 ; fill
G1 X94.947 Y76.187 E16.94169 ; fill
G1 X94.947 Y75.449 E16.96347 ; fill
G1 X88.259 Y82.138 E17.24266 ; fill
G1 X88.259 Y81.400 E17.26443 ; fill
G1 X94.947 Y74.712 E17.54362 ; fill
G1 X94.947 Y73.974 E17.56539 ; fill
G1 X88.259 Y80.662 E17.84458 ; fill
