; generated by Slic3r 0.9.8-dev on 2013-01-11 at 05:54:43

; layer_height = 0.4
; perimeters = 3
; top_solid_layers = 3
; bottom_solid_layers = 3
; fill_density = 0.40
; perimeter_speed = 30
; infill_speed = 60
; travel_speed = 130
; scale = 1
; nozzle_diameter = 0.5
; filament_diameter = 3
; extrusion_multiplier = 1
; perimeters extrusion width = 0.53mm
; infill extrusion width = 0.53mm
; first layer extrusion width = 0.80mm

M190 S60 ; wait for bed temperature to be reached
M104 S180 ; set temperature
G28 ; home all axes
G92 E0 ;reset extruder
M109 S180 ; wait for temperature to be reached
G90 ; use absolute coordinates
G21 ; set units to millimeters
G92 E0 ; reset extrusion distance
M82 ; use absolute distances for extrusion
G1 F1800.000 E-1.00000 ; retract
G1 Z0.900 ; move to next layer (0) and lift
G92 E0 ; reset extrusion distance
G1 X48.958 Y50.660 F7800.000 ; move to first skirt point
G1 Z0.400 ; restore layer Z
G1 F1800.000 E1.00000 ; compensate retraction
G1 X49.228 Y50.640 F540.000 E1.01127 ; skirt
G1 X124.398 Y49.530 E4.14075 ; skirt
G1 X133.598 Y49.530 E4.52373 ; skirt
G1 X134.418 Y49.580 E4.55793 ; skirt
G1 X134.958 Y49.670 E4.58071 ; skirt
G1 X135.488 Y49.800 E4.60343 ; skirt
G1 X136.258 Y50.080 E4.63754 ; skirt
G1 X136.748 Y50.320 E4.66025 ; skirt
G1 X137.228 Y50.590 E4.68318 ; skirt
G1 X137.678 Y50.910 E4.70616 ; skirt
G1 X138.298 Y51.440 E4.74012 ; skirt
G1 X138.668 Y51.840 E4.76280 ; skirt
G1 X139.018 Y52.270 E4.78588 ; skirt
G1 X139.318 Y52.720 E4.80839 ; skirt
G1 X139.588 Y53.190 E4.83095 ; skirt
G1 X139.818 Y53.690 E4.85386 ; skirt
G1 X140.008 Y54.200 E4.87652 ; skirt
G1 X156.728 Y114.340 E7.47495 ; skirt
G1 X156.798 Y114.600 E7.48616 ; skirt
G1 X156.898 Y115.130 E7.50861 ; skirt
G1 X156.958 Y115.660 E7.53082 ; skirt
G1 X156.978 Y116.200 E7.55331 ; skirt
G1 X156.968 Y116.470 E7.56456 ; skirt
G1 X156.878 Y117.270 E7.59807 ; skirt
G1 X156.698 Y118.050 E7.63139 ; skirt
G1 X156.618 Y118.310 E7.64272 ; skirt
G1 X156.418 Y118.810 E7.66513 ; skirt
G1 X156.188 Y119.300 E7.68767 ; skirt
G1 X155.768 Y119.990 E7.72129 ; skirt
G1 X155.268 Y120.620 E7.75477 ; skirt
G1 X155.088 Y120.820 E7.76597 ; skirt
G1 X154.698 Y121.190 E7.78835 ; skirt
G1 X154.058 Y121.690 E7.82216 ; skirt
G1 X153.608 Y121.970 E7.84422 ; skirt
G1 X146.258 Y126.210 E8.19744 ; skirt
G1 X145.998 Y126.340 E8.20955 ; skirt
G1 X145.468 Y126.560 E8.23343 ; skirt
G1 X144.918 Y126.740 E8.25752 ; skirt
G1 X144.638 Y126.810 E8.26954 ; skirt
G1 X144.078 Y126.910 E8.29322 ; skirt
G1 X143.508 Y126.970 E8.31708 ; skirt
G1 X119.258 Y128.300 E9.32806 ; skirt
G1 X94.288 Y128.310 E10.36750 ; skirt
G1 X68.008 Y128.060 E11.46152 ; skirt
G1 X67.448 Y128.010 E11.48493 ; skirt
G1 X66.898 Y127.910 E11.50820 ; skirt
G1 X66.358 Y127.770 E11.53142 ; skirt
G1 X65.828 Y127.580 E11.55486 ; skirt
G1 X65.318 Y127.350 E11.57815 ; skirt
G1 X64.838 Y127.080 E11.60107 ; skirt
G1 X64.598 Y126.930 E11.61285 ; skirt
G1 X63.928 Y126.420 E11.64790 ; skirt
G1 X63.528 Y126.030 E11.67116 ; skirt
G1 X63.148 Y125.620 E11.69443 ; skirt
G1 X62.658 Y124.940 E11.72932 ; skirt
G1 X62.518 Y124.700 E11.74089 ; skirt
G1 X43.768 Y92.230 E13.30171 ; skirt
G1 X43.498 Y91.710 E13.32610 ; skirt
G1 X43.268 Y91.160 E13.35091 ; skirt
G1 X43.088 Y90.600 E13.37540 ; skirt
G1 X43.018 Y90.320 E13.38741 ; skirt
G1 X42.918 Y89.740 E13.41191 ; skirt
G1 X42.858 Y88.860 E13.44863 ; skirt
G1 X42.858 Y57.370 E14.75948 ; skirt
G1 X42.908 Y56.570 E14.79285 ; skirt
G1 X42.998 Y56.040 E14.81523 ; skirt
G1 X43.198 Y55.260 E14.84875 ; skirt
G1 X43.388 Y54.750 E14.87140 ; skirt
G1 X43.618 Y54.270 E14.89356 ; skirt
G1 X43.888 Y53.800 E14.91612 ; skirt
G1 X44.188 Y53.360 E14.93829 ; skirt
G1 X44.528 Y52.940 E14.96078 ; skirt
G1 X45.088 Y52.360 E14.99435 ; skirt
G1 X45.718 Y51.860 E15.02783 ; skirt
G1 X45.948 Y51.710 E15.03926 ; skirt
G1 X46.408 Y51.440 E15.06146 ; skirt
G1 X46.888 Y51.200 E15.08380 ; skirt
G1 X47.648 Y50.920 E15.11752 ; skirt
G1 X47.908 Y50.850 E15.12873 ; skirt
G1 X48.428 Y50.740 E15.15085 ; skirt
G1 X48.849 Y50.677 E15.16857 ; skirt
G1 X48.958 Y50.660 E15.17316 ; skirt
G1 F1800.000 E14.17316 ; retract
G1 Z0.900 ; lift plate during travel
G92 E0 ; reset extrusion distance
G1 X99.444 Y116.936 F7800.000 ; move to first perimeter point
G1 Z0.400 ; restore layer Z
G1 F1800.000 E1.00000 ; compensate retraction
G1 X94.891 Y119.565 F540.000 E1.21886 ; perimeter
G1 X77.077 Y88.711 E2.70194 ; perimeter
G1 X77.077 Y59.083 E3.93525 ; perimeter
G1 X83.335 Y59.083 E4.19574 ; perimeter
G1 X83.335 Y89.034 E5.44251 ; perimeter
G1 X99.389 Y116.841 E6.77910 ; perimeter
G1 X99.444 Y116.936 E6.78369 ; perimeter
G1 X100.449 Y117.205 F7800.000 ; move to first perimeter point
G1 X94.621 Y120.570 F540.000 E7.06379 ; perimeter
G1 X76.341 Y88.908 E8.58570 ; perimeter
G1 X76.341 Y58.348 E9.85784 ; perimeter
G1 X84.070 Y58.348 E10.17957 ; perimeter
G1 X84.070 Y88.837 E11.44876 ; perimeter
G1 X100.394 Y117.110 E12.80777 ; perimeter
G1 X100.449 Y117.205 E12.81236 ; perimeter
G1 X101.454 Y117.475 F7800.000 ; move to first perimeter point
G1 X94.352 Y121.575 F540.000 E13.15370 ; perimeter
G1 X75.606 Y89.105 E14.71444 ; perimeter
G1 X75.606 Y57.612 E16.02541 ; perimeter
G1 X84.806 Y57.612 E16.40838 ; perimeter
G1 X84.806 Y88.640 E17.69999 ; perimeter
G1 X101.398 Y117.379 E19.08141 ; perimeter
G1 X101.454 Y117.475 E19.08600 ; perimeter
G1 X100.718 Y117.475 F7800.000 ; move inwards before travel
G1 F1800.000 E18.08600 ; retract
G1 Z0.900 ; lift plate during travel
G92 E0 ; reset extrusion distance
G1 X95.394 Y118.794 F7800.000 ; move to first fill point
G1 Z0.400 ; restore layer Z
G1 F1800.000 E1.00000 ; compensate retraction
G1 X94.926 Y118.326 F1080.000 E1.02783 ; fill
G1 X96.059 Y118.410 E1.07558 ; fill
G1 X93.492 Y115.843 E1.22807 ; fill
G1 X92.058 Y113.359 E1.34849 ; fill
G1 X96.725 Y118.026 E1.62565 ; fill
G1 X97.390 Y117.642 E1.65792 ; fill
G1 X90.625 Y110.876 E2.05976 ; fill
G1 X89.191 Y108.393 E2.18018 ; fill
G1 X98.056 Y117.258 E2.70669 ; fill
G1 X98.570 Y116.723 E2.73786 ; fill
G1 X87.757 Y105.909 E3.38008 ; fill
G1 X86.323 Y103.426 E3.50050 ; fill
G1 X97.136 Y114.239 E4.14271 ; fill
G1 X95.703 Y111.756 E4.26314 ; fill
G1 X84.890 Y100.943 E4.90535 ; fill
G1 X83.456 Y98.460 E5.02577 ; fill
G1 X94.269 Y109.273 E5.66798 ; fill
G1 X92.835 Y106.790 E5.78840 ; fill
G1 X82.022 Y95.976 E6.43062 ; fill
G1 X80.588 Y93.493 E6.55104 ; fill
G1 X91.402 Y104.306 E7.19325 ; fill
G1 X89.968 Y101.823 E7.31367 ; fill
G1 X79.155 Y91.010 E7.95588 ; fill
G1 X77.721 Y88.527 E8.07631 ; fill
G1 X88.534 Y99.340 E8.71852 ; fill
G1 X87.100 Y96.857 E8.83894 ; fill
G1 X77.578 Y87.335 E9.40448 ; fill
G1 X77.578 Y86.285 E9.44856 ; fill
G1 X85.667 Y94.373 E9.92894 ; fill
G1 X84.233 Y91.890 E10.04936 ; fill
G1 X77.578 Y85.235 E10.44460 ; fill
G1 X77.578 Y84.186 E10.48867 ; fill
G1 X82.833 Y89.441 E10.80076 ; fill
G1 X82.833 Y88.391 E10.84483 ; fill
G1 X77.578 Y83.136 E11.15692 ; fill
G1 X77.578 Y82.087 E11.20099 ; fill
G1 X82.833 Y87.341 E11.51308 ; fill
G1 X82.833 Y86.292 E11.55715 ; fill
G1 X77.578 Y81.037 E11.86924 ; fill
G1 X77.578 Y79.988 E11.91332 ; fill
G1 X82.833 Y85.242 E12.22540 ; fill
G1 X82.833 Y84.193 E12.26948 ; fill
G1 X77.578 Y78.938 E12.58157 ; fill
G1 X77.578 Y77.889 E12.62564 ; fill
G1 X82.833 Y83.143 E12.93773 ; fill
G1 X82.833 Y82.094 E12.98180 ; fill
G1 X77.578 Y76.839 E13.29389 ; fill
G1 X77.578 Y75.790 E13.33797 ; fill
G1 X82.833 Y81.044 E13.65005 ; fill
G1 X82.833 Y79.995 E13.69413 ; fill
G1 X77.578 Y74.740 E14.00622 ; fill
G1 X77.578 Y73.690 E14.05030 ; fill
G1 X82.833 Y78.945 E14.36238 ; fill
G1 X82.833 Y77.895 E14.40647 ; fill
G1 X77.578 Y72.641 E14.71855 ; fill
G1 X77.578 Y71.591 E14.76263 ; fill
G1 X82.833 Y76.846 E15.07471 ; fill
G1 X82.833 Y75.796 E15.11880 ; fill
G1 X77.578 Y70.542 E15.43088 ; fill
G1 X77.578 Y69.492 E15.47495 ; fill
G1 X82.833 Y74.747 E15.78704 ; fill
G1 X82.833 Y73.697 E15.83111 ; fill
G1 X77.578 Y68.443 E16.14320 ; fill
G1 X77.578 Y67.393 E16.18728 ; fill
G1 X82.833 Y72.648 E16.49936 ; fill
G1 X82.833 Y71.598 E16.54344 ; fill
G1 X77.578 Y66.344 E16.85553 ; fill
G1 X77.578 Y65.294 E16.89960 ; fill
G1 X82.833 Y70.549 E17.21169 ; fill
G1 X82.833 Y69.499 E17.25576 ; fill
G1 X77.578 Y64.244 E17.56785 ; fill
G1 X77.578 Y63.195 E17.61193 ; fill
G1 X82.833 Y68.449 E17.92401 ; fill
G1 X82.833 Y67.400 E17.96809 ; fill
G1 X77.578 Y62.145 E18.28017 ; fill
G1 X77.578 Y61.096 E18.32425 ; fill
G1 X82.833 Y66.351 E18.63634 ; fill
G1 X82.833 Y65.301 E18.68042 ; fill
G1 X77.578 Y60.046 E18.99250 ; fill
G1 X78.167 Y59.585 E19.02389 ; fill
G1 X82.833 Y64.251 E19.30105 ; fill
G1 X82.833 Y63.202 E19.34513 ; fill
G1 X79.216 Y59.585 E19.55995 ; fill
G1 X80.266 Y59.585 E19.60403 ; fill
G1 X82.833 Y62.152 E19.75651 ; fill
G1 X82.833 Y61.103 E19.80059 ; fill
G1 X81.315 Y59.585 E19.89074 ; fill
G1 X82.365 Y59.585 E19.93482 ; fill
G1 X82.833 Y60.053 E19.96263 ; fill
G1 F1800.000 E18.96263 ; retract
G1 Z0.900 ; lift plate during travel
G92 E0 ; reset extrusion distance
G1 X73.444 Y116.694 F7800.000 ; move to first perimeter point
G1 Z0.400 ; restore layer Z
G1 F1800.000 E1.00000 ; compensate retraction
G1 X68.891 Y119.323 F540.000 E1.21886 ; perimeter
G1 X51.077 Y88.468 E2.70194 ; perimeter
G1 X51.077 Y58.841 E3.93525 ; perimeter
G1 X57.335 Y58.841 E4.19574 ; perimeter
G1 X57.335 Y88.792 E5.44251 ; perimeter
G1 X73.389 Y116.598 E6.77910 ; perimeter
G1 X73.444 Y116.694 E6.78369 ; perimeter
G1 X74.449 Y116.963 F7800.000 ; move to first perimeter point
G1 X68.621 Y120.328 F540.000 E7.06379 ; perimeter
G1 X50.341 Y88.666 E8.58570 ; perimeter
G1 X50.341 Y58.106 E9.85784 ; perimeter
G1 X58.070 Y58.106 E10.17957 ; perimeter
G1 X58.070 Y88.595 E11.44876 ; perimeter
G1 X74.394 Y116.868 E12.80777 ; perimeter
G1 X74.449 Y116.963 E12.81236 ; perimeter
G1 X75.454 Y117.232 F7800.000 ; move to first perimeter point
G1 X68.352 Y121.332 F540.000 E13.15370 ; perimeter
G1 X49.606 Y88.863 E14.71444 ; perimeter
G1 X49.606 Y57.370 E16.02541 ; perimeter
G1 X58.806 Y57.370 E16.40838 ; perimeter
G1 X58.806 Y88.398 E17.69999 ; perimeter
G1 X75.398 Y117.137 E19.08141 ; perimeter
G1 X75.454 Y117.232 E19.08600 ; perimeter
G1 X74.718 Y117.232 F7800.000 ; move inwards before travel
G1 F1800.000 E18.08600 ; retract
G1 Z0.900 ; lift plate during travel
G92 E0 ; reset extrusion distance
G1 X69.394 Y118.552 F7800.000 ; move to first fill point
G1 Z0.400 ; restore layer Z
G1 F1800.000 E1.00000 ; compensate retraction
G1 X68.926 Y118.083 F1080.000 E1.02783 ; fill
G1 X70.059 Y118.168 E1.07558 ; fill
G1 X67.492 Y115.600 E1.22807 ; fill
G1 X66.058 Y113.117 E1.34849 ; fill
G1 X70.725 Y117.784 E1.62565 ; fill
G1 X71.390 Y117.399 E1.65792 ; fill
G1 X64.625 Y110.634 E2.05976 ; fill
G1 X63.191 Y108.150 E2.18018 ; fill
G1 X72.056 Y117.015 E2.70669 ; fill
G1 X72.570 Y116.480 E2.73786 ; fill
G1 X61.757 Y105.667 E3.38008 ; fill
G1 X60.323 Y103.184 E3.50050 ; fill
G1 X71.136 Y113.997 E4.14271 ; fill
G1 X69.703 Y111.514 E4.26314 ; fill
G1 X58.890 Y100.701 E4.90535 ; fill
G1 X57.456 Y98.217 E5.02577 ; fill
G1 X68.269 Y109.030 E5.66798 ; fill
G1 X66.835 Y106.547 E5.78840 ; fill
G1 X56.022 Y95.734 E6.43062 ; fill
G1 X54.588 Y93.251 E6.55104 ; fill
G1 X65.402 Y104.064 E7.19325 ; fill
G1 X63.968 Y101.581 E7.31367 ; fill
G1 X53.155 Y90.768 E7.95588 ; fill
G1 X51.721 Y88.284 E8.07631 ; fill
G1 X62.534 Y99.098 E8.71852 ; fill
G1 X61.100 Y96.614 E8.83894 ; fill
G1 X51.578 Y87.092 E9.40448 ; fill
G1 X51.578 Y86.043 E9.44856 ; fill
G1 X59.667 Y94.131 E9.92894 ; fill
G1 X58.233 Y91.648 E10.04936 ; fill
G1 X51.578 Y84.993 E10.44460 ; fill
G1 X51.578 Y83.944 E10.48867 ; fill
G1 X56.833 Y89.198 E10.80076 ; fill
G1 X56.833 Y88.149 E10.84483 ; fill
G1 X51.578 Y82.894 E11.15692 ; fill
G1 X51.578 Y81.844 E11.20099 ; fill
G1 X56.833 Y87.099 E11.51308 ; fill
G1 X56.833 Y86.050 E11.55715 ; fill
G1 X51.578 Y80.795 E11.86924 ; fill
G1 X51.578 Y79.745 E11.91332 ; fill
G1 X56.833 Y85.000 E12.22540 ; fill
G1 X56.833 Y83.951 E12.26948 ; fill
G1 X51.578 Y78.696 E12.58157 ; fill
G1 X51.578 Y77.646 E12.62564 ; fill
G1 X56.833 Y82.901 E12.93773 ; fill
G1 X56.833 Y81.851 E12.98180 ; fill
G1 X51.578 Y76.597 E13.29389 ; fill
G1 X51.578 Y75.547 E13.33797 ; fill
G1 X56.833 Y80.802 E13.65005 ; fill
G1 X56.833 Y79.752 E13.69413 ; fill
G1 X51.578 Y74.498 E14.00622 ; fill
G1 X51.578 Y73.448 E14.05030 ; fill
G1 X56.833 Y78.703 E14.36238 ; fill
G1 X56.833 Y77.653 E14.40647 ; fill
G1 X51.578 Y72.399 E14.71855 ; fill
G1 X51.578 Y71.349 E14.76263 ; fill
G1 X56.833 Y76.604 E15.07471 ; fill
G1 X56.833 Y75.554 E15.11880 ; fill
G1 X51.578 Y70.299 E15.43088 ; fill
G1 X51.578 Y69.250 E15.47495 ; fill
G1 X56.833 Y74.505 E15.78704 ; fill
G1 X56.833 Y73.455 E15.83111 ; fill
G1 X51.578 Y68.200 E16.14320 ; fill
G1 X51.578 Y67.151 E16.18728 ; fill
G1 X56.833 Y72.405 E16.49936 ; fill
G1 X56.833 Y71.356 E16.54344 ; fill
G1 X51.578 Y66.101 E16.85553 ; fill
G1 X51.578 Y65.052 E16.89960 ; fill
G1 X56.833 Y70.306 E17.21169 ; fill
G1 X56.833 Y69.257 E17.25576 ; fill
G1 X51.578 Y64.002 E17.56785 ; fill
G1 X51.578 Y62.953 E17.61193 ; fill
G1 X56.833 Y68.207 E17.92401 ; fill
G1 X56.833 Y67.158 E17.96809 ; fill
G1 X51.578 Y61.903 E18.28017 ; fill
G1 X51.578 Y60.854 E18.32425 ; fill
G1 X56.833 Y66.108 E18.63634 ; fill
G1 X56.833 Y65.059 E18.68042 ; fill
G1 X51.578 Y59.804 E18.99250 ; fill
G1 X52.167 Y59.343 E19.02389 ; fill
G1 X56.833 Y64.009 E19.30105 ; fill
G1 X56.833 Y62.959 E19.34513 ; fill
G1 X53.216 Y59.343 E19.55995 ; fill
G1 X54.266 Y59.343 E19.60403 ; fill
G1 X56.833 Y61.910 E19.75651 ; fill
G1 X56.833 Y60.860 E19.80059 ; fill
G1 X55.315 Y59.343 E19.89074 ; fill
G1 X56.365 Y59.343 E19.93482 ; fill
G1 X56.833 Y59.811 E19.96263 ; fill
G1 F1800.000 E18.96263 ; retract
G1 Z0.900 ; lift plate during travel
G92 E0 ; reset extrusion distance
G1 X143.685 Y118.232 F7800.000 ; move to first perimeter point
G1 Z0.400 ; restore layer Z
G1 F1800.000 E1.00000 ; compensate retraction
G1 X125.871 Y87.377 F540.000 E2.48308 ; perimeter
G1 X125.871 Y57.750 E3.71639 ; perimeter
G1 X132.129 Y57.750 E3.97688 ; perimeter
G1 X132.129 Y87.701 E5.22365 ; perimeter
G1 X148.238 Y115.603 E6.56483 ; perimeter
G1 X143.780 Y118.176 E6.77910 ; perimeter
G1 X143.685 Y118.232 E6.78369 ; perimeter
G1 X143.416 Y119.237 F7800.000 ; move to first perimeter point
G1 X125.136 Y87.575 F540.000 E8.30560 ; perimeter
G1 X125.136 Y57.014 E9.57774 ; perimeter
G1 X132.864 Y57.014 E9.89947 ; perimeter
G1 X132.864 Y87.504 E11.16866 ; perimeter
G1 X149.243 Y115.872 E12.53226 ; perimeter
G1 X143.511 Y119.181 E12.80777 ; perimeter
G1 X143.416 Y119.237 E12.81236 ; perimeter
G1 X143.146 Y120.241 F7800.000 ; move to first perimeter point
G1 X124.400 Y87.772 F540.000 E14.37309 ; perimeter
G1 X124.400 Y56.279 E15.68406 ; perimeter
G1 X133.600 Y56.279 E16.06704 ; perimeter
G1 X133.600 Y87.307 E17.35864 ; perimeter
G1 X150.248 Y116.141 E18.74466 ; perimeter
G1 X143.242 Y120.186 E19.08141 ; perimeter
G1 X143.146 Y120.241 E19.08600 ; perimeter
G1 X143.146 Y119.506 F7800.000 ; move inwards before travel
G1 F1800.000 E18.08600 ; retract
G1 Z0.900 ; lift plate during travel
G92 E0 ; reset extrusion distance
G1 X144.188 Y117.461 F7800.000 ; move to first fill point
G1 Z0.400 ; restore layer Z
G1 F1800.000 E1.00000 ; compensate retraction
G1 X143.720 Y116.992 F1080.000 E1.02783 ; fill
G1 X144.854 Y117.077 E1.07558 ; fill
G1 X142.286 Y114.509 E1.22807 ; fill
G1 X140.852 Y112.026 E1.34849 ; fill
G1 X145.519 Y116.693 E1.62565 ; fill
G1 X146.185 Y116.308 E1.65792 ; fill
G1 X139.419 Y109.543 E2.05976 ; fill
G1 X137.985 Y107.059 E2.18018 ; fill
G1 X146.850 Y115.924 E2.70669 ; fill
G1 X147.364 Y115.389 E2.73786 ; fill
G1 X136.551 Y104.576 E3.38008 ; fill
G1 X135.118 Y102.093 E3.50050 ; fill
G1 X145.931 Y112.906 E4.14271 ; fill
G1 X144.497 Y110.423 E4.26314 ; fill
G1 X133.684 Y99.610 E4.90535 ; fill
G1 X132.250 Y97.126 E5.02577 ; fill
G1 X143.063 Y107.939 E5.66798 ; fill
G1 X141.629 Y105.456 E5.78840 ; fill
G1 X130.816 Y94.643 E6.43062 ; fill
G1 X129.383 Y92.160 E6.55104 ; fill
G1 X140.196 Y102.973 E7.19325 ; fill
G1 X138.762 Y100.490 E7.31367 ; fill
G1 X127.949 Y89.677 E7.95588 ; fill
