; generated by Slic3r 1.1.7 on 2015-02-13 at 13:23:59

; perimeters extrusion width = 0.50mm
; infill extrusion width = 0.52mm
; solid infill extrusion width = 0.52mm
; top infill extrusion width = 0.52mm

G21 ; set units to millimeters
M107
M190 S65 ; wait for bed temperature to be reached
M104 S185 ; set temperature
G28 ; home all axes
G1 Z5 F5000 ; lift nozzle

M109 S185 ; wait for temperature to be reached
G90 ; use absolute coordinates
G92 E0
M82 ; use absolute distances for extrusion
G1 F1800.000 E-1.00000
G1 Z0.850 F7800.000
G92 E0
G1 X62.384 Y61.966 F7800.000
G1 Z0.350 F7800.000
G1 E1.00000 F1800.000
G1 X64.137 Y60.480 E1.07480 F1080.000
G1 X66.292 Y59.678 E1.14960
G1 X67.500 Y59.568 E1.18906
G1 X132.500 Y59.568 E3.30384
G1 X134.765 Y59.965 E3.37864
G1 X136.759 Y61.109 E3.45344 F1080.000
G1 X138.245 Y62.862 E3.52825
G1 X139.047 Y65.017 E3.60305
G1 X139.157 Y66.225 E3.64250
G1 X139.157 Y111.775 E5.12448
G1 X138.760 Y114.040 E5.19928
G1 X137.616 Y116.034 E5.27408
G1 X135.863 Y117.520 E5.34888
G1 X133.708 Y118.322 E5.42368
G1 X132.500 Y118.432 E5.46314
G1 X67.500 Y118.432 E7.57792
G1 X65.235 Y118.035 E7.65272
G1 X63.241 Y116.891 E7.72752
G1 X61.755 Y115.138 E7.80232
G1 X60.953 Y112.983 E7.87713
G1 X60.843 Y111.775 E7.91658
G1 X60.843 Y66.225 E9.39856
G1 X61.240 Y63.960 E9.47336
G1 X62.346 Y62.031 E9.54572
G1 F1800.000 E8.54572
G1 Z0.850 F7800.000
G92 E0
G1 X130.507 Y109.782 F7800.000
G1 Z0.350 F7800.000
G1 E1.00000 F1800.000
G1 X73.993 Y109.782 E2.83870 F540.000
G1 X73.993 Y68.218 E4.19100
G1 X130.507 Y68.218 E6.02970
G1 X130.507 Y109.707 E7.37956
G1 X129.850 Y109.125 F7800.000
G1 X74.650 Y109.125 E9.17550 F378.000
G1 X74.650 Y68.875 E10.48504
G1 X129.850 Y68.875 E12.28099
G1 X129.850 Y109.050 E13.58809
G1 X129.850 Y109.625 F7800.000
G1 X73.336 Y110.111 F7800.000
G1 X69.164 Y110.111 E13.72382 F540.000
G1 X69.164 Y67.889 E15.09751
G1 X73.336 Y67.889 E15.23323
G1 X73.336 Y110.036 E16.60449
G1 X68.507 Y110.768 F7800.000
G1 X68.507 Y67.232 E18.02093 F540.000
G1 X131.493 Y67.232 E20.07019
G1 X131.493 Y110.768 E21.48664
G1 X68.582 Y110.768 E23.53346
G1 X67.850 Y111.425 F7800.000
G1 X67.850 Y66.575 E24.99266 F378.000
G1 X132.150 Y66.575 E27.08468
G1 X132.150 Y111.425 E28.54388
G1 X67.925 Y111.425 E30.63345
G1 X68.100 Y110.992 F7800.000
G1 X69.621 Y109.614 F7800.000
G1 X69.661 Y109.654 E30.63529 F1080.000
G1 X70.607 Y109.654 E30.66609
G1 X69.621 Y108.668 E30.71148
G1 X69.621 Y107.721 E30.74228
G1 X71.554 Y109.654 E30.83123
G1 X72.500 Y109.654 E30.86202
G1 X69.621 Y106.775 E30.99452
G1 X69.621 Y105.828 E31.02532
G1 X72.879 Y109.087 E31.17527
G1 X72.879 Y108.141 E31.20606
G1 X69.621 Y104.882 E31.35601
G1 X69.621 Y103.935 E31.38681
G1 X72.879 Y107.194 E31.53676
G1 X72.879 Y106.248 E31.56756
G1 X69.621 Y102.989 E31.71751
G1 X69.621 Y102.042 E31.74830
G1 X72.879 Y105.301 E31.89825
G1 X72.879 Y104.354 E31.92905
G1 X69.621 Y101.096 E32.07900
G1 X69.621 Y100.149 E32.10980
G1 X72.879 Y103.408 E32.25975
G1 X72.879 Y102.461 E32.29054
G1 X69.621 Y99.202 E32.44049
G1 X69.621 Y98.256 E32.47129
G1 X72.879 Y101.515 E32.62124
G1 X72.879 Y100.568 E32.65204
G1 X69.621 Y97.309 E32.80199
G1 X69.621 Y96.363 E32.83278
G1 X72.879 Y99.622 E32.98273
G1 X72.879 Y98.675 E33.01353
G1 X69.621 Y95.416 E33.16348
G1 X69.621 Y94.470 E33.19428
G1 X72.879 Y97.729 E33.34423
G1 X72.879 Y96.782 E33.37502
G1 X69.621 Y93.523 E33.52497
G1 X69.621 Y92.577 E33.55577
G1 X72.879 Y95.836 E33.70572
G1 X72.879 Y94.889 E33.73652
G1 X69.621 Y91.630 E33.88647
G1 X69.621 Y90.683 E33.91726
G1 X72.879 Y93.942 E34.06721
G1 X72.879 Y92.996 E34.09801
G1 X69.621 Y89.737 E34.24796
G1 X69.621 Y88.790 E34.27876
G1 X72.879 Y92.049 E34.42871
G1 X72.879 Y91.103 E34.45950
G1 X69.621 Y87.844 E34.60945
G1 X69.621 Y86.897 E34.64025
G1 X72.879 Y90.156 E34.79020
G1 X72.879 Y89.210 E34.82099
G1 X69.621 Y85.951 E34.97095
G1 X69.621 Y85.004 E35.00174
G1 X72.879 Y88.263 E35.15169
G1 X72.879 Y87.317 E35.18249
G1 X69.621 Y84.058 E35.33244
G1 X69.621 Y83.111 E35.36323
G1 X72.879 Y86.370 E35.51319
G1 X72.879 Y85.423 E35.54398
G1 X69.621 Y82.164 E35.69393
G1 X69.621 Y81.218 E35.72473
G1 X72.879 Y84.477 E35.87468
G1 X72.879 Y83.530 E35.90547
G1 X69.621 Y80.271 E36.05543
G1 X69.621 Y79.325 E36.08622
G1 X72.879 Y82.584 E36.23617
G1 X72.879 Y81.637 E36.26697
G1 X69.621 Y78.378 E36.41692
G1 X69.621 Y77.432 E36.44771
G1 X72.879 Y80.691 E36.59766
G1 X72.879 Y79.744 E36.62846
G1 X69.621 Y76.485 E36.77841
G1 X69.621 Y75.539 E36.80921
G1 X72.879 Y78.798 E36.95916
G1 X72.879 Y77.851 E36.98995
G1 X69.621 Y74.592 E37.13990
G1 X69.621 Y73.646 E37.17070
G1 X72.879 Y76.904 E37.32065
G1 X72.879 Y75.958 E37.35145
G1 X69.621 Y72.699 E37.50140
G1 X69.621 Y71.752 E37.53219
G1 X72.879 Y75.011 E37.68214
G1 X72.879 Y74.065 E37.71294
G1 X69.621 Y70.806 E37.86289
G1 X69.621 Y69.859 E37.89369
G1 X72.879 Y73.118 E38.04364
G1 X72.879 Y72.172 E38.07443
G1 X69.621 Y68.913 E38.22438
G1 X70.000 Y68.346 E38.24659
G1 X72.879 Y71.225 E38.37908
G1 X72.879 Y70.279 E38.40988
G1 X70.946 Y68.346 E38.49883
G1 X71.893 Y68.346 E38.52962
G1 X72.879 Y69.332 E38.57501
G1 X72.879 Y68.386 E38.60581
G1 X72.839 Y68.346 E38.60765
M106 S126
M140 S60 ; set bed temperature
G1 F1800.000 E37.60765
G1 Z1.250 F7800.000
G92 E0
G1 X73.750 Y110.025 F7800.000
G1 Z0.750 F7800.000
G1 E1.00000 F1800.000
G1 X73.750 Y67.975 E2.18977 F1800.000
G1 X130.750 Y67.975 E3.80254
G1 X130.750 Y110.025 E4.99231
G1 X73.825 Y110.025 E6.60296
G1 X74.250 Y109.525 F7800.000
G1 X74.250 Y68.475 E7.76444 F1800.000
G1 X130.250 Y68.475 E9.34892
G1 X130.250 Y109.525 E10.51039
G1 X74.325 Y109.525 E12.09275
G1 X74.750 Y109.025 F7800.000
G1 X74.750 Y68.975 E13.22593 F1260.000
G1 X129.750 Y68.975 E14.78211
G1 X129.750 Y109.025 E15.91529
G1 X74.825 Y109.025 E17.46935
G1 X74.250 Y109.025 F7800.000
G1 X68.750 Y110.525 F7800.000
G1 X68.750 Y67.475 E18.68742 F1800.000
G1 X131.250 Y67.475 E20.45581
G1 X131.250 Y110.525 E21.67387
G1 X68.825 Y110.525 E23.44014
G1 X68.250 Y111.025 F7800.000
G1 X68.250 Y66.975 E24.68650 F1800.000
G1 X131.750 Y66.975 E26.48318
G1 X131.750 Y111.025 E27.72954
G1 X68.325 Y111.025 E29.52410
G1 X67.750 Y111.525 F7800.000
G1 X67.750 Y66.475 E30.79876 F1260.000
G1 X132.250 Y66.475 E32.62374
G1 X132.250 Y111.525 E33.89839
G1 X67.825 Y111.525 E35.72124
G1 X68.000 Y111.092 F7800.000
G1 X73.403 Y110.138 F7800.000
G1 X73.363 Y110.178 E35.72291 F3600.000
G1 X72.624 Y110.178 E35.74465
G1 X73.403 Y109.399 E35.77706
G1 X73.403 Y108.659 E35.79880
G1 X71.884 Y110.178 E35.86196
G1 X71.145 Y110.178 E35.88371
G1 X73.403 Y107.920 E35.97762
G1 X73.403 Y107.180 E35.99936
G1 X70.405 Y110.178 E36.12402
G1 X69.666 Y110.178 E36.14576
G1 X73.403 Y106.441 E36.30116
G1 X73.403 Y105.702 E36.32291
G1 X69.097 Y110.008 E36.50198
G1 X69.097 Y109.268 E36.52372
G1 X73.403 Y104.962 E36.70280
G1 X73.403 Y104.223 E36.72454
G1 X69.097 Y108.529 E36.90362
G1 X69.097 Y107.790 E36.92536
G1 X73.403 Y103.483 E37.10443
G1 X73.403 Y102.744 E37.12618
G1 X69.097 Y107.050 E37.30525
G1 X69.097 Y106.311 E37.32699
G1 X73.403 Y102.005 E37.50607
G1 X73.403 Y101.265 E37.52781
G1 X69.097 Y105.571 E37.70689
G1 X69.097 Y104.832 E37.72863
G1 X73.403 Y100.526 E37.90770
G1 X73.403 Y99.786 E37.92945
G1 X69.097 Y104.093 E38.10852
G1 X69.097 Y103.353 E38.13026
G1 X73.403 Y99.047 E38.30934
G1 X73.403 Y98.308 E38.33108
G1 X69.097 Y102.614 E38.51016
G1 X69.097 Y101.874 E38.53190
G1 X73.403 Y97.568 E38.71098
G1 X73.403 Y96.829 E38.73272
G1 X69.097 Y101.135 E38.91179
G1 X69.097 Y100.396 E38.93354
G1 X73.403 Y96.089 E39.11261
G1 X73.403 Y95.350 E39.13435
G1 X69.097 Y99.656 E39.31343
G1 X69.097 Y98.917 E39.33517
G1 X73.403 Y94.611 E39.51425
G1 X73.403 Y93.871 E39.53599
G1 X69.097 Y98.177 E39.71506
G1 X69.097 Y97.438 E39.73681
G1 X73.403 Y93.132 E39.91588
G1 X73.403 Y92.392 E39.93762
G1 X69.097 Y96.699 E40.11670
G1 X69.097 Y95.959 E40.13844
G1 X73.403 Y91.653 E40.31752
G1 X73.403 Y90.914 E40.33926
G1 X69.097 Y95.220 E40.51833
G1 X69.097 Y94.480 E40.54008
G1 X73.403 Y90.174 E40.71915
G1 X73.403 Y89.435 E40.74089
G1 X69.097 Y93.741 E40.91997
G1 X69.097 Y93.002 E40.94171
G1 X73.403 Y88.695 E41.12079
G1 X73.403 Y87.956 E41.14253
G1 X69.097 Y92.262 E41.32161
G1 X69.097 Y91.523 E41.34335
G1 X73.403 Y87.217 E41.52242
G1 X73.403 Y86.477 E41.54417
G1 X69.097 Y90.783 E41.72324
G1 X69.097 Y90.044 E41.74498
G1 X73.403 Y85.738 E41.92406
G1 X73.403 Y84.998 E41.94580
G1 X69.097 Y89.305 E42.12488
G1 X69.097 Y88.565 E42.14662
G1 X73.403 Y84.259 E42.32569
G1 X73.403 Y83.520 E42.34744
G1 X69.097 Y87.826 E42.52651
G1 X69.097 Y87.086 E42.54825
G1 X73.403 Y82.780 E42.72733
G1 X73.403 Y82.041 E42.74907
G1 X69.097 Y86.347 E42.92815
G1 X69.097 Y85.608 E42.94989
G1 X73.403 Y81.301 E43.12896
G1 X73.403 Y80.562 E43.15071
G1 X69.097 Y84.868 E43.32978
G1 X69.097 Y84.129 E43.35152
G1 X73.403 Y79.823 E43.53060
G1 X73.403 Y79.083 E43.55234
G1 X69.097 Y83.389 E43.73142
G1 X69.097 Y82.650 E43.75316
G1 X73.403 Y78.344 E43.93223
G1 X73.403 Y77.604 E43.95398
G1 X69.097 Y81.911 E44.13305
G1 X69.097 Y81.171 E44.15480
G1 X73.403 Y76.865 E44.33387
G1 X73.403 Y76.126 E44.35561
G1 X69.097 Y80.432 E44.53469
G1 X69.097 Y79.692 E44.55643
G1 X73.403 Y75.386 E44.73551
G1 X73.403 Y74.647 E44.75725
G1 X69.097 Y78.953 E44.93632
G1 X69.097 Y78.214 E44.95807
G1 X73.403 Y73.907 E45.13714
G1 X73.403 Y73.168 E45.15888
G1 X69.097 Y77.474 E45.33796
G1 X69.097 Y76.735 E45.35970
G1 X73.403 Y72.429 E45.53878
G1 X73.403 Y71.689 E45.56052
G1 X69.097 Y75.995 E45.73959
G1 X69.097 Y75.256 E45.76134
G1 X73.403 Y70.950 E45.94041
G1 X73.403 Y70.210 E45.96215
G1 X69.097 Y74.517 E46.14123
G1 X69.097 Y73.777 E46.16297
G1 X73.403 Y69.471 E46.34205
G1 X73.403 Y68.732 E46.36379
G1 X69.097 Y73.038 E46.54286
G1 X69.097 Y72.298 E46.56461
G1 X73.403 Y67.992 E46.74368
G1 X72.834 Y67.822 E46.76115
G1 X69.097 Y71.559 E46.91656
G1 X69.097 Y70.820 E46.93830
G1 X72.095 Y67.822 E47.06296
G1 X71.355 Y67.822 E47.08470
G1 X69.097 Y70.080 E47.17861
G1 X69.097 Y69.341 E47.20035
G1 X70.616 Y67.822 E47.26351
G1 X69.876 Y67.822 E47.28525
G1 X69.097 Y68.601 E47.31766
G1 X69.097 Y67.862 E47.33941
G1 X69.137 Y67.822 E47.34107
M106 S126
G1 F1800.000 E46.34107
G1 Z1.650 F7800.000
G92 E0
G1 X73.750 Y110.025 F7800.000
G1 Z1.150 F7800.000
G1 E1.00000 F1800.000
G1 X73.750 Y67.975 E2.18977 F1800.000
G1 X130.750 Y67.975 E3.80254
G1 X130.750 Y110.025 E4.99231
G1 X73.825 Y110.025 E6.60296
G1 X74.250 Y109.525 F7800.000
G1 X74.250 Y68.475 E7.76444 F1800.000
G1 X130.250 Y68.475 E9.34892
G1 X130.250 Y109.525 E10.51039
G1 X74.325 Y109.525 E12.09275
G1 X74.750 Y109.025 F7800.000
G1 X74.750 Y68.975 E13.22593 F1260.000
G1 X129.750 Y68.975 E14.78211
G1 X129.750 Y109.025 E15.91529
G1 X74.825 Y109.025 E17.46935
G1 X74.250 Y109.025 F7800.000
G1 X68.750 Y110.525 F7800.000
G1 X68.750 Y67.475 E18.68742 F1800.000
G1 X131.250 Y67.475 E20.45581
G1 X131.250 Y110.525 E21.67387
G1 X68.825 Y110.525 E23.44014
G1 X68.250 Y111.025 F7800.000
G1 X68.250 Y66.975 E24.68650 F1800.000
G1 X131.750 Y66.975 E26.48318
G1 X131.750 Y111.025 E27.72954
G1 X68.325 Y111.025 E29.52410
G1 X67.750 Y111.525 F7800.000
G1 X67.750 Y66.475 E30.79876 F1260.000
G1 X132.250 Y66.475 E32.62374
G1 X132.250 Y111.525 E33.89839
G1 X67.825 Y111.525 E35.72124
G1 X68.000 Y111.092 F7800.000
G1 X69.097 Y110.138 F7800.000
G1 X69.137 Y110.178 E35.72291 F3600.000
G1 X69.876 Y110.178 E35.74465
G1 X69.097 Y109.399 E35.77706
G1 X69.097 Y108.659 E35.79880
G1 X70.616 Y110.178 E35.86196
G1 X71.355 Y110.178 E35.88371
G1 X69.097 Y107.920 E35.97762
G1 X69.097 Y107.180 E35.99936
G1 X72.095 Y110.178 E36.12401
G1 X72.834 Y110.178 E36.14576
G1 X69.097 Y106.441 E36.30116
G1 X69.097 Y105.702 E36.32290
G1 X73.403 Y110.008 E36.50198
G1 X73.403 Y109.268 E36.52372
G1 X69.097 Y104.962 E36.70280
G1 X69.097 Y104.223 E36.72454
G1 X73.403 Y108.529 E36.90362
G1 X73.403 Y107.790 E36.92536
G1 X69.097 Y103.483 E37.10443
G1 X69.097 Y102.744 E37.12618
G1 X73.403 Y107.050 E37.30525
G1 X73.403 Y106.311 E37.32699
G1 X69.097 Y102.005 E37.50607
G1 X69.097 Y101.265 E37.52781
G1 X73.403 Y105.571 E37.70689
G1 X73.403 Y104.832 E37.72863
G1 X69.097 Y100.526 E37.90770
G1 X69.097 Y99.786 E37.92945
G1 X73.403 Y104.093 E38.10852
G1 X73.403 Y103.353 E38.13026
G1 X69.097 Y99.047 E38.30934
G1 X69.097 Y98.308 E38.33108
G1 X73.403 Y102.614 E38.51016
G1 X73.403 Y101.874 E38.53190
G1 X69.097 Y97.568 E38.71097
G1 X69.097 Y96.829 E38.73272
G1 X73.403 Y101.135 E38.91179
G1 X73.403 Y100.396 E38.93353
G1 X69.097 Y96.089 E39.11261
G1 X69.097 Y95.350 E39.13435
G1 X73.403 Y99.656 E39.31343
G1 X73.403 Y98.917 E39.33517
G1 X69.097 Y94.611 E39.51425
G1 X69.097 Y93.871 E39.53599
G1 X73.403 Y98.177 E39.71506
G1 X73.403 Y97.438 E39.73681
G1 X69.097 Y93.132 E39.91588
G1 X69.097 Y92.392 E39.93762
G1 X73.403 Y96.699 E40.11670
G1 X73.403 Y95.959 E40.13844
G1 X69.097 Y91.653 E40.31752
G1 X69.097 Y90.914 E40.33926
G1 X73.403 Y95.220 E40.51833
G1 X73.403 Y94.480 E40.54008
G1 X69.097 Y90.174 E40.71915
G1 X69.097 Y89.435 E40.74089
G1 X73.403 Y93.741 E40.91997
G1 X73.403 Y93.002 E40.94171
G1 X69.097 Y88.695 E41.12079
G1 X69.097 Y87.956 E41.14253
G1 X73.403 Y92.262 E41.32160
G1 X73.403 Y91.523 E41.34335
G1 X69.097 Y87.217 E41.52242
G1 X69.097 Y86.477 E41.54416
G1 X73.403 Y90.783 E41.72324
G1 X73.403 Y90.044 E41.74498
G1 X69.097 Y85.738 E41.92406
G1 X69.097 Y84.998 E41.94580
G1 X73.403 Y89.305 E42.12488
G1 X73.403 Y88.565 E42.14662
G1 X69.097 Y84.259 E42.32569
G1 X69.097 Y83.520 E42.34744
G1 X73.403 Y87.826 E42.52651
G1 X73.403 Y87.086 E42.54825
G1 X69.097 Y82.780 E42.72733
G1 X69.097 Y82.041 E42.74907
G1 X73.403 Y86.347 E42.92815
G1 X73.403 Y85.608 E42.94989
G1 X69.097 Y81.301 E43.12896
G1 X69.097 Y80.562 E43.15071
G1 X73.403 Y84.868 E43.32978
G1 X73.403 Y84.129 E43.35152
G1 X69.097 Y79.823 E43.53060
G1 X69.097 Y79.083 E43.55234
G1 X73.403 Y83.389 E43.73142
G1 X73.403 Y82.650 E43.75316
G1 X69.097 Y78.344 E43.93223
G1 X69.097 Y77.604 E43.95398
G1 X73.403 Y81.911 E44.13305
G1 X73.403 Y81.171 E44.15479
G1 X69.097 Y76.865 E44.33387
G1 X69.097 Y76.126 E44.35561
G1 X73.403 Y80.432 E44.53469
G1 X73.403 Y79.692 E44.55643
G1 X69.097 Y75.386 E44.73551
G1 X69.097 Y74.647 E44.75725
G1 X73.403 Y78.953 E44.93632
G1 X73.403 Y78.214 E44.95807
G1 X69.097 Y73.907 E45.13714
G1 X69.097 Y73.168 E45.15888
G1 X73.403 Y77.474 E45.33796
G1 X73.403 Y76.735 E45.35970
G1 X69.097 Y72.429 E45.53878
G1 X69.097 Y71.689 E45.56052
G1 X73.403 Y75.995 E45.73959
G1 X73.403 Y75.256 E45.76134
G1 X69.097 Y70.950 E45.94041
G1 X69.097 Y70.210 E45.96215
G1 X73.403 Y74.517 E46.14123
G1 X73.403 Y73.777 E46.16297
G1 X69.097 Y69.471 E46.34205
G1 X69.097 Y68.732 E46.36379
G1 X73.403 Y73.038 E46.54286
G1 X73.403 Y72.298 E46.56461
G1 X69.097 Y67.992 E46.74368
G1 X69.666 Y67.822 E46.76115
G1 X73.403 Y71.559 E46.91656
G1 X73.403 Y70.820 E46.93830
G1 X70.405 Y67.822 E47.06296
G1 X71.145 Y67.822 E47.08470
G1 X73.403 Y70.080 E47.17861
G1 X73.403 Y69.341 E47.20035
G1 X71.884 Y67.822 E47.26351
G1 X72.624 Y67.822 E47.28525
G1 X73.403 Y68.601 E47.31766
G1 X73.403 Y67.862 E47.33941
G1 X73.363 Y67.822 E47.34107
M106 S143
G1 F1800.000 E46.34107
G1 Z2.050 F7800.000
G92 E0
G1 X73.750 Y110.025 F7800.000
G1 Z1.550 F7800.000
G1 E1.00000 F1800.000
G1 X73.750 Y67.975 E2.18977 F1800.000
G1 X130.750 Y67.975 E3.80254
G1 X130.750 Y110.025 E4.99231
G1 X73.825 Y110.025 E6.60296
G1 X74.250 Y109.525 F7800.000
G1 X74.250 Y68.475 E7.76444 F1800.000
G1 X130.250 Y68.475 E9.34892
G1 X130.250 Y109.525 E10.51039
G1 X74.325 Y109.525 E12.09275
G1 X74.750 Y109.025 F7800.000
G1 X74.750 Y68.975 E13.22593 F1260.000
G1 X129.750 Y68.975 E14.78211
G1 X129.750 Y109.025 E15.91529
G1 X74.825 Y109.025 E17.46935
G1 X74.250 Y109.025 F7800.000
G1 X68.750 Y110.525 F7800.000
G1 X68.750 Y67.475 E18.68742 F1800.000
G1 X131.250 Y67.475 E20.45581
G1 X131.250 Y110.525 E21.67387
G1 X68.825 Y110.525 E23.44014
G1 X68.250 Y111.025 F7800.000
G1 X68.250 Y66.975 E24.68650 F1800.000
G1 X131.750 Y66.975 E26.48318
G1 X131.750 Y111.025 E27.72954
G1 X68.325 Y111.025 E29.52410
G1 X67.750 Y111.525 F7800.000
G1 X67.750 Y66.475 E30.79876 F1260.000
G1 X132.250 Y66.475 E32.62374
G1 X132.250 Y111.525 E33.89839
G1 X67.825 Y111.525 E35.72124
G1 X68.000 Y111.092 F7800.000
