; generated by Slic3r 1.1.7 on 2015-02-12 at 20:38:00

; perimeters extrusion width = 0.50mm
; infill extrusion width = 0.52mm
; solid infill extrusion width = 0.52mm
; top infill extrusion width = 0.52mm

G21 ; set units to millimeters
M107
M190 S65 ; wait for bed temperature to be reached
M104 S180 ; set temperature
G28 ; home all axes
G1 Z5 F5000 ; lift nozzle

M109 S180 ; wait for temperature to be reached
G90 ; use absolute coordinates
G92 E0
M82 ; use absolute distances for extrusion
G1 F1800.000 E-1.00000
G1 Z0.850 F7800.000
G92 E0
G1 X62.884 Y62.966 F7800.000
G1 Z0.350 F7800.000
G1 E1.00000 F1800.000
G1 X64.637 Y61.480 E1.07480 F1080.000
G1 X66.792 Y60.678 E1.14960
G1 X68.000 Y60.568 E1.18906
G1 X132.000 Y60.568 E3.27131
G1 X134.265 Y60.965 E3.34611
G1 X136.259 Y62.109 E3.42091 F1080.000
G1 X137.745 Y63.862 E3.49571
G1 X138.547 Y66.017 E3.57051
G1 X138.657 Y67.225 E3.60996
G1 X138.657 Y110.775 E5.02687
G1 X138.260 Y113.040 E5.10167
G1 X137.116 Y115.034 E5.17647
G1 X135.363 Y116.520 E5.25127
G1 X133.208 Y117.322 E5.32607
G1 X132.000 Y117.432 E5.36553
G1 X68.000 Y117.432 E7.44778
G1 X65.735 Y117.035 E7.52258
G1 X63.741 Y115.891 E7.59738
G1 X62.255 Y114.138 E7.67218
G1 X61.453 Y111.983 E7.74698
G1 X61.343 Y110.775 E7.78644
G1 X61.343 Y67.225 E9.20335
G1 X61.740 Y64.960 E9.27815
G1 X62.846 Y63.031 E9.35051
G1 F1800.000 E8.35051
G1 Z0.850 F7800.000
G92 E0
G1 X130.007 Y108.782 F7800.000
G1 Z0.350 F7800.000
G1 E1.00000 F1800.000
G1 X73.993 Y108.782 E2.82243 F540.000
G1 X73.993 Y69.218 E4.10966
G1 X130.007 Y69.218 E5.93209
G1 X130.007 Y108.707 E7.21688
G1 X129.350 Y108.125 F7800.000
G1 X74.650 Y108.125 E8.99656 F378.000
G1 X74.650 Y69.875 E10.24103
G1 X129.350 Y69.875 E12.02071
G1 X129.350 Y108.050 E13.26274
G1 X129.350 Y108.625 F7800.000
G1 X73.336 Y109.111 F7800.000
G1 X69.664 Y109.111 E13.38220 F540.000
G1 X69.664 Y68.889 E14.69082
G1 X73.336 Y68.889 E14.81028
G1 X73.336 Y109.036 E16.11646
G1 X69.007 Y109.768 F7800.000
G1 X69.007 Y68.232 E17.46784 F540.000
G1 X130.993 Y68.232 E19.48456
G1 X130.993 Y109.768 E20.83594
G1 X69.082 Y109.768 E22.85022
G1 X68.350 Y110.425 F7800.000
G1 X68.350 Y67.575 E24.24435 F378.000
G1 X131.650 Y67.575 E26.30383
G1 X131.650 Y110.425 E27.69796
G1 X68.425 Y110.425 E29.75500
G1 X68.600 Y109.992 F7800.000
G1 X70.121 Y108.614 F7800.000
G1 X70.161 Y108.654 E29.75684 F1080.000
G1 X71.094 Y108.654 E29.78720
G1 X70.121 Y107.681 E29.83197
G1 X70.121 Y106.748 E29.86233
G1 X72.027 Y108.654 E29.95004
G1 X72.879 Y108.574 E29.97791
G1 X70.121 Y105.815 E30.10485
G1 X70.121 Y104.882 E30.13521
G1 X72.879 Y107.641 E30.26215
G1 X72.879 Y106.708 E30.29251
G1 X70.121 Y103.949 E30.41945
G1 X70.121 Y103.016 E30.44981
G1 X72.879 Y105.775 E30.57676
G1 X72.879 Y104.842 E30.60711
G1 X70.121 Y102.083 E30.73406
G1 X70.121 Y101.150 E30.76442
G1 X72.879 Y103.909 E30.89136
G1 X72.879 Y102.976 E30.92172
G1 X70.121 Y100.217 E31.04866
G1 X70.121 Y99.284 E31.07902
G1 X72.879 Y102.043 E31.20596
G1 X72.879 Y101.110 E31.23632
G1 X70.121 Y98.351 E31.36327
G1 X70.121 Y97.418 E31.39362
G1 X72.879 Y100.177 E31.52057
G1 X72.879 Y99.244 E31.55093
G1 X70.121 Y96.485 E31.67787
G1 X70.121 Y95.552 E31.70823
G1 X72.879 Y98.311 E31.83517
G1 X72.879 Y97.377 E31.86553
G1 X70.121 Y94.619 E31.99247
G1 X70.121 Y93.685 E32.02283
G1 X72.879 Y96.444 E32.14978
G1 X72.879 Y95.511 E32.18013
G1 X70.121 Y92.752 E32.30708
G1 X70.121 Y91.819 E32.33744
G1 X72.879 Y94.578 E32.46438
G1 X72.879 Y93.645 E32.49474
G1 X70.121 Y90.886 E32.62168
G1 X70.121 Y89.953 E32.65204
G1 X72.879 Y92.712 E32.77898
G1 X72.879 Y91.779 E32.80934
G1 X70.121 Y89.020 E32.93629
G1 X70.121 Y88.087 E32.96664
G1 X72.879 Y90.846 E33.09359
G1 X72.879 Y89.913 E33.12395
G1 X70.121 Y87.154 E33.25089
G1 X70.121 Y86.221 E33.28125
G1 X72.879 Y88.980 E33.40819
G1 X72.879 Y88.047 E33.43855
G1 X70.121 Y85.288 E33.56549
G1 X70.121 Y84.355 E33.59585
G1 X72.879 Y87.114 E33.72280
G1 X72.879 Y86.181 E33.75315
G1 X70.121 Y83.422 E33.88010
G1 X70.121 Y82.489 E33.91046
G1 X72.879 Y85.248 E34.03740
G1 X72.879 Y84.315 E34.06776
G1 X70.121 Y81.556 E34.19470
G1 X70.121 Y80.623 E34.22506
G1 X72.879 Y83.381 E34.35200
G1 X72.879 Y82.448 E34.38236
G1 X70.121 Y79.689 E34.50931
G1 X70.121 Y78.756 E34.53966
G1 X72.879 Y81.515 E34.66661
G1 X72.879 Y80.582 E34.69697
G1 X70.121 Y77.823 E34.82391
G1 X70.121 Y76.890 E34.85427
G1 X72.879 Y79.649 E34.98121
G1 X72.879 Y78.716 E35.01157
G1 X70.121 Y75.957 E35.13851
G1 X70.121 Y75.024 E35.16887
G1 X72.879 Y77.783 E35.29582
G1 X72.879 Y76.850 E35.32617
G1 X70.121 Y74.091 E35.45312
G1 X70.121 Y73.158 E35.48348
G1 X72.879 Y75.917 E35.61042
G1 X72.879 Y74.984 E35.64078
G1 X70.121 Y72.225 E35.76772
G1 X70.121 Y71.292 E35.79808
G1 X72.879 Y74.051 E35.92502
G1 X72.879 Y73.118 E35.95538
G1 X70.121 Y70.359 E36.08233
G1 X70.121 Y69.426 E36.11268
G1 X72.879 Y72.185 E36.23963
G1 X72.879 Y71.252 E36.26999
G1 X70.973 Y69.346 E36.35769
G1 X71.906 Y69.346 E36.38805
G1 X72.879 Y70.319 E36.43282
G1 X72.879 Y69.386 E36.46318
G1 X72.839 Y69.346 E36.46502
M106 S138
M140 S60 ; set bed temperature
G1 F1800.000 E35.46502
G1 Z1.250 F7800.000
G92 E0
G1 X73.750 Y109.025 F7800.000
G1 Z0.750 F7800.000
G1 E1.00000 F1800.000
G1 X73.750 Y68.975 E2.13318 F1800.000
G1 X130.250 Y68.975 E3.73181
G1 X130.250 Y109.025 E4.86499
G1 X73.825 Y109.025 E6.46149
G1 X74.250 Y108.525 F7800.000
G1 X74.250 Y69.475 E7.56638 F1800.000
G1 X129.750 Y69.475 E9.13671
G1 X129.750 Y108.525 E10.24160
G1 X74.325 Y108.525 E11.80980
G1 X74.750 Y108.025 F7800.000
G1 X74.750 Y69.975 E12.88640 F1260.000
G1 X129.250 Y69.975 E14.42843
G1 X129.250 Y108.025 E15.50503
G1 X74.825 Y108.025 E17.04494
G1 X74.250 Y108.025 F7800.000
G1 X69.250 Y109.525 F7800.000
G1 X69.250 Y68.475 E18.20642 F1800.000
G1 X130.750 Y68.475 E19.94651
G1 X130.750 Y109.525 E21.10799
G1 X69.325 Y109.525 E22.84596
G1 X68.750 Y110.025 F7800.000
G1 X68.750 Y67.975 E24.03573 F1800.000
G1 X131.250 Y67.975 E25.80412
G1 X131.250 Y110.025 E26.99389
G1 X68.825 Y110.025 E28.76016
G1 X68.250 Y110.525 F7800.000
G1 X68.250 Y67.475 E29.97823 F1260.000
G1 X131.750 Y67.475 E31.77491
G1 X131.750 Y110.525 E32.99297
G1 X68.325 Y110.525 E34.78754
G1 X68.500 Y110.092 F7800.000
G1 X73.403 Y109.138 F7800.000
G1 X73.363 Y109.178 E34.78920 F3600.000
G1 X72.616 Y109.178 E34.81117
G1 X73.403 Y108.391 E34.84390
G1 X73.403 Y107.644 E34.86587
G1 X71.869 Y109.178 E34.92968
G1 X71.122 Y109.178 E34.95165
G1 X73.403 Y106.897 E35.04653
G1 X73.403 Y106.149 E35.06850
G1 X70.374 Y109.178 E35.19444
G1 X69.632 Y109.173 E35.21627
G1 X73.403 Y105.402 E35.37309
G1 X73.403 Y104.655 E35.39506
G1 X69.597 Y108.461 E35.55335
G1 X69.597 Y107.714 E35.57532
G1 X73.403 Y103.908 E35.73360
G1 X73.403 Y103.161 E35.75557
G1 X69.597 Y106.967 E35.91385
G1 X69.597 Y106.220 E35.93582
G1 X73.403 Y102.414 E36.09410
G1 X73.403 Y101.667 E36.11607
G1 X69.597 Y105.473 E36.27436
G1 X69.597 Y104.726 E36.29633
G1 X73.403 Y100.919 E36.45461
G1 X73.403 Y100.172 E36.47658
G1 X69.597 Y103.978 E36.63486
G1 X69.597 Y103.231 E36.65683
G1 X73.403 Y99.425 E36.81512
G1 X73.403 Y98.678 E36.83709
G1 X69.597 Y102.484 E36.99537
G1 X69.597 Y101.737 E37.01734
G1 X73.403 Y97.931 E37.17562
G1 X73.403 Y97.184 E37.19759
G1 X69.597 Y100.990 E37.35588
G1 X69.597 Y100.243 E37.37785
G1 X73.403 Y96.436 E37.53613
G1 X73.403 Y95.689 E37.55810
G1 X69.597 Y99.495 E37.71638
G1 X69.597 Y98.748 E37.73835
G1 X73.403 Y94.942 E37.89664
G1 X73.403 Y94.195 E37.91861
G1 X69.597 Y98.001 E38.07689
G1 X69.597 Y97.254 E38.09886
G1 X73.403 Y93.448 E38.25714
G1 X73.403 Y92.701 E38.27911
G1 X69.597 Y96.507 E38.43739
G1 X69.597 Y95.760 E38.45936
G1 X73.403 Y91.953 E38.61765
G1 X73.403 Y91.206 E38.63962
G1 X69.597 Y95.012 E38.79790
G1 X69.597 Y94.265 E38.81987
G1 X73.403 Y90.459 E38.97815
G1 X73.403 Y89.712 E39.00012
G1 X69.597 Y93.518 E39.15841
G1 X69.597 Y92.771 E39.18038
G1 X73.403 Y88.965 E39.33866
G1 X73.403 Y88.218 E39.36063
G1 X69.597 Y92.024 E39.51891
G1 X69.597 Y91.277 E39.54088
G1 X73.403 Y87.470 E39.69917
G1 X73.403 Y86.723 E39.72114
G1 X69.597 Y90.530 E39.87942
G1 X69.597 Y89.782 E39.90139
G1 X73.403 Y85.976 E40.05967
G1 X73.403 Y85.229 E40.08164
G1 X69.597 Y89.035 E40.23992
G1 X69.597 Y88.288 E40.26190
G1 X73.403 Y84.482 E40.42018
G1 X73.403 Y83.735 E40.44215
G1 X69.597 Y87.541 E40.60043
G1 X69.597 Y86.794 E40.62240
G1 X73.403 Y82.988 E40.78068
G1 X73.403 Y82.240 E40.80265
G1 X69.597 Y86.047 E40.96094
G1 X69.597 Y85.299 E40.98291
G1 X73.403 Y81.493 E41.14119
G1 X73.403 Y80.746 E41.16316
G1 X69.597 Y84.552 E41.32144
G1 X69.597 Y83.805 E41.34341
G1 X73.403 Y79.999 E41.50170
G1 X73.403 Y79.252 E41.52367
G1 X69.597 Y83.058 E41.68195
G1 X69.597 Y82.311 E41.70392
G1 X73.403 Y78.505 E41.86220
G1 X73.403 Y77.757 E41.88417
G1 X69.597 Y81.564 E42.04246
G1 X69.597 Y80.816 E42.06443
G1 X73.403 Y77.010 E42.22271
G1 X73.403 Y76.263 E42.24468
G1 X69.597 Y80.069 E42.40296
G1 X69.597 Y79.322 E42.42493
G1 X73.403 Y75.516 E42.58321
G1 X73.403 Y74.769 E42.60518
G1 X69.597 Y78.575 E42.76347
G1 X69.597 Y77.828 E42.78544
G1 X73.403 Y74.022 E42.94372
G1 X73.403 Y73.274 E42.96569
G1 X69.597 Y77.081 E43.12397
G1 X69.597 Y76.333 E43.14594
G1 X73.403 Y72.527 E43.30423
G1 X73.403 Y71.780 E43.32620
G1 X69.597 Y75.586 E43.48448
G1 X69.597 Y74.839 E43.50645
G1 X73.403 Y71.033 E43.66473
G1 X73.403 Y70.286 E43.68670
G1 X69.597 Y74.092 E43.84499
G1 X69.597 Y73.345 E43.86696
G1 X73.403 Y69.539 E44.02524
G1 X73.368 Y68.827 E44.04620
G1 X69.597 Y72.598 E44.20302
G1 X69.597 Y71.851 E44.22499
G1 X72.626 Y68.822 E44.35094
G1 X71.878 Y68.822 E44.37291
G1 X69.597 Y71.103 E44.46778
G1 X69.597 Y70.356 E44.48975
G1 X71.131 Y68.822 E44.55356
G1 X70.384 Y68.822 E44.57553
G1 X69.597 Y69.609 E44.60826
G1 X69.597 Y68.862 E44.63023
G1 X69.637 Y68.822 E44.63190
M106 S138
G1 F1800.000 E43.63190
G1 Z1.650 F7800.000
G92 E0
G1 X73.750 Y109.025 F7800.000
G1 Z1.150 F7800.000
G1 E1.00000 F1800.000
G1 X73.750 Y68.975 E2.13318 F1800.000
G1 X130.250 Y68.975 E3.73181
G1 X130.250 Y109.025 E4.86499
G1 X73.825 Y109.025 E6.46149
G1 X74.250 Y108.525 F7800.000
G1 X74.250 Y69.475 E7.56638 F1800.000
G1 X129.750 Y69.475 E9.13671
G1 X129.750 Y108.525 E10.24160
G1 X74.325 Y108.525 E11.80980
G1 X74.750 Y108.025 F7800.000
G1 X74.750 Y69.975 E12.88640 F1260.000
G1 X129.250 Y69.975 E14.42843
G1 X129.250 Y108.025 E15.50503
G1 X74.825 Y108.025 E17.04494
G1 X74.250 Y108.025 F7800.000
G1 X69.250 Y109.525 F7800.000
G1 X69.250 Y68.475 E18.20642 F1800.000
G1 X130.750 Y68.475 E19.94651
G1 X130.750 Y109.525 E21.10799
G1 X69.325 Y109.525 E22.84596
G1 X68.750 Y110.025 F7800.000
G1 X68.750 Y67.975 E24.03573 F1800.000
G1 X131.250 Y67.975 E25.80412
G1 X131.250 Y110.025 E26.99389
G1 X68.825 Y110.025 E28.76016
G1 X68.250 Y110.525 F7800.000
G1 X68.250 Y67.475 E29.97823 F1260.000
G1 X131.750 Y67.475 E31.77491
G1 X131.750 Y110.525 E32.99297
G1 X68.325 Y110.525 E34.78754
G1 X68.500 Y110.092 F7800.000
G1 X69.597 Y109.138 F7800.000
G1 X69.637 Y109.178 E34.78920 F3600.000
G1 X70.384 Y109.178 E34.81117
G1 X69.597 Y108.391 E34.84390
G1 X69.597 Y107.644 E34.86587
G1 X71.131 Y109.178 E34.92968
G1 X71.878 Y109.178 E34.95165
G1 X69.597 Y106.897 E35.04653
G1 X69.597 Y106.149 E35.06850
G1 X72.626 Y109.178 E35.19444
G1 X73.368 Y109.173 E35.21627
G1 X69.597 Y105.402 E35.37309
G1 X69.597 Y104.655 E35.39506
G1 X73.403 Y108.461 E35.55335
G1 X73.403 Y107.714 E35.57532
G1 X69.597 Y103.908 E35.73360
G1 X69.597 Y103.161 E35.75557
G1 X73.403 Y106.967 E35.91385
G1 X73.403 Y106.220 E35.93582
G1 X69.597 Y102.414 E36.09410
G1 X69.597 Y101.667 E36.11607
G1 X73.403 Y105.473 E36.27436
G1 X73.403 Y104.726 E36.29633
G1 X69.597 Y100.919 E36.45461
G1 X69.597 Y100.172 E36.47658
G1 X73.403 Y103.978 E36.63486
G1 X73.403 Y103.231 E36.65683
G1 X69.597 Y99.425 E36.81512
G1 X69.597 Y98.678 E36.83709
G1 X73.403 Y102.484 E36.99537
G1 X73.403 Y101.737 E37.01734
G1 X69.597 Y97.931 E37.17562
G1 X69.597 Y97.184 E37.19759
G1 X73.403 Y100.990 E37.35588
G1 X73.403 Y100.243 E37.37785
G1 X69.597 Y96.436 E37.53613
G1 X69.597 Y95.689 E37.55810
G1 X73.403 Y99.495 E37.71638
G1 X73.403 Y98.748 E37.73835
G1 X69.597 Y94.942 E37.89663
G1 X69.597 Y94.195 E37.91861
G1 X73.403 Y98.001 E38.07689
G1 X73.403 Y97.254 E38.09886
G1 X69.597 Y93.448 E38.25714
G1 X69.597 Y92.701 E38.27911
G1 X73.403 Y96.507 E38.43739
G1 X73.403 Y95.760 E38.45936
G1 X69.597 Y91.953 E38.61765
G1 X69.597 Y91.206 E38.63962
G1 X73.403 Y95.012 E38.79790
G1 X73.403 Y94.265 E38.81987
G1 X69.597 Y90.459 E38.97815
G1 X69.597 Y89.712 E39.00012
G1 X73.403 Y93.518 E39.15841
G1 X73.403 Y92.771 E39.18038
G1 X69.597 Y88.965 E39.33866
G1 X69.597 Y88.218 E39.36063
G1 X73.403 Y92.024 E39.51891
G1 X73.403 Y91.277 E39.54088
G1 X69.597 Y87.470 E39.69917
G1 X69.597 Y86.723 E39.72114
G1 X73.403 Y90.530 E39.87942
G1 X73.403 Y89.782 E39.90139
G1 X69.597 Y85.976 E40.05967
G1 X69.597 Y85.229 E40.08164
G1 X73.403 Y89.035 E40.23992
G1 X73.403 Y88.288 E40.26189
G1 X69.597 Y84.482 E40.42018
G1 X69.597 Y83.735 E40.44215
G1 X73.403 Y87.541 E40.60043
G1 X73.403 Y86.794 E40.62240
G1 X69.597 Y82.988 E40.78068
G1 X69.597 Y82.240 E40.80265
G1 X73.403 Y86.047 E40.96094
G1 X73.403 Y85.299 E40.98291
G1 X69.597 Y81.493 E41.14119
G1 X69.597 Y80.746 E41.16316
G1 X73.403 Y84.552 E41.32144
G1 X73.403 Y83.805 E41.34341
G1 X69.597 Y79.999 E41.50170
G1 X69.597 Y79.252 E41.52367
G1 X73.403 Y83.058 E41.68195
G1 X73.403 Y82.311 E41.70392
G1 X69.597 Y78.505 E41.86220
G1 X69.597 Y77.757 E41.88417
G1 X73.403 Y81.564 E42.04245
G1 X73.403 Y80.816 E42.06443
G1 X69.597 Y77.010 E42.22271
G1 X69.597 Y76.263 E42.24468
G1 X73.403 Y80.069 E42.40296
G1 X73.403 Y79.322 E42.42493
G1 X69.597 Y75.516 E42.58321
G1 X69.597 Y74.769 E42.60518
G1 X73.403 Y78.575 E42.76347
G1 X73.403 Y77.828 E42.78544
G1 X69.597 Y74.022 E42.94372
G1 X69.597 Y73.274 E42.96569
G1 X73.403 Y77.081 E43.12397
G1 X73.403 Y76.333 E43.14594
G1 X69.597 Y72.527 E43.30423
G1 X69.597 Y71.780 E43.32620
G1 X73.403 Y75.586 E43.48448
G1 X73.403 Y74.839 E43.50645
G1 X69.597 Y71.033 E43.66473
G1 X69.597 Y70.286 E43.68670
G1 X73.403 Y74.092 E43.84499
G1 X73.403 Y73.345 E43.86696
G1 X69.597 Y69.539 E44.02524
G1 X69.632 Y68.827 E44.04620
G1 X73.403 Y72.598 E44.20302
G1 X73.403 Y71.851 E44.22499
G1 X70.374 Y68.822 E44.35094
G1 X71.122 Y68.822 E44.37291
G1 X73.403 Y71.103 E44.46778
G1 X73.403 Y70.356 E44.48975
G1 X71.869 Y68.822 E44.55356
G1 X72.616 Y68.822 E44.57553
G1 X73.403 Y69.609 E44.60826
G1 X73.403 Y68.862 E44.63023
G1 X73.363 Y68.822 E44.63190
M106 S153
G1 F1800.000 E43.63190
G1 Z2.050 F7800.000
G92 E0
G1 X73.750 Y109.025 F7800.000
G1 Z1.550 F7800.000
G1 E1.00000 F1800.000
G1 X73.750 Y68.975 E2.13318 F1800.000
G1 X130.250 Y68.975 E3.73181
G1 X130.250 Y109.025 E4.86499
G1 X73.825 Y109.025 E6.46149
G1 X74.250 Y108.525 F7800.000
G1 X74.250 Y69.475 E7.56638 F1800.000
G1 X129.750 Y69.475 E9.13671
G1 X129.750 Y108.525 E10.24160
G1 X74.325 Y108.525 E11.80980
G1 X74.750 Y108.025 F7800.000
G1 X74.750 Y69.975 E12.88640 F1260.000
G1 X129.250 Y69.975 E14.42843
G1 X129.250 Y108.025 E15.50503
G1 X74.825 Y108.025 E17.04494
G1 X74.250 Y108.025 F7800.000
G1 X69.250 Y109.525 F7800.000
G1 X69.250 Y68.475 E18.20642 F1800.000
G1 X130.750 Y68.475 E19.94651
G1 X130.750 Y109.525 E21.10799
G1 X69.325 Y109.525 E22.84596
G1 X68.750 Y110.025 F7800.000
G1 X68.750 Y67.975 E24.03573 F1800.000
G1 X131.250 Y67.975 E25.80412
G1 X131.250 Y110.025 E26.99389
G1 X68.825 Y110.025 E28.76016
G1 X68.250 Y110.525 F7800.000
G1 X68.250 Y67.475 E29.97823 F1260.000
G1 X131.750 Y67.475 E31.77491
G1 X131.750 Y110.525 E32.99297
G1 X68.325 Y110.525 E34.78754
G1 X68.500 Y110.092 F7800.000
G1 X69.617 Y108.963 F7800.000
G1 X70.257 Y108.323 E34.81413 F3600.000
G1 X71.126 Y108.556 E34.84060
G1 X72.399 Y107.283 E34.89353
G1 X72.166 Y106.414 E34.92000
G1 X73.383 Y105.197 E34.97062
G1 X73.383 Y103.359 E35.02464
G1 X72.838 Y103.904 E35.04730
G1 X73.071 Y104.774 E35.07377
G1 X71.798 Y106.046 E35.12670
G1 X70.929 Y105.814 E35.15316
G1 X69.656 Y107.086 E35.20609
G1 X69.889 Y107.956 E35.23256
G1 X69.617 Y108.228 E35.24388
G1 X69.617 Y106.391 E35.29790
G1 X70.562 Y105.446 E35.33719
G1 X70.329 Y104.577 E35.36365
G1 X71.601 Y103.304 E35.41658
G1 X72.471 Y103.537 E35.44305
