; generated by Slic3r 0.9.8-dev on 2012-12-29 at 22:29:25

; layer_height = 0.4
; perimeters = 3
; top_solid_layers = 3
; bottom_solid_layers = 3
; fill_density = 0.4
; perimeter_speed = 30
; infill_speed = 60
; travel_speed = 130
; scale = 1
; nozzle_diameter = 0.5
; filament_diameter = 3
; extrusion_multiplier = 1
; perimeters extrusion width = 0.53mm
; infill extrusion width = 0.53mm
; first layer extrusion width = 0.80mm

M107 ; disable fan
M190 S60 ; wait for bed temperature to be reached
M104 S185 ; set temperature
M104 S185 ; set extruder temperature
G28 ; home all axes
M109 S185 ; wait for temperature to be reached
G90 ; use absolute coordinates
G21 ; set units to millimeters
G92 E0 ; reset extrusion distance
M82 ; use absolute distances for extrusion
G1 F1800.000 E-1.00000 ; retract
G92 E0 ; reset extrusion distance
G1 Z0.400 F7800.000 ; move to next layer (0)
G1 X119.330 Y97.990 ; move to first skirt point
G1 F1800.000 E1.00000 ; compensate retraction
G1 X118.870 Y98.280 F540.000 E1.02264 ; skirt
G1 X118.390 Y98.540 E1.04536 ; skirt
G1 X117.630 Y98.840 E1.07937 ; skirt
G1 X117.110 Y98.990 E1.10190 ; skirt
G1 X116.580 Y99.100 E1.12443 ; skirt
G1 X116.310 Y99.140 E1.13580 ; skirt
G1 X115.500 Y99.190 E1.16958 ; skirt
G1 X84.500 Y99.190 E2.46003 ; skirt
G1 X83.690 Y99.140 E2.49382 ; skirt
G1 X83.150 Y99.050 E2.51660 ; skirt
G1 X82.370 Y98.840 E2.55023 ; skirt
G1 X81.610 Y98.540 E2.58424 ; skirt
G1 X80.900 Y98.140 E2.61817 ; skirt
G1 X80.240 Y97.670 E2.65189 ; skirt
G1 X79.640 Y97.120 E2.68578 ; skirt
G1 X79.280 Y96.710 E2.70849 ; skirt
G1 X78.960 Y96.280 E2.73080 ; skirt
G1 X78.670 Y95.820 E2.75344 ; skirt
G1 X78.410 Y95.340 E2.77616 ; skirt
G1 X78.110 Y94.580 E2.81018 ; skirt
G1 X77.960 Y94.060 E2.83270 ; skirt
G1 X77.850 Y93.530 E2.85524 ; skirt
G1 X77.810 Y93.260 E2.86660 ; skirt
G1 X77.770 Y92.720 E2.88914 ; skirt
G1 X77.760 Y83.650 E3.26670 ; skirt
G1 X77.810 Y82.840 E3.30048 ; skirt
G1 X77.900 Y82.300 E3.32327 ; skirt
G1 X78.110 Y81.520 E3.35690 ; skirt
G1 X78.300 Y81.010 E3.37955 ; skirt
G1 X78.410 Y80.760 E3.39092 ; skirt
G1 X78.810 Y80.050 E3.42485 ; skirt
G1 X79.280 Y79.390 E3.45858 ; skirt
G1 X79.640 Y78.980 E3.48129 ; skirt
G1 X80.030 Y78.610 E3.50367 ; skirt
G1 X80.450 Y78.270 E3.52616 ; skirt
G1 X80.900 Y77.960 E3.54891 ; skirt
G1 X81.610 Y77.560 E3.58283 ; skirt
G1 X82.370 Y77.260 E3.61684 ; skirt
G1 X82.890 Y77.110 E3.63937 ; skirt
G1 X83.420 Y77.000 E3.66191 ; skirt
G1 X83.690 Y76.960 E3.67327 ; skirt
G1 X84.500 Y76.910 E3.70705 ; skirt
G1 X115.500 Y76.910 E4.99750 ; skirt
G1 X116.310 Y76.960 E5.03129 ; skirt
G1 X116.850 Y77.050 E5.05408 ; skirt
G1 X117.630 Y77.260 E5.08770 ; skirt
G1 X118.390 Y77.560 E5.12171 ; skirt
G1 X119.100 Y77.960 E5.15564 ; skirt
G1 X119.760 Y78.430 E5.18937 ; skirt
G1 X120.360 Y78.980 E5.22325 ; skirt
G1 X120.720 Y79.390 E5.24596 ; skirt
G1 X121.040 Y79.820 E5.26827 ; skirt
G1 X121.330 Y80.280 E5.29091 ; skirt
G1 X121.590 Y80.760 E5.31363 ; skirt
G1 X121.890 Y81.520 E5.34765 ; skirt
G1 X122.040 Y82.040 E5.37018 ; skirt
G1 X122.150 Y82.570 E5.39271 ; skirt
G1 X122.190 Y82.840 E5.40407 ; skirt
G1 X122.230 Y83.380 E5.42661 ; skirt
G1 X122.240 Y92.450 E5.80417 ; skirt
G1 X122.190 Y93.260 E5.83796 ; skirt
G1 X122.100 Y93.800 E5.86074 ; skirt
G1 X121.890 Y94.580 E5.89437 ; skirt
G1 X121.700 Y95.090 E5.91703 ; skirt
G1 X121.590 Y95.340 E5.92840 ; skirt
G1 X121.190 Y96.050 E5.96232 ; skirt
G1 X120.720 Y96.710 E5.99605 ; skirt
G1 X120.360 Y97.120 E6.01876 ; skirt
G1 X119.760 Y97.670 E6.05264 ; skirt
G1 X119.419 Y97.925 E6.07036 ; skirt
G1 X119.330 Y97.990 E6.07496 ; skirt
G1 F1800.000 E5.07496 ; retract
G92 E0 ; reset extrusion distance
G1 X85.971 Y90.979 F7800.000 ; move to first perimeter point
G1 F1800.000 E1.00000 ; compensate retraction
G1 X85.971 Y85.121 F540.000 E1.24383 ; perimeter
G1 X114.029 Y85.121 E2.41180 ; perimeter
G1 X114.029 Y90.979 E2.65563 ; perimeter
G1 X86.082 Y90.979 E3.81901 ; perimeter
G1 X85.971 Y90.979 E3.82360 ; perimeter
G1 X85.236 Y91.714 F7800.000 ; move to first perimeter point
G1 X85.236 Y84.386 F540.000 E4.12868 ; perimeter
G1 X114.764 Y84.386 E5.35789 ; perimeter
G1 X114.764 Y91.714 E5.66297 ; perimeter
G1 X85.346 Y91.714 E6.88758 ; perimeter
G1 X85.236 Y91.714 E6.89218 ; perimeter
G1 X84.500 Y92.450 F7800.000 ; move to first perimeter point
G1 X84.500 Y83.650 F540.000 E7.25850 ; perimeter
G1 X115.500 Y83.650 E8.54895 ; perimeter
G1 X115.500 Y92.450 E8.91528 ; perimeter
G1 X84.610 Y92.450 E10.20114 ; perimeter
G1 X84.500 Y92.450 E10.20573 ; perimeter
G1 X84.868 Y91.813 F7800.000 ; move inwards before travel
G1 F1800.000 E9.20573 ; retract
G92 E0 ; reset extrusion distance
G1 X86.941 Y90.477 F7800.000 ; move to first fill point
G1 F1800.000 E1.00000 ; compensate retraction
G1 X86.473 Y90.009 F1080.000 E1.02831 ; fill
G1 X86.473 Y88.941 E1.07395 ; fill
G1 X88.009 Y90.477 E1.16680 ; fill
G1 X89.077 Y90.477 E1.21245 ; fill
G1 X86.473 Y87.873 E1.36985 ; fill
G1 X86.473 Y86.805 E1.41549 ; fill
G1 X90.145 Y90.477 E1.63744 ; fill
G1 X91.213 Y90.477 E1.68309 ; fill
G1 X86.473 Y85.737 E1.96959 ; fill
G1 X87.427 Y85.623 E2.01064 ; fill
G1 X92.281 Y90.477 E2.30405 ; fill
G1 X93.349 Y90.477 E2.34969 ; fill
G1 X88.495 Y85.623 E2.64309 ; fill
G1 X89.563 Y85.623 E2.68873 ; fill
G1 X94.417 Y90.477 E2.98214 ; fill
G1 X95.485 Y90.477 E3.02778 ; fill
G1 X90.631 Y85.623 E3.32118 ; fill
G1 X91.699 Y85.623 E3.36683 ; fill
G1 X96.553 Y90.477 E3.66023 ; fill
G1 X97.621 Y90.477 E3.70587 ; fill
G1 X92.767 Y85.623 E3.99928 ; fill
G1 X93.835 Y85.623 E4.04492 ; fill
G1 X98.689 Y90.477 E4.33832 ; fill
G1 X99.757 Y90.477 E4.38397 ; fill
G1 X94.903 Y85.623 E4.67737 ; fill
G1 X95.971 Y85.623 E4.72301 ; fill
G1 X100.825 Y90.477 E5.01641 ; fill
G1 X101.893 Y90.477 E5.06206 ; fill
G1 X97.039 Y85.623 E5.35546 ; fill
G1 X98.107 Y85.623 E5.40110 ; fill
G1 X102.961 Y90.477 E5.69450 ; fill
G1 X104.029 Y90.477 E5.74015 ; fill
G1 X99.175 Y85.623 E6.03355 ; fill
G1 X100.243 Y85.623 E6.07919 ; fill
G1 X105.097 Y90.477 E6.37259 ; fill
G1 X106.165 Y90.477 E6.41824 ; fill
G1 X101.311 Y85.623 E6.71164 ; fill
G1 X102.379 Y85.623 E6.75728 ; fill
G1 X107.233 Y90.477 E7.05069 ; fill
G1 X108.301 Y90.477 E7.09633 ; fill
G1 X103.447 Y85.623 E7.38973 ; fill
G1 X104.515 Y85.623 E7.43538 ; fill
G1 X109.369 Y90.477 E7.72878 ; fill
G1 X110.437 Y90.477 E7.77442 ; fill
G1 X105.583 Y85.623 E8.06783 ; fill
G1 X106.651 Y85.623 E8.11347 ; fill
G1 X111.505 Y90.477 E8.40688 ; fill
G1 X112.574 Y90.477 E8.45252 ; fill
G1 X107.719 Y85.623 E8.74593 ; fill
G1 X108.787 Y85.623 E8.79157 ; fill
G1 X113.527 Y90.363 E9.07807 ; fill
G1 X113.527 Y89.295 E9.12371 ; fill
G1 X109.855 Y85.623 E9.34567 ; fill
G1 X110.923 Y85.623 E9.39131 ; fill
G1 X113.527 Y88.227 E9.54871 ; fill
G1 X113.527 Y87.159 E9.59435 ; fill
G1 X111.991 Y85.623 E9.68721 ; fill
G1 X113.059 Y85.623 E9.73285 ; fill
G1 X113.527 Y86.091 E9.76116 ; fill
G1 F1800.000 E8.76116 ; retract
G92 E0 ; reset extrusion distance
G1 Z0.800 F7800.000 ; move to next layer (1)
G1 X114.598 Y91.548 ; move to first perimeter point
G1 F1800.000 E1.00000 ; compensate retraction
G1 X85.402 Y91.548 F1670.397 E1.85853 ; perimeter
G1 X85.402 Y84.552 E2.06426 ; perimeter
G1 X114.598 Y84.552 E2.92280 ; perimeter
G1 X114.598 Y91.470 E3.12624 ; perimeter
G1 X114.598 Y91.548 E3.12853 ; perimeter
G1 X115.118 Y92.068 F7800.000 ; move to first perimeter point
G1 X84.882 Y92.068 F1670.397 E4.01762 ; perimeter
G1 X84.882 Y84.032 E4.25391 ; perimeter
G1 X115.118 Y84.032 E5.14301 ; perimeter
G1 X115.118 Y91.990 E5.37701 ; perimeter
G1 X115.118 Y92.068 E5.37930 ; perimeter
G1 X115.638 Y92.587 F7800.000 ; move to first perimeter point
G1 X84.362 Y92.587 F1670.397 E6.29895 ; perimeter
G1 X84.362 Y83.513 E6.56580 ; perimeter
G1 X115.638 Y83.513 E7.48546 ; perimeter
G1 X115.638 Y92.510 E7.75002 ; perimeter
G1 X115.638 Y92.587 E7.75231 ; perimeter
G1 X115.187 Y92.328 F7800.000 ; move inwards before travel
G1 X114.244 Y90.863 ; move to first fill point
G1 X113.913 Y91.194 F3340.795 E7.76620 ; fill
G1 X113.172 Y91.194 E7.78820 ; fill
G1 X114.244 Y90.122 E7.83321 ; fill
G1 X114.244 Y89.380 E7.85522 ; fill
G1 X112.430 Y91.194 E7.93136 ; fill
G1 X111.688 Y91.194 E7.95336 ; fill
G1 X114.244 Y88.638 E8.06062 ; fill
G1 X114.244 Y87.897 E8.08263 ; fill
G1 X110.947 Y91.194 E8.22101 ; fill
G1 X110.205 Y91.194 E8.24302 ; fill
G1 X114.244 Y87.155 E8.41252 ; fill
G1 X114.244 Y86.413 E8.43453 ; fill
G1 X109.463 Y91.194 E8.63516 ; fill
G1 X108.722 Y91.194 E8.65717 ; fill
G1 X114.244 Y85.672 E8.88892 ; fill
G1 X114.244 Y84.930 E8.91093 ; fill
G1 X107.980 Y91.194 E9.17381 ; fill
G1 X107.239 Y91.194 E9.19582 ; fill
G1 X113.527 Y84.906 E9.45971 ; fill
G1 X112.785 Y84.906 E9.48172 ; fill
G1 X106.497 Y91.194 E9.74561 ; fill
G1 X105.755 Y91.194 E9.76762 ; fill
G1 X112.043 Y84.906 E10.03152 ; fill
G1 X111.302 Y84.906 E10.05352 ; fill
G1 X105.014 Y91.194 E10.31742 ; fill
G1 X104.272 Y91.194 E10.33943 ; fill
G1 X110.560 Y84.906 E10.60332 ; fill
G1 X109.819 Y84.906 E10.62533 ; fill
G1 X103.530 Y91.194 E10.88922 ; fill
G1 X102.789 Y91.194 E10.91123 ; fill
G1 X109.077 Y84.906 E11.17513 ; fill
G1 X108.335 Y84.906 E11.19714 ; fill
G1 X102.047 Y91.194 E11.46103 ; fill
G1 X101.306 Y91.194 E11.48304 ; fill
G1 X107.594 Y84.906 E11.74693 ; fill
G1 X106.852 Y84.906 E11.76894 ; fill
G1 X100.564 Y91.194 E12.03283 ; fill
G1 X99.822 Y91.194 E12.05484 ; fill
G1 X106.110 Y84.906 E12.31873 ; fill
G1 X105.369 Y84.906 E12.34074 ; fill
G1 X99.081 Y91.194 E12.60464 ; fill
G1 X98.339 Y91.194 E12.62664 ; fill
G1 X104.627 Y84.906 E12.89054 ; fill
G1 X103.886 Y84.906 E12.91254 ; fill
G1 X97.598 Y91.194 E13.17644 ; fill
G1 X96.856 Y91.194 E13.19845 ; fill
G1 X103.144 Y84.906 E13.46234 ; fill
G1 X102.402 Y84.906 E13.48435 ; fill
G1 X96.114 Y91.194 E13.74824 ; fill
G1 X95.373 Y91.194 E13.77025 ; fill
G1 X101.661 Y84.906 E14.03414 ; fill
G1 X100.919 Y84.906 E14.05615 ; fill
G1 X94.631 Y91.194 E14.32005 ; fill
G1 X93.889 Y91.194 E14.34205 ; fill
G1 X100.178 Y84.906 E14.60595 ; fill
G1 X99.436 Y84.906 E14.62796 ; fill
G1 X93.148 Y91.194 E14.89185 ; fill
G1 X92.406 Y91.194 E14.91386 ; fill
G1 X98.694 Y84.906 E15.17775 ; fill
G1 X97.953 Y84.906 E15.19976 ; fill
G1 X91.665 Y91.194 E15.46366 ; fill
G1 X90.923 Y91.194 E15.48567 ; fill
G1 X97.211 Y84.906 E15.74956 ; fill
G1 X96.469 Y84.906 E15.77157 ; fill
G1 X90.181 Y91.194 E16.03546 ; fill
G1 X89.440 Y91.194 E16.05747 ; fill
G1 X95.728 Y84.906 E16.32136 ; fill
G1 X94.986 Y84.906 E16.34337 ; fill
G1 X88.698 Y91.194 E16.60727 ; fill
G1 X87.956 Y91.194 E16.62927 ; fill
G1 X94.245 Y84.906 E16.89317 ; fill
G1 X93.503 Y84.906 E16.91518 ; fill
G1 X87.215 Y91.194 E17.17907 ; fill
G1 X86.473 Y91.194 E17.20108 ; fill
G1 X92.761 Y84.906 E17.46497 ; fill
G1 X92.020 Y84.906 E17.48698 ; fill
G1 X85.756 Y91.170 E17.74985 ; fill
G1 X85.756 Y90.428 E17.77186 ; fill
G1 X91.278 Y84.906 E18.00361 ; fill
G1 X90.536 Y84.906 E18.02562 ; fill
G1 X85.756 Y89.686 E18.22624 ; fill
G1 X85.756 Y88.945 E18.24825 ; fill
G1 X89.795 Y84.906 E18.41775 ; fill
G1 X89.053 Y84.906 E18.43976 ; fill
G1 X85.756 Y88.203 E18.57814 ; fill
G1 X85.756 Y87.462 E18.60015 ; fill
G1 X88.312 Y84.906 E18.70740 ; fill
G1 X87.570 Y84.906 E18.72941 ; fill
G1 X85.756 Y86.720 E18.80554 ; fill
G1 X85.756 Y85.978 E18.82755 ; fill
G1 X86.828 Y84.906 E18.87256 ; fill
G1 X86.087 Y84.906 E18.89457 ; fill
G1 X85.756 Y85.237 E18.90845 ; fill
M106 S254 ; enable fan
G1 F1800.000 E17.90845 ; retract
G92 E0 ; reset extrusion distance
G1 Z1.200 F7800.000 ; move to next layer (2)
G1 X85.402 Y84.552 ; move to first perimeter point
G1 F1800.000 E1.00000 ; compensate retraction
G1 X114.598 Y84.552 F1800.000 E1.85853 ; perimeter
G1 X114.598 Y91.548 E2.06426 ; perimeter
G1 X85.402 Y91.548 E2.92280 ; perimeter
G1 X85.402 Y84.630 E3.12624 ; perimeter
G1 X85.402 Y84.552 E3.12853 ; perimeter
G1 X84.882 Y84.032 F7800.000 ; move to first perimeter point
G1 X115.118 Y84.032 F1800.000 E4.01762 ; perimeter
G1 X115.118 Y92.068 E4.25391 ; perimeter
G1 X84.882 Y92.068 E5.14301 ; perimeter
G1 X84.882 Y84.110 E5.37701 ; perimeter
G1 X84.882 Y84.032 E5.37930 ; perimeter
G1 X84.362 Y83.513 F7800.000 ; move to first perimeter point
G1 X115.638 Y83.513 F1800.000 E6.29895 ; perimeter
G1 X115.638 Y92.587 E6.56580 ; perimeter
G1 X84.362 Y92.587 E7.48546 ; perimeter
G1 X84.362 Y83.590 E7.75002 ; perimeter
G1 X84.362 Y83.513 E7.75231 ; perimeter
G1 X84.813 Y83.772 F7800.000 ; move inwards before travel
G1 F1800.000 E6.75231 ; retract
G92 E0 ; reset extrusion distance
G1 X86.087 Y91.194 F7800.000 ; move to first fill point
G1 F1800.000 E1.00000 ; compensate retraction
G1 X85.756 Y90.863 F3000.000 E1.01389 ; fill
G1 X85.756 Y90.122 E1.03589 ; fill
G1 X86.828 Y91.194 E1.08090 ; fill
G1 X87.570 Y91.194 E1.10291 ; fill
G1 X85.756 Y89.380 E1.17905 ; fill
G1 X85.756 Y88.638 E1.20105 ; fill
G1 X88.312 Y91.194 E1.30831 ; fill
G1 X89.053 Y91.194 E1.33032 ; fill
G1 X85.756 Y87.897 E1.46870 ; fill
G1 X85.756 Y87.155 E1.49071 ; fill
G1 X89.795 Y91.194 E1.66021 ; fill
G1 X90.537 Y91.194 E1.68222 ; fill
G1 X85.756 Y86.413 E1.88285 ; fill
G1 X85.756 Y85.672 E1.90486 ; fill
G1 X91.278 Y91.194 E2.13661 ; fill
G1 X92.020 Y91.194 E2.15862 ; fill
G1 X85.756 Y84.930 E2.42149 ; fill
G1 X86.473 Y84.906 E2.44279 ; fill
G1 X92.761 Y91.194 E2.70669 ; fill
G1 X93.503 Y91.194 E2.72869 ; fill
G1 X87.215 Y84.906 E2.99259 ; fill
G1 X87.957 Y84.906 E3.01459 ; fill
G1 X94.245 Y91.194 E3.27849 ; fill
G1 X94.986 Y91.194 E3.30050 ; fill
G1 X88.698 Y84.906 E3.56439 ; fill
G1 X89.440 Y84.906 E3.58640 ; fill
G1 X95.728 Y91.194 E3.85029 ; fill
G1 X96.470 Y91.194 E3.87230 ; fill
G1 X90.181 Y84.906 E4.13619 ; fill
G1 X90.923 Y84.906 E4.15820 ; fill
G1 X97.211 Y91.194 E4.42209 ; fill
G1 X97.953 Y91.194 E4.44410 ; fill
G1 X91.665 Y84.906 E4.70799 ; fill
G1 X92.406 Y84.906 E4.73000 ; fill
G1 X98.694 Y91.194 E4.99389 ; fill
G1 X99.436 Y91.194 E5.01590 ; fill
G1 X93.148 Y84.906 E5.27979 ; fill
G1 X93.889 Y84.906 E5.30180 ; fill
G1 X100.178 Y91.194 E5.56569 ; fill
G1 X100.919 Y91.194 E5.58770 ; fill
G1 X94.631 Y84.906 E5.85159 ; fill
G1 X95.373 Y84.906 E5.87360 ; fill
G1 X101.661 Y91.194 E6.13749 ; fill
G1 X102.402 Y91.194 E6.15950 ; fill
G1 X96.114 Y84.906 E6.42339 ; fill
G1 X96.856 Y84.906 E6.44540 ; fill
G1 X103.144 Y91.194 E6.70929 ; fill
G1 X103.886 Y91.194 E6.73130 ; fill
G1 X97.598 Y84.906 E6.99519 ; fill
G1 X98.339 Y84.906 E7.01720 ; fill
G1 X104.627 Y91.194 E7.28109 ; fill
G1 X105.369 Y91.194 E7.30310 ; fill
G1 X99.081 Y84.906 E7.56700 ; fill
G1 X99.822 Y84.906 E7.58900 ; fill
G1 X106.111 Y91.194 E7.85290 ; fill
G1 X106.852 Y91.194 E7.87491 ; fill
G1 X100.564 Y84.906 E8.13880 ; fill
G1 X101.306 Y84.906 E8.16081 ; fill
G1 X107.594 Y91.194 E8.42470 ; fill
G1 X108.335 Y91.194 E8.44671 ; fill
G1 X102.047 Y84.906 E8.71060 ; fill
G1 X102.789 Y84.906 E8.73261 ; fill
G1 X109.077 Y91.194 E8.99651 ; fill
G1 X109.819 Y91.194 E9.01852 ; fill
G1 X103.531 Y84.906 E9.28241 ; fill
G1 X104.272 Y84.906 E9.30442 ; fill
G1 X110.560 Y91.194 E9.56831 ; fill
G1 X111.302 Y91.194 E9.59032 ; fill
G1 X105.014 Y84.906 E9.85421 ; fill
G1 X105.755 Y84.906 E9.87622 ; fill
G1 X112.044 Y91.194 E10.14012 ; fill
G1 X112.785 Y91.194 E10.16212 ; fill
G1 X106.497 Y84.906 E10.42602 ; fill
G1 X107.239 Y84.906 E10.44803 ; fill
G1 X113.527 Y91.194 E10.71192 ; fill
G1 X114.244 Y91.170 E10.73322 ; fill
G1 X107.980 Y84.906 E10.99609 ; fill
G1 X108.722 Y84.906 E11.01810 ; fill
G1 X114.244 Y90.428 E11.24985 ; fill
G1 X114.244 Y89.686 E11.27186 ; fill
G1 X109.464 Y84.906 E11.47248 ; fill
G1 X110.205 Y84.906 E11.49449 ; fill
G1 X114.244 Y88.945 E11.66399 ; fill
G1 X114.244 Y88.203 E11.68600 ; fill
G1 X110.947 Y84.906 E11.82438 ; fill
G1 X111.688 Y84.906 E11.84638 ; fill
G1 X114.244 Y87.462 E11.95364 ; fill
G1 X114.244 Y86.720 E11.97565 ; fill
G1 X112.430 Y84.906 E12.05178 ; fill
G1 X113.172 Y84.906 E12.07378 ; fill
G1 X114.244 Y85.978 E12.11879 ; fill
G1 X114.244 Y85.237 E12.14080 ; fill
G1 X113.913 Y84.906 E12.15468 ; fill
M106 S255 ; enable fan
G1 F1800.000 E11.15468 ; retract
G92 E0 ; reset extrusion distance
G1 Z1.600 F7800.000 ; move to next layer (3)
