; generated by Slic3r 0.9.8-dev on 2013-01-08 at 19:17:21

; layer_height = 0.4
; perimeters = 3
; top_solid_layers = 3
; bottom_solid_layers = 3
; fill_density = 0.40
; perimeter_speed = 30
; infill_speed = 60
; travel_speed = 130
; scale = 1
; nozzle_diameter = 0.5
; filament_diameter = 3
; extrusion_multiplier = 1
; perimeters extrusion width = 0.53mm
; infill extrusion width = 0.53mm
; first layer extrusion width = 0.80mm

M190 S60 ; wait for bed temperature to be reached
M104 S180 ; set temperature
G28                 ; home all axes
G92 E0 ;reset extruder
G1 E3 F1200 ;Prime extruder 3mm
G1 E2 F1200 ;retract extruder 1mm
G92 E0 ;reset extruder
M109 S180 ; wait for temperature to be reached
G90 ; use absolute coordinates
G21 ; set units to millimeters
G92 E0 ; reset extrusion distance
M82 ; use absolute distances for extrusion
G1 F1800.000 E-1.00000 ; retract
G1 Z0.900 ; move to next layer (0) and lift
G92 E0 ; reset extrusion distance
G1 X124.210 Y111.261 F7800.000 ; move to first skirt point
G1 Z0.400 ; restore layer Z
G1 F1800.000 E1.00000 ; compensate retraction
G1 X123.700 Y111.881 F540.000 E1.03342 ; skirt
G1 X123.010 Y112.581 E1.07433 ; skirt
G1 X122.610 Y112.931 E1.09646 ; skirt
G1 X121.880 Y113.481 E1.13451 ; skirt
G1 X121.440 Y113.771 E1.15644 ; skirt
G1 X120.490 Y114.291 E1.20153 ; skirt
G1 X120.000 Y114.511 E1.22389 ; skirt
G1 X119.140 Y114.831 E1.26208 ; skirt
G1 X118.630 Y114.981 E1.28421 ; skirt
G1 X117.610 Y115.201 E1.32765 ; skirt
G1 X117.080 Y115.271 E1.34990 ; skirt
G1 X116.200 Y115.331 E1.38662 ; skirt
G1 X83.910 Y115.331 E2.73077 ; skirt
G1 X83.280 Y115.301 E2.75703 ; skirt
G1 X82.750 Y115.251 E2.77919 ; skirt
G1 X81.740 Y115.081 E2.82183 ; skirt
G1 X81.140 Y114.921 E2.84767 ; skirt
G1 X80.210 Y114.601 E2.88862 ; skirt
G1 X79.720 Y114.391 E2.91081 ; skirt
G1 X78.960 Y114.011 E2.94618 ; skirt
G1 X78.500 Y113.741 E2.96838 ; skirt
G1 X77.610 Y113.111 E3.01377 ; skirt
G1 X77.200 Y112.771 E3.03595 ; skirt
G1 X76.550 Y112.161 E3.07305 ; skirt
G1 X76.020 Y111.561 E3.10638 ; skirt
G1 X75.580 Y110.981 E3.13668 ; skirt
G1 X75.280 Y110.541 E3.15885 ; skirt
G1 X74.730 Y109.561 E3.20563 ; skirt
G1 X74.510 Y109.081 E3.22761 ; skirt
G1 X74.170 Y108.171 E3.26805 ; skirt
G1 X74.020 Y107.661 E3.29018 ; skirt
G1 X73.780 Y106.531 E3.33827 ; skirt
G1 X73.730 Y106.181 E3.35299 ; skirt
G1 X73.660 Y105.231 E3.39264 ; skirt
G1 X73.670 Y72.511 E4.75469 ; skirt
G1 X73.790 Y71.401 E4.80117 ; skirt
G1 X73.930 Y70.721 E4.83007 ; skirt
G1 X74.060 Y70.201 E4.85238 ; skirt
G1 X74.400 Y69.181 E4.89714 ; skirt
G1 X74.610 Y68.691 E4.91933 ; skirt
G1 X75.080 Y67.781 E4.96197 ; skirt
G1 X75.360 Y67.331 E4.98403 ; skirt
G1 X75.900 Y66.591 E5.02216 ; skirt
G1 X76.240 Y66.181 E5.04433 ; skirt
G1 X76.850 Y65.531 E5.08144 ; skirt
G1 X77.450 Y65.001 E5.11477 ; skirt
G1 X78.110 Y64.511 E5.14899 ; skirt
G1 X78.550 Y64.221 E5.17092 ; skirt
G1 X79.500 Y63.701 E5.21600 ; skirt
G1 X79.990 Y63.481 E5.23836 ; skirt
G1 X80.850 Y63.161 E5.27656 ; skirt
G1 X81.360 Y63.011 E5.29869 ; skirt
G1 X82.050 Y62.841 E5.32827 ; skirt
G1 X82.840 Y62.731 E5.36148 ; skirt
G1 X83.790 Y62.661 E5.40113 ; skirt
G1 X116.110 Y62.661 E6.74653 ; skirt
G1 X116.870 Y62.711 E6.77824 ; skirt
G1 X117.400 Y62.771 E6.80044 ; skirt
G1 X118.270 Y62.931 E6.83726 ; skirt
G1 X118.790 Y63.061 E6.85958 ; skirt
G1 X119.810 Y63.401 E6.90433 ; skirt
G1 X120.300 Y63.611 E6.92652 ; skirt
G1 X121.270 Y64.111 E6.97195 ; skirt
G1 X121.700 Y64.391 E6.99331 ; skirt
G1 X122.400 Y64.901 E7.02937 ; skirt
G1 X122.810 Y65.241 E7.05154 ; skirt
G1 X123.580 Y65.981 E7.09599 ; skirt
G1 X123.930 Y66.381 E7.11812 ; skirt
G1 X124.480 Y67.111 E7.15617 ; skirt
G1 X124.770 Y67.551 E7.17810 ; skirt
G1 X125.240 Y68.391 E7.21817 ; skirt
G1 X125.400 Y68.731 E7.23381 ; skirt
G1 X125.540 Y69.051 E7.24835 ; skirt
G1 X125.830 Y69.851 E7.28378 ; skirt
G1 X125.980 Y70.361 E7.30591 ; skirt
G1 X126.200 Y71.381 E7.34934 ; skirt
G1 X126.270 Y71.911 E7.37160 ; skirt
G1 X126.330 Y72.791 E7.40831 ; skirt
G1 X126.320 Y105.481 E8.76912 ; skirt
G1 X126.200 Y106.591 E8.81559 ; skirt
G1 X126.060 Y107.271 E8.84449 ; skirt
G1 X125.930 Y107.791 E8.86681 ; skirt
G1 X125.590 Y108.811 E8.91156 ; skirt
G1 X125.380 Y109.301 E8.93376 ; skirt
G1 X124.910 Y110.211 E8.97639 ; skirt
G1 X124.630 Y110.661 E8.99845 ; skirt
G1 X124.273 Y111.170 E9.02435 ; skirt
G1 X124.210 Y111.261 E9.02894 ; skirt
G1 F1800.000 E8.02894 ; retract
G1 Z0.900 ; lift plate during travel
G92 E0 ; reset extrusion distance
G1 X86.324 Y105.582 F7800.000 ; move to first perimeter point
G1 Z0.400 ; restore layer Z
G1 F1800.000 E1.00000 ; compensate retraction
G1 X86.248 Y105.829 F324.000 E1.01077 ; perimeter
G1 X86.050 Y106.241 E1.02981 ; perimeter
G1 X85.904 Y106.455 E1.04058 ; perimeter
G1 X85.593 Y106.790 E1.05962 ; perimeter
G1 X85.391 Y106.952 E1.07038 ; perimeter
G1 X84.994 Y107.180 E1.08943 ; perimeter
G1 X84.754 Y107.275 E1.10019 ; perimeter
G1 X84.308 Y107.377 E1.11923 ; perimeter
G1 X84.050 Y107.396 E1.13000 ; perimeter
G1 X83.594 Y107.362 E1.14904 ; perimeter
G1 X83.342 Y107.304 E1.15981 ; perimeter
G1 X82.916 Y107.137 E1.17885 ; perimeter
G1 X82.692 Y107.008 E1.18962 ; perimeter
G1 X82.334 Y106.723 E1.20866 ; perimeter
G1 X82.158 Y106.533 E1.21943 ; perimeter
G1 X81.900 Y106.155 E1.23847 ; perimeter
G1 X81.788 Y105.922 E1.24923 ; perimeter
G1 X81.653 Y105.485 E1.26828 ; perimeter
G1 X81.615 Y105.229 E1.27904 ; perimeter
G1 X81.615 Y104.772 E1.29808 ; perimeter
G1 X81.653 Y104.516 E1.30885 ; perimeter
G1 X81.788 Y104.079 E1.32789 ; perimeter
G1 X81.900 Y103.846 E1.33866 ; perimeter
G1 X82.158 Y103.468 E1.35770 ; perimeter
G1 X82.334 Y103.278 E1.36847 ; perimeter
G1 X82.692 Y102.993 E1.38751 ; perimeter
G1 X82.916 Y102.864 E1.39828 ; perimeter
G1 X83.342 Y102.697 E1.41732 ; perimeter
G1 X83.594 Y102.639 E1.42808 ; perimeter
G1 X84.050 Y102.605 E1.44713 ; perimeter
G1 X84.308 Y102.624 E1.45789 ; perimeter
G1 X84.754 Y102.726 E1.47693 ; perimeter
G1 X84.994 Y102.821 E1.48770 ; perimeter
G1 X85.391 Y103.049 E1.50674 ; perimeter
G1 X85.593 Y103.211 E1.51751 ; perimeter
G1 X85.904 Y103.546 E1.53655 ; perimeter
G1 X86.050 Y103.760 E1.54732 ; perimeter
G1 X86.248 Y104.172 E1.56636 ; perimeter
G1 X86.324 Y104.419 E1.57713 ; perimeter
G1 X86.393 Y104.871 E1.59617 ; perimeter
G1 X86.393 Y105.130 E1.60693 ; perimeter
G1 X86.341 Y105.473 E1.62138 ; perimeter
G1 X86.324 Y105.582 E1.62598 ; perimeter
G1 X86.851 Y106.096 F7800.000 ; move inwards before travel
G1 F1800.000 E0.62598 ; retract
G1 Z0.900 ; lift plate during travel
G92 E0 ; reset extrusion distance
G1 X82.428 Y101.763 F7800.000 ; move to first perimeter point
G1 Z0.400 ; restore layer Z
G1 F1800.000 E1.00000 ; compensate retraction
G1 X82.923 Y101.567 F324.000 E1.02216 ; perimeter
G1 X83.441 Y101.445 E1.04432 ; perimeter
G1 X84.499 Y101.363 E1.08848 ; perimeter
G1 X85.477 Y101.718 E1.13179 ; perimeter
G1 X85.941 Y101.970 E1.15378 ; perimeter
G1 X86.220 Y102.178 E1.16827 ; perimeter
G1 X86.364 Y102.287 E1.17577 ; perimeter
G1 X86.736 Y102.662 E1.19776 ; perimeter
G1 X87.048 Y103.088 E1.21975 ; perimeter
G1 X87.214 Y103.394 E1.23424 ; perimeter
G1 X87.296 Y103.554 E1.24174 ; perimeter
G1 X87.638 Y104.519 E1.28434 ; perimeter
G1 X87.549 Y105.592 E1.32918 ; perimeter
G1 X87.423 Y106.109 E1.35133 ; perimeter
G1 X87.222 Y106.602 E1.37349 ; perimeter
G1 X86.950 Y107.060 E1.39564 ; perimeter
G1 X86.733 Y107.338 E1.41032 ; perimeter
G1 X86.614 Y107.472 E1.41780 ; perimeter
G1 X86.221 Y107.831 E1.43995 ; perimeter
G1 X85.779 Y108.127 E1.46210 ; perimeter
G1 X85.298 Y108.356 E1.48425 ; perimeter
G1 X84.964 Y108.466 E1.49893 ; perimeter
G1 X84.789 Y108.510 E1.50641 ; perimeter
G1 X84.263 Y108.588 E1.52856 ; perimeter
G1 X83.911 Y108.597 E1.54324 ; perimeter
G1 X83.381 Y108.544 E1.56539 ; perimeter
G1 X82.865 Y108.414 E1.58754 ; perimeter
G1 X82.374 Y108.210 E1.60969 ; perimeter
G1 X81.918 Y107.935 E1.63184 ; perimeter
G1 X81.775 Y107.826 E1.63932 ; perimeter
G1 X81.508 Y107.596 E1.65400 ; perimeter
G1 X81.152 Y107.200 E1.67616 ; perimeter
G1 X80.859 Y106.756 E1.69831 ; perimeter
G1 X80.634 Y106.274 E1.72046 ; perimeter
G1 X80.577 Y106.103 E1.72795 ; perimeter
G1 X80.483 Y105.763 E1.74262 ; perimeter
G1 X80.409 Y105.236 E1.76478 ; perimeter
G1 X80.414 Y104.704 E1.78693 ; perimeter
G1 X80.497 Y104.178 E1.80909 ; perimeter
G1 X80.546 Y104.005 E1.81657 ; perimeter
G1 X80.656 Y103.670 E1.83125 ; perimeter
G1 X80.889 Y103.192 E1.85341 ; perimeter
G1 X81.190 Y102.753 E1.87557 ; perimeter
G1 X81.552 Y102.363 E1.89772 ; perimeter
G1 X81.690 Y102.247 E1.90521 ; perimeter
G1 X81.968 Y102.030 E1.91988 ; perimeter
G1 X82.332 Y101.817 E1.93745 ; perimeter
G1 X82.428 Y101.763 E1.94204 ; perimeter
G1 F1800.000 E0.94204 ; retract
G1 Z0.900 ; lift plate during travel
G92 E0 ; reset extrusion distance
G1 X84.050 Y75.396 F7800.000 ; move to first perimeter point
G1 Z0.400 ; restore layer Z
G1 F1800.000 E1.00000 ; compensate retraction
G1 X83.594 Y75.362 F324.000 E1.01904 ; perimeter
G1 X83.342 Y75.304 E1.02981 ; perimeter
G1 X82.916 Y75.137 E1.04885 ; perimeter
G1 X82.692 Y75.008 E1.05962 ; perimeter
G1 X82.334 Y74.723 E1.07866 ; perimeter
G1 X82.158 Y74.533 E1.08943 ; perimeter
G1 X81.900 Y74.155 E1.10847 ; perimeter
G1 X81.788 Y73.922 E1.11923 ; perimeter
G1 X81.653 Y73.485 E1.13827 ; perimeter
G1 X81.615 Y73.229 E1.14904 ; perimeter
G1 X81.615 Y72.772 E1.16808 ; perimeter
G1 X81.653 Y72.516 E1.17885 ; perimeter
G1 X81.788 Y72.079 E1.19789 ; perimeter
G1 X81.900 Y71.846 E1.20866 ; perimeter
G1 X82.158 Y71.468 E1.22770 ; perimeter
G1 X82.334 Y71.278 E1.23847 ; perimeter
G1 X82.692 Y70.993 E1.25751 ; perimeter
G1 X82.916 Y70.864 E1.26828 ; perimeter
G1 X83.342 Y70.697 E1.28732 ; perimeter
G1 X83.594 Y70.639 E1.29808 ; perimeter
G1 X84.050 Y70.605 E1.31712 ; perimeter
G1 X84.308 Y70.624 E1.32789 ; perimeter
G1 X84.754 Y70.726 E1.34693 ; perimeter
G1 X84.994 Y70.821 E1.35770 ; perimeter
G1 X85.391 Y71.049 E1.37674 ; perimeter
G1 X85.593 Y71.211 E1.38751 ; perimeter
G1 X85.904 Y71.546 E1.40655 ; perimeter
G1 X86.050 Y71.760 E1.41732 ; perimeter
G1 X86.248 Y72.172 E1.43636 ; perimeter
G1 X86.324 Y72.419 E1.44713 ; perimeter
G1 X86.393 Y72.871 E1.46617 ; perimeter
G1 X86.393 Y73.130 E1.47693 ; perimeter
G1 X86.324 Y73.582 E1.49597 ; perimeter
G1 X86.248 Y73.829 E1.50674 ; perimeter
G1 X86.050 Y74.241 E1.52578 ; perimeter
G1 X85.904 Y74.455 E1.53655 ; perimeter
G1 X85.593 Y74.790 E1.55559 ; perimeter
G1 X85.391 Y74.952 E1.56636 ; perimeter
G1 X84.994 Y75.180 E1.58540 ; perimeter
G1 X84.754 Y75.275 E1.59617 ; perimeter
G1 X84.308 Y75.377 E1.61521 ; perimeter
G1 X84.160 Y75.388 E1.62138 ; perimeter
G1 X84.050 Y75.396 E1.62598 ; perimeter
G1 X83.666 Y76.024 F7800.000 ; move inwards before travel
G1 F1800.000 E0.62598 ; retract
G1 Z0.900 ; lift plate during travel
G92 E0 ; reset extrusion distance
G1 X82.431 Y69.767 F7800.000 ; move to first perimeter point
G1 Z0.400 ; restore layer Z
G1 F1800.000 E1.00000 ; compensate retraction
G1 X82.753 Y69.625 F324.000 E1.01468 ; perimeter
G1 X83.265 Y69.478 E1.03684 ; perimeter
G1 X83.792 Y69.408 E1.05899 ; perimeter
G1 X84.325 Y69.416 E1.08115 ; perimeter
G1 X84.502 Y69.443 E1.08864 ; perimeter
G1 X84.850 Y69.503 E1.10331 ; perimeter
G1 X85.356 Y69.667 E1.12547 ; perimeter
G1 X85.833 Y69.903 E1.14763 ; perimeter
G1 X86.270 Y70.208 E1.16979 ; perimeter
G1 X86.402 Y70.330 E1.17727 ; perimeter
G1 X86.657 Y70.573 E1.19195 ; perimeter
G1 X86.986 Y70.992 E1.21411 ; perimeter
G1 X87.250 Y71.454 E1.23627 ; perimeter
G1 X87.442 Y71.950 E1.25843 ; perimeter
G1 X87.560 Y72.469 E1.28058 ; perimeter
G1 X87.636 Y73.510 E1.32401 ; perimeter
G1 X87.336 Y74.336 E1.36059 ; perimeter
G1 X87.270 Y74.503 E1.36809 ; perimeter
G1 X87.015 Y74.965 E1.39004 ; perimeter
G1 X86.696 Y75.385 E1.41199 ; perimeter
G1 X86.318 Y75.753 E1.43395 ; perimeter
G1 X86.040 Y75.961 E1.44840 ; perimeter
G1 X85.891 Y76.062 E1.45590 ; perimeter
G1 X85.423 Y76.305 E1.47785 ; perimeter
G1 X84.521 Y76.620 E1.51764 ; perimeter
G1 X83.918 Y76.597 E1.54277 ; perimeter
G1 X83.381 Y76.544 E1.56523 ; perimeter
G1 X83.037 Y76.467 E1.57991 ; perimeter
G1 X82.536 Y76.287 E1.60206 ; perimeter
G1 X82.067 Y76.035 E1.62421 ; perimeter
G1 X81.641 Y75.717 E1.64636 ; perimeter
G1 X81.509 Y75.594 E1.65384 ; perimeter
G1 X81.266 Y75.339 E1.66852 ; perimeter
G1 X80.951 Y74.910 E1.69067 ; perimeter
G1 X80.702 Y74.440 E1.71283 ; perimeter
G1 X80.526 Y73.937 E1.73498 ; perimeter
G1 X80.426 Y73.415 E1.75714 ; perimeter
G1 X80.412 Y73.236 E1.76462 ; perimeter
G1 X80.403 Y72.883 E1.77930 ; perimeter
G1 X80.460 Y72.354 E1.80145 ; perimeter
G1 X80.594 Y71.839 E1.82361 ; perimeter
G1 X80.803 Y71.349 E1.84577 ; perimeter
G1 X81.081 Y70.895 E1.86792 ; perimeter
G1 X81.193 Y70.755 E1.87541 ; perimeter
G1 X81.424 Y70.488 E1.89008 ; perimeter
G1 X81.822 Y70.135 E1.91224 ; perimeter
G1 X82.331 Y69.815 E1.93727 ; perimeter
G1 X82.431 Y69.767 E1.94186 ; perimeter
G1 F1800.000 E0.94186 ; retract
G1 Z0.900 ; lift plate during travel
G92 E0 ; reset extrusion distance
G1 X113.615 Y72.772 F7800.000 ; move to first perimeter point
G1 Z0.400 ; restore layer Z
G1 F1800.000 E1.00000 ; compensate retraction
G1 X113.653 Y72.516 F324.000 E1.01077 ; perimeter
G1 X113.788 Y72.079 E1.02981 ; perimeter
G1 X113.900 Y71.846 E1.04058 ; perimeter
G1 X114.158 Y71.468 E1.05962 ; perimeter
G1 X114.334 Y71.278 E1.07039 ; perimeter
G1 X114.692 Y70.993 E1.08943 ; perimeter
G1 X114.916 Y70.864 E1.10019 ; perimeter
G1 X115.342 Y70.697 E1.11923 ; perimeter
G1 X115.594 Y70.639 E1.13000 ; perimeter
G1 X116.050 Y70.605 E1.14904 ; perimeter
G1 X116.308 Y70.624 E1.15981 ; perimeter
G1 X116.754 Y70.726 E1.17885 ; perimeter
G1 X116.994 Y70.821 E1.18962 ; perimeter
G1 X117.391 Y71.049 E1.20866 ; perimeter
G1 X117.593 Y71.211 E1.21943 ; perimeter
G1 X117.904 Y71.546 E1.23847 ; perimeter
G1 X118.050 Y71.760 E1.24923 ; perimeter
G1 X118.248 Y72.172 E1.26828 ; perimeter
G1 X118.324 Y72.419 E1.27904 ; perimeter
G1 X118.393 Y72.871 E1.29808 ; perimeter
G1 X118.393 Y73.130 E1.30885 ; perimeter
G1 X118.324 Y73.582 E1.32789 ; perimeter
G1 X118.248 Y73.829 E1.33866 ; perimeter
G1 X118.050 Y74.241 E1.35770 ; perimeter
G1 X117.904 Y74.455 E1.36847 ; perimeter
G1 X117.593 Y74.790 E1.38751 ; perimeter
G1 X117.391 Y74.952 E1.39828 ; perimeter
G1 X116.994 Y75.180 E1.41732 ; perimeter
G1 X116.754 Y75.275 E1.42809 ; perimeter
G1 X116.308 Y75.377 E1.44713 ; perimeter
G1 X116.050 Y75.396 E1.45789 ; perimeter
G1 X115.594 Y75.362 E1.47693 ; perimeter
G1 X115.342 Y75.304 E1.48770 ; perimeter
G1 X114.916 Y75.137 E1.50674 ; perimeter
G1 X114.692 Y75.008 E1.51751 ; perimeter
G1 X114.334 Y74.723 E1.53655 ; perimeter
G1 X114.158 Y74.533 E1.54732 ; perimeter
G1 X113.900 Y74.155 E1.56636 ; perimeter
G1 X113.788 Y73.922 E1.57713 ; perimeter
G1 X113.653 Y73.485 E1.59617 ; perimeter
G1 X113.615 Y73.229 E1.60694 ; perimeter
G1 X113.615 Y72.882 E1.62138 ; perimeter
G1 X113.615 Y72.772 E1.62598 ; perimeter
G1 X113.018 Y72.342 F7800.000 ; move inwards before travel
G1 F1800.000 E0.62598 ; retract
G1 Z0.900 ; lift plate during travel
G92 E0 ; reset extrusion distance
G1 X115.063 Y69.526 F7800.000 ; move to first perimeter point
G1 Z0.400 ; restore layer Z
G1 F1800.000 E1.00000 ; compensate retraction
G1 X115.586 Y69.426 F324.000 E1.02215 ; perimeter
G1 X116.118 Y69.404 E1.04431 ; perimeter
G1 X116.297 Y69.417 E1.05179 ; perimeter
G1 X116.647 Y69.461 E1.06647 ; perimeter
G1 X117.162 Y69.595 E1.08863 ; perimeter
G1 X117.652 Y69.803 E1.11078 ; perimeter
G1 X118.105 Y70.082 E1.13294 ; perimeter
G1 X118.246 Y70.194 E1.14042 ; perimeter
G1 X118.513 Y70.424 E1.15510 ; perimeter
G1 X118.865 Y70.823 E1.17726 ; perimeter
G1 X119.155 Y71.269 E1.19942 ; perimeter
G1 X119.376 Y71.754 E1.22157 ; perimeter
G1 X119.429 Y71.925 E1.22906 ; perimeter
G1 X119.523 Y72.265 E1.24374 ; perimeter
G1 X119.593 Y72.793 E1.26589 ; perimeter
G1 X119.584 Y73.325 E1.28805 ; perimeter
G1 X119.497 Y73.850 E1.31021 ; perimeter
G1 X119.444 Y74.022 E1.31769 ; perimeter
G1 X119.334 Y74.357 E1.33237 ; perimeter
G1 X119.097 Y74.834 E1.35453 ; perimeter
