; generated by Slic3r 0.9.8-dev on 2012-12-29 at 20:44:32

; layer_height = 0.4
; perimeters = 3
; top_solid_layers = 3
; bottom_solid_layers = 3
; fill_density = 0.4
; perimeter_speed = 30
; infill_speed = 60
; travel_speed = 130
; scale = 1
; nozzle_diameter = 0.5
; filament_diameter = 3
; extrusion_multiplier = 1
; perimeters extrusion width = 0.53mm
; infill extrusion width = 0.53mm
; first layer extrusion width = 0.80mm

M107 ; disable fan
M190 S60 ; wait for bed temperature to be reached
M104 S185 ; set temperature
M104 S185 ; set extruder temperature
G28 ; home all axes
M109 S185 ; wait for temperature to be reached
G90 ; use absolute coordinates
G21 ; set units to millimeters
G92 E0 ; reset extrusion distance
M82 ; use absolute distances for extrusion
G1 F1800.000 E-1.00000 ; retract
G92 E0 ; reset extrusion distance
G1 Z0.400 F7800.000 ; move to next layer (0)
G1 X118.590 Y106.100 ; move to first skirt point
G1 F1800.000 E1.00000 ; compensate retraction
G1 X118.390 Y106.350 F540.000 E1.01333 ; skirt
G1 X117.960 Y106.820 E1.03985 ; skirt
G1 X117.370 Y107.370 E1.07342 ; skirt
G1 X116.860 Y107.760 E1.10015 ; skirt
G1 X116.030 Y108.240 E1.14006 ; skirt
G1 X102.700 Y114.720 E1.75705 ; skirt
G1 X101.920 Y115.010 E1.79169 ; skirt
G1 X101.380 Y115.140 E1.81481 ; skirt
G1 X100.560 Y115.260 E1.84931 ; skirt
G1 X100.000 Y115.290 E1.87265 ; skirt
G1 X99.450 Y115.260 E1.89558 ; skirt
G1 X98.900 Y115.200 E1.91861 ; skirt
G1 X98.360 Y115.080 E1.94164 ; skirt
G1 X98.090 Y115.010 E1.95325 ; skirt
G1 X97.560 Y114.830 E1.97655 ; skirt
G1 X97.060 Y114.610 E1.99929 ; skirt
G1 X83.990 Y108.260 E2.60418 ; skirt
G1 X83.700 Y108.110 E2.61777 ; skirt
G1 X83.150 Y107.780 E2.64447 ; skirt
G1 X82.890 Y107.590 E2.65787 ; skirt
G1 X82.400 Y107.180 E2.68447 ; skirt
G1 X81.830 Y106.610 E2.71802 ; skirt
G1 X81.420 Y106.120 E2.74462 ; skirt
G1 X81.060 Y105.590 E2.77129 ; skirt
G1 X80.750 Y105.030 E2.79794 ; skirt
G1 X74.380 Y91.940 E3.40394 ; skirt
G1 X74.160 Y91.430 E3.42706 ; skirt
G1 X73.910 Y90.640 E3.46155 ; skirt
G1 X73.760 Y89.820 E3.49625 ; skirt
G1 X73.700 Y88.990 E3.53089 ; skirt
G1 X73.760 Y88.160 E3.56553 ; skirt
G1 X73.910 Y87.340 E3.60023 ; skirt
G1 X73.980 Y87.070 E3.61184 ; skirt
G1 X74.160 Y86.550 E3.63475 ; skirt
G1 X74.380 Y86.040 E3.65787 ; skirt
G1 X80.750 Y72.960 E4.26350 ; skirt
G1 X81.230 Y72.130 E4.30341 ; skirt
G1 X81.420 Y71.870 E4.31681 ; skirt
G1 X81.830 Y71.380 E4.34341 ; skirt
G1 X82.150 Y71.050 E4.36255 ; skirt
G1 X82.620 Y70.620 E4.38906 ; skirt
G1 X83.130 Y70.230 E4.41579 ; skirt
G1 X83.960 Y69.750 E4.45570 ; skirt
G1 X97.040 Y63.380 E5.06133 ; skirt
G1 X97.550 Y63.160 E5.08445 ; skirt
G1 X98.070 Y62.980 E5.10735 ; skirt
G1 X98.340 Y62.910 E5.11897 ; skirt
G1 X98.880 Y62.800 E5.14191 ; skirt
G1 X99.710 Y62.710 E5.17666 ; skirt
G1 X99.990 Y62.700 E5.18832 ; skirt
G1 X100.540 Y62.730 E5.21125 ; skirt
G1 X101.370 Y62.850 E5.24616 ; skirt
G1 X101.900 Y62.980 E5.26888 ; skirt
G1 X102.170 Y63.070 E5.28073 ; skirt
G1 X102.430 Y63.160 E5.29218 ; skirt
G1 X102.940 Y63.380 E5.31530 ; skirt
G1 X116.030 Y69.750 E5.92130 ; skirt
G1 X116.860 Y70.230 E5.96121 ; skirt
G1 X117.120 Y70.420 E5.97462 ; skirt
G1 X117.610 Y70.830 E6.00121 ; skirt
G1 X118.160 Y71.380 E6.03359 ; skirt
G1 X118.570 Y71.870 E6.06019 ; skirt
G1 X118.930 Y72.400 E6.08686 ; skirt
G1 X119.240 Y72.960 E6.11350 ; skirt
G1 X125.610 Y86.050 E6.71950 ; skirt
G1 X125.830 Y86.560 E6.74262 ; skirt
G1 X126.080 Y87.350 E6.77712 ; skirt
G1 X126.230 Y88.170 E6.81182 ; skirt
G1 X126.290 Y89.000 E6.84646 ; skirt
G1 X126.230 Y89.830 E6.88110 ; skirt
G1 X126.080 Y90.650 E6.91580 ; skirt
G1 X125.830 Y91.440 E6.95029 ; skirt
G1 X125.610 Y91.950 E6.97341 ; skirt
G1 X119.260 Y105.010 E7.57793 ; skirt
G1 X118.950 Y105.570 E7.60457 ; skirt
G1 X118.655 Y106.011 E7.62665 ; skirt
G1 X118.590 Y106.100 E7.63125 ; skirt
G1 F1800.000 E6.63125 ; retract
G92 E0 ; reset extrusion distance
G1 X100.000 Y108.553 F7800.000 ; move to first perimeter point
G1 F1800.000 E1.00000 ; compensate retraction
G1 X99.858 Y108.267 F540.000 E1.01331 ; perimeter
G1 X100.000 Y108.479 F7800.000 ; move to first perimeter point
G1 X100.142 Y108.267 F540.000 E1.02392 ; perimeter
G1 X100.000 Y108.553 F7800.000 ; move to first perimeter point
G1 X100.000 Y108.553 F540.000 E1.02392 ; perimeter
G1 F1800.000 E0.02392 ; retract
G92 E0 ; reset extrusion distance
G1 X99.395 Y103.879 F7800.000 ; move to first perimeter point
G1 F1800.000 E1.00000 ; compensate retraction
G1 X100.130 Y103.965 F540.000 E1.03080 ; perimeter
G1 X103.999 Y103.422 E1.19343 ; perimeter
G1 X107.423 Y101.995 E1.34784 ; perimeter
G1 X110.148 Y99.924 E1.49036 ; perimeter
G1 X110.536 Y99.536 E1.51318 ; perimeter
G1 X107.530 Y96.325 E1.69629 ; perimeter
G1 F1800.000 E0.69629 ; retract
G92 E0 ; reset extrusion distance
G1 X99.887 Y99.427 F7800.000 ; move to first perimeter point
G1 F1800.000 E1.00000 ; compensate retraction
G1 X102.589 Y99.101 F540.000 E1.11331 ; perimeter
G1 X105.115 Y98.086 E1.22663 ; perimeter
G1 X107.327 Y96.327 E1.34428 ; perimeter
G1 F1800.000 E0.34428 ; retract
G92 E0 ; reset extrusion distance
G1 X97.765 Y99.147 F7800.000 ; move to first perimeter point
G1 F1800.000 E1.00000 ; compensate retraction
G1 X99.887 Y99.427 F540.000 E1.08909 ; perimeter
G1 F1800.000 E0.08909 ; retract
G92 E0 ; reset extrusion distance
G1 X94.885 Y98.086 F7800.000 ; move to first perimeter point
G1 F1800.000 E1.00000 ; compensate retraction
G1 X97.765 Y99.147 F540.000 E1.12774 ; perimeter
G1 F1800.000 E0.12774 ; retract
G92 E0 ; reset extrusion distance
G1 X94.364 Y97.722 F7800.000 ; move to first perimeter point
G1 F1800.000 E1.00000 ; compensate retraction
G1 X94.885 Y98.086 F540.000 E1.02646 ; perimeter
G1 X94.324 Y97.666 F7800.000 ; move to first perimeter point
G1 X94.364 Y97.722 F540.000 E1.02933 ; perimeter
G1 X93.745 Y97.240 F7800.000 ; move to first perimeter point
G1 X94.324 Y97.666 F540.000 E1.05925 ; perimeter
G1 X93.430 Y97.006 F7800.000 ; move to first perimeter point
G1 X93.745 Y97.240 F540.000 E1.07558 ; perimeter
G1 X93.117 Y96.770 F7800.000 ; move to first perimeter point
G1 X93.430 Y97.006 F540.000 E1.09191 ; perimeter
G1 X92.673 Y96.327 F7800.000 ; move to first perimeter point
G1 X93.117 Y96.770 F540.000 E1.11802 ; perimeter
G1 X92.673 Y96.327 F7800.000 ; move to first perimeter point
G1 X93.165 Y95.835 F540.000 E1.14697 ; perimeter
G1 X93.165 Y95.835 E1.14697 ; perimeter
G1 X93.436 Y95.564 E1.16289 ; perimeter
G1 X93.976 Y95.024 E1.19473 ; perimeter
G1 X95.443 Y93.557 E1.28107 ; perimeter
G1 X95.882 Y93.024 E1.30980 ; perimeter
G1 X95.883 Y93.117 F7800.000 ; move to first perimeter point
G1 X96.325 Y93.560 F540.000 E1.33585 ; perimeter
G1 X96.640 Y93.789 E1.35207 ; perimeter
G1 X97.144 Y94.150 E1.37788 ; perimeter
G1 X98.906 Y94.750 E1.45536 ; perimeter
G1 X100.102 Y94.888 E1.50546 ; perimeter
G1 X101.622 Y94.661 E1.56945 ; perimeter
G1 X103.057 Y94.034 E1.63461 ; perimeter
G1 X104.117 Y93.117 E1.69297 ; perimeter
G1 X101.764 Y90.764 E1.83150 ; perimeter
G1 X101.336 Y90.696 E1.84955 ; perimeter
G1 X101.764 Y90.764 F7800.000 ; move to first perimeter point
G1 X101.687 Y90.382 F540.000 E1.86578 ; perimeter
G1 X101.696 Y90.336 E1.86774 ; perimeter
G1 F1800.000 E0.86774 ; retract
G92 E0 ; reset extrusion distance
G1 X101.752 Y87.248 F7800.000 ; move to first perimeter point
G1 F1800.000 E1.00000 ; compensate retraction
G1 X101.676 Y87.623 F540.000 E1.01593 ; perimeter
G1 X101.377 Y87.324 F7800.000 ; move to first perimeter point
G1 X101.752 Y87.248 F540.000 E1.03185 ; perimeter
G1 X102.754 Y86.246 E1.09082 ; perimeter
G1 X104.118 Y84.976 E1.16842 ; perimeter
G1 X104.117 Y84.883 F7800.000 ; move to first perimeter point
G1 X105.152 Y83.853 F540.000 E1.22921 ; perimeter
G1 X105.163 Y83.829 E1.23030 ; perimeter
G1 X107.328 Y81.882 E1.35150 ; perimeter
G1 X107.327 Y81.673 F7800.000 ; move to first perimeter point
G1 X107.818 Y81.182 F540.000 E1.38045 ; perimeter
G1 X107.823 Y81.179 E1.38067 ; perimeter
G1 X108.102 Y80.903 E1.39700 ; perimeter
G1 X108.626 Y80.367 E1.42823 ; perimeter
G1 X110.536 Y78.464 E1.54046 ; perimeter
G1 F1800.000 E0.54046 ; retract
G92 E0 ; reset extrusion distance
G1 X114.618 Y91.545 F7800.000 ; move to first perimeter point
G1 F1800.000 E1.00000 ; compensate retraction
G1 X114.965 Y88.931 F540.000 E1.10979 ; perimeter
G1 X114.438 Y85.060 E1.27242 ; perimeter
G1 X112.934 Y81.472 E1.43436 ; perimeter
G1 X110.536 Y78.464 E1.59449 ; perimeter
G1 F1800.000 E0.59449 ; retract
G92 E0 ; reset extrusion distance
G1 X111.060 Y98.956 F7800.000 ; move to first perimeter point
G1 F1800.000 E1.00000 ; compensate retraction
G1 X112.995 Y96.423 F540.000 E1.13269 ; perimeter
G1 X114.422 Y92.999 E1.28710 ; perimeter
G1 X114.618 Y91.545 E1.34816 ; perimeter
G1 F1800.000 E0.34816 ; retract
G92 E0 ; reset extrusion distance
G1 X110.536 Y99.536 F7800.000 ; move to first perimeter point
G1 F1800.000 E1.00000 ; compensate retraction
G1 X111.060 Y98.956 F540.000 E1.03255 ; perimeter
G1 X110.536 Y99.536 F7800.000 ; move to first perimeter point
G1 X111.040 Y100.016 F540.000 E1.06152 ; perimeter
G1 X113.210 Y102.069 E1.18586 ; perimeter
G1 X113.083 Y102.083 F7800.000 ; move to first perimeter point
G1 X113.088 Y102.188 F540.000 E1.19023 ; perimeter
G1 F1800.000 E0.19023 ; retract
G92 E0 ; reset extrusion distance
G1 X106.887 Y95.887 F7800.000 ; move to first perimeter point
G1 F1800.000 E1.00000 ; compensate retraction
G1 X107.327 Y96.327 F540.000 E1.02589 ; perimeter
G1 X107.530 Y96.325 E1.03435 ; perimeter
G1 X109.097 Y93.962 E1.15239 ; perimeter
G1 X109.874 Y92.126 E1.23538 ; perimeter
G1 X110.347 Y89.464 E1.34793 ; perimeter
G1 X110.114 Y86.770 E1.46048 ; perimeter
G1 X109.407 Y84.749 E1.54962 ; perimeter
G1 X108.762 Y83.465 E1.60941 ; perimeter
G1 X106.883 Y81.230 E1.73097 ; perimeter
G1 X105.115 Y79.914 E1.82273 ; perimeter
G1 X102.808 Y78.958 E1.92667 ; perimeter
G1 X99.887 Y78.573 E2.04934 ; perimeter
G1 X97.192 Y78.958 E2.16266 ; perimeter
G1 X94.885 Y79.914 E2.26659 ; perimeter
G1 X92.673 Y81.673 E2.38425 ; perimeter
G1 X92.470 Y81.675 E2.39270 ; perimeter
G1 X91.920 Y80.902 E2.43220 ; perimeter
G1 X89.464 Y78.464 E2.57627 ; perimeter
G1 X92.577 Y76.005 E2.74142 ; perimeter
G1 X96.001 Y74.578 E2.89584 ; perimeter
G1 X99.870 Y74.035 E3.05847 ; perimeter
G1 X103.748 Y74.511 E3.22111 ; perimeter
G1 X106.652 Y75.676 E3.35137 ; perimeter
G1 X107.528 Y76.066 E3.39128 ; perimeter
G1 X110.536 Y78.464 E3.55141 ; perimeter
G1 X113.088 Y75.812 E3.70463 ; perimeter
G1 X113.083 Y75.917 F7800.000 ; move to first perimeter point
G1 X113.188 Y75.912 F540.000 E3.70902 ; perimeter
G1 F1800.000 E2.70902 ; retract
G92 E0 ; reset extrusion distance
G1 X119.267 Y89.142 F7800.000 ; move to first perimeter point
G1 F1800.000 E1.00000 ; compensate retraction
G1 X119.479 Y89.000 F540.000 E1.01061 ; perimeter
G1 X119.267 Y88.858 E1.02123 ; perimeter
G1 X119.479 Y89.000 F7800.000 ; move to first perimeter point
G1 X119.502 Y89.000 F540.000 E1.02220 ; perimeter
G1 X119.553 Y89.000 E1.02434 ; perimeter
G1 F1800.000 E0.02434 ; retract
G92 E0 ; reset extrusion distance
G1 X105.237 Y94.187 F7800.000 ; move to first perimeter point
G1 F1800.000 E1.00000 ; compensate retraction
G1 X106.887 Y95.887 F540.000 E1.09859 ; perimeter
G1 F1800.000 E0.09859 ; retract
G92 E0 ; reset extrusion distance
G1 X105.170 Y94.073 F7800.000 ; move to first perimeter point
G1 F1800.000 E1.00000 ; compensate retraction
G1 X105.237 Y94.187 F540.000 E1.00555 ; perimeter
G1 X104.636 Y93.515 F7800.000 ; move to first perimeter point
G1 X105.170 Y94.073 F540.000 E1.03765 ; perimeter
G1 X104.613 Y93.501 F7800.000 ; move to first perimeter point
G1 X104.636 Y93.515 F540.000 E1.03879 ; perimeter
G1 X104.215 Y93.116 F7800.000 ; move to first perimeter point
G1 X104.613 Y93.501 F540.000 E1.06183 ; perimeter
G1 X104.117 Y93.117 F7800.000 ; move to first perimeter point
G1 X105.215 Y91.661 F540.000 E1.13774 ; perimeter
G1 X105.592 Y90.738 E1.17927 ; perimeter
G1 X105.852 Y89.231 E1.24291 ; perimeter
G1 X105.549 Y87.161 E1.32997 ; perimeter
G1 X104.939 Y85.853 E1.39008 ; perimeter
G1 X104.117 Y84.883 E1.44299 ; perimeter
G1 X102.856 Y83.850 E1.51086 ; perimeter
G1 X101.425 Y83.286 E1.57486 ; perimeter
G1 X99.898 Y83.112 E1.63885 ; perimeter
G1 X98.575 Y83.286 E1.69442 ; perimeter
G1 X97.144 Y83.850 E1.75841 ; perimeter
G1 X95.785 Y84.884 E1.82949 ; perimeter
G1 X92.673 Y81.673 E2.01561 ; perimeter
G1 F1800.000 E1.01561 ; retract
G92 E0 ; reset extrusion distance
G1 X86.975 Y96.370 F7800.000 ; move to first perimeter point
G1 F1800.000 E1.00000 ; compensate retraction
G1 X89.464 Y99.536 F540.000 E1.16764 ; perimeter
G1 X92.673 Y96.327 E1.35658 ; perimeter
G1 X90.903 Y93.982 E1.47888 ; perimeter
G1 X90.134 Y92.152 E1.56149 ; perimeter
G1 X89.655 Y89.468 E1.67501 ; perimeter
G1 X89.653 Y88.536 E1.71378 ; perimeter
G1 X90.126 Y85.874 E1.82633 ; perimeter
G1 X90.903 Y84.038 E1.90932 ; perimeter
G1 X92.470 Y81.675 E2.02736 ; perimeter
G1 F1800.000 E1.02736 ; retract
G92 E0 ; reset extrusion distance
G1 X86.628 Y95.447 F7800.000 ; move to first perimeter point
G1 F1800.000 E1.00000 ; compensate retraction
G1 X86.975 Y96.370 F540.000 E1.04106 ; perimeter
G1 F1800.000 E0.04106 ; retract
G92 E0 ; reset extrusion distance
G1 X86.068 Y94.105 F7800.000 ; move to first perimeter point
G1 F1800.000 E1.00000 ; compensate retraction
G1 X86.628 Y95.447 F540.000 E1.06053 ; perimeter
G1 F1800.000 E0.06053 ; retract
G92 E0 ; reset extrusion distance
G1 X85.790 Y93.494 F7800.000 ; move to first perimeter point
G1 F1800.000 E1.00000 ; compensate retraction
G1 X86.068 Y94.105 F540.000 E1.02795 ; perimeter
G1 X85.511 Y92.748 F7800.000 ; move to first perimeter point
G1 X85.790 Y93.494 F540.000 E1.06110 ; perimeter
G1 X85.511 Y92.748 F7800.000 ; move to first perimeter point
G1 X85.059 Y88.810 F540.000 E1.22611 ; perimeter
G1 X85.526 Y85.194 E1.37790 ; perimeter
G1 X86.472 Y82.846 E1.48325 ; perimeter
G1 X87.103 Y81.407 E1.54865 ; perimeter
G1 X89.464 Y78.464 E1.70572 ; perimeter
G1 X86.812 Y75.912 E1.85890 ; perimeter
G1 X86.912 Y75.812 F7800.000 ; move to first perimeter point
G1 X86.917 Y75.917 F540.000 E1.86324 ; perimeter
G1 F1800.000 E0.86324 ; retract
G92 E0 ; reset extrusion distance
G1 X94.634 Y86.781 F7800.000 ; move to first perimeter point
G1 F1800.000 E1.00000 ; compensate retraction
G1 X95.028 Y85.899 F540.000 E1.04021 ; perimeter
G1 X95.785 Y84.884 E1.09294 ; perimeter
G1 F1800.000 E0.09294 ; retract
G92 E0 ; reset extrusion distance
G1 X94.238 Y88.110 F7800.000 ; move to first perimeter point
G1 F1800.000 E1.00000 ; compensate retraction
G1 X94.634 Y86.781 F540.000 E1.05771 ; perimeter
G1 X94.193 Y88.439 F7800.000 ; move to first perimeter point
G1 X94.238 Y88.110 F540.000 E1.07156 ; perimeter
G1 X94.151 Y89.103 F7800.000 ; move to first perimeter point
G1 X94.193 Y88.439 F540.000 E1.09925 ; perimeter
G1 X94.151 Y89.103 F7800.000 ; move to first perimeter point
G1 X94.162 Y89.301 F540.000 E1.10751 ; perimeter
G1 X94.242 Y89.732 E1.12573 ; perimeter
G1 X94.246 Y89.961 E1.13530 ; perimeter
G1 X94.931 Y91.936 E1.22230 ; perimeter
G1 X95.882 Y93.024 E1.28246 ; perimeter
G1 X98.248 Y90.752 E1.41901 ; perimeter
G1 X98.324 Y90.377 E1.43493 ; perimeter
G1 X98.248 Y90.752 F7800.000 ; move to first perimeter point
G1 X98.623 Y90.676 F540.000 E1.45086 ; perimeter
G1 F1800.000 E0.45086 ; retract
G92 E0 ; reset extrusion distance
G1 X98.226 Y87.304 F7800.000 ; move to first perimeter point
G1 F1800.000 E1.00000 ; compensate retraction
G1 X98.304 Y87.664 F540.000 E1.01534 ; perimeter
G1 X98.226 Y87.304 F7800.000 ; move to first perimeter point
G1 X98.236 Y87.236 F540.000 E1.01821 ; perimeter
G1 F1800.000 E0.01821 ; retract
G92 E0 ; reset extrusion distance
G1 X96.643 Y85.643 F7800.000 ; move to first perimeter point
G1 F1800.000 E1.00000 ; compensate retraction
G1 X98.236 Y87.236 F540.000 E1.09377 ; perimeter
G1 X98.664 Y87.304 E1.11182 ; perimeter
G1 F1800.000 E0.11182 ; retract
G92 E0 ; reset extrusion distance
G1 X96.373 Y85.373 F7800.000 ; move to first perimeter point
