; generated by Slic3r 0.9.8-dev on 2012-12-30 at 17:42:11

; layer_height = 0.4
; perimeters = 3
; top_solid_layers = 3
; bottom_solid_layers = 3
; fill_density = 0.15
; perimeter_speed = 30
; infill_speed = 60
; travel_speed = 130
; scale = 1
; nozzle_diameter = 0.5
; filament_diameter = 3
; extrusion_multiplier = 1
; perimeters extrusion width = 0.53mm
; infill extrusion width = 0.53mm
; first layer extrusion width = 0.80mm

M190 S60 ; wait for bed temperature to be reached
M104 S185 ; set temperature
M104 S185 ; set extruder temperature
G28 ; home all axes
M109 S185 ; wait for temperature to be reached
G90 ; use absolute coordinates
G21 ; set units to millimeters
G92 E0 ; reset extrusion distance
M82 ; use absolute distances for extrusion
G1 F1800.000 E-1.00000 ; retract
G92 E0 ; reset extrusion distance
G1 Z0.400 F7800.000 ; move to next layer (0)
G1 X123.695 Y112.276 ; move to first skirt point
G1 F1800.000 E1.00000 ; compensate retraction
G1 X123.275 Y112.626 F540.000 E1.02276 ; skirt
G1 X122.825 Y112.936 E1.04551 ; skirt
G1 X122.355 Y113.206 E1.06807 ; skirt
G1 X121.865 Y113.436 E1.09060 ; skirt
G1 X121.355 Y113.636 E1.11341 ; skirt
G1 X120.835 Y113.786 E1.13593 ; skirt
G1 X120.025 Y113.936 E1.17023 ; skirt
G1 X119.485 Y113.976 E1.19277 ; skirt
G1 X99.795 Y113.986 E2.01241 ; skirt
G1 X99.435 Y113.976 E2.02741 ; skirt
G1 X98.715 Y113.896 E2.05756 ; skirt
G1 X98.005 Y113.736 E2.08786 ; skirt
G1 X88.665 Y111.156 E2.49122 ; skirt
G1 X88.365 Y111.066 E2.50426 ; skirt
G1 X87.795 Y110.856 E2.52955 ; skirt
G1 X87.255 Y110.596 E2.55449 ; skirt
G1 X86.725 Y110.276 E2.58027 ; skirt
G1 X77.235 Y103.976 E3.05444 ; skirt
G1 X76.775 Y103.646 E3.07800 ; skirt
G1 X76.345 Y103.276 E3.10162 ; skirt
G1 X75.955 Y102.866 E3.12517 ; skirt
G1 X75.595 Y102.426 E3.14884 ; skirt
G1 X75.265 Y101.956 E3.17274 ; skirt
G1 X69.625 Y92.106 E3.64523 ; skirt
G1 X69.295 Y91.366 E3.67896 ; skirt
G1 X69.055 Y90.596 E3.71254 ; skirt
G1 X68.905 Y89.806 E3.74601 ; skirt
G1 X68.855 Y88.996 E3.77979 ; skirt
G1 X68.905 Y88.186 E3.81358 ; skirt
G1 X69.055 Y87.396 E3.84705 ; skirt
G1 X69.295 Y86.626 E3.88062 ; skirt
G1 X69.625 Y85.886 E3.91435 ; skirt
G1 X75.265 Y76.036 E4.38684 ; skirt
G1 X75.765 Y75.346 E4.42231 ; skirt
G1 X76.345 Y74.716 E4.45796 ; skirt
G1 X76.775 Y74.346 E4.48157 ; skirt
G1 X77.235 Y74.016 E4.50514 ; skirt
G1 X86.725 Y67.716 E4.97931 ; skirt
G1 X87.255 Y67.396 E5.00508 ; skirt
G1 X87.795 Y67.136 E5.03003 ; skirt
G1 X88.365 Y66.926 E5.05532 ; skirt
G1 X88.665 Y66.836 E5.06836 ; skirt
G1 X98.355 Y64.166 E5.48676 ; skirt
G1 X99.075 Y64.046 E5.51715 ; skirt
G1 X99.795 Y64.006 E5.54716 ; skirt
G1 X119.485 Y64.016 E6.36681 ; skirt
G1 X120.025 Y64.056 E6.38935 ; skirt
G1 X120.565 Y64.146 E6.41214 ; skirt
G1 X121.095 Y64.276 E6.43486 ; skirt
G1 X121.615 Y64.446 E6.45763 ; skirt
G1 X122.115 Y64.666 E6.48037 ; skirt
G1 X122.595 Y64.916 E6.50290 ; skirt
G1 X123.275 Y65.366 E6.53684 ; skirt
G1 X123.895 Y65.896 E6.57080 ; skirt
G1 X124.085 Y66.096 E6.58228 ; skirt
G1 X124.445 Y66.496 E6.60468 ; skirt
G1 X124.765 Y66.936 E6.62733 ; skirt
G1 X130.315 Y75.776 E7.06183 ; skirt
G1 X130.585 Y76.286 E7.08585 ; skirt
G1 X130.805 Y76.826 E7.11012 ; skirt
G1 X130.975 Y77.386 E7.13449 ; skirt
G1 X131.105 Y77.946 E7.15842 ; skirt
G1 X131.145 Y78.236 E7.17060 ; skirt
G1 X131.205 Y79.106 E7.20691 ; skirt
G1 X131.205 Y98.876 E8.02988 ; skirt
G1 X131.145 Y99.746 E8.06618 ; skirt
G1 X131.045 Y100.316 E8.09027 ; skirt
G1 X130.895 Y100.876 E8.11441 ; skirt
G1 X130.705 Y101.426 E8.13863 ; skirt
G1 X130.455 Y101.946 E8.16265 ; skirt
G1 X130.175 Y102.456 E8.18687 ; skirt
G1 X124.775 Y111.056 E8.60959 ; skirt
G1 X124.275 Y111.696 E8.64340 ; skirt
G1 X123.775 Y112.200 E8.67295 ; skirt
G1 X123.695 Y112.276 E8.67754 ; skirt
G1 F1800.000 E7.67754 ; retract
G92 E0 ; reset extrusion distance
G1 X117.999 Y72.953 F7800.000 ; move to first perimeter point
G1 F1800.000 E1.00000 ; compensate retraction
G1 X122.259 Y79.749 F540.000 E1.33388 ; perimeter
G1 X122.259 Y98.251 E2.10404 ; perimeter
G1 X117.999 Y105.047 E2.43792 ; perimeter
G1 X100.104 Y105.047 E3.18288 ; perimeter
G1 X91.384 Y102.637 E3.55947 ; perimeter
G1 X82.628 Y96.823 E3.99700 ; perimeter
G1 X78.140 Y89.000 E4.37242 ; perimeter
G1 X82.628 Y81.177 E4.74784 ; perimeter
G1 X91.384 Y75.363 E5.18537 ; perimeter
G1 X100.104 Y72.953 E5.56196 ; perimeter
G1 X117.889 Y72.953 E6.30233 ; perimeter
G1 X117.999 Y72.953 E6.30692 ; perimeter
G1 X118.407 Y72.217 F7800.000 ; move to first perimeter point
G1 X122.994 Y79.538 F540.000 E6.66655 ; perimeter
G1 X122.994 Y98.462 E7.45432 ; perimeter
G1 X118.407 Y105.783 E7.81394 ; perimeter
G1 X100.004 Y105.783 E8.58000 ; perimeter
G1 X91.075 Y103.314 E8.96564 ; perimeter
G1 X82.076 Y97.339 E9.41528 ; perimeter
G1 X77.292 Y89.000 E9.81550 ; perimeter
G1 X82.076 Y80.661 E10.21572 ; perimeter
G1 X91.075 Y74.686 E10.66537 ; perimeter
G1 X100.004 Y72.217 E11.05100 ; perimeter
G1 X118.296 Y72.217 E11.81247 ; perimeter
G1 X118.407 Y72.217 E11.81706 ; perimeter
G1 X118.814 Y71.482 F7800.000 ; move to first perimeter point
G1 X123.730 Y79.326 F540.000 E12.20244 ; perimeter
G1 X123.730 Y98.674 E13.00781 ; perimeter
G1 X118.814 Y106.518 E13.39319 ; perimeter
G1 X99.904 Y106.518 E14.18036 ; perimeter
G1 X90.766 Y103.992 E14.57503 ; perimeter
G1 X81.525 Y97.856 E15.03679 ; perimeter
G1 X76.444 Y89.000 E15.46181 ; perimeter
G1 X81.525 Y80.144 E15.88683 ; perimeter
G1 X90.766 Y74.008 E16.34859 ; perimeter
G1 X99.904 Y71.482 E16.74327 ; perimeter
G1 X118.703 Y71.482 E17.52584 ; perimeter
G1 X118.814 Y71.482 E17.53043 ; perimeter
G1 X119.221 Y70.746 F7800.000 ; move to first perimeter point
G1 X124.465 Y79.115 F540.000 E17.94156 ; perimeter
G1 X124.465 Y98.885 E18.76454 ; perimeter
G1 X119.221 Y107.254 E19.17566 ; perimeter
G1 X99.804 Y107.254 E19.98393 ; perimeter
G1 X90.457 Y104.670 E20.38765 ; perimeter
G1 X80.973 Y98.373 E20.86153 ; perimeter
G1 X75.596 Y89.000 E21.31135 ; perimeter
G1 X80.973 Y79.627 E21.76116 ; perimeter
G1 X90.457 Y73.330 E22.23504 ; perimeter
G1 X99.804 Y70.746 E22.63876 ; perimeter
G1 X119.111 Y70.746 E23.44243 ; perimeter
G1 X119.221 Y70.746 E23.44703 ; perimeter
G1 X119.111 Y71.473 F7800.000 ; move inwards before travel
G1 F1800.000 E22.44703 ; retract
G92 E0 ; reset extrusion distance
G1 X83.414 Y96.540 F7800.000 ; move to first fill point
G1 F1800.000 E1.00000 ; compensate retraction
G1 X82.945 Y96.072 F1080.000 E1.02802 ; fill
G1 X81.524 Y93.594 E1.14871 ; fill
G1 X86.557 Y98.627 E1.44952 ; fill
G1 X89.700 Y100.715 E1.60897 ; fill
G1 X80.103 Y91.117 E2.18257 ; fill
G1 X78.774 Y88.732 E2.29796 ; fill
G1 X92.353 Y102.311 E3.10950 ; fill
G1 X93.812 Y102.714 E3.17349 ; fill
G1 X79.159 Y88.060 E4.04926 ; fill
G1 X79.544 Y87.389 E4.08195 ; fill
G1 X95.272 Y103.118 E5.02193 ; fill
G1 X96.731 Y103.521 E5.08592 ; fill
G1 X79.929 Y86.718 E6.09012 ; fill
G1 X80.314 Y86.047 E6.12281 ; fill
G1 X98.191 Y103.925 E7.19123 ; fill
G1 X99.650 Y104.328 E7.25522 ; fill
G1 X80.699 Y85.376 E8.38786 ; fill
G1 X81.084 Y84.705 E8.42055 ; fill
G1 X100.924 Y104.546 E9.60630 ; fill
G1 X101.980 Y104.546 E9.65093 ; fill
G1 X81.469 Y84.034 E10.87679 ; fill
G1 X81.854 Y83.363 E10.90948 ; fill
G1 X103.036 Y104.546 E12.17544 ; fill
G1 X104.093 Y104.546 E12.22007 ; fill
G1 X82.239 Y82.692 E13.52614 ; fill
G1 X82.624 Y82.021 E13.55884 ; fill
G1 X105.149 Y104.546 E14.90502 ; fill
G1 X106.205 Y104.546 E14.94965 ; fill
G1 X83.050 Y81.391 E16.33348 ; fill
G1 X83.684 Y80.969 E16.36567 ; fill
G1 X107.261 Y104.546 E17.77468 ; fill
G1 X108.317 Y104.546 E17.81932 ; fill
G1 X84.319 Y80.548 E19.25352 ; fill
G1 X84.954 Y80.126 E19.28572 ; fill
G1 X109.373 Y104.546 E20.74510 ; fill
G1 X110.429 Y104.546 E20.78973 ; fill
G1 X85.589 Y79.705 E22.27430 ; fill
G1 X86.223 Y79.283 E22.30650 ; fill
G1 X111.485 Y104.546 E23.81626 ; fill
G1 X112.541 Y104.546 E23.86089 ; fill
G1 X86.858 Y78.862 E25.39584 ; fill
G1 X87.493 Y78.441 E25.42803 ; fill
G1 X113.598 Y104.546 E26.98817 ; fill
G1 X114.654 Y104.546 E27.03280 ; fill
G1 X88.127 Y78.019 E28.61812 ; fill
G1 X88.762 Y77.598 E28.65031 ; fill
G1 X115.710 Y104.546 E30.26082 ; fill
G1 X116.766 Y104.546 E30.30545 ; fill
G1 X89.397 Y77.176 E31.94115 ; fill
G1 X90.031 Y76.755 E31.97335 ; fill
G1 X117.822 Y104.546 E33.63422 ; fill
G1 X118.232 Y103.899 E33.66657 ; fill
G1 X90.666 Y76.333 E35.31399 ; fill
G1 X91.301 Y75.912 E35.34619 ; fill
G1 X118.638 Y103.250 E36.98000 ; fill
G1 X119.045 Y102.600 E37.01238 ; fill
G1 X92.080 Y75.635 E38.62393 ; fill
G1 X92.907 Y75.407 E38.66020 ; fill
G1 X119.452 Y101.951 E40.24662 ; fill
G1 X119.859 Y101.302 E40.27900 ; fill
G1 X93.735 Y75.178 E41.84028 ; fill
G1 X94.562 Y74.949 E41.87656 ; fill
G1 X120.266 Y100.653 E43.41271 ; fill
G1 X120.673 Y100.004 E43.44509 ; fill
G1 X95.390 Y74.720 E44.95612 ; fill
G1 X96.217 Y74.492 E44.99239 ; fill
G1 X121.080 Y99.354 E46.47828 ; fill
G1 X121.487 Y98.705 E46.51066 ; fill
G1 X97.044 Y74.263 E47.97141 ; fill
G1 X97.872 Y74.034 E48.00769 ; fill
G1 X121.757 Y97.919 E49.43517 ; fill
G1 X121.757 Y96.863 E49.47979 ; fill
G1 X98.699 Y73.806 E50.85782 ; fill
G1 X99.527 Y73.577 E50.89409 ; fill
G1 X121.757 Y95.807 E52.22267 ; fill
G1 X121.757 Y94.751 E52.26730 ; fill
G1 X100.460 Y73.454 E53.54007 ; fill
G1 X101.516 Y73.454 E53.58471 ; fill
G1 X121.757 Y93.695 E54.79436 ; fill
G1 X121.757 Y92.639 E54.83899 ; fill
G1 X102.573 Y73.454 E55.98553 ; fill
G1 X103.629 Y73.454 E56.03016 ; fill
G1 X121.757 Y91.583 E57.11358 ; fill
G1 X121.757 Y90.527 E57.15822 ; fill
G1 X104.685 Y73.454 E58.17852 ; fill
G1 X105.741 Y73.454 E58.22315 ; fill
G1 X121.757 Y89.471 E59.18033 ; fill
G1 X121.757 Y88.414 E59.22496 ; fill
G1 X106.797 Y73.454 E60.11902 ; fill
G1 X107.853 Y73.454 E60.16365 ; fill
G1 X121.757 Y87.358 E60.99461 ; fill
G1 X121.757 Y86.302 E61.03924 ; fill
G1 X108.909 Y73.454 E61.80707 ; fill
G1 X109.965 Y73.454 E61.85170 ; fill
G1 X121.757 Y85.246 E62.55642 ; fill
G1 X121.757 Y84.190 E62.60105 ; fill
G1 X111.022 Y73.454 E63.24265 ; fill
G1 X112.078 Y73.454 E63.28728 ; fill
G1 X121.757 Y83.134 E63.86576 ; fill
G1 X121.757 Y82.078 E63.91039 ; fill
G1 X113.134 Y73.454 E64.42575 ; fill
G1 X114.190 Y73.454 E64.47038 ; fill
G1 X121.757 Y81.022 E64.92262 ; fill
G1 X121.372 Y79.581 E64.98565 ; fill
G1 X115.246 Y73.454 E65.35178 ; fill
G1 X116.302 Y73.454 E65.39641 ; fill
G1 X119.599 Y76.752 E65.59347 ; fill
G1 X117.827 Y73.923 E65.73455 ; fill
G1 X117.358 Y73.454 E65.76255 ; fill
G1 F1800.000 E64.76255 ; retract
G92 E0 ; reset extrusion distance
G1 Z0.800 F7800.000 ; move to next layer (1)
G1 X78.631 Y89.000 ; move to first perimeter point
G1 F1800.000 E1.00000 ; compensate retraction
G1 X82.947 Y81.476 F1800.000 E1.25506 ; perimeter
G1 X91.563 Y75.756 E1.55917 ; perimeter
G1 X100.161 Y73.379 E1.82150 ; perimeter
G1 X117.764 Y73.379 E2.33910 ; perimeter
G1 X121.833 Y79.872 E2.56442 ; perimeter
G1 X121.833 Y98.128 E3.10127 ; perimeter
G1 X117.764 Y104.621 E3.32659 ; perimeter
G1 X100.161 Y104.621 E3.84419 ; perimeter
G1 X91.563 Y102.244 E4.10652 ; perimeter
G1 X82.947 Y96.524 E4.41063 ; perimeter
G1 X78.670 Y89.068 E4.66340 ; perimeter
G1 X78.631 Y89.000 E4.66569 ; perimeter
G1 X78.116 Y89.148 F7800.000 ; move to first perimeter point
G1 X78.032 Y89.000 F1800.000 E4.67070 ; perimeter
G1 X82.557 Y81.111 E4.93813 ; perimeter
G1 X91.344 Y75.277 E5.24829 ; perimeter
G1 X100.091 Y72.859 E5.51513 ; perimeter
G1 X118.051 Y72.859 E6.04326 ; perimeter
G1 X122.352 Y79.722 E6.28143 ; perimeter
G1 X122.352 Y98.278 E6.82706 ; perimeter
G1 X118.051 Y105.141 E7.06523 ; perimeter
G1 X100.091 Y105.141 E7.59337 ; perimeter
G1 X91.344 Y102.723 E7.86020 ; perimeter
G1 X82.557 Y96.889 E8.17036 ; perimeter
G1 X78.155 Y89.215 E8.43049 ; perimeter
G1 X78.116 Y89.148 E8.43278 ; perimeter
G1 X77.666 Y89.406 F7800.000 ; move to first perimeter point
G1 X77.433 Y89.000 F1800.000 E8.44656 ; perimeter
G1 X82.168 Y80.746 E8.72637 ; perimeter
G1 X91.126 Y74.798 E9.04257 ; perimeter
G1 X100.020 Y72.339 E9.31392 ; perimeter
G1 X118.339 Y72.339 E9.85259 ; perimeter
G1 X122.872 Y79.573 E10.10361 ; perimeter
G1 X122.872 Y98.427 E10.65802 ; perimeter
G1 X118.339 Y105.661 E10.90904 ; perimeter
G1 X100.020 Y105.661 E11.44770 ; perimeter
G1 X91.126 Y103.202 E11.71905 ; perimeter
G1 X82.168 Y97.254 E12.03526 ; perimeter
G1 X77.705 Y89.474 E12.29899 ; perimeter
G1 X77.666 Y89.406 E12.30129 ; perimeter
G1 X77.927 Y88.957 F7800.000 ; move inwards before travel
G1 F1800.000 E11.30129 ; retract
G92 E0 ; reset extrusion distance
G1 X117.642 Y103.936 F7800.000 ; move to first fill point
G1 F1800.000 E1.00000 ; compensate retraction
G1 X117.311 Y104.267 F3600.000 E1.01390 ; fill
G1 X116.569 Y104.267 E1.03594 ; fill
G1 X118.888 Y101.948 E1.13332 ; fill
G1 X120.133 Y99.960 E1.20298 ; fill
G1 X115.827 Y104.267 E1.38383 ; fill
G1 X115.085 Y104.267 E1.40587 ; fill
G1 X121.379 Y97.973 E1.67020 ; fill
G1 X121.479 Y97.131 E1.69537 ; fill
G1 X114.342 Y104.267 E1.99506 ; fill
G1 X113.600 Y104.267 E2.01709 ; fill
G1 X121.479 Y96.389 E2.34794 ; fill
G1 X121.479 Y95.647 E2.36998 ; fill
G1 X112.858 Y104.267 E2.73199 ; fill
G1 X112.116 Y104.267 E2.75403 ; fill
G1 X121.479 Y94.905 E3.14721 ; fill
G1 X121.479 Y94.163 E3.16924 ; fill
G1 X111.374 Y104.267 E3.59358 ; fill
G1 X110.632 Y104.267 E3.61562 ; fill
G1 X121.479 Y93.420 E4.07112 ; fill
G1 X121.479 Y92.678 E4.09316 ; fill
G1 X109.890 Y104.267 E4.57983 ; fill
G1 X109.148 Y104.267 E4.60186 ; fill
G1 X121.479 Y91.936 E5.11970 ; fill
G1 X121.479 Y91.194 E5.14174 ; fill
G1 X108.406 Y104.267 E5.69073 ; fill
G1 X107.663 Y104.267 E5.71277 ; fill
G1 X121.479 Y90.452 E6.29293 ; fill
G1 X121.479 Y89.710 E6.31497 ; fill
G1 X106.921 Y104.267 E6.92630 ; fill
G1 X106.179 Y104.267 E6.94833 ; fill
G1 X121.479 Y88.968 E7.59082 ; fill
G1 X121.479 Y88.226 E7.61286 ; fill
G1 X105.437 Y104.267 E8.28652 ; fill
G1 X104.695 Y104.267 E8.30855 ; fill
G1 X121.479 Y87.484 E9.01337 ; fill
G1 X121.479 Y86.741 E9.03541 ; fill
G1 X103.953 Y104.267 E9.77139 ; fill
G1 X103.211 Y104.267 E9.79342 ; fill
G1 X121.479 Y85.999 E10.56057 ; fill
G1 X121.479 Y85.257 E10.58261 ; fill
G1 X102.469 Y104.267 E11.38092 ; fill
G1 X101.727 Y104.267 E11.40296 ; fill
G1 X121.479 Y84.515 E12.23243 ; fill
G1 X121.479 Y83.773 E12.25447 ; fill
G1 X100.985 Y104.267 E13.11511 ; fill
G1 X100.242 Y104.267 E13.13715 ; fill
G1 X121.479 Y83.031 E14.02895 ; fill
G1 X121.479 Y82.289 E14.05099 ; fill
G1 X99.623 Y104.145 E14.96881 ; fill
G1 X99.042 Y103.984 E14.98672 ; fill
G1 X121.479 Y81.547 E15.92896 ; fill
G1 X121.479 Y80.805 E15.95099 ; fill
G1 X98.460 Y103.823 E16.91764 ; fill
G1 X97.879 Y103.662 E16.93556 ; fill
G1 X121.479 Y80.063 E17.92662 ; fill
G1 X121.273 Y79.527 E17.94367 ; fill
G1 X97.297 Y103.502 E18.95049 ; fill
G1 X96.716 Y103.341 E18.96841 ; fill
G1 X120.987 Y79.070 E19.98764 ; fill
G1 X120.701 Y78.614 E20.00362 ; fill
G1 X96.135 Y103.180 E21.03527 ; fill
G1 X95.553 Y103.019 E21.05318 ; fill
G1 X120.415 Y78.158 E22.09723 ; fill
G1 X120.129 Y77.702 E22.11321 ; fill
G1 X94.972 Y102.859 E23.16967 ; fill
G1 X94.390 Y102.698 E23.18759 ; fill
G1 X119.843 Y77.246 E24.25646 ; fill
G1 X119.557 Y76.789 E24.27244 ; fill
G1 X93.809 Y102.537 E25.35372 ; fill
G1 X93.228 Y102.377 E25.37164 ; fill
G1 X119.271 Y76.333 E26.46532 ; fill
G1 X118.985 Y75.877 E26.48131 ; fill
G1 X92.646 Y102.216 E27.58741 ; fill
G1 X92.065 Y102.055 E27.60532 ; fill
G1 X118.699 Y75.421 E28.72383 ; fill
G1 X118.414 Y74.964 E28.73982 ; fill
G1 X91.514 Y101.864 E29.86944 ; fill
G1 X91.068 Y101.568 E29.88533 ; fill
G1 X118.128 Y74.508 E31.02168 ; fill
G1 X117.842 Y74.052 E31.03767 ; fill
G1 X90.622 Y101.271 E32.18073 ; fill
G1 X90.176 Y100.975 E32.19663 ; fill
G1 X117.419 Y73.733 E33.34066 ; fill
G1 X116.677 Y73.733 E33.36270 ; fill
G1 X89.730 Y100.679 E34.49430 ; fill
G1 X89.284 Y100.383 E34.51020 ; fill
G1 X115.935 Y73.733 E35.62936 ; fill
G1 X115.193 Y73.733 E35.65140 ; fill
G1 X88.838 Y100.087 E36.75813 ; fill
G1 X88.392 Y99.791 E36.77402 ; fill
G1 X114.450 Y73.733 E37.86832 ; fill
G1 X113.708 Y73.733 E37.89035 ; fill
G1 X87.946 Y99.495 E38.97221 ; fill
G1 X87.500 Y99.199 E38.98811 ; fill
