; generated by Slic3r 0.9.8-dev on 2012-12-29 at 21:11:55

; layer_height = 0.4
; perimeters = 3
; top_solid_layers = 3
; bottom_solid_layers = 3
; fill_density = 0.4
; perimeter_speed = 30
; infill_speed = 60
; travel_speed = 130
; scale = 1
; nozzle_diameter = 0.5
; filament_diameter = 3
; extrusion_multiplier = 1
; perimeters extrusion width = 0.53mm
; infill extrusion width = 0.53mm
; first layer extrusion width = 0.80mm

M107 ; disable fan
M190 S60 ; wait for bed temperature to be reached
M104 S185 ; set temperature
M104 S185 ; set extruder temperature
G28 ; home all axes
M109 S185 ; wait for temperature to be reached
G90 ; use absolute coordinates
G21 ; set units to millimeters
G92 E0 ; reset extrusion distance
M82 ; use absolute distances for extrusion
G1 F1800.000 E-1.00000 ; retract
G92 E0 ; reset extrusion distance
G1 Z0.400 F7800.000 ; move to next layer (0)
G1 X117.340 Y82.237 ; move to first skirt point
G1 F1800.000 E1.00000 ; compensate retraction
G1 X117.330 Y122.427 F540.000 E2.67301 ; skirt
G1 X117.290 Y122.957 E2.69514 ; skirt
G1 X117.250 Y123.217 E2.70609 ; skirt
G1 X116.840 Y125.277 E2.79352 ; skirt
G1 X116.780 Y125.567 E2.80585 ; skirt
G1 X116.620 Y126.127 E2.83009 ; skirt
G1 X116.510 Y126.407 E2.84262 ; skirt
G1 X116.280 Y126.947 E2.86705 ; skirt
G1 X115.990 Y127.467 E2.89183 ; skirt
G1 X114.830 Y129.197 E2.97854 ; skirt
G1 X114.480 Y129.677 E3.00327 ; skirt
G1 X114.290 Y129.897 E3.01537 ; skirt
G1 X113.890 Y130.327 E3.03982 ; skirt
G1 X113.440 Y130.707 E3.06434 ; skirt
G1 X112.970 Y131.057 E3.08873 ; skirt
G1 X111.230 Y132.207 E3.17555 ; skirt
G1 X110.460 Y132.607 E3.21167 ; skirt
G1 X109.920 Y132.817 E3.23579 ; skirt
G1 X109.360 Y132.977 E3.26003 ; skirt
G1 X107.290 Y133.397 E3.34796 ; skirt
G1 X106.760 Y133.487 E3.37034 ; skirt
G1 X105.960 Y133.537 E3.40370 ; skirt
G1 X94.030 Y133.537 E3.90032 ; skirt
G1 X93.230 Y133.487 E3.93369 ; skirt
G1 X92.970 Y133.447 E3.94464 ; skirt
G1 X90.630 Y132.977 E4.04399 ; skirt
G1 X90.070 Y132.817 E4.06824 ; skirt
G1 X89.800 Y132.717 E4.08022 ; skirt
G1 X89.530 Y132.607 E4.09236 ; skirt
G1 X89.010 Y132.347 E4.11656 ; skirt
G1 X88.510 Y132.047 E4.14083 ; skirt
G1 X87.020 Y131.057 E4.21530 ; skirt
G1 X86.550 Y130.707 E4.23969 ; skirt
G1 X86.100 Y130.327 E4.26421 ; skirt
G1 X85.700 Y129.897 E4.28866 ; skirt
G1 X85.330 Y129.437 E4.31323 ; skirt
G1 X84.000 Y127.457 E4.41253 ; skirt
G1 X83.710 Y126.937 E4.43731 ; skirt
G1 X83.470 Y126.387 E4.46229 ; skirt
G1 X83.200 Y125.537 E4.49942 ; skirt
G1 X82.740 Y123.187 E4.59910 ; skirt
G1 X82.680 Y122.677 E4.62047 ; skirt
G1 X82.660 Y122.157 E4.64214 ; skirt
G1 X82.660 Y57.217 E7.34543 ; skirt
G1 X82.690 Y56.597 E7.37127 ; skirt
G1 X82.900 Y54.437 E7.46161 ; skirt
G1 X83.020 Y53.807 E7.48830 ; skirt
G1 X83.190 Y53.197 E7.51466 ; skirt
G1 X83.420 Y52.607 E7.54103 ; skirt
G1 X84.300 Y50.677 E7.62932 ; skirt
G1 X84.780 Y49.877 E7.66816 ; skirt
G1 X84.960 Y49.617 E7.68132 ; skirt
G1 X85.160 Y49.377 E7.69433 ; skirt
G1 X86.810 Y47.587 E7.79567 ; skirt
G1 X87.280 Y47.177 E7.82163 ; skirt
G1 X87.770 Y46.807 E7.84719 ; skirt
G1 X88.040 Y46.637 E7.86047 ; skirt
G1 X89.900 Y45.607 E7.94898 ; skirt
G1 X90.170 Y45.467 E7.96164 ; skirt
G1 X90.750 Y45.217 E7.98793 ; skirt
G1 X91.640 Y44.947 E8.02665 ; skirt
G1 X94.050 Y44.517 E8.12855 ; skirt
G1 X94.990 Y44.457 E8.16776 ; skirt
G1 X95.610 Y44.497 E8.19363 ; skirt
G1 X98.020 Y44.857 E8.29506 ; skirt
G1 X98.620 Y45.007 E8.32081 ; skirt
G1 X99.200 Y45.207 E8.34635 ; skirt
G1 X99.490 Y45.327 E8.35941 ; skirt
G1 X101.650 Y46.437 E8.46050 ; skirt
G1 X102.180 Y46.767 E8.48649 ; skirt
G1 X102.440 Y46.957 E8.49990 ; skirt
G1 X103.140 Y47.577 E8.53882 ; skirt
G1 X104.620 Y49.107 E8.62744 ; skirt
G1 X104.830 Y49.347 E8.64071 ; skirt
G1 X105.200 Y49.857 E8.66694 ; skirt
G1 X105.370 Y50.127 E8.68022 ; skirt
G1 X105.670 Y50.677 E8.70630 ; skirt
G1 X106.450 Y52.307 E8.78152 ; skirt
G1 X106.640 Y52.767 E8.80224 ; skirt
G1 X116.510 Y77.987 E9.92962 ; skirt
G1 X116.740 Y78.657 E9.95911 ; skirt
G1 X117.200 Y80.917 E10.05512 ; skirt
G1 X117.290 Y81.437 E10.07709 ; skirt
G1 X117.336 Y82.126 E10.10586 ; skirt
G1 X117.340 Y82.237 E10.11045 ; skirt
G1 F1800.000 E9.11045 ; retract
G92 E0 ; reset extrusion distance
G1 X103.200 Y116.003 F7800.000 ; move to first perimeter point
G1 F1800.000 E1.00000 ; compensate retraction
G1 X104.525 Y119.203 F540.000 E1.14419 ; perimeter
G1 X103.200 Y122.404 E1.28837 ; perimeter
G1 X100.000 Y123.729 E1.43256 ; perimeter
G1 X96.800 Y122.404 E1.57675 ; perimeter
G1 X95.475 Y119.204 E1.72093 ; perimeter
G1 X96.800 Y116.003 E1.86512 ; perimeter
G1 X100.000 Y114.678 E2.00931 ; perimeter
G1 X103.098 Y115.961 E2.14890 ; perimeter
G1 X103.200 Y116.003 E2.15349 ; perimeter
G1 X102.637 Y116.566 F7800.000 ; move to first perimeter point
G1 X103.729 Y119.203 F540.000 E2.27231 ; perimeter
G1 X102.637 Y121.841 E2.39113 ; perimeter
G1 X100.000 Y122.933 E2.50995 ; perimeter
G1 X97.363 Y121.841 E2.62877 ; perimeter
G1 X96.271 Y119.204 E2.74758 ; perimeter
G1 X97.363 Y116.566 E2.86640 ; perimeter
G1 X100.000 Y115.474 E2.98522 ; perimeter
G1 X102.535 Y116.524 E3.09945 ; perimeter
G1 X102.637 Y116.566 E3.10404 ; perimeter
G1 X102.074 Y117.129 F7800.000 ; move to first perimeter point
G1 X102.933 Y119.203 F540.000 E3.19749 ; perimeter
G1 X102.074 Y121.278 E3.29094 ; perimeter
G1 X100.000 Y122.136 E3.38439 ; perimeter
G1 X97.926 Y121.278 E3.47784 ; perimeter
G1 X97.067 Y119.204 E3.57129 ; perimeter
G1 X97.926 Y117.129 E3.66474 ; perimeter
G1 X100.000 Y116.271 E3.75819 ; perimeter
G1 X101.972 Y117.087 E3.84705 ; perimeter
G1 X102.074 Y117.129 E3.85164 ; perimeter
G1 X102.803 Y117.033 F7800.000 ; move inwards before travel
G1 F1800.000 E2.85164 ; retract
G92 E0 ; reset extrusion distance
G1 X109.129 Y82.388 F7800.000 ; move to first perimeter point
G1 F1800.000 E1.00000 ; compensate retraction
G1 X109.129 Y122.019 F540.000 E2.64974 ; perimeter
G1 X108.856 Y123.387 E2.70780 ; perimeter
G1 X108.187 Y124.390 E2.75801 ; perimeter
G1 X107.183 Y125.060 E2.80823 ; perimeter
G1 X105.815 Y125.332 E2.86629 ; perimeter
G1 X94.185 Y125.332 E3.35045 ; perimeter
G1 X92.817 Y125.060 E3.40851 ; perimeter
G1 X91.813 Y124.390 E3.45873 ; perimeter
G1 X91.144 Y123.387 E3.50895 ; perimeter
G1 X90.871 Y122.019 E3.56700 ; perimeter
G1 X90.871 Y57.294 E6.26136 ; perimeter
G1 X91.020 Y55.755 E6.32573 ; perimeter
G1 X91.564 Y54.541 E6.38108 ; perimeter
G1 X92.466 Y53.564 E6.43645 ; perimeter
G1 X93.633 Y52.925 E6.49181 ; perimeter
G1 X94.943 Y52.692 E6.54720 ; perimeter
G1 X96.258 Y52.888 E6.60256 ; perimeter
G1 X97.442 Y53.494 E6.65792 ; perimeter
G1 X98.371 Y54.446 E6.71329 ; perimeter
G1 X98.948 Y55.644 E6.76866 ; perimeter
G1 X99.114 Y56.964 E6.82405 ; perimeter
G1 X98.850 Y58.267 E6.87940 ; perimeter
G1 X98.049 Y59.651 E6.94595 ; perimeter
G1 X96.878 Y61.501 E7.03707 ; perimeter
G1 X96.429 Y63.861 E7.13709 ; perimeter
G1 X96.429 Y72.388 E7.49206 ; perimeter
G1 X96.918 Y74.846 E7.59639 ; perimeter
G1 X98.415 Y77.089 E7.70862 ; perimeter
G1 X100.657 Y78.585 E7.82085 ; perimeter
G1 X103.115 Y79.075 E7.92518 ; perimeter
G1 X105.815 Y79.075 E8.03758 ; perimeter
G1 X107.183 Y79.347 E8.09564 ; perimeter
G1 X108.187 Y80.017 E8.14585 ; perimeter
G1 X108.856 Y81.020 E8.19607 ; perimeter
G1 X109.107 Y82.280 E8.24954 ; perimeter
G1 X109.129 Y82.388 E8.25413 ; perimeter
G1 X109.864 Y82.315 F7800.000 ; move to first perimeter point
G1 X109.864 Y122.092 F540.000 E9.90991 ; perimeter
G1 X109.549 Y123.674 E9.97706 ; perimeter
G1 X108.717 Y124.921 E10.03947 ; perimeter
G1 X107.470 Y125.753 E10.10187 ; perimeter
G1 X105.888 Y126.068 E10.16903 ; perimeter
G1 X94.112 Y126.068 E10.65923 ; perimeter
G1 X92.530 Y125.753 E10.72639 ; perimeter
G1 X91.283 Y124.921 E10.78879 ; perimeter
G1 X90.451 Y123.674 E10.85120 ; perimeter
G1 X90.136 Y122.092 E10.91835 ; perimeter
G1 X90.136 Y57.258 E13.61720 ; perimeter
G1 X90.299 Y55.564 E13.68806 ; perimeter
G1 X90.941 Y54.130 E13.75345 ; perimeter
G1 X92.007 Y52.976 E13.81884 ; perimeter
G1 X93.385 Y52.222 E13.88423 ; perimeter
G1 X94.932 Y51.947 E13.94964 ; perimeter
G1 X96.486 Y52.178 E14.01502 ; perimeter
G1 X97.884 Y52.894 E14.08042 ; perimeter
G1 X98.982 Y54.018 E14.14581 ; perimeter
G1 X99.663 Y55.433 E14.21120 ; perimeter
G1 X99.859 Y56.992 E14.27661 ; perimeter
G1 X99.547 Y58.532 E14.34200 ; perimeter
G1 X98.678 Y60.032 E14.41417 ; perimeter
G1 X97.575 Y61.776 E14.50007 ; perimeter
G1 X97.164 Y63.930 E14.59137 ; perimeter
G1 X97.164 Y72.315 E14.94042 ; perimeter
G1 X97.611 Y74.559 E15.03567 ; perimeter
G1 X98.945 Y76.558 E15.13570 ; perimeter
G1 X100.944 Y77.892 E15.23574 ; perimeter
G1 X103.188 Y78.339 E15.33098 ; perimeter
G1 X105.888 Y78.339 E15.44338 ; perimeter
G1 X107.470 Y78.654 E15.51053 ; perimeter
G1 X108.717 Y79.486 E15.57294 ; perimeter
G1 X109.549 Y80.733 E15.63534 ; perimeter
G1 X109.843 Y82.207 E15.69790 ; perimeter
G1 X109.864 Y82.315 E15.70250 ; perimeter
G1 X110.600 Y82.243 F7800.000 ; move to first perimeter point
G1 X110.600 Y122.164 F540.000 E17.36431 ; perimeter
G1 X110.242 Y123.961 E17.44057 ; perimeter
G1 X109.248 Y125.451 E17.51516 ; perimeter
G1 X107.757 Y126.446 E17.58975 ; perimeter
G1 X105.961 Y126.804 E17.66601 ; perimeter
G1 X94.039 Y126.804 E18.16225 ; perimeter
G1 X92.243 Y126.446 E18.23850 ; perimeter
G1 X90.752 Y125.451 E18.31310 ; perimeter
G1 X89.758 Y123.961 E18.38769 ; perimeter
G1 X89.400 Y122.164 E18.46394 ; perimeter
G1 X89.400 Y57.223 E21.16729 ; perimeter
G1 X89.579 Y55.373 E21.24464 ; perimeter
G1 X90.319 Y53.720 E21.32006 ; perimeter
G1 X91.548 Y52.389 E21.39547 ; perimeter
G1 X93.138 Y51.519 E21.47089 ; perimeter
G1 X94.922 Y51.202 E21.54632 ; perimeter
G1 X96.713 Y51.468 E21.62172 ; perimeter
G1 X98.327 Y52.294 E21.69715 ; perimeter
G1 X99.592 Y53.590 E21.77257 ; perimeter
G1 X100.378 Y55.222 E21.84798 ; perimeter
G1 X100.604 Y57.020 E21.92342 ; perimeter
G1 X100.244 Y58.796 E21.99883 ; perimeter
G1 X99.308 Y60.413 E22.07662 ; perimeter
G1 X98.271 Y62.051 E22.15730 ; perimeter
G1 X97.900 Y64.000 E22.23989 ; perimeter
G1 X97.900 Y72.243 E22.58303 ; perimeter
G1 X98.304 Y74.272 E22.66918 ; perimeter
G1 X99.476 Y76.028 E22.75703 ; perimeter
G1 X101.231 Y77.199 E22.84488 ; perimeter
G1 X103.261 Y77.603 E22.93102 ; perimeter
G1 X105.961 Y77.603 E23.04341 ; perimeter
G1 X107.757 Y77.961 E23.11967 ; perimeter
G1 X109.248 Y78.956 E23.19426 ; perimeter
G1 X110.242 Y80.446 E23.26885 ; perimeter
G1 X110.578 Y82.135 E23.34051 ; perimeter
G1 X110.600 Y82.243 E23.34510 ; perimeter
G1 X109.988 Y82.652 F7800.000 ; move inwards before travel
G1 F1800.000 E22.34510 ; retract
G92 E0 ; reset extrusion distance
G1 X108.628 Y119.180 F7800.000 ; move to first fill point
G1 F1800.000 E1.00000 ; compensate retraction
G1 X91.373 Y101.925 F1080.000 E2.02349 ; fill
G1 X91.373 Y100.877 E2.06745 ; fill
G1 X108.628 Y118.132 E3.09095 ; fill
G1 X108.627 Y117.083 E3.13494 ; fill
G1 X91.373 Y99.828 E4.15840 ; fill
G1 X91.373 Y98.780 E4.20236 ; fill
G1 X108.627 Y116.035 E5.22583 ; fill
G1 X108.627 Y114.987 E5.26979 ; fill
G1 X91.373 Y97.732 E6.29327 ; fill
G1 X91.373 Y96.684 E6.33723 ; fill
G1 X108.627 Y113.939 E7.36071 ; fill
G1 X108.627 Y112.890 E7.40467 ; fill
G1 X91.373 Y95.636 E8.42815 ; fill
G1 X91.373 Y94.588 E8.47211 ; fill
G1 X108.627 Y111.842 E9.49559 ; fill
G1 X108.627 Y110.794 E9.53955 ; fill
G1 X91.373 Y93.539 E10.56303 ; fill
G1 X91.373 Y92.491 E10.60699 ; fill
G1 X108.627 Y109.746 E11.63047 ; fill
G1 X108.627 Y108.698 E11.67443 ; fill
G1 X91.373 Y91.443 E12.69791 ; fill
G1 X91.373 Y90.395 E12.74187 ; fill
G1 X108.627 Y107.649 E13.76535 ; fill
G1 X108.627 Y106.601 E13.80931 ; fill
G1 X91.373 Y89.346 E14.83279 ; fill
G1 X91.373 Y88.298 E14.87675 ; fill
G1 X108.627 Y105.553 E15.90023 ; fill
G1 X108.627 Y104.505 E15.94419 ; fill
G1 X91.373 Y87.250 E16.96766 ; fill
G1 X91.373 Y86.202 E17.01163 ; fill
G1 X108.627 Y103.457 E18.03510 ; fill
G1 X108.627 Y102.408 E18.07907 ; fill
G1 X91.373 Y85.154 E19.10254 ; fill
G1 X91.373 Y84.106 E19.14651 ; fill
G1 X108.627 Y101.360 E20.16998 ; fill
G1 X108.627 Y100.312 E20.21395 ; fill
G1 X91.373 Y83.057 E21.23742 ; fill
G1 X91.373 Y82.009 E21.28139 ; fill
G1 X108.627 Y99.264 E22.30486 ; fill
G1 X108.627 Y98.216 E22.34883 ; fill
G1 X91.373 Y80.961 E23.37230 ; fill
G1 X91.373 Y79.913 E23.41627 ; fill
G1 X108.627 Y97.167 E24.43974 ; fill
G1 X108.627 Y96.119 E24.48370 ; fill
G1 X91.373 Y78.865 E25.50717 ; fill
G1 X91.373 Y77.816 E25.55114 ; fill
G1 X108.627 Y95.071 E26.57461 ; fill
G1 X108.627 Y94.023 E26.61858 ; fill
G1 X91.373 Y76.768 E27.64205 ; fill
G1 X91.373 Y75.720 E27.68602 ; fill
G1 X108.627 Y92.975 E28.70949 ; fill
G1 X108.627 Y91.926 E28.75346 ; fill
G1 X91.373 Y74.672 E29.77693 ; fill
G1 X91.373 Y73.623 E29.82090 ; fill
G1 X108.627 Y90.878 E30.84437 ; fill
G1 X108.627 Y89.830 E30.88834 ; fill
G1 X91.373 Y72.575 E31.91181 ; fill
G1 X91.373 Y71.527 E31.95578 ; fill
G1 X108.627 Y88.782 E32.97925 ; fill
G1 X108.627 Y87.734 E33.02322 ; fill
G1 X99.539 Y78.645 E33.56229 ; fill
G1 X101.197 Y79.255 E33.63638 ; fill
G1 X108.627 Y86.685 E34.07711 ; fill
G1 X108.627 Y85.637 E34.12108 ; fill
G1 X102.506 Y79.516 E34.48417 ; fill
G1 X103.615 Y79.576 E34.53073 ; fill
G1 X108.627 Y84.589 E34.82807 ; fill
G1 X108.627 Y83.541 E34.87204 ; fill
G1 X104.663 Y79.576 E35.10720 ; fill
G1 X105.761 Y79.626 E35.15332 ; fill
G1 X108.577 Y82.442 E35.32034 ; fill
G1 F1800.000 E34.32034 ; retract
G92 E0 ; reset extrusion distance
G1 X103.607 Y122.544 F7800.000 ; move to first fill point
G1 F1800.000 E1.00000 ; compensate retraction
G1 X105.893 Y124.831 F1080.000 E1.13560 ; fill
G1 X106.781 Y124.671 E1.17346 ; fill
G1 X103.914 Y121.803 E1.34354 ; fill
G1 X104.221 Y121.062 E1.37719 ; fill
G1 X107.508 Y124.349 E1.57218 ; fill
G1 X108.055 Y123.848 E1.60330 ; fill
G1 X104.528 Y120.321 E1.81251 ; fill
G1 X104.835 Y119.580 E1.84616 ; fill
G1 X108.430 Y123.175 E2.05940 ; fill
G1 X108.604 Y122.301 E2.09678 ; fill
G1 X104.957 Y118.653 E2.31312 ; fill
G1 X104.216 Y116.864 E2.39434 ; fill
G1 X108.627 Y121.276 E2.65602 ; fill
G1 X108.627 Y120.228 E2.69998 ; fill
G1 X91.373 Y102.973 E3.72346 ; fill
G1 X91.373 Y104.021 E3.76742 ; fill
G1 X102.339 Y114.988 E4.41791 ; fill
G1 X100.550 Y114.247 E4.49912 ; fill
G1 X91.373 Y105.069 E5.04350 ; fill
G1 X91.373 Y106.118 E5.08746 ; fill
G1 X99.624 Y114.369 E5.57689 ; fill
G1 X98.883 Y114.676 E5.61054 ; fill
G1 X91.373 Y107.166 E6.05600 ; fill
G1 X91.373 Y108.214 E6.09996 ; fill
G1 X98.141 Y114.983 E6.50145 ; fill
G1 X97.400 Y115.290 E6.53511 ; fill
G1 X91.373 Y109.262 E6.89262 ; fill
G1 X91.373 Y110.310 E6.93659 ; fill
G1 X96.659 Y115.597 E7.25014 ; fill
G1 X96.242 Y116.228 F7800.000 ; move to first fill point
G1 X91.373 Y111.359 F1080.000 E7.53895 ; fill
G1 X91.373 Y112.407 E7.58291 ; fill
G1 X95.935 Y116.969 E7.85352 ; fill
G1 X95.628 Y117.710 E7.88717 ; fill
G1 X91.373 Y113.455 E8.13957 ; fill
G1 X91.373 Y114.503 E8.18353 ; fill
G1 X95.321 Y118.452 E8.41773 ; fill
G1 X95.014 Y119.193 E8.45138 ; fill
G1 X91.373 Y115.551 E8.66737 ; fill
G1 X91.373 Y116.600 E8.71134 ; fill
G1 X95.409 Y120.636 E8.95075 ; fill
G1 F1800.000 E7.95075 ; retract
G92 E0 ; reset extrusion distance
G1 X92.578 Y124.094 F7800.000 ; move to first fill point
G1 F1800.000 E1.00000 ; compensate retraction
G1 X92.109 Y123.625 F1080.000 E1.02781 ; fill
G1 X91.405 Y121.873 E1.10705 ; fill
G1 X94.331 Y124.799 E1.28063 ; fill
G1 X95.411 Y124.831 E1.32595 ; fill
G1 X91.373 Y120.792 E1.56549 ; fill
G1 X91.373 Y119.744 E1.60946 ; fill
G1 X96.459 Y124.831 E1.91117 ; fill
G1 X97.507 Y124.831 E1.95513 ; fill
G1 X91.373 Y118.696 E2.31902 ; fill
G1 X91.373 Y117.648 E2.36299 ; fill
G1 X96.149 Y122.425 E2.64633 ; fill
G1 X96.779 Y123.054 F7800.000 ; move to first fill point
G1 X98.556 Y124.831 F1080.000 E2.75172 ; fill
G1 X98.568 Y123.795 E2.79518 ; fill
G1 X99.604 Y124.831 E2.85663 ; fill
G1 X100.010 Y124.189 E2.88849 ; fill
G1 X100.652 Y124.831 E2.92653 ; fill
G1 X100.752 Y123.883 E2.96650 ; fill
G1 X101.701 Y124.831 E3.02275 ; fill
G1 X102.749 Y124.831 E3.06671 ; fill
G1 X101.493 Y123.576 E3.14116 ; fill
G1 X102.235 Y123.269 E3.17481 ; fill
