; generated by Slic3r 0.9.10b on 2013-09-15 at 15:44:40

; layer_height = 0.4
; perimeters = 3
; top_solid_layers = 3
; bottom_solid_layers = 3
; fill_density = 0.4
; perimeter_speed = 30
; infill_speed = 60
; travel_speed = 130
; nozzle_diameter = 0.5
; filament_diameter = 3
; extrusion_multiplier = 1
; perimeters extrusion width = 0.53mm
; infill extrusion width = 0.53mm
; solid infill extrusion width = 0.53mm
; top infill extrusion width = 0.53mm
; first layer extrusion width = 0.80mm

G21 ; set units to millimeters
M190 S60 ; wait for bed temperature to be reached
M104 S180 ; set temperature
G28 ; home all axes
G1 Z5 F5000 ; lift nozzle
G92 E0 ;reset extruder
M109 S180 ; wait for temperature to be reached
G90 ; use absolute coordinates
G92 E0 ; reset extrusion distance
M82 ; use absolute distances for extrusion
G1 F1800.000 E-1.00000 ; retract
G92 E0 ; reset extrusion distance
G1 Z0.400 F7800.000 ; move to next layer (0)
G1 X61.790 Y51.680 ; move to first skirt point
G1 F1800.000 E1.00000 ; compensate retraction
G1 X62.780 Y50.690 F540.000 E1.05828 ; skirt
G1 X63.800 Y49.850 E1.11329 ; skirt
G1 X64.960 Y49.230 E1.16804 ; skirt
G1 X66.230 Y48.840 E1.22334 ; skirt
G1 X67.540 Y48.710 E1.27814 ; skirt
G1 X132.440 Y48.710 E3.97977 ; skirt
G1 X133.750 Y48.840 E4.03457 ; skirt
G1 X135.000 Y49.220 E4.08896 ; skirt
G1 X136.160 Y49.840 E4.14371 ; skirt
G1 X137.180 Y50.660 E4.19819 ; skirt
G1 X138.190 Y51.660 E4.25735 ; skirt
G1 X139.040 Y52.690 E4.31294 ; skirt
G1 X139.670 Y53.860 E4.36826 ; skirt
G1 X140.050 Y55.130 E4.42344 ; skirt
G1 X140.190 Y56.450 E4.47870 ; skirt
G1 X140.190 Y121.540 E7.18824 ; skirt
G1 X140.060 Y122.850 E7.24304 ; skirt
G1 X139.670 Y124.120 E7.29834 ; skirt
G1 X139.050 Y125.280 E7.35309 ; skirt
G1 X138.210 Y126.300 E7.40810 ; skirt
G1 X137.200 Y127.310 E7.46756 ; skirt
G1 X136.180 Y128.150 E7.52256 ; skirt
G1 X135.020 Y128.770 E7.57731 ; skirt
G1 X133.750 Y129.160 E7.63262 ; skirt
G1 X132.440 Y129.290 E7.68742 ; skirt
G1 X67.550 Y129.290 E10.38863 ; skirt
G1 X66.230 Y129.150 E10.44389 ; skirt
G1 X64.960 Y128.770 E10.49907 ; skirt
G1 X63.790 Y128.140 E10.55438 ; skirt
G1 X62.760 Y127.290 E10.60998 ; skirt
G1 X61.760 Y126.280 E10.66914 ; skirt
G1 X60.940 Y125.260 E10.72362 ; skirt
G1 X60.320 Y124.100 E10.77837 ; skirt
G1 X59.940 Y122.850 E10.83276 ; skirt
G1 X59.810 Y121.540 E10.88756 ; skirt
G1 X59.810 Y56.440 E13.59751 ; skirt
G1 X59.940 Y55.130 E13.65231 ; skirt
G1 X60.330 Y53.860 E13.70762 ; skirt
G1 X60.950 Y52.700 E13.76237 ; skirt
G1 X61.720 Y51.765 E13.81278 ; skirt
G1 F1800.000 E12.81278 ; retract
G92 E0 ; reset extrusion distance
G1 X68.389 Y57.289 F7800.000 ; move to first perimeter point
G1 F1800.000 E1.00000 ; compensate retraction
G1 X131.611 Y57.289 F540.000 E3.63177 ; perimeter
G1 X131.611 Y120.711 E6.27187 ; perimeter
G1 X68.389 Y120.711 E8.90364 ; perimeter
G1 X68.389 Y57.399 E11.53915 ; perimeter
G1 F1800.000 E10.53915 ; retract
G92 E0 ; reset extrusion distance
G1 X67.653 Y121.093 F7800.000 ; move to first perimeter point
G1 F1800.000 E1.00000 ; compensate retraction
G1 X67.653 Y56.907 F540.000 E3.67190 ; perimeter
G1 X68.007 Y56.553 E3.69272 ; perimeter
G1 X131.993 Y56.553 E6.35629 ; perimeter
G1 X132.347 Y56.907 E6.37711 ; perimeter
G1 X132.347 Y121.093 E9.04901 ; perimeter
G1 X131.993 Y121.447 E9.06983 ; perimeter
G1 X68.007 Y121.447 E11.73341 ; perimeter
G1 X67.731 Y121.171 E11.74963 ; perimeter
G1 X66.918 Y121.398 F7800.000 ; move to first perimeter point
G1 X66.918 Y56.602 F540.000 E14.44690 ; perimeter
G1 X67.702 Y55.818 E14.49309 ; perimeter
G1 X132.298 Y55.818 E17.18203 ; perimeter
G1 X133.082 Y56.602 E17.22822 ; perimeter
G1 X133.082 Y121.398 E19.92549 ; perimeter
G1 X132.298 Y122.182 E19.97167 ; perimeter
G1 X67.702 Y122.182 E22.66062 ; perimeter
G1 X66.996 Y121.476 E22.70221 ; perimeter
G1 X67.438 Y120.877 F7800.000 ; move inwards before travel
G1 F1800.000 E21.70221 ; retract
G92 E0 ; reset extrusion distance
G1 X69.704 Y120.178 F7800.000 ; move to first fill point
G1 F1800.000 E1.00000 ; compensate retraction
G1 X68.922 Y119.396 F1080.000 E1.04603 ; fill
G1 X68.922 Y118.355 E1.08942 ; fill
G1 X70.745 Y120.178 E1.19680 ; fill
G1 X71.786 Y120.178 E1.24018 ; fill
G1 X68.922 Y117.314 E1.40892 ; fill
G1 X68.922 Y116.273 E1.45230 ; fill
G1 X72.827 Y120.178 E1.68239 ; fill
G1 X73.868 Y120.178 E1.72577 ; fill
G1 X68.922 Y115.232 E2.01722 ; fill
G1 X68.922 Y114.190 E2.06060 ; fill
G1 X74.910 Y120.178 E2.41339 ; fill
G1 X75.951 Y120.178 E2.45677 ; fill
G1 X68.922 Y113.149 E2.87091 ; fill
G1 X68.922 Y112.108 E2.91430 ; fill
G1 X76.992 Y120.178 E3.38979 ; fill
G1 X78.033 Y120.178 E3.43317 ; fill
G1 X68.922 Y111.067 E3.97002 ; fill
G1 X68.922 Y110.025 E4.01340 ; fill
G1 X79.075 Y120.178 E4.61160 ; fill
G1 X80.116 Y120.178 E4.65498 ; fill
G1 X68.922 Y108.984 E5.31453 ; fill
G1 X68.922 Y107.943 E5.35791 ; fill
G1 X81.157 Y120.178 E6.07881 ; fill
G1 X82.198 Y120.178 E6.12219 ; fill
G1 X68.922 Y106.902 E6.90445 ; fill
G1 X68.922 Y105.860 E6.94783 ; fill
G1 X83.240 Y120.178 E7.79143 ; fill
G1 X84.281 Y120.178 E7.83481 ; fill
G1 X68.922 Y104.819 E8.73977 ; fill
G1 X68.922 Y103.778 E8.78315 ; fill
G1 X85.322 Y120.178 E9.74946 ; fill
G1 X86.363 Y120.178 E9.79284 ; fill
G1 X68.922 Y102.737 E10.82050 ; fill
G1 X68.922 Y101.695 E10.86388 ; fill
G1 X87.405 Y120.178 E11.95289 ; fill
G1 X88.446 Y120.178 E11.99627 ; fill
G1 X68.922 Y100.654 E13.14663 ; fill
G1 X68.922 Y99.613 E13.19001 ; fill
G1 X89.487 Y120.178 E14.40173 ; fill
G1 X90.528 Y120.178 E14.44511 ; fill
G1 X68.922 Y98.572 E15.71817 ; fill
G1 X68.922 Y97.531 E15.76155 ; fill
G1 X91.569 Y120.178 E17.09597 ; fill
G1 X92.611 Y120.178 E17.13935 ; fill
G1 X68.922 Y96.489 E18.53512 ; fill
G1 X68.922 Y95.448 E18.57850 ; fill
G1 X93.652 Y120.178 E20.03562 ; fill
G1 X94.693 Y120.178 E20.07900 ; fill
G1 X68.922 Y94.407 E21.59747 ; fill
G1 X68.922 Y93.366 E21.64085 ; fill
G1 X95.734 Y120.178 E23.22067 ; fill
G1 X96.776 Y120.178 E23.26406 ; fill
G1 X68.922 Y92.324 E24.90523 ; fill
G1 X68.922 Y91.283 E24.94861 ; fill
G1 X97.817 Y120.178 E26.65113 ; fill
G1 X98.858 Y120.178 E26.69452 ; fill
G1 X68.922 Y90.242 E28.45839 ; fill
G1 X68.922 Y89.201 E28.50177 ; fill
G1 X99.899 Y120.178 E30.32700 ; fill
G1 X100.941 Y120.178 E30.37038 ; fill
G1 X68.922 Y88.159 E32.25696 ; fill
G1 X68.922 Y87.118 E32.30034 ; fill
G1 X101.982 Y120.178 E34.24827 ; fill
G1 X103.023 Y120.178 E34.29165 ; fill
G1 X68.922 Y86.077 E36.30094 ; fill
G1 X68.922 Y85.036 E36.34432 ; fill
G1 X104.064 Y120.178 E38.41495 ; fill
G1 X105.106 Y120.178 E38.45833 ; fill
G1 X68.922 Y83.994 E40.59032 ; fill
G1 X68.922 Y82.953 E40.63370 ; fill
G1 X106.147 Y120.178 E42.82703 ; fill
G1 X107.188 Y120.178 E42.87042 ; fill
G1 X68.922 Y81.912 E45.12510 ; fill
G1 X68.922 Y80.871 E45.16849 ; fill
G1 X108.229 Y120.178 E47.48452 ; fill
G1 X109.270 Y120.178 E47.52791 ; fill
G1 X68.922 Y79.830 E49.90530 ; fill
G1 X68.922 Y78.788 E49.94868 ; fill
G1 X110.312 Y120.178 E52.38742 ; fill
G1 X111.353 Y120.178 E52.43080 ; fill
G1 X68.922 Y77.747 E54.93090 ; fill
G1 X68.922 Y76.706 E54.97428 ; fill
G1 X112.394 Y120.178 E57.53572 ; fill
G1 X113.435 Y120.178 E57.57910 ; fill
G1 X68.922 Y75.665 E60.20190 ; fill
G1 X68.922 Y74.623 E60.24528 ; fill
G1 X114.477 Y120.178 E62.92943 ; fill
G1 X115.518 Y120.178 E62.97281 ; fill
G1 X68.922 Y73.582 E65.71831 ; fill
G1 X68.922 Y72.541 E65.76169 ; fill
G1 X116.559 Y120.178 E68.56854 ; fill
G1 X117.600 Y120.178 E68.61192 ; fill
G1 X68.922 Y71.500 E71.48013 ; fill
G1 X68.922 Y70.458 E71.52351 ; fill
G1 X118.642 Y120.178 E74.45306 ; fill
G1 X119.683 Y120.178 E74.49644 ; fill
G1 X68.922 Y69.417 E77.48735 ; fill
G1 X68.922 Y68.376 E77.53073 ; fill
G1 X120.724 Y120.178 E80.58299 ; fill
G1 X121.765 Y120.178 E80.62637 ; fill
G1 X68.922 Y67.335 E83.73998 ; fill
G1 X68.922 Y66.293 E83.78336 ; fill
G1 X122.807 Y120.178 E86.95832 ; fill
G1 X123.848 Y120.178 E87.00170 ; fill
G1 X68.922 Y65.252 E90.23801 ; fill
G1 X68.922 Y64.211 E90.28139 ; fill
G1 X124.889 Y120.178 E93.57905 ; fill
G1 X125.930 Y120.178 E93.62244 ; fill
G1 X68.922 Y63.170 E96.98145 ; fill
G1 X68.922 Y62.129 E97.02483 ; fill
G1 X126.971 Y120.178 E100.44520 ; fill
G1 X128.013 Y120.178 E100.48858 ; fill
G1 X68.922 Y61.087 E103.97030 ; fill
G1 X68.922 Y60.046 E104.01368 ; fill
G1 X129.054 Y120.178 E107.55675 ; fill
G1 X130.095 Y120.178 E107.60013 ; fill
G1 X68.922 Y59.005 E111.20455 ; fill
G1 X68.922 Y57.964 E111.24793 ; fill
G1 X131.078 Y120.119 E114.91024 ; fill
G1 X131.078 Y119.078 E114.95363 ; fill
G1 X69.822 Y57.822 E118.56292 ; fill
G1 X70.863 Y57.822 E118.60630 ; fill
G1 X131.078 Y118.037 E122.15424 ; fill
G1 X131.078 Y116.995 E122.19763 ; fill
G1 X71.905 Y57.822 E125.68422 ; fill
G1 X72.946 Y57.822 E125.72760 ; fill
G1 X131.078 Y115.954 E129.15284 ; fill
G1 X131.078 Y114.913 E129.19622 ; fill
G1 X73.987 Y57.822 E132.56011 ; fill
G1 X75.028 Y57.822 E132.60349 ; fill
G1 X131.078 Y113.872 E135.90603 ; fill
G1 X131.078 Y112.830 E135.94941 ; fill
G1 X76.070 Y57.822 E139.19059 ; fill
G1 X77.111 Y57.822 E139.23398 ; fill
G1 X131.078 Y111.789 E142.41381 ; fill
G1 X131.078 Y110.748 E142.45719 ; fill
G1 X78.152 Y57.822 E145.57567 ; fill
G1 X79.193 Y57.822 E145.61906 ; fill
G1 X131.078 Y109.707 E148.67619 ; fill
G1 X131.078 Y108.666 E148.71957 ; fill
G1 X80.234 Y57.822 E151.71535 ; fill
G1 X81.276 Y57.822 E151.75873 ; fill
G1 X131.078 Y107.624 E154.69316 ; fill
G1 X131.078 Y106.583 E154.73654 ; fill
G1 X82.317 Y57.822 E157.60961 ; fill
G1 X83.358 Y57.822 E157.65300 ; fill
G1 X131.078 Y105.542 E160.46472 ; fill
G1 X131.078 Y104.501 E160.50810 ; fill
G1 X84.399 Y57.822 E163.25848 ; fill
G1 X85.441 Y57.822 E163.30186 ; fill
G1 X131.078 Y103.459 E165.99088 ; fill
G1 X131.078 Y102.418 E166.03426 ; fill
G1 X86.482 Y57.822 E168.66193 ; fill
G1 X87.523 Y57.822 E168.70531 ; fill
G1 X131.078 Y101.377 E171.27163 ; fill
G1 X131.078 Y100.336 E171.31502 ; fill
G1 X88.564 Y57.822 E173.81998 ; fill
G1 X89.606 Y57.822 E173.86336 ; fill
G1 X131.078 Y99.294 E176.30698 ; fill
G1 X131.078 Y98.253 E176.35036 ; fill
G1 X90.647 Y57.822 E178.73263 ; fill
G1 X91.688 Y57.822 E178.77601 ; fill
G1 X131.078 Y97.212 E181.09692 ; fill
G1 X131.078 Y96.171 E181.14030 ; fill
G1 X92.729 Y57.822 E183.39987 ; fill
G1 X93.771 Y57.822 E183.44325 ; fill
G1 X131.078 Y95.129 E185.64146 ; fill
G1 X131.078 Y94.088 E185.68484 ; fill
G1 X94.812 Y57.822 E187.82170 ; fill
G1 X95.853 Y57.822 E187.86508 ; fill
G1 X131.078 Y93.047 E189.94059 ; fill
G1 X131.078 Y92.006 E189.98397 ; fill
G1 X96.894 Y57.822 E191.99813 ; fill
G1 X97.935 Y57.822 E192.04151 ; fill
G1 X131.078 Y90.965 E193.99431 ; fill
G1 X131.078 Y89.923 E194.03769 ; fill
G1 X98.977 Y57.822 E195.92915 ; fill
G1 X100.018 Y57.822 E195.97253 ; fill
G1 X131.078 Y88.882 E197.80263 ; fill
G1 X131.078 Y87.841 E197.84601 ; fill
G1 X101.059 Y57.822 E199.61476 ; fill
G1 X102.100 Y57.822 E199.65814 ; fill
G1 X131.078 Y86.800 E201.36554 ; fill
G1 X131.078 Y85.758 E201.40892 ; fill
G1 X103.142 Y57.822 E203.05497 ; fill
G1 X104.183 Y57.822 E203.09835 ; fill
G1 X131.078 Y84.717 E204.68305 ; fill
G1 X131.078 Y83.676 E204.72643 ; fill
G1 X105.224 Y57.822 E206.24977 ; fill
G1 X106.265 Y57.822 E206.29316 ; fill
G1 X131.078 Y82.635 E207.75515 ; fill
G1 X131.078 Y81.593 E207.79853 ; fill
G1 X107.307 Y57.822 E209.19917 ; fill
G1 X108.348 Y57.822 E209.24255 ; fill
G1 X131.078 Y80.552 E210.58184 ; fill
G1 X131.078 Y79.511 E210.62522 ; fill
G1 X109.389 Y57.822 E211.90316 ; fill
G1 X110.430 Y57.822 E211.94654 ; fill
G1 X131.078 Y78.470 E213.16313 ; fill
G1 X131.078 Y77.428 E213.20651 ; fill
G1 X111.472 Y57.822 E214.36175 ; fill
G1 X112.513 Y57.822 E214.40513 ; fill
G1 X131.078 Y76.387 E215.49901 ; fill
G1 X131.078 Y75.346 E215.54240 ; fill
G1 X113.554 Y57.822 E216.57493 ; fill
G1 X114.595 Y57.822 E216.61831 ; fill
G1 X131.078 Y74.305 E217.58949 ; fill
G1 X131.078 Y73.264 E217.63287 ; fill
G1 X115.636 Y57.822 E218.54270 ; fill
G1 X116.678 Y57.822 E218.58608 ; fill
G1 X131.078 Y72.222 E219.43456 ; fill
G1 X131.078 Y71.181 E219.47794 ; fill
G1 X117.719 Y57.822 E220.26507 ; fill
G1 X118.760 Y57.822 E220.30845 ; fill
G1 X131.078 Y70.140 E221.03423 ; fill
G1 X131.078 Y69.099 E221.07761 ; fill
G1 X119.801 Y57.822 E221.74203 ; fill
G1 X120.843 Y57.822 E221.78541 ; fill
G1 X131.078 Y68.057 E222.38849 ; fill
G1 X131.078 Y67.016 E222.43187 ; fill
G1 X121.884 Y57.822 E222.97359 ; fill
G1 X122.925 Y57.822 E223.01697 ; fill
G1 X131.078 Y65.975 E223.49734 ; fill
G1 X131.078 Y64.934 E223.54072 ; fill
G1 X123.966 Y57.822 E223.95974 ; fill
G1 X125.008 Y57.822 E224.00312 ; fill
G1 X131.078 Y63.892 E224.36079 ; fill
G1 X131.078 Y62.851 E224.40417 ; fill
G1 X126.049 Y57.822 E224.70048 ; fill
G1 X127.090 Y57.822 E224.74387 ; fill
G1 X131.078 Y61.810 E224.97883 ; fill
G1 X131.078 Y60.769 E225.02221 ; fill
G1 X128.131 Y57.822 E225.19582 ; fill
G1 X129.173 Y57.822 E225.23921 ; fill
G1 X131.078 Y59.727 E225.35147 ; fill
G1 X131.078 Y58.686 E225.39485 ; fill
G1 X130.214 Y57.822 E225.44576 ; fill
M104 S175 ; set temperature
G1 F1800.000 E224.44576 ; retract
G92 E0 ; reset extrusion distance
G1 Z0.800 F7800.000 ; move to next layer (1)
G1 X131.912 Y56.749 ; move to first perimeter point
G1 F1800.000 E1.00000 ; compensate retraction
G1 X132.151 Y56.988 F1800.000 E1.00994 ; perimeter
G1 X132.151 Y121.012 E2.89258 ; perimeter
G1 X131.912 Y121.251 E2.90252 ; perimeter
G1 X68.088 Y121.251 E4.77928 ; perimeter
G1 X67.849 Y121.012 E4.78922 ; perimeter
G1 X67.849 Y56.988 E6.67186 ; perimeter
G1 X68.088 Y56.749 E6.68180 ; perimeter
G1 X131.834 Y56.749 E8.55627 ; perimeter
G1 F1800.000 E7.55627 ; retract
G92 E0 ; reset extrusion distance
G1 X67.329 Y56.773 F7800.000 ; move to first perimeter point
G1 F1800.000 E1.00000 ; compensate retraction
G1 X67.873 Y56.229 F1800.000 E1.02260 ; perimeter
G1 X132.127 Y56.229 E2.91202 ; perimeter
G1 X132.671 Y56.773 E2.93461 ; perimeter
G1 X132.671 Y121.227 E4.82991 ; perimeter
G1 X132.127 Y121.771 E4.85251 ; perimeter
G1 X67.873 Y121.771 E6.74193 ; perimeter
G1 X67.329 Y121.227 E6.76453 ; perimeter
G1 X67.329 Y56.851 E8.65753 ; perimeter
G1 X66.810 Y56.558 F7800.000 ; move to first perimeter point
G1 X67.658 Y55.710 F1800.000 E8.69279 ; perimeter
G1 X132.342 Y55.710 E10.59487 ; perimeter
G1 X133.190 Y56.558 E10.63012 ; perimeter
G1 X133.190 Y121.442 E12.53808 ; perimeter
G1 X132.342 Y122.290 E12.57334 ; perimeter
G1 X67.658 Y122.290 E14.47541 ; perimeter
G1 X66.810 Y121.442 E14.51067 ; perimeter
G1 X66.810 Y56.636 E16.41633 ; perimeter
G1 X67.329 Y56.558 F7800.000 ; move inwards before travel
G1 X68.226 Y57.461 ; move to first fill point
G1 X68.561 Y57.126 F3600.000 E16.43032 ; fill
G1 X69.298 Y57.126 E16.45207 ; fill
G1 X68.226 Y58.198 E16.49683 ; fill
G1 X68.226 Y58.936 E16.51858 ; fill
G1 X70.036 Y57.126 E16.59410 ; fill
G1 X70.773 Y57.126 E16.61586 ; fill
G1 X68.226 Y59.673 E16.72215 ; fill
G1 X68.226 Y60.410 E16.74390 ; fill
G1 X71.510 Y57.126 E16.88096 ; fill
G1 X72.248 Y57.126 E16.90272 ; fill
G1 X68.226 Y61.148 E17.07054 ; fill
G1 X68.226 Y61.885 E17.09230 ; fill
G1 X72.985 Y57.126 E17.29089 ; fill
G1 X73.722 Y57.126 E17.31265 ; fill
G1 X68.226 Y62.622 E17.54201 ; fill
G1 X68.226 Y63.360 E17.56376 ; fill
G1 X74.460 Y57.126 E17.82389 ; fill
G1 X75.197 Y57.126 E17.84565 ; fill
G1 X68.226 Y64.097 E18.13655 ; fill
G1 X68.226 Y64.835 E18.15830 ; fill
G1 X75.935 Y57.126 E18.47997 ; fill
G1 X76.672 Y57.126 E18.50173 ; fill
G1 X68.226 Y65.572 E18.85416 ; fill
G1 X68.226 Y66.309 E18.87592 ; fill
G1 X77.409 Y57.126 E19.25912 ; fill
G1 X78.147 Y57.126 E19.28087 ; fill
G1 X68.226 Y67.047 E19.69484 ; fill
G1 X68.226 Y67.784 E19.71660 ; fill
G1 X78.884 Y57.126 E20.16134 ; fill
G1 X79.621 Y57.126 E20.18310 ; fill
G1 X68.226 Y68.521 E20.65860 ; fill
G1 X68.226 Y69.259 E20.68036 ; fill
G1 X80.359 Y57.126 E21.18664 ; fill
G1 X81.096 Y57.126 E21.20839 ; fill
G1 X68.226 Y69.996 E21.74543 ; fill
G1 X68.226 Y70.734 E21.76719 ; fill
G1 X81.834 Y57.126 E22.33500 ; fill
G1 X82.571 Y57.126 E22.35676 ; fill
G1 X68.226 Y71.471 E22.95534 ; fill
G1 X68.226 Y72.208 E22.97710 ; fill
G1 X83.308 Y57.126 E23.60644 ; fill
