; generated by Slic3r 0.9.10b on 2013-09-14 at 23:36:34

; layer_height = 0.4
; perimeters = 3
; top_solid_layers = 3
; bottom_solid_layers = 3
; fill_density = 0.4
; perimeter_speed = 30
; infill_speed = 60
; travel_speed = 130
; nozzle_diameter = 0.5
; filament_diameter = 3
; extrusion_multiplier = 1
; perimeters extrusion width = 0.53mm
; infill extrusion width = 0.53mm
; solid infill extrusion width = 0.53mm
; top infill extrusion width = 0.53mm
; first layer extrusion width = 0.80mm

G21 ; set units to millimeters
M190 S60 ; wait for bed temperature to be reached
M104 S180 ; set temperature
G28 ; home all axes
G1 Z5 F5000 ; lift nozzle
G92 E0 ;reset extruder
M109 S180 ; wait for temperature to be reached
G90 ; use absolute coordinates
G92 E0 ; reset extrusion distance
M82 ; use absolute distances for extrusion
G1 F1800.000 E-1.00000 ; retract
G92 E0 ; reset extrusion distance
G1 Z0.400 F7800.000 ; move to next layer (0)
G1 X62.290 Y51.190 ; move to first skirt point
G1 F1800.000 E1.00000 ; compensate retraction
G1 X63.310 Y50.350 F540.000 E1.05501 ; skirt
G1 X64.470 Y49.730 E1.10976 ; skirt
G1 X65.740 Y49.340 E1.16506 ; skirt
G1 X67.050 Y49.210 E1.21986 ; skirt
G1 X132.950 Y49.210 E3.96312 ; skirt
G1 X134.260 Y49.340 E4.01792 ; skirt
G1 X135.530 Y49.730 E4.07322 ; skirt
G1 X136.690 Y50.350 E4.12797 ; skirt
G1 X137.710 Y51.190 E4.18298 ; skirt
G1 X138.550 Y52.210 E4.23798 ; skirt
G1 X139.170 Y53.370 E4.29273 ; skirt
G1 X139.560 Y54.640 E4.34804 ; skirt
G1 X139.690 Y55.950 E4.40284 ; skirt
G1 X139.690 Y122.050 E7.15442 ; skirt
G1 X139.560 Y123.360 E7.20922 ; skirt
G1 X139.170 Y124.630 E7.26452 ; skirt
G1 X138.550 Y125.790 E7.31928 ; skirt
G1 X137.710 Y126.810 E7.37428 ; skirt
G1 X136.690 Y127.650 E7.42929 ; skirt
G1 X135.530 Y128.270 E7.48404 ; skirt
G1 X134.260 Y128.660 E7.53934 ; skirt
G1 X132.950 Y128.790 E7.59414 ; skirt
G1 X67.050 Y128.790 E10.33740 ; skirt
G1 X65.740 Y128.660 E10.39220 ; skirt
G1 X64.470 Y128.270 E10.44750 ; skirt
G1 X63.310 Y127.650 E10.50225 ; skirt
G1 X62.290 Y126.810 E10.55726 ; skirt
G1 X61.450 Y125.790 E10.61226 ; skirt
G1 X60.830 Y124.630 E10.66702 ; skirt
G1 X60.440 Y123.360 E10.72232 ; skirt
G1 X60.310 Y122.050 E10.77712 ; skirt
G1 X60.310 Y55.950 E13.52870 ; skirt
G1 X60.440 Y54.640 E13.58350 ; skirt
G1 X60.830 Y53.370 E13.63880 ; skirt
G1 X61.450 Y52.210 E13.69356 ; skirt
G1 X62.220 Y51.275 E13.74397 ; skirt
G1 F1800.000 E12.74397 ; retract
G92 E0 ; reset extrusion distance
G1 X68.889 Y57.789 F7800.000 ; move to first perimeter point
G1 F1800.000 E1.00000 ; compensate retraction
G1 X131.111 Y57.789 F540.000 E3.59015 ; perimeter
G1 X131.111 Y120.211 E6.18862 ; perimeter
G1 X68.889 Y120.211 E8.77876 ; perimeter
G1 X68.889 Y57.899 E11.37264 ; perimeter
G1 F1800.000 E10.37264 ; retract
G92 E0 ; reset extrusion distance
G1 X68.153 Y120.947 F7800.000 ; move to first perimeter point
G1 F1800.000 E1.00000 ; compensate retraction
G1 X68.153 Y57.053 F540.000 E3.65971 ; perimeter
G1 X131.847 Y57.053 E6.31110 ; perimeter
G1 X131.847 Y120.947 E8.97082 ; perimeter
G1 X68.264 Y120.947 E11.61761 ; perimeter
G1 X67.418 Y121.682 F7800.000 ; move to first perimeter point
G1 X67.418 Y56.318 F540.000 E14.33857 ; perimeter
G1 X132.582 Y56.318 E17.05121 ; perimeter
G1 X132.582 Y121.682 E19.77216 ; perimeter
G1 X67.528 Y121.682 E22.48020 ; perimeter
G1 X67.786 Y121.045 F7800.000 ; move inwards before travel
G1 F1800.000 E21.48020 ; retract
G92 E0 ; reset extrusion distance
G1 X69.628 Y119.678 F7800.000 ; move to first fill point
G1 F1800.000 E1.00000 ; compensate retraction
G1 X69.422 Y119.472 F1080.000 E1.01212 ; fill
G1 X69.422 Y118.429 E1.05564 ; fill
G1 X70.671 Y119.678 E1.12931 ; fill
G1 X71.713 Y119.678 E1.17283 ; fill
G1 X69.422 Y117.387 E1.30804 ; fill
G1 X69.422 Y116.344 E1.35156 ; fill
G1 X72.756 Y119.678 E1.54832 ; fill
G1 X73.799 Y119.678 E1.59184 ; fill
G1 X69.422 Y115.301 E1.85015 ; fill
G1 X69.422 Y114.258 E1.89367 ; fill
G1 X74.842 Y119.678 E2.21352 ; fill
G1 X75.885 Y119.678 E2.25704 ; fill
G1 X69.422 Y113.215 E2.63843 ; fill
G1 X69.422 Y112.172 E2.68195 ; fill
G1 X76.928 Y119.678 E3.12490 ; fill
G1 X77.971 Y119.678 E3.16842 ; fill
G1 X69.422 Y111.129 E3.67291 ; fill
G1 X69.422 Y110.086 E3.71643 ; fill
G1 X79.014 Y119.678 E4.28246 ; fill
G1 X80.056 Y119.678 E4.32598 ; fill
G1 X69.422 Y109.044 E4.95356 ; fill
G1 X69.422 Y108.001 E4.99708 ; fill
G1 X81.099 Y119.678 E5.68621 ; fill
G1 X82.142 Y119.678 E5.72973 ; fill
G1 X69.422 Y106.958 E6.48040 ; fill
G1 X69.422 Y105.915 E6.52392 ; fill
G1 X83.185 Y119.678 E7.33614 ; fill
G1 X84.228 Y119.678 E7.37966 ; fill
G1 X69.422 Y104.872 E8.25343 ; fill
G1 X69.422 Y103.829 E8.29695 ; fill
G1 X85.271 Y119.678 E9.23226 ; fill
G1 X86.314 Y119.678 E9.27578 ; fill
G1 X69.422 Y102.786 E10.27264 ; fill
G1 X69.422 Y101.743 E10.31616 ; fill
G1 X87.357 Y119.678 E11.37456 ; fill
G1 X88.400 Y119.678 E11.41808 ; fill
G1 X69.422 Y100.700 E12.53803 ; fill
G1 X69.422 Y99.658 E12.58155 ; fill
G1 X89.442 Y119.678 E13.76304 ; fill
G1 X90.485 Y119.678 E13.80656 ; fill
G1 X69.422 Y98.615 E15.04961 ; fill
G1 X69.422 Y97.572 E15.09313 ; fill
G1 X91.528 Y119.678 E16.39771 ; fill
G1 X92.571 Y119.678 E16.44123 ; fill
G1 X69.422 Y96.529 E17.80737 ; fill
G1 X69.422 Y95.486 E17.85089 ; fill
G1 X93.614 Y119.678 E19.27857 ; fill
G1 X94.657 Y119.678 E19.32209 ; fill
G1 X69.422 Y94.443 E20.81131 ; fill
G1 X69.422 Y93.400 E20.85483 ; fill
G1 X95.700 Y119.678 E22.40560 ; fill
G1 X96.743 Y119.678 E22.44912 ; fill
G1 X69.422 Y92.357 E24.06144 ; fill
G1 X69.422 Y91.314 E24.10496 ; fill
G1 X97.786 Y119.678 E25.77882 ; fill
G1 X98.828 Y119.678 E25.82234 ; fill
G1 X69.422 Y90.272 E27.55775 ; fill
G1 X69.422 Y89.229 E27.60127 ; fill
G1 X99.871 Y119.678 E29.39823 ; fill
G1 X100.914 Y119.678 E29.44175 ; fill
G1 X69.422 Y88.186 E31.30025 ; fill
G1 X69.422 Y87.143 E31.34377 ; fill
G1 X101.957 Y119.678 E33.26382 ; fill
G1 X103.000 Y119.678 E33.30734 ; fill
G1 X69.422 Y86.100 E35.28893 ; fill
G1 X69.422 Y85.057 E35.33245 ; fill
G1 X104.043 Y119.678 E37.37559 ; fill
G1 X105.086 Y119.678 E37.41911 ; fill
G1 X69.422 Y84.014 E39.52380 ; fill
G1 X69.422 Y82.971 E39.56732 ; fill
G1 X106.129 Y119.678 E41.73355 ; fill
G1 X107.171 Y119.678 E41.77707 ; fill
G1 X69.422 Y81.929 E44.00485 ; fill
G1 X69.422 Y80.886 E44.04837 ; fill
G1 X108.214 Y119.678 E46.33769 ; fill
G1 X109.257 Y119.678 E46.38121 ; fill
G1 X69.422 Y79.843 E48.73208 ; fill
G1 X69.422 Y78.800 E48.77560 ; fill
G1 X110.300 Y119.678 E51.18801 ; fill
G1 X111.343 Y119.678 E51.23153 ; fill
G1 X69.422 Y77.757 E53.70550 ; fill
G1 X69.422 Y76.714 E53.74902 ; fill
G1 X112.386 Y119.678 E56.28452 ; fill
G1 X113.429 Y119.678 E56.32804 ; fill
G1 X69.422 Y75.671 E58.92510 ; fill
G1 X69.422 Y74.628 E58.96862 ; fill
G1 X114.472 Y119.678 E61.62722 ; fill
G1 X115.515 Y119.678 E61.67074 ; fill
G1 X69.422 Y73.585 E64.39088 ; fill
G1 X69.422 Y72.543 E64.43440 ; fill
G1 X116.557 Y119.678 E67.21609 ; fill
G1 X117.600 Y119.678 E67.25961 ; fill
G1 X69.422 Y71.500 E70.10285 ; fill
G1 X69.422 Y70.457 E70.14637 ; fill
G1 X118.643 Y119.678 E73.05116 ; fill
G1 X119.686 Y119.678 E73.09468 ; fill
G1 X69.422 Y69.414 E76.06101 ; fill
G1 X69.422 Y68.371 E76.10453 ; fill
G1 X120.729 Y119.678 E79.13240 ; fill
G1 X121.772 Y119.678 E79.17592 ; fill
G1 X69.422 Y67.328 E82.26534 ; fill
G1 X69.422 Y66.285 E82.30886 ; fill
G1 X122.815 Y119.678 E85.45983 ; fill
G1 X123.858 Y119.678 E85.50335 ; fill
G1 X69.422 Y65.242 E88.71586 ; fill
G1 X69.422 Y64.199 E88.75938 ; fill
G1 X124.901 Y119.678 E92.03344 ; fill
G1 X125.943 Y119.678 E92.07696 ; fill
G1 X69.422 Y63.157 E95.41257 ; fill
G1 X69.422 Y62.114 E95.45609 ; fill
G1 X126.986 Y119.678 E98.85324 ; fill
G1 X128.029 Y119.678 E98.89676 ; fill
G1 X69.422 Y61.071 E102.35546 ; fill
G1 X69.422 Y60.028 E102.39898 ; fill
G1 X129.072 Y119.678 E105.91922 ; fill
G1 X130.115 Y119.678 E105.96274 ; fill
G1 X69.422 Y58.985 E109.54453 ; fill
G1 X69.802 Y58.322 E109.57642 ; fill
G1 X130.578 Y119.098 E113.16309 ; fill
G1 X130.578 Y118.055 E113.20661 ; fill
G1 X70.845 Y58.322 E116.73174 ; fill
G1 X71.888 Y58.322 E116.77526 ; fill
G1 X130.578 Y117.012 E120.23884 ; fill
G1 X130.578 Y115.969 E120.28236 ; fill
G1 X72.931 Y58.322 E123.68439 ; fill
G1 X73.974 Y58.322 E123.72791 ; fill
G1 X130.578 Y114.926 E127.06840 ; fill
G1 X130.578 Y113.883 E127.11192 ; fill
G1 X75.017 Y58.322 E130.39086 ; fill
G1 X76.060 Y58.322 E130.43438 ; fill
G1 X130.578 Y112.840 E133.65178 ; fill
G1 X130.578 Y111.797 E133.69530 ; fill
G1 X77.103 Y58.322 E136.85115 ; fill
G1 X78.145 Y58.322 E136.89467 ; fill
G1 X130.578 Y110.755 E139.98897 ; fill
G1 X130.578 Y109.712 E140.03249 ; fill
G1 X79.188 Y58.322 E143.06525 ; fill
G1 X80.231 Y58.322 E143.10877 ; fill
G1 X130.578 Y108.669 E146.07998 ; fill
G1 X130.578 Y107.626 E146.12350 ; fill
G1 X81.274 Y58.322 E149.03317 ; fill
G1 X82.317 Y58.322 E149.07669 ; fill
G1 X130.578 Y106.583 E151.92481 ; fill
G1 X130.578 Y105.540 E151.96832 ; fill
G1 X83.360 Y58.322 E154.75490 ; fill
G1 X84.403 Y58.322 E154.79842 ; fill
G1 X130.578 Y104.497 E157.52345 ; fill
G1 X130.578 Y103.454 E157.56697 ; fill
G1 X85.446 Y58.322 E160.23045 ; fill
G1 X86.488 Y58.322 E160.27397 ; fill
G1 X130.578 Y102.412 E162.87590 ; fill
G1 X130.578 Y101.369 E162.91942 ; fill
G1 X87.531 Y58.322 E165.45981 ; fill
G1 X88.574 Y58.322 E165.50333 ; fill
G1 X130.578 Y100.326 E167.98218 ; fill
G1 X130.578 Y99.283 E168.02570 ; fill
G1 X89.617 Y58.322 E170.44300 ; fill
G1 X90.660 Y58.322 E170.48652 ; fill
G1 X130.578 Y98.240 E172.84227 ; fill
G1 X130.578 Y97.197 E172.88579 ; fill
G1 X91.703 Y58.322 E175.17999 ; fill
G1 X92.746 Y58.322 E175.22351 ; fill
G1 X130.578 Y96.154 E177.45617 ; fill
G1 X130.578 Y95.111 E177.49969 ; fill
G1 X93.789 Y58.322 E179.67081 ; fill
G1 X94.832 Y58.322 E179.71433 ; fill
G1 X130.578 Y94.068 E181.82389 ; fill
G1 X130.578 Y93.026 E181.86741 ; fill
G1 X95.874 Y58.322 E183.91544 ; fill
G1 X96.917 Y58.322 E183.95896 ; fill
G1 X130.578 Y91.983 E185.94543 ; fill
G1 X130.578 Y90.940 E185.98895 ; fill
G1 X97.960 Y58.322 E187.91388 ; fill
G1 X99.003 Y58.322 E187.95740 ; fill
G1 X130.578 Y89.897 E189.82079 ; fill
G1 X130.578 Y88.854 E189.86430 ; fill
G1 X100.046 Y58.322 E191.66614 ; fill
G1 X101.089 Y58.322 E191.70966 ; fill
G1 X130.578 Y87.811 E193.44995 ; fill
G1 X130.578 Y86.768 E193.49347 ; fill
G1 X102.132 Y58.322 E195.17222 ; fill
G1 X103.175 Y58.322 E195.21574 ; fill
G1 X130.578 Y85.725 E196.83294 ; fill
G1 X130.578 Y84.682 E196.87646 ; fill
G1 X104.218 Y58.322 E198.43211 ; fill
G1 X105.260 Y58.322 E198.47563 ; fill
G1 X130.578 Y83.640 E199.96974 ; fill
G1 X130.578 Y82.597 E200.01326 ; fill
G1 X106.303 Y58.322 E201.44582 ; fill
G1 X107.346 Y58.322 E201.48934 ; fill
G1 X130.578 Y81.554 E202.86036 ; fill
G1 X130.578 Y80.511 E202.90388 ; fill
G1 X108.389 Y58.322 E204.21335 ; fill
G1 X109.432 Y58.322 E204.25687 ; fill
G1 X130.578 Y79.468 E205.50479 ; fill
G1 X130.578 Y78.425 E205.54831 ; fill
G1 X110.475 Y58.322 E206.73469 ; fill
G1 X111.518 Y58.322 E206.77821 ; fill
G1 X130.578 Y77.382 E207.90304 ; fill
G1 X130.578 Y76.339 E207.94656 ; fill
G1 X112.561 Y58.322 E209.00985 ; fill
G1 X113.603 Y58.322 E209.05336 ; fill
G1 X130.578 Y75.297 E210.05510 ; fill
G1 X130.578 Y74.254 E210.09862 ; fill
G1 X114.646 Y58.322 E211.03882 ; fill
G1 X115.689 Y58.322 E211.08234 ; fill
G1 X130.578 Y73.211 E211.96099 ; fill
G1 X130.578 Y72.168 E212.00451 ; fill
G1 X116.732 Y58.322 E212.82161 ; fill
G1 X117.775 Y58.322 E212.86513 ; fill
G1 X130.578 Y71.125 E213.62068 ; fill
G1 X130.578 Y70.082 E213.66420 ; fill
G1 X118.818 Y58.322 E214.35821 ; fill
G1 X119.861 Y58.322 E214.40173 ; fill
G1 X130.578 Y69.039 E215.03419 ; fill
G1 X130.578 Y67.996 E215.07771 ; fill
G1 X120.904 Y58.322 E215.64863 ; fill
G1 X121.947 Y58.322 E215.69215 ; fill
G1 X130.578 Y66.953 E216.20152 ; fill
G1 X130.578 Y65.911 E216.24504 ; fill
G1 X122.989 Y58.322 E216.69287 ; fill
G1 X124.032 Y58.322 E216.73639 ; fill
G1 X130.578 Y64.868 E217.12267 ; fill
G1 X130.578 Y63.825 E217.16619 ; fill
G1 X125.075 Y58.322 E217.49092 ; fill
G1 X126.118 Y58.322 E217.53444 ; fill
G1 X130.578 Y62.782 E217.79763 ; fill
G1 X130.578 Y61.739 E217.84115 ; fill
G1 X127.161 Y58.322 E218.04279 ; fill
G1 X128.204 Y58.322 E218.08631 ; fill
G1 X130.578 Y60.696 E218.22640 ; fill
G1 X130.578 Y59.653 E218.26992 ; fill
G1 X129.247 Y58.322 E218.34847 ; fill
G1 X130.290 Y58.322 E218.39199 ; fill
G1 X130.578 Y58.610 E218.40900 ; fill
M104 S175 ; set temperature
G1 F1800.000 E217.40900 ; retract
G92 E0 ; reset extrusion distance
G1 Z0.800 F7800.000 ; move to next layer (1)
G1 X131.651 Y57.249 ; move to first perimeter point
G1 F1800.000 E1.00000 ; compensate retraction
G1 X131.651 Y120.751 F1800.000 E2.86729 ; perimeter
G1 X68.349 Y120.751 E4.72870 ; perimeter
G1 X68.349 Y57.249 E6.59599 ; perimeter
G1 X131.573 Y57.249 E8.45511 ; perimeter
G1 F1800.000 E7.45511 ; retract
G92 E0 ; reset extrusion distance
G1 X67.829 Y121.271 F7800.000 ; move to first perimeter point
G1 F1800.000 E1.00000 ; compensate retraction
G1 X67.829 Y56.729 F1800.000 E2.89785 ; perimeter
G1 X132.171 Y56.729 E4.78982 ; perimeter
G1 X132.171 Y121.271 E6.68767 ; perimeter
G1 X67.907 Y121.271 E8.57735 ; perimeter
G1 X67.310 Y121.790 F7800.000 ; move to first perimeter point
G1 X67.310 Y56.210 F1800.000 E10.50576 ; perimeter
G1 X132.690 Y56.210 E12.42830 ; perimeter
G1 X132.690 Y121.790 E14.35671 ; perimeter
G1 X67.388 Y121.790 E16.27695 ; perimeter
G1 X67.570 Y121.340 F7800.000 ; move inwards before travel
G1 F1800.000 E15.27695 ; retract
G92 E0 ; reset extrusion distance
G1 X68.726 Y57.949 F7800.000 ; move to first fill point
G1 F1800.000 E1.00000 ; compensate retraction
G1 X69.049 Y57.626 F3600.000 E1.01343 ; fill
G1 X69.784 Y57.626 E1.03505 ; fill
G1 X68.726 Y58.684 E1.07905 ; fill
G1 X68.726 Y59.419 E1.10066 ; fill
G1 X70.519 Y57.626 E1.17522 ; fill
G1 X71.254 Y57.626 E1.19684 ; fill
G1 X68.726 Y60.154 E1.30197 ; fill
G1 X68.726 Y60.888 E1.32358 ; fill
G1 X71.988 Y57.626 E1.45928 ; fill
G1 X72.723 Y57.626 E1.48089 ; fill
G1 X68.726 Y61.623 E1.64716 ; fill
G1 X68.726 Y62.358 E1.66877 ; fill
G1 X73.458 Y57.626 E1.86560 ; fill
G1 X74.193 Y57.626 E1.88721 ; fill
G1 X68.726 Y63.093 E2.11461 ; fill
G1 X68.726 Y63.828 E2.13622 ; fill
G1 X74.928 Y57.626 E2.39418 ; fill
G1 X75.663 Y57.626 E2.41580 ; fill
G1 X68.726 Y64.563 E2.70433 ; fill
G1 X68.726 Y65.298 E2.72594 ; fill
G1 X76.398 Y57.626 E3.04503 ; fill
G1 X77.133 Y57.626 E3.06665 ; fill
G1 X68.726 Y66.033 E3.41631 ; fill
G1 X68.726 Y66.768 E3.43792 ; fill
G1 X77.868 Y57.626 E3.81815 ; fill
G1 X78.603 Y57.626 E3.83976 ; fill
G1 X68.726 Y67.503 E4.25055 ; fill
G1 X68.726 Y68.238 E4.27216 ; fill
G1 X79.338 Y57.626 E4.71352 ; fill
G1 X80.073 Y57.626 E4.73514 ; fill
G1 X68.726 Y68.973 E5.20706 ; fill
G1 X68.726 Y69.708 E5.22867 ; fill
G1 X80.808 Y57.626 E5.73116 ; fill
G1 X81.543 Y57.626 E5.75278 ; fill
G1 X68.726 Y70.443 E6.28583 ; fill
G1 X68.726 Y71.178 E6.30745 ; fill
G1 X82.278 Y57.626 E6.87107 ; fill
G1 X83.013 Y57.626 E6.89268 ; fill
G1 X68.726 Y71.913 E7.48687 ; fill
G1 X68.726 Y72.648 E7.50848 ; fill
G1 X83.748 Y57.626 E8.13324 ; fill
G1 X84.483 Y57.626 E8.15485 ; fill
G1 X68.726 Y73.383 E8.81017 ; fill
G1 X68.726 Y74.118 E8.83179 ; fill
G1 X85.218 Y57.626 E9.51767 ; fill
G1 X85.952 Y57.626 E9.53929 ; fill
G1 X68.726 Y74.852 E10.25574 ; fill
G1 X68.726 Y75.587 E10.27735 ; fill
G1 X86.687 Y57.626 E11.02437 ; fill
G1 X87.422 Y57.626 E11.04599 ; fill
G1 X68.726 Y76.322 E11.82357 ; fill
G1 X68.726 Y77.057 E11.84518 ; fill
G1 X88.157 Y57.626 E12.65333 ; fill
G1 X88.892 Y57.626 E12.67495 ; fill
G1 X68.726 Y77.792 E13.51366 ; fill
G1 X68.726 Y78.527 E13.53528 ; fill
G1 X89.627 Y57.626 E14.40456 ; fill
G1 X90.362 Y57.626 E14.42617 ; fill
G1 X68.726 Y79.262 E15.32602 ; fill
G1 X68.726 Y79.997 E15.34764 ; fill
G1 X91.097 Y57.626 E16.27805 ; fill
G1 X91.832 Y57.626 E16.29967 ; fill
G1 X68.726 Y80.732 E17.26065 ; fill
G1 X68.726 Y81.467 E17.28226 ; fill
G1 X92.567 Y57.626 E18.27381 ; fill
G1 X93.302 Y57.626 E18.29542 ; fill
G1 X68.726 Y82.202 E19.31754 ; fill
G1 X68.726 Y82.937 E19.33915 ; fill
