; generated by Slic3r 0.9.10b on 2013-10-01 at 19:36:21

; layer_height = 0.4
; perimeters = 3
; top_solid_layers = 3
; bottom_solid_layers = 3
; fill_density = 0.4
; perimeter_speed = 30
; infill_speed = 60
; travel_speed = 130
; nozzle_diameter = 0.5
; filament_diameter = 3
; extrusion_multiplier = 1
; perimeters extrusion width = 0.53mm
; infill extrusion width = 0.53mm
; solid infill extrusion width = 0.53mm
; top infill extrusion width = 0.53mm
; first layer extrusion width = 0.80mm

G21 ; set units to millimeters
M190 S60 ; wait for bed temperature to be reached
M104 S185 ; set temperature
G28 ; home all axes
G1 Z5 F5000 ; lift nozzle
G92 E0 ;reset extruder
M109 S185 ; wait for temperature to be reached
G90 ; use absolute coordinates
G92 E0 ; reset extrusion distance
M82 ; use absolute distances for extrusion
G1 F1800.000 E-1.00000 ; retract
G92 E0 ; reset extrusion distance
G1 Z0.400 F7800.000 ; move to next layer (0)
G1 X72.390 Y20.614 ; move to first skirt point
G1 F1800.000 E1.00000 ; compensate retraction
G1 X73.070 Y18.984 F1440.000 E1.07352 ; skirt
G1 X88.990 Y-8.596 E2.39915 ; skirt
G1 X89.710 Y-9.666 E2.45284 ; skirt
G1 X90.670 Y-10.606 E2.50877 ; skirt
G1 X91.800 Y-11.336 E2.56477 ; skirt
G1 X93.050 Y-11.836 E2.62081 ; skirt
G1 X94.370 Y-12.076 E2.67666 ; skirt
G1 X95.710 Y-12.046 E2.73245 ; skirt
G1 X97.020 Y-11.746 E2.78840 ; skirt
G1 X98.250 Y-11.196 E2.84448 ; skirt
G1 X106.920 Y-6.206 E3.26090 ; skirt
G1 X108.050 Y-5.386 E3.31902 ; skirt
G1 X108.980 Y-4.366 E3.37648 ; skirt
G1 X109.690 Y-3.166 E3.43452 ; skirt
G1 X127.230 Y35.244 E5.19226 ; skirt
G1 X127.680 Y36.614 E5.25229 ; skirt
G1 X127.840 Y38.044 E5.31219 ; skirt
G1 X127.840 Y183.354 E11.36109 ; skirt
G1 X127.710 Y184.664 E11.41589 ; skirt
G1 X127.320 Y185.934 E11.47119 ; skirt
G1 X126.700 Y187.094 E11.52594 ; skirt
G1 X125.860 Y188.114 E11.58095 ; skirt
G1 X124.840 Y188.954 E11.63595 ; skirt
G1 X123.680 Y189.574 E11.69071 ; skirt
G1 X122.410 Y189.964 E11.74601 ; skirt
G1 X121.100 Y190.094 E11.80081 ; skirt
G1 X111.100 Y190.094 E12.21708 ; skirt
G1 X109.820 Y189.964 E12.27064 ; skirt
G1 X108.590 Y189.604 E12.32399 ; skirt
G1 X107.450 Y189.014 E12.37743 ; skirt
G1 X106.440 Y188.214 E12.43106 ; skirt
G1 X105.600 Y187.244 E12.48448 ; skirt
G1 X104.960 Y186.134 E12.53781 ; skirt
G1 X104.550 Y184.914 E12.59139 ; skirt
G1 X72.350 Y49.914 E18.36875 ; skirt
G1 X72.210 Y49.144 E18.40133 ; skirt
G1 X72.160 Y48.354 E18.43428 ; skirt
G1 X72.160 Y22.354 E19.51660 ; skirt
G1 X72.376 Y20.723 E19.58507 ; skirt
G1 F1800.000 E18.58507 ; retract
G92 E0 ; reset extrusion distance
G1 X80.739 Y22.849 F7800.000 ; move to first perimeter point
G1 F1800.000 E1.00000 ; compensate retraction
G1 X95.573 Y-2.844 F1440.000 E2.23501 ; perimeter
G1 X101.048 Y0.317 E2.49818 ; perimeter
G1 X87.061 Y24.543 E3.66268 ; perimeter
G1 X87.061 Y39.891 E4.30157 ; perimeter
G1 X119.261 Y39.891 E5.64198 ; perimeter
G1 X119.261 Y181.517 E11.53754 ; perimeter
G1 X112.939 Y181.517 E11.80070 ; perimeter
G1 X112.939 Y46.517 E17.42042 ; perimeter
G1 X80.739 Y46.517 E18.76083 ; perimeter
G1 X80.739 Y22.960 E19.74148 ; perimeter
G1 F1800.000 E18.74148 ; retract
G92 E0 ; reset extrusion distance
G1 X112.203 Y182.253 F7800.000 ; move to first perimeter point
G1 F1800.000 E1.00000 ; compensate retraction
G1 X112.203 Y47.253 F1440.000 E6.61972 ; perimeter
G1 X80.003 Y47.253 E7.96013 ; perimeter
G1 X80.003 Y22.652 E8.98420 ; perimeter
G1 X95.304 Y-3.849 E10.25804 ; perimeter
G1 X102.053 Y0.047 E10.58245 ; perimeter
G1 X87.797 Y24.740 E11.76937 ; perimeter
G1 X87.797 Y39.155 E12.36943 ; perimeter
G1 X119.997 Y39.155 E13.70984 ; perimeter
G1 X119.997 Y182.253 E19.66664 ; perimeter
G1 X112.314 Y182.253 E19.98646 ; perimeter
G1 X111.468 Y182.989 F7800.000 ; move to first perimeter point
G1 X111.468 Y47.989 F1440.000 E25.60618 ; perimeter
G1 X79.268 Y47.989 E26.94658 ; perimeter
G1 X79.268 Y22.455 E28.00949 ; perimeter
G1 X95.035 Y-4.854 E29.32215 ; perimeter
G1 X103.058 Y-0.222 E29.70781 ; perimeter
G1 X88.532 Y24.937 E30.91714 ; perimeter
G1 X88.532 Y38.420 E31.47838 ; perimeter
G1 X120.732 Y38.420 E32.81879 ; perimeter
G1 X120.732 Y182.989 E38.83683 ; perimeter
G1 X111.578 Y182.989 E39.21789 ; perimeter
G1 X111.836 Y182.352 F7800.000 ; move inwards before travel
G1 F1800.000 E38.21789 ; retract
G92 E0 ; reset extrusion distance
G1 X114.169 Y180.984 F7800.000 ; move to first fill point
G1 F1800.000 E1.00000 ; compensate retraction
G1 X113.472 Y180.287 F2880.000 E1.04115 ; fill
G1 X113.472 Y179.244 E1.08471 ; fill
G1 X115.213 Y180.984 E1.18745 ; fill
G1 X116.256 Y180.984 E1.23101 ; fill
G1 X113.472 Y178.201 E1.39536 ; fill
G1 X113.472 Y177.157 E1.43891 ; fill
G1 X117.299 Y180.984 E1.66486 ; fill
G1 X118.343 Y180.984 E1.70841 ; fill
G1 X113.472 Y176.114 E1.99595 ; fill
G1 X113.472 Y175.071 E2.03951 ; fill
G1 X118.728 Y180.326 E2.34980 ; fill
G1 X118.728 Y179.283 E2.39335 ; fill
G1 X113.472 Y174.027 E2.70364 ; fill
G1 X113.472 Y172.984 E2.74719 ; fill
G1 X118.728 Y178.239 E3.05748 ; fill
G1 X118.728 Y177.196 E3.10103 ; fill
G1 X113.472 Y171.941 E3.41132 ; fill
G1 X113.472 Y170.897 E3.45487 ; fill
G1 X118.728 Y176.153 E3.76516 ; fill
G1 X118.728 Y175.109 E3.80872 ; fill
G1 X113.472 Y169.854 E4.11900 ; fill
G1 X113.472 Y168.811 E4.16256 ; fill
G1 X118.728 Y174.066 E4.47284 ; fill
G1 X118.728 Y173.023 E4.51640 ; fill
G1 X113.472 Y167.767 E4.82668 ; fill
G1 X113.472 Y166.724 E4.87024 ; fill
G1 X118.728 Y171.979 E5.18052 ; fill
G1 X118.728 Y170.936 E5.22408 ; fill
G1 X113.472 Y165.681 E5.53436 ; fill
G1 X113.472 Y164.637 E5.57792 ; fill
G1 X118.728 Y169.893 E5.88820 ; fill
G1 X118.728 Y168.849 E5.93176 ; fill
G1 X113.472 Y163.594 E6.24204 ; fill
G1 X113.472 Y162.551 E6.28560 ; fill
G1 X118.728 Y167.806 E6.59589 ; fill
G1 X118.728 Y166.763 E6.63944 ; fill
G1 X113.472 Y161.507 E6.94973 ; fill
G1 X113.472 Y160.464 E6.99328 ; fill
G1 X118.728 Y165.720 E7.30357 ; fill
G1 X118.728 Y164.676 E7.34712 ; fill
G1 X113.472 Y159.421 E7.65741 ; fill
G1 X113.472 Y158.377 E7.70096 ; fill
G1 X118.728 Y163.633 E8.01125 ; fill
G1 X118.728 Y162.590 E8.05480 ; fill
G1 X113.472 Y157.334 E8.36509 ; fill
G1 X113.472 Y156.291 E8.40865 ; fill
G1 X118.728 Y161.546 E8.71893 ; fill
G1 X118.728 Y160.503 E8.76249 ; fill
G1 X113.472 Y155.247 E9.07277 ; fill
G1 X113.472 Y154.204 E9.11633 ; fill
G1 X118.728 Y159.460 E9.42661 ; fill
G1 X118.728 Y158.416 E9.47017 ; fill
G1 X113.472 Y153.161 E9.78045 ; fill
G1 X113.472 Y152.117 E9.82401 ; fill
G1 X118.728 Y157.373 E10.13429 ; fill
G1 X118.728 Y156.330 E10.17785 ; fill
G1 X113.472 Y151.074 E10.48813 ; fill
G1 X113.472 Y150.031 E10.53169 ; fill
G1 X118.728 Y155.286 E10.84197 ; fill
G1 X118.728 Y154.243 E10.88553 ; fill
G1 X113.472 Y148.987 E11.19582 ; fill
G1 X113.472 Y147.944 E11.23937 ; fill
G1 X118.728 Y153.200 E11.54966 ; fill
G1 X118.728 Y152.156 E11.59321 ; fill
G1 X113.472 Y146.901 E11.90350 ; fill
G1 X113.472 Y145.857 E11.94705 ; fill
G1 X118.728 Y151.113 E12.25734 ; fill
G1 X118.728 Y150.070 E12.30089 ; fill
G1 X113.472 Y144.814 E12.61118 ; fill
G1 X113.472 Y143.771 E12.65474 ; fill
G1 X118.728 Y149.026 E12.96502 ; fill
G1 X118.728 Y147.983 E13.00858 ; fill
G1 X113.472 Y142.728 E13.31886 ; fill
G1 X113.472 Y141.684 E13.36242 ; fill
G1 X118.728 Y146.940 E13.67270 ; fill
G1 X118.728 Y145.896 E13.71626 ; fill
G1 X113.472 Y140.641 E14.02654 ; fill
G1 X113.472 Y139.598 E14.07010 ; fill
G1 X118.728 Y144.853 E14.38038 ; fill
G1 X118.728 Y143.810 E14.42394 ; fill
G1 X113.472 Y138.554 E14.73422 ; fill
G1 X113.472 Y137.511 E14.77778 ; fill
G1 X118.728 Y142.766 E15.08806 ; fill
G1 X118.728 Y141.723 E15.13162 ; fill
G1 X113.472 Y136.468 E15.44191 ; fill
G1 X113.472 Y135.424 E15.48546 ; fill
G1 X118.728 Y140.680 E15.79575 ; fill
G1 X118.728 Y139.636 E15.83930 ; fill
G1 X113.472 Y134.381 E16.14959 ; fill
G1 X113.472 Y133.338 E16.19314 ; fill
G1 X118.728 Y138.593 E16.50343 ; fill
G1 X118.728 Y137.550 E16.54698 ; fill
G1 X113.472 Y132.294 E16.85727 ; fill
G1 X113.472 Y131.251 E16.90083 ; fill
G1 X118.728 Y136.506 E17.21111 ; fill
G1 X118.728 Y135.463 E17.25467 ; fill
G1 X113.472 Y130.208 E17.56495 ; fill
G1 X113.472 Y129.164 E17.60851 ; fill
G1 X118.728 Y134.420 E17.91879 ; fill
G1 X118.728 Y133.376 E17.96235 ; fill
G1 X113.472 Y128.121 E18.27263 ; fill
G1 X113.472 Y127.078 E18.31619 ; fill
G1 X118.728 Y132.333 E18.62647 ; fill
G1 X118.728 Y131.290 E18.67003 ; fill
G1 X113.472 Y126.034 E18.98031 ; fill
G1 X113.472 Y124.991 E19.02387 ; fill
G1 X118.728 Y130.247 E19.33415 ; fill
G1 X118.728 Y129.203 E19.37771 ; fill
G1 X113.472 Y123.948 E19.68800 ; fill
G1 X113.472 Y122.904 E19.73155 ; fill
G1 X118.728 Y128.160 E20.04184 ; fill
G1 X118.728 Y127.117 E20.08539 ; fill
G1 X113.472 Y121.861 E20.39568 ; fill
G1 X113.472 Y120.818 E20.43923 ; fill
G1 X118.728 Y126.073 E20.74952 ; fill
G1 X118.728 Y125.030 E20.79307 ; fill
G1 X113.472 Y119.774 E21.10336 ; fill
G1 X113.472 Y118.731 E21.14692 ; fill
G1 X118.728 Y123.987 E21.45720 ; fill
G1 X118.728 Y122.943 E21.50076 ; fill
G1 X113.472 Y117.688 E21.81104 ; fill
G1 X113.472 Y116.644 E21.85460 ; fill
G1 X118.728 Y121.900 E22.16488 ; fill
G1 X118.728 Y120.857 E22.20844 ; fill
G1 X113.472 Y115.601 E22.51872 ; fill
G1 X113.472 Y114.558 E22.56228 ; fill
G1 X118.728 Y119.813 E22.87256 ; fill
G1 X118.728 Y118.770 E22.91612 ; fill
G1 X113.472 Y113.514 E23.22640 ; fill
G1 X113.472 Y112.471 E23.26996 ; fill
G1 X118.728 Y117.727 E23.58024 ; fill
G1 X118.728 Y116.683 E23.62380 ; fill
G1 X113.472 Y111.428 E23.93409 ; fill
G1 X113.472 Y110.384 E23.97764 ; fill
G1 X118.728 Y115.640 E24.28793 ; fill
G1 X118.728 Y114.597 E24.33148 ; fill
G1 X113.472 Y109.341 E24.64177 ; fill
G1 X113.472 Y108.298 E24.68532 ; fill
G1 X118.728 Y113.553 E24.99561 ; fill
G1 X118.728 Y112.510 E25.03916 ; fill
G1 X113.472 Y107.255 E25.34945 ; fill
G1 X113.472 Y106.211 E25.39300 ; fill
G1 X118.728 Y111.467 E25.70329 ; fill
G1 X118.728 Y110.423 E25.74685 ; fill
G1 X113.472 Y105.168 E26.05713 ; fill
G1 X113.472 Y104.125 E26.10069 ; fill
G1 X118.728 Y109.380 E26.41097 ; fill
G1 X118.728 Y108.337 E26.45453 ; fill
G1 X113.472 Y103.081 E26.76481 ; fill
G1 X113.472 Y102.038 E26.80837 ; fill
G1 X118.728 Y107.293 E27.11865 ; fill
G1 X118.728 Y106.250 E27.16221 ; fill
G1 X113.472 Y100.995 E27.47249 ; fill
G1 X113.472 Y99.951 E27.51605 ; fill
G1 X118.728 Y105.207 E27.82633 ; fill
G1 X118.728 Y104.163 E27.86989 ; fill
G1 X113.472 Y98.908 E28.18018 ; fill
G1 X113.472 Y97.865 E28.22373 ; fill
G1 X118.728 Y103.120 E28.53402 ; fill
G1 X118.728 Y102.077 E28.57757 ; fill
G1 X113.472 Y96.821 E28.88786 ; fill
G1 X113.472 Y95.778 E28.93141 ; fill
G1 X118.728 Y101.033 E29.24170 ; fill
G1 X118.728 Y99.990 E29.28525 ; fill
G1 X113.472 Y94.735 E29.59554 ; fill
G1 X113.472 Y93.691 E29.63909 ; fill
G1 X118.728 Y98.947 E29.94938 ; fill
G1 X118.728 Y97.903 E29.99294 ; fill
G1 X113.472 Y92.648 E30.30322 ; fill
G1 X113.472 Y91.605 E30.34678 ; fill
G1 X118.728 Y96.860 E30.65706 ; fill
G1 X118.728 Y95.817 E30.70062 ; fill
G1 X113.472 Y90.561 E31.01090 ; fill
G1 X113.472 Y89.518 E31.05446 ; fill
G1 X118.728 Y94.774 E31.36474 ; fill
G1 X118.728 Y93.730 E31.40830 ; fill
G1 X113.472 Y88.475 E31.71858 ; fill
G1 X113.472 Y87.431 E31.76214 ; fill
G1 X118.728 Y92.687 E32.07242 ; fill
G1 X118.728 Y91.644 E32.11598 ; fill
G1 X113.472 Y86.388 E32.42627 ; fill
G1 X113.472 Y85.345 E32.46982 ; fill
G1 X118.728 Y90.600 E32.78011 ; fill
G1 X118.728 Y89.557 E32.82366 ; fill
G1 X113.472 Y84.301 E33.13395 ; fill
G1 X113.472 Y83.258 E33.17750 ; fill
G1 X118.728 Y88.514 E33.48779 ; fill
G1 X118.728 Y87.470 E33.53134 ; fill
G1 X113.472 Y82.215 E33.84163 ; fill
G1 X113.472 Y81.171 E33.88518 ; fill
G1 X118.728 Y86.427 E34.19547 ; fill
G1 X118.728 Y85.384 E34.23903 ; fill
G1 X113.472 Y80.128 E34.54931 ; fill
G1 X113.472 Y79.085 E34.59287 ; fill
G1 X118.728 Y84.340 E34.90315 ; fill
G1 X118.728 Y83.297 E34.94671 ; fill
G1 X113.472 Y78.041 E35.25699 ; fill
G1 X113.472 Y76.998 E35.30055 ; fill
G1 X118.728 Y82.254 E35.61083 ; fill
G1 X118.728 Y81.210 E35.65439 ; fill
G1 X113.472 Y75.955 E35.96467 ; fill
G1 X113.472 Y74.911 E36.00823 ; fill
G1 X118.728 Y80.167 E36.31851 ; fill
G1 X118.728 Y79.124 E36.36207 ; fill
G1 X113.472 Y73.868 E36.67236 ; fill
G1 X113.472 Y72.825 E36.71591 ; fill
G1 X118.728 Y78.080 E37.02620 ; fill
G1 X118.728 Y77.037 E37.06975 ; fill
G1 X113.472 Y71.782 E37.38004 ; fill
G1 X113.472 Y70.738 E37.42359 ; fill
G1 X118.728 Y75.994 E37.73388 ; fill
G1 X118.728 Y74.950 E37.77743 ; fill
G1 X113.472 Y69.695 E38.08772 ; fill
G1 X113.472 Y68.652 E38.13127 ; fill
G1 X118.728 Y73.907 E38.44156 ; fill
G1 X118.728 Y72.864 E38.48512 ; fill
G1 X113.472 Y67.608 E38.79540 ; fill
G1 X113.472 Y66.565 E38.83896 ; fill
G1 X118.728 Y71.820 E39.14924 ; fill
G1 X118.728 Y70.777 E39.19280 ; fill
G1 X113.472 Y65.522 E39.50308 ; fill
G1 X113.472 Y64.478 E39.54664 ; fill
G1 X118.728 Y69.734 E39.85692 ; fill
G1 X118.728 Y68.690 E39.90048 ; fill
G1 X113.472 Y63.435 E40.21076 ; fill
G1 X113.472 Y62.392 E40.25432 ; fill
G1 X118.728 Y67.647 E40.56460 ; fill
G1 X118.728 Y66.604 E40.60816 ; fill
G1 X113.472 Y61.348 E40.91845 ; fill
G1 X113.472 Y60.305 E40.96200 ; fill
G1 X118.728 Y65.560 E41.27229 ; fill
G1 X118.728 Y64.517 E41.31584 ; fill
G1 X113.472 Y59.262 E41.62613 ; fill
G1 X113.472 Y58.218 E41.66968 ; fill
G1 X118.728 Y63.474 E41.97997 ; fill
G1 X118.728 Y62.430 E42.02352 ; fill
G1 X113.472 Y57.175 E42.33381 ; fill
G1 X113.472 Y56.132 E42.37736 ; fill
G1 X118.728 Y61.387 E42.68765 ; fill
G1 X118.728 Y60.344 E42.73121 ; fill
G1 X113.472 Y55.088 E43.04149 ; fill
G1 X113.472 Y54.045 E43.08505 ; fill
G1 X118.728 Y59.301 E43.39533 ; fill
G1 X118.728 Y58.257 E43.43889 ; fill
G1 X113.472 Y53.002 E43.74917 ; fill
G1 X113.472 Y51.958 E43.79273 ; fill
G1 X118.728 Y57.214 E44.10301 ; fill
G1 X118.728 Y56.171 E44.14657 ; fill
G1 X113.472 Y50.915 E44.45685 ; fill
G1 X113.472 Y49.872 E44.50041 ; fill
G1 X118.728 Y55.127 E44.81069 ; fill
G1 X118.728 Y54.084 E44.85425 ; fill
G1 X113.472 Y48.828 E45.16454 ; fill
G1 X113.472 Y47.785 E45.20809 ; fill
G1 X118.728 Y53.041 E45.51838 ; fill
G1 X118.728 Y51.997 E45.56193 ; fill
G1 X113.472 Y46.742 E45.87222 ; fill
G1 X112.715 Y45.984 F7800.000 ; move to first fill point
G1 X107.155 Y40.424 F2880.000 E46.20048 ; fill
G1 X108.198 Y40.424 E46.24403 ; fill
G1 X118.728 Y50.954 E46.86571 ; fill
G1 X118.728 Y49.911 E46.90927 ; fill
G1 X109.241 Y40.424 E47.46934 ; fill
G1 X110.285 Y40.424 E47.51290 ; fill
G1 X118.728 Y48.867 E48.01138 ; fill
G1 X118.728 Y47.824 E48.05494 ; fill
G1 X111.328 Y40.424 E48.49182 ; fill
G1 X112.371 Y40.424 E48.53537 ; fill
G1 X118.728 Y46.781 E48.91066 ; fill
G1 X118.728 Y45.737 E48.95421 ; fill
G1 X113.415 Y40.424 E49.26790 ; fill
G1 X114.458 Y40.424 E49.31146 ; fill
G1 X118.728 Y44.694 E49.56355 ; fill
G1 X118.728 Y43.651 E49.60710 ; fill
G1 X115.501 Y40.424 E49.79759 ; fill
G1 X116.545 Y40.424 E49.84115 ; fill
G1 X118.728 Y42.607 E49.97004 ; fill
G1 X118.728 Y41.564 E50.01360 ; fill
G1 X117.588 Y40.424 E50.08089 ; fill
G1 X118.631 Y40.424 E50.12445 ; fill
G1 X118.728 Y40.521 E50.13015 ; fill
G1 F1800.000 E49.13015 ; retract
G92 E0 ; reset extrusion distance
G1 X111.671 Y45.984 F7800.000 ; move to first fill point
G1 F1800.000 E1.00000 ; compensate retraction
G1 X106.111 Y40.424 F2880.000 E1.32826 ; fill
G1 X105.068 Y40.424 E1.37182 ; fill
G1 X110.628 Y45.984 E1.70008 ; fill
G1 X109.585 Y45.984 E1.74363 ; fill
G1 X104.025 Y40.424 E2.07189 ; fill
G1 X102.981 Y40.424 E2.11545 ; fill
G1 X108.541 Y45.984 E2.44371 ; fill
G1 X107.498 Y45.984 E2.48726 ; fill
G1 X101.938 Y40.424 E2.81552 ; fill
G1 X100.895 Y40.424 E2.85908 ; fill
G1 X106.455 Y45.984 E3.18734 ; fill
G1 X105.411 Y45.984 E3.23089 ; fill
G1 X99.851 Y40.424 E3.55915 ; fill
G1 X98.808 Y40.424 E3.60271 ; fill
G1 X104.368 Y45.984 E3.93097 ; fill
G1 X103.325 Y45.984 E3.97453 ; fill
G1 X97.765 Y40.424 E4.30278 ; fill
G1 X96.721 Y40.424 E4.34634 ; fill
G1 X102.281 Y45.984 E4.67460 ; fill
G1 X101.238 Y45.984 E4.71816 ; fill
G1 X95.678 Y40.424 E5.04642 ; fill
G1 X94.635 Y40.424 E5.08997 ; fill
G1 X100.195 Y45.984 E5.41823 ; fill
