; generated by Slic3r 0.9.10b on 2013-09-01 at 11:45:43

; layer_height = 0.4
; perimeters = 3
; top_solid_layers = 3
; bottom_solid_layers = 3
; fill_density = 0.4
; perimeter_speed = 30
; infill_speed = 60
; travel_speed = 130
; nozzle_diameter = 0.5
; filament_diameter = 3
; extrusion_multiplier = 1
; perimeters extrusion width = 0.53mm
; infill extrusion width = 0.53mm
; solid infill extrusion width = 0.53mm
; top infill extrusion width = 0.53mm
; first layer extrusion width = 1.00mm

G21 ; set units to millimeters
M107
M104 S180 ; set temperature
G28 ; home all axes
G1 Z5 F5000 ; lift nozzle
M190 S60 ; bed on
M109 S180 ; wait for temperature to be reached
G90 ; use absolute coordinates
G92 E0
M82 ; use absolute distances for extrusion
G1 F1800.000 E-1.00000
G1 Z1.000 F7800.000
G92 E0
G1 X82.090 Y82.290
G1 Z0.500
G1 F1800.000 E1.00000
G1 X93.290 Y71.090 F600.000 E2.00017
G1 X93.880 Y70.560 E2.05025
G1 X94.410 Y70.140 E2.09296
G1 X95.230 Y69.580 E2.15566
G1 X96.130 Y69.140 E2.21892
G1 X96.780 Y68.880 E2.26312
G1 X97.620 Y68.600 E2.31904
G1 X98.500 Y68.440 E2.37551
G1 X99.150 Y68.360 E2.41687
G1 X99.970 Y68.310 E2.46874
G1 X100.800 Y68.350 E2.52122
G1 X101.480 Y68.430 E2.56445
G1 X102.420 Y68.610 E2.62489
G1 X103.340 Y68.920 E2.68619
G1 X103.960 Y69.180 E2.72864
G1 X104.770 Y69.590 E2.78597
G1 X105.520 Y70.100 E2.84324
G1 X106.060 Y70.520 E2.88644
G1 X106.700 Y71.090 E2.94056
G1 X117.900 Y82.290 E3.94073
G1 X118.430 Y82.880 E3.99081
G1 X118.850 Y83.410 E4.03351
G1 X119.390 Y84.200 E4.09394
G1 X119.820 Y85.060 E4.15465
G1 X120.080 Y85.690 E4.19769
G1 X120.380 Y86.590 E4.25759
G1 X120.560 Y87.510 E4.31679
G1 X120.640 Y88.190 E4.36003
G1 X120.680 Y89.010 E4.41187
G1 X120.630 Y89.820 E4.46311
G1 X120.550 Y90.490 E4.50572
G1 X120.370 Y91.430 E4.56615
G1 X120.070 Y92.340 E4.62666
G1 X119.810 Y92.960 E4.66911
G1 X119.400 Y93.770 E4.72644
G1 X118.890 Y94.520 E4.78371
G1 X118.470 Y95.060 E4.82691
G1 X117.900 Y95.700 E4.88103
G1 X106.700 Y106.900 E5.88120
G1 X106.060 Y107.470 E5.93532
G1 X105.520 Y107.890 E5.97852
G1 X104.770 Y108.400 E6.03579
G1 X103.960 Y108.810 E6.09312
G1 X103.340 Y109.070 E6.13557
G1 X102.430 Y109.370 E6.19607
G1 X101.490 Y109.550 E6.25651
G1 X100.820 Y109.630 E6.29912
G1 X100.010 Y109.680 E6.35036
G1 X99.190 Y109.640 E6.40220
G1 X98.510 Y109.560 E6.44544
G1 X97.590 Y109.380 E6.50463
G1 X96.690 Y109.080 E6.56454
G1 X96.060 Y108.820 E6.60757
G1 X95.200 Y108.390 E6.66829
G1 X94.410 Y107.850 E6.72871
G1 X93.880 Y107.430 E6.77142
G1 X93.290 Y106.900 E6.82150
G1 X82.090 Y95.700 E7.82167
G1 X81.520 Y95.060 E7.87579
G1 X81.100 Y94.520 E7.91899
G1 X80.590 Y93.770 E7.97626
G1 X80.180 Y92.960 E8.03359
G1 X79.920 Y92.340 E8.07604
G1 X79.610 Y91.420 E8.13734
G1 X79.430 Y90.480 E8.19778
G1 X79.350 Y89.800 E8.24101
G1 X79.310 Y88.980 E8.29285
G1 X79.360 Y88.170 E8.34410
G1 X79.440 Y87.500 E8.38671
G1 X79.610 Y86.580 E8.44578
G1 X79.910 Y85.690 E8.50509
G1 X80.170 Y85.060 E8.54813
G1 X80.600 Y84.200 E8.60884
G1 X81.140 Y83.410 E8.66927
G1 X81.560 Y82.880 E8.71197
G1 X82.001 Y82.390 E8.75359
G1 F1800.000 E7.75359
G1 Z1.000 F7800.000
G92 E0
G1 X102.043 Y88.686
G1 Z0.500
G1 F1800.000 E1.00000
G1 X101.889 Y88.020 F600.000 E1.04317
G1 X101.157 Y87.214 E1.11195
G1 X99.895 Y86.875 E1.19442
G1 X98.842 Y87.215 E1.26428
G1 X98.207 Y87.854 E1.32121
G1 X97.880 Y89.121 E1.40384
G1 X98.111 Y89.980 E1.46000
G1 X98.843 Y90.786 E1.52878
G1 X100.109 Y91.125 E1.61149
G1 X101.158 Y90.785 E1.68111
G1 X101.793 Y90.146 E1.73804
G1 X102.126 Y89.096 E1.80760
G1 X102.043 Y88.686 E1.83400
G1 F1800.000 E0.83400
G1 Z1.000 F7800.000
G92 E0
G1 X105.764 Y89.062
G1 X104.144 Y84.991
G1 X105.764 Y77.862
G1 X102.043 Y77.486
G1 Z0.500
G1 F1800.000 E1.00000
G1 X101.889 Y76.820 F600.000 E1.04317
G1 X101.157 Y76.014 E1.11195
G1 X99.895 Y75.675 E1.19442
G1 X98.842 Y76.015 E1.26428
G1 X98.207 Y76.654 E1.32121
G1 X97.880 Y77.921 E1.40384
G1 X98.111 Y78.780 E1.46000
G1 X98.843 Y79.586 E1.52878
G1 X100.109 Y79.925 E1.61149
G1 X101.158 Y79.585 E1.68111
G1 X101.793 Y78.946 E1.73804
G1 X102.126 Y77.896 E1.80760
G1 X102.043 Y77.486 E1.83400
G1 F1800.000 E0.83400
G1 Z1.000 F7800.000
G92 E0
G1 X105.764 Y77.862
G1 X104.009 Y81.944
G1 X100.445 Y83.400
G1 X99.574 Y83.400
G1 X95.987 Y84.866
G1 X92.944 Y84.991
G1 X94.564 Y89.062
G1 X90.843 Y88.686
G1 Z0.500
G1 F1800.000 E1.00000
G1 X90.689 Y88.020 F600.000 E1.04317
G1 X89.957 Y87.214 E1.11195
G1 X88.695 Y86.875 E1.19442
G1 X87.642 Y87.215 E1.26428
G1 X87.007 Y87.854 E1.32121
G1 X86.680 Y89.121 E1.40384
G1 X86.911 Y89.980 E1.46000
G1 X87.643 Y90.786 E1.52878
G1 X88.909 Y91.125 E1.61149
G1 X89.958 Y90.785 E1.68111
G1 X90.593 Y90.146 E1.73804
G1 X90.926 Y89.096 E1.80760
G1 X90.843 Y88.686 E1.83400
G1 F1800.000 E0.83400
G1 Z1.000 F7800.000
G92 E0
G1 X94.564 Y89.062
G1 X92.809 Y93.144
G1 X95.987 Y96.066
G1 X99.574 Y94.600
G1 X100.445 Y94.600
G1 X104.144 Y96.191
G1 X105.764 Y100.262
G1 X102.043 Y99.886
G1 Z0.500
G1 F1800.000 E1.00000
G1 X101.889 Y99.220 F600.000 E1.04317
G1 X101.157 Y98.414 E1.11195
G1 X99.895 Y98.075 E1.19442
G1 X98.842 Y98.415 E1.26428
G1 X98.207 Y99.054 E1.32121
G1 X97.880 Y100.321 E1.40384
G1 X98.111 Y101.180 E1.46000
G1 X98.843 Y101.986 E1.52878
G1 X100.109 Y102.325 E1.61149
G1 X101.158 Y101.985 E1.68111
G1 X101.793 Y101.346 E1.73804
G1 X102.126 Y100.296 E1.80760
G1 X102.043 Y99.886 E1.83400
G1 F1800.000 E0.83400
G1 Z1.000 F7800.000
G92 E0
G1 X105.764 Y100.262
G1 X115.209 Y93.144
G1 X116.964 Y89.062
G1 X113.243 Y88.686
G1 Z0.500
G1 F1800.000 E1.00000
G1 X113.089 Y88.020 F600.000 E1.04317
G1 X112.357 Y87.214 E1.11195
G1 X111.095 Y86.875 E1.19442
G1 X110.042 Y87.215 E1.26428
G1 X109.407 Y87.854 E1.32121
G1 X109.080 Y89.121 E1.40384
G1 X109.311 Y89.980 E1.46000
G1 X110.043 Y90.786 E1.52878
G1 X111.309 Y91.125 E1.61149
G1 X112.358 Y90.785 E1.68111
G1 X112.993 Y90.146 E1.73804
G1 X113.326 Y89.096 E1.80760
G1 X113.243 Y88.686 E1.83400
M106 S255
G1 F1800.000 E0.83400
G1 Z1.400 F7800.000
G92 E0
G1 X116.964 Y89.062
G1 X115.344 Y84.991
G1 X111.645 Y83.400
G1 X110.774 Y83.400
G1 X104.144 Y84.991
G1 X105.764 Y89.062
G1 X101.912 Y89.000
G1 Z0.900
G1 F1800.000 E1.00000
G1 X101.847 Y89.495 F600.000 E1.01468
G1 X101.656 Y89.956 E1.02936
G1 X101.352 Y90.352 E1.04403
G1 X100.956 Y90.656 E1.05871
G1 X100.495 Y90.847 E1.07339
G1 X100.000 Y90.912 E1.08807
G1 X99.505 Y90.847 E1.10274
G1 X99.101 Y90.680 E1.11559
G1 X99.044 Y90.656 E1.11742
G1 X98.648 Y90.352 E1.13210
G1 X98.344 Y89.956 E1.14678
G1 X98.320 Y89.899 E1.14861
G1 X98.153 Y89.495 E1.16145
G1 X98.088 Y89.000 E1.17613
G1 X98.153 Y88.505 E1.19081
G1 X98.177 Y88.448 E1.19264
G1 X98.344 Y88.044 E1.20549
G1 X98.648 Y87.648 E1.22016
G1 X99.044 Y87.344 E1.23484
G1 X99.448 Y87.177 E1.24769
G1 X99.505 Y87.153 E1.24952
G1 X100.000 Y87.088 E1.26420
G1 X100.495 Y87.153 E1.27887
G1 X100.899 Y87.320 E1.29172
G1 X100.956 Y87.344 E1.29355
G1 X101.352 Y87.648 E1.30823
G1 X101.656 Y88.044 E1.32291
G1 X101.847 Y88.505 E1.33758
G1 X101.902 Y88.923 E1.34997
G1 X101.469 Y89.230 F7800.000
G1 X102.258 Y89.605
G1 X102.025 Y90.169 F600.000 E1.36792
G1 X101.653 Y90.653 E1.38586
G1 X101.169 Y91.025 E1.40381
G1 X100.605 Y91.258 E1.42176
G1 X100.000 Y91.338 E1.43970
G1 X99.395 Y91.258 E1.45765
G1 X98.831 Y91.025 E1.47560
G1 X98.347 Y90.653 E1.49354
G1 X97.975 Y90.169 E1.51149
G1 X97.742 Y89.605 E1.52944
G1 X97.662 Y89.000 E1.54739
G1 X97.742 Y88.395 E1.56533
G1 X97.975 Y87.831 E1.58328
G1 X98.347 Y87.347 E1.60123
G1 X98.831 Y86.975 E1.61917
G1 X99.395 Y86.742 E1.63712
G1 X100.000 Y86.662 E1.65507
G1 X100.605 Y86.742 E1.67301
G1 X101.169 Y86.975 E1.69096
G1 X101.653 Y87.347 E1.70891
G1 X102.025 Y87.831 E1.72685
G1 X102.258 Y88.395 E1.74480
G1 X102.338 Y89.000 E1.76275
G1 X102.268 Y89.528 E1.77840
G1 X101.751 Y89.718 F7800.000
G1 X101.848 Y89.509
G1 X100.509 Y90.848
G1 X99.491 Y90.848
G1 X98.152 Y89.509
G1 X98.152 Y88.491
G1 X98.557 Y87.513
G1 X98.403 Y87.630
G1 X98.982 Y87.134 F600.000 E1.80082
G1 X99.956 Y86.875 E1.83045
G1 X100.600 Y86.961 E1.84955
G1 X101.464 Y87.464 E1.87895
G1 X101.846 Y87.953 E1.89719
G1 X102.122 Y89.016 E1.92949
G1 X101.874 Y89.982 E1.95883
G1 X101.486 Y90.518 E1.97830
G1 X101.018 Y90.866 E1.99544
G1 X100.052 Y91.125 E2.02486
G1 X99.400 Y91.039 E2.04418
G1 X98.536 Y90.536 E2.07358
G1 X98.154 Y90.047 E2.09182
G1 X97.878 Y88.984 E2.12412
G1 X97.954 Y88.436 E2.14041
G1 X98.403 Y87.630 E2.16752
G1 F1800.000 E1.16752
G1 Z1.400 F7800.000
G92 E0
G1 X95.987 Y84.866
G1 X95.856 Y81.809
G1 X99.938 Y83.564
G1 X99.505 Y79.647
G1 Z0.900
G1 F1800.000 E1.00000
G1 X99.044 Y79.456 F600.000 E1.01468
G1 X98.697 Y79.190 E1.02752
G1 X98.648 Y79.152 E1.02936
G1 X98.344 Y78.756 E1.04403
G1 X98.153 Y78.295 E1.05871
G1 X98.145 Y78.233 E1.06054
G1 X98.088 Y77.800 E1.07339
G1 X98.153 Y77.305 E1.08807
G1 X98.344 Y76.844 E1.10274
G1 X98.382 Y76.795 E1.10457
G1 X98.648 Y76.448 E1.11742
G1 X99.044 Y76.144 E1.13210
G1 X99.505 Y75.953 E1.14678
G1 X100.000 Y75.888 E1.16145
G1 X100.495 Y75.953 E1.17613
G1 X100.956 Y76.144 E1.19081
G1 X101.303 Y76.410 E1.20366
G1 X101.352 Y76.448 E1.20549
G1 X101.656 Y76.844 E1.22016
G1 X101.847 Y77.305 E1.23484
G1 X101.912 Y77.800 E1.24952
G1 X101.847 Y78.295 E1.26420
G1 X101.656 Y78.756 E1.27887
G1 X101.352 Y79.152 E1.29355
G1 X100.956 Y79.456 E1.30823
G1 X100.495 Y79.647 E1.32291
G1 X100.000 Y79.712 E1.33758
G1 X99.582 Y79.657 E1.34997
G1 X99.397 Y79.160 F7800.000
G1 X98.831 Y79.825
G1 X98.347 Y79.453 F600.000 E1.36792
G1 X97.975 Y78.969 E1.38586
G1 X97.742 Y78.405 E1.40381
G1 X97.662 Y77.800 E1.42176
G1 X97.742 Y77.195 E1.43970
G1 X97.975 Y76.631 E1.45765
G1 X98.347 Y76.147 E1.47560
G1 X98.831 Y75.775 E1.49354
G1 X99.395 Y75.542 E1.51149
G1 X100.000 Y75.462 E1.52944
G1 X100.605 Y75.542 E1.54739
G1 X101.169 Y75.775 E1.56533
G1 X101.653 Y76.147 E1.58328
G1 X102.025 Y76.631 E1.60123
G1 X102.258 Y77.195 E1.61917
G1 X102.338 Y77.800 E1.63712
G1 X102.258 Y78.405 E1.65507
G1 X102.025 Y78.969 E1.67301
G1 X101.653 Y79.453 E1.69096
G1 X101.169 Y79.825 E1.70891
G1 X100.605 Y80.058 E1.72685
G1 X100.000 Y80.138 E1.74480
G1 X99.395 Y80.058 E1.76275
G1 X98.903 Y79.855 E1.77840
G1 X98.854 Y79.306 F7800.000
G1 X98.544 Y79.256
G1 X98.152 Y78.309
G1 X98.152 Y77.291
G1 X98.557 Y76.313
G1 X98.403 Y76.430
G1 X98.982 Y75.934 F600.000 E1.80082
G1 X99.956 Y75.675 E1.83045
G1 X100.600 Y75.761 E1.84955
G1 X101.464 Y76.264 E1.87895
G1 X101.846 Y76.753 E1.89719
G1 X102.122 Y77.816 E1.92949
G1 X101.874 Y78.782 E1.95883
G1 X101.486 Y79.318 E1.97830
G1 X101.018 Y79.666 E1.99544
G1 X100.052 Y79.925 E2.02486
G1 X99.400 Y79.839 E2.04418
G1 X98.536 Y79.336 E2.07358
G1 X98.154 Y78.847 E2.09182
G1 X97.878 Y77.784 E2.12412
G1 X97.954 Y77.236 E2.14041
G1 X98.403 Y76.430 E2.16752
G1 F1800.000 E1.16752
G1 Z1.400 F7800.000
G92 E0
G1 X95.987 Y73.666
G1 X94.236 Y77.738
G1 X92.944 Y84.991
G1 X89.756 Y87.344
G1 Z0.900
G1 F1800.000 E1.00000
G1 X90.152 Y87.648 F600.000 E1.01468
G1 X90.456 Y88.044 E1.02936
G1 X90.647 Y88.505 E1.04403
G1 X90.712 Y89.000 E1.05871
G1 X90.647 Y89.495 E1.07339
G1 X90.456 Y89.956 E1.08807
G1 X90.152 Y90.352 E1.10274
G1 X89.756 Y90.656 E1.11742
G1 X89.295 Y90.847 E1.13210
G1 X88.800 Y90.912 E1.14678
G1 X88.305 Y90.847 E1.16145
G1 X87.844 Y90.656 E1.17613
G1 X87.448 Y90.352 E1.19081
G1 X87.410 Y90.303 E1.19264
G1 X87.144 Y89.956 E1.20549
G1 X86.953 Y89.495 E1.22016
G1 X86.888 Y89.000 E1.23484
G1 X86.953 Y88.505 E1.24952
G1 X87.144 Y88.044 E1.26420
G1 X87.448 Y87.648 E1.27887
G1 X87.795 Y87.382 E1.29172
G1 X87.844 Y87.344 E1.29355
G1 X88.305 Y87.153 E1.30823
G1 X88.800 Y87.088 E1.32291
G1 X89.295 Y87.153 E1.33758
G1 X89.684 Y87.314 E1.34997
G1 X89.734 Y87.843 F7800.000
G1 X90.453 Y87.347
G1 X90.825 Y87.831 F600.000 E1.36792
G1 X91.058 Y88.395 E1.38586
G1 X91.138 Y89.000 E1.40381
G1 X91.058 Y89.605 E1.42176
G1 X90.825 Y90.169 E1.43970
G1 X90.453 Y90.653 E1.45765
G1 X89.969 Y91.025 E1.47560
G1 X89.405 Y91.258 E1.49354
G1 X88.800 Y91.338 E1.51149
G1 X88.195 Y91.258 E1.52944
G1 X87.631 Y91.025 E1.54739
G1 X87.147 Y90.653 E1.56533
G1 X86.775 Y90.169 E1.58328
G1 X86.542 Y89.605 E1.60123
G1 X86.462 Y89.000 E1.61917
G1 X86.542 Y88.395 E1.63712
G1 X86.775 Y87.831 E1.65507
G1 X87.147 Y87.347 E1.67301
G1 X87.631 Y86.975 E1.69096
G1 X88.195 Y86.742 E1.70891
G1 X88.800 Y86.662 E1.72685
G1 X89.405 Y86.742 E1.74480
G1 X89.969 Y86.975 E1.76275
G1 X90.391 Y87.299 E1.77840
G1 X90.297 Y87.842 F7800.000
G1 X90.256 Y87.544
G1 X89.796 Y87.354
G1 X88.499 Y86.944
G1 X87.357 Y87.513
G1 X87.203 Y87.630
G1 X87.782 Y87.134 F600.000 E1.80082
G1 X88.756 Y86.875 E1.83045
G1 X89.400 Y86.961 E1.84955
G1 X90.264 Y87.464 E1.87895
G1 X90.646 Y87.953 E1.89719
G1 X90.922 Y89.016 E1.92949
G1 X90.674 Y89.982 E1.95883
G1 X90.286 Y90.518 E1.97830
G1 X89.818 Y90.866 E1.99544
G1 X88.852 Y91.125 E2.02486
G1 X88.200 Y91.039 E2.04418
G1 X87.336 Y90.536 E2.07358
G1 X86.954 Y90.047 E2.09182
G1 X86.678 Y88.984 E2.12412
G1 X86.754 Y88.436 E2.14041
G1 X87.203 Y87.630 E2.16752
G1 F1800.000 E1.16752
G1 Z1.400 F7800.000
G92 E0
G1 X84.787 Y84.866
G1 X83.036 Y88.938
G1 X84.656 Y93.009
G1 X88.738 Y94.764
G1 X95.987 Y96.066
G1 X98.648 Y98.848
G1 Z0.900
G1 F1800.000 E1.00000
G1 X99.044 Y98.544 F600.000 E1.01468
G1 X99.448 Y98.377 E1.02752
G1 X99.505 Y98.353 E1.02936
G1 X100.000 Y98.288 E1.04403
G1 X100.495 Y98.353 E1.05871
G1 X100.899 Y98.520 E1.07156
G1 X100.956 Y98.544 E1.07339
G1 X101.352 Y98.848 E1.08807
G1 X101.656 Y99.244 E1.10274
G1 X101.680 Y99.301 E1.10457
G1 X101.847 Y99.705 E1.11742
G1 X101.912 Y100.200 E1.13210
G1 X101.847 Y100.695 E1.14678
G1 X101.656 Y101.156 E1.16145
G1 X101.352 Y101.552 E1.17613
G1 X100.956 Y101.856 E1.19081
G1 X100.495 Y102.047 E1.20549
G1 X100.000 Y102.112 E1.22016
G1 X99.505 Y102.047 E1.23484
G1 X99.101 Y101.880 E1.24769
G1 X99.044 Y101.856 E1.24952
G1 X98.648 Y101.552 E1.26420
G1 X98.344 Y101.156 E1.27887
G1 X98.320 Y101.099 E1.28070
G1 X98.153 Y100.695 E1.29355
G1 X98.088 Y100.200 E1.30823
G1 X98.153 Y99.705 E1.32291
G1 X98.344 Y99.244 E1.33758
G1 X98.601 Y98.910 E1.34997
G1 X99.124 Y98.998 F7800.000
G1 X98.831 Y98.175
G1 X99.395 Y97.942 F600.000 E1.36792
G1 X100.000 Y97.862 E1.38586
G1 X100.605 Y97.942 E1.40381
G1 X101.169 Y98.175 E1.42176
G1 X101.653 Y98.547 E1.43970
G1 X102.025 Y99.031 E1.45765
G1 X102.258 Y99.595 E1.47560
G1 X102.338 Y100.200 E1.49354
G1 X102.258 Y100.805 E1.51149
G1 X102.025 Y101.369 E1.52944
G1 X101.653 Y101.853 E1.54739
G1 X101.169 Y102.225 E1.56533
G1 X100.605 Y102.458 E1.58328
G1 X100.000 Y102.538 E1.60123
G1 X99.395 Y102.458 E1.61917
G1 X98.831 Y102.225 E1.63712
G1 X98.347 Y101.853 E1.65507
G1 X97.975 Y101.369 E1.67301
G1 X97.742 Y100.805 E1.69096
G1 X97.662 Y100.200 E1.70891
G1 X97.742 Y99.595 E1.72685
G1 X97.975 Y99.031 E1.74480
G1 X98.347 Y98.547 E1.76275
G1 X98.769 Y98.223 E1.77840
G1 X99.269 Y98.454 F7800.000
G1 X98.403 Y98.830
G1 X98.982 Y98.334 F600.000 E1.80082
G1 X99.956 Y98.075 E1.83045
G1 X100.600 Y98.161 E1.84955
G1 X101.464 Y98.664 E1.87895
G1 X101.846 Y99.153 E1.89719
G1 X102.122 Y100.216 E1.92949
G1 X101.874 Y101.182 E1.95883
G1 X101.486 Y101.718 E1.97830
G1 X101.018 Y102.066 E1.99544
G1 X100.052 Y102.325 E2.02486
G1 X99.400 Y102.239 E2.04418
G1 X98.536 Y101.736 E2.07358
G1 X98.154 Y101.247 E2.09182
G1 X97.878 Y100.184 E2.12412
G1 X97.954 Y99.636 E2.14041
G1 X98.403 Y98.830 E2.16752
G1 F1800.000 E1.16752
G1 Z1.400 F7800.000
G92 E0
G1 X95.987 Y96.066
G1 X99.574 Y94.600
G1 X100.445 Y94.600
G1 X107.056 Y93.009
G1 X109.810 Y90.303
G1 Z0.900
G1 F1800.000 E1.00000
G1 X109.544 Y89.956 F600.000 E1.01285
G1 X109.353 Y89.495 E1.02752
G1 X109.288 Y89.000 E1.04220
G1 X109.353 Y88.505 E1.05688
G1 X109.377 Y88.448 E1.05871
G1 X109.544 Y88.044 E1.07156
G1 X109.848 Y87.648 E1.08623
G1 X110.244 Y87.344 E1.10091
G1 X110.648 Y87.177 E1.11376
G1 X110.705 Y87.153 E1.11559
G1 X111.200 Y87.088 E1.13027
G1 X111.695 Y87.153 E1.14495
G1 X112.099 Y87.320 E1.15779
G1 X112.156 Y87.344 E1.15962
G1 X112.552 Y87.648 E1.17430
G1 X112.856 Y88.044 E1.18898
G1 X112.880 Y88.101 E1.19081
G1 X113.047 Y88.505 E1.20366
G1 X113.112 Y89.000 E1.21833
G1 X113.047 Y89.495 E1.23301
G1 X112.856 Y89.956 E1.24769
G1 X112.552 Y90.352 E1.26237
G1 X112.156 Y90.656 E1.27704
G1 X111.695 Y90.847 E1.29172
