; generated by Slic3r 0.9.8-dev on 2013-01-26 at 11:01:08

; layer_height = 0.4
; perimeters = 3
; top_solid_layers = 3
; bottom_solid_layers = 3
; fill_density = 0.40
; perimeter_speed = 30
; infill_speed = 60
; travel_speed = 130
; scale = 1
; nozzle_diameter = 0.5
; filament_diameter = 3
; extrusion_multiplier = 1
; perimeters extrusion width = 0.53mm
; infill extrusion width = 0.53mm
; first layer extrusion width = 0.80mm

M190 S60 ; wait for bed temperature to be reached
M104 S175 ; set temperature
G28 ; home all axes
G92 E0 ;reset extruder
M109 S175 ; wait for temperature to be reached
G90 ; use absolute coordinates
G21 ; set units to millimeters
G92 E0 ; reset extrusion distance
M82 ; use absolute distances for extrusion
G1 F1800.000 E-1.00000 ; retract
G1 Z1.400 ; move to next layer (0) and lift
G92 E0 ; reset extrusion distance
G1 X48.420 Y121.680 F7800.000 ; move to first skirt point
G1 Z0.400 ; restore layer Z
G1 F1800.000 E1.00000 ; compensate retraction
G1 X48.180 Y120.790 F900.000 E1.03837 ; skirt
G1 X47.890 Y119.300 E1.10156 ; skirt
G1 X47.780 Y118.450 E1.13724 ; skirt
G1 X47.660 Y116.490 E1.21898 ; skirt
G1 X47.660 Y53.500 E3.84110 ; skirt
G1 X47.680 Y53.050 E3.85985 ; skirt
G1 X47.780 Y51.540 E3.92285 ; skirt
G1 X47.890 Y50.700 E3.95811 ; skirt
G1 X48.180 Y49.210 E4.02130 ; skirt
G1 X48.420 Y48.320 E4.05967 ; skirt
G1 X48.910 Y46.890 E4.12260 ; skirt
G1 X49.240 Y46.090 E4.15862 ; skirt
G1 X49.910 Y44.730 E4.22173 ; skirt
G1 X50.330 Y43.990 E4.25715 ; skirt
G1 X51.170 Y42.720 E4.32054 ; skirt
G1 X51.730 Y42.000 E4.35851 ; skirt
G1 X52.730 Y40.860 E4.42163 ; skirt
G1 X53.350 Y40.240 E4.45813 ; skirt
G1 X54.490 Y39.240 E4.52126 ; skirt
G1 X55.210 Y38.680 E4.55923 ; skirt
G1 X56.480 Y37.840 E4.62261 ; skirt
G1 X57.220 Y37.420 E4.65803 ; skirt
G1 X58.580 Y36.750 E4.72115 ; skirt
G1 X59.380 Y36.420 E4.75717 ; skirt
G1 X60.810 Y35.930 E4.82009 ; skirt
G1 X61.700 Y35.690 E4.85847 ; skirt
G1 X63.190 Y35.400 E4.92166 ; skirt
G1 X64.040 Y35.290 E4.95733 ; skirt
G1 X66.020 Y35.170 E5.03991 ; skirt
G1 X115.530 Y35.270 E7.10089 ; skirt
G1 X116.310 Y35.320 E7.13343 ; skirt
G1 X116.820 Y35.400 E7.15492 ; skirt
G1 X118.300 Y35.690 E7.21770 ; skirt
G1 X119.180 Y35.930 E7.25567 ; skirt
G1 X120.610 Y36.420 E7.31859 ; skirt
G1 X121.410 Y36.750 E7.35462 ; skirt
G1 X122.770 Y37.420 E7.41773 ; skirt
G1 X123.570 Y37.880 E7.45614 ; skirt
G1 X124.870 Y38.760 E7.52149 ; skirt
G1 X125.540 Y39.290 E7.55705 ; skirt
G1 X126.640 Y40.260 E7.61810 ; skirt
G1 X127.250 Y40.870 E7.65401 ; skirt
G1 X128.250 Y42.010 E7.71714 ; skirt
G1 X128.770 Y42.680 E7.75245 ; skirt
G1 X129.620 Y43.940 E7.81572 ; skirt
G1 X130.080 Y44.730 E7.85377 ; skirt
G1 X130.750 Y46.090 E7.91688 ; skirt
G1 X131.080 Y46.890 E7.95290 ; skirt
G1 X131.570 Y48.320 E8.01583 ; skirt
G1 X131.810 Y49.210 E8.05420 ; skirt
G1 X132.100 Y50.700 E8.11739 ; skirt
G1 X132.210 Y51.540 E8.15266 ; skirt
G1 X132.330 Y53.500 E8.23440 ; skirt
G1 X132.330 Y116.490 E10.85652 ; skirt
G1 X132.310 Y116.980 E10.87693 ; skirt
G1 X132.200 Y118.500 E10.94037 ; skirt
G1 X132.070 Y119.420 E10.97905 ; skirt
G1 X131.750 Y120.910 E11.04249 ; skirt
G1 X131.520 Y121.710 E11.07714 ; skirt
G1 X131.020 Y123.150 E11.14059 ; skirt
G1 X130.680 Y123.950 E11.17678 ; skirt
G1 X130.000 Y125.310 E11.24007 ; skirt
G1 X129.540 Y126.100 E11.27813 ; skirt
G1 X128.680 Y127.360 E11.34163 ; skirt
G1 X128.160 Y128.030 E11.37694 ; skirt
G1 X127.150 Y129.170 E11.44034 ; skirt
G1 X126.510 Y129.800 E11.47772 ; skirt
G1 X125.350 Y130.800 E11.54148 ; skirt
G1 X124.680 Y131.310 E11.57653 ; skirt
G1 X123.370 Y132.180 E11.64199 ; skirt
G1 X122.560 Y132.640 E11.68077 ; skirt
G1 X121.230 Y133.280 E11.74221 ; skirt
G1 X120.480 Y133.590 E11.77599 ; skirt
G1 X119.040 Y134.080 E11.83931 ; skirt
G1 X118.190 Y134.300 E11.87586 ; skirt
G1 X116.690 Y134.600 E11.93954 ; skirt
G1 X115.810 Y134.720 E11.97651 ; skirt
G1 X113.840 Y134.840 E12.05867 ; skirt
G1 X66.010 Y134.840 E14.04971 ; skirt
G1 X64.000 Y134.710 E14.13356 ; skirt
G1 X63.190 Y134.600 E14.16759 ; skirt
G1 X61.700 Y134.310 E14.23077 ; skirt
G1 X60.810 Y134.070 E14.26915 ; skirt
G1 X59.380 Y133.580 E14.33207 ; skirt
G1 X58.560 Y133.240 E14.36902 ; skirt
G1 X57.150 Y132.540 E14.43455 ; skirt
G1 X56.420 Y132.120 E14.46961 ; skirt
G1 X55.200 Y131.310 E14.53057 ; skirt
G1 X54.490 Y130.760 E14.56796 ; skirt
G1 X53.350 Y129.760 E14.63108 ; skirt
G1 X52.730 Y129.140 E14.66758 ; skirt
G1 X51.730 Y128.000 E14.73071 ; skirt
G1 X51.170 Y127.280 E14.76868 ; skirt
G1 X50.330 Y126.010 E14.83206 ; skirt
G1 X49.910 Y125.270 E14.86748 ; skirt
G1 X49.240 Y123.910 E14.93060 ; skirt
G1 X48.910 Y123.110 E14.96662 ; skirt
G1 X48.456 Y121.784 E15.02495 ; skirt
G1 X48.420 Y121.680 E15.02954 ; skirt
G1 F1800.000 E14.02954 ; retract
G1 Z1.400 ; move to next layer (0) and lift
G92 E0 ; reset extrusion distance
G1 X63.040 Y87.309 F7800.000 ; move to first perimeter point
G1 Z0.400 ; restore layer Z
G1 F1800.000 E1.00000 ; compensate retraction
G1 X62.727 Y88.068 F720.000 E1.03418 ; perimeter
G1 X62.228 Y88.720 E1.06836 ; perimeter
G1 X61.577 Y89.221 E1.10254 ; perimeter
G1 X60.819 Y89.537 E1.13672 ; perimeter
G1 X60.005 Y89.645 E1.17091 ; perimeter
G1 X59.191 Y89.540 E1.20509 ; perimeter
G1 X58.432 Y89.227 E1.23927 ; perimeter
G1 X57.780 Y88.728 E1.27345 ; perimeter
G1 X57.673 Y88.589 E1.28076 ; perimeter
G1 X57.279 Y88.077 E1.30763 ; perimeter
G1 X56.963 Y87.319 E1.34181 ; perimeter
G1 X56.855 Y86.505 E1.37599 ; perimeter
G1 X56.960 Y85.691 E1.41017 ; perimeter
G1 X57.273 Y84.932 E1.44436 ; perimeter
G1 X57.772 Y84.280 E1.47854 ; perimeter
G1 X58.423 Y83.779 E1.51272 ; perimeter
G1 X59.181 Y83.463 E1.54690 ; perimeter
G1 X59.995 Y83.355 E1.58108 ; perimeter
G1 X60.809 Y83.460 E1.61526 ; perimeter
G1 X61.568 Y83.773 E1.64944 ; perimeter
G1 X62.220 Y84.272 E1.68363 ; perimeter
G1 X62.721 Y84.923 E1.71780 ; perimeter
G1 X63.037 Y85.681 E1.75199 ; perimeter
G1 X63.145 Y86.495 E1.78617 ; perimeter
G1 X63.054 Y87.199 E1.81576 ; perimeter
G1 X63.040 Y87.309 E1.82035 ; perimeter
G1 X62.323 Y87.118 F7800.000 ; move to first perimeter point
G1 X62.084 Y87.698 F720.000 E1.84647 ; perimeter
G1 X61.702 Y88.197 E1.87259 ; perimeter
G1 X61.205 Y88.579 E1.89870 ; perimeter
G1 X60.626 Y88.820 E1.92482 ; perimeter
G1 X60.004 Y88.903 E1.95094 ; perimeter
G1 X59.382 Y88.823 E1.97706 ; perimeter
G1 X58.802 Y88.584 E2.00318 ; perimeter
G1 X58.303 Y88.202 E2.02929 ; perimeter
G1 X58.255 Y88.140 E2.03257 ; perimeter
G1 X57.921 Y87.705 E2.05541 ; perimeter
G1 X57.680 Y87.126 E2.08153 ; perimeter
G1 X57.597 Y86.504 E2.10765 ; perimeter
G1 X57.677 Y85.882 E2.13377 ; perimeter
G1 X57.916 Y85.302 E2.15989 ; perimeter
G1 X58.298 Y84.803 E2.18600 ; perimeter
G1 X58.795 Y84.421 E2.21212 ; perimeter
G1 X59.374 Y84.180 E2.23824 ; perimeter
G1 X59.996 Y84.097 E2.26436 ; perimeter
G1 X60.618 Y84.177 E2.29048 ; perimeter
G1 X61.198 Y84.416 E2.31659 ; perimeter
G1 X61.697 Y84.798 E2.34271 ; perimeter
G1 X62.079 Y85.295 E2.36883 ; perimeter
G1 X62.320 Y85.874 E2.39495 ; perimeter
G1 X62.403 Y86.496 E2.42107 ; perimeter
G1 X62.337 Y87.009 E2.44259 ; perimeter
G1 X62.323 Y87.118 E2.44719 ; perimeter
G1 X62.821 Y87.660 F7800.000 ; move inwards before travel
G1 F1800.000 E1.44719 ; retract
G1 Z1.400 ; lift plate during travel
G92 E0 ; reset extrusion distance
G1 X64.869 Y86.883 F7800.000 ; move to first perimeter point
G1 Z0.400 ; restore layer Z
G1 F1800.000 E1.00000 ; compensate retraction
G1 X64.944 Y85.542 F720.000 E1.05591 ; perimeter
G1 X65.365 Y84.267 E1.11183 ; perimeter
G1 X66.101 Y83.143 E1.16775 ; perimeter
G1 X67.102 Y82.248 E1.22366 ; perimeter
G1 X68.302 Y81.643 E1.27958 ; perimeter
G1 X69.368 Y81.421 E1.32492 ; perimeter
G1 X69.617 Y81.369 E1.33549 ; perimeter
G1 X70.958 Y81.444 E1.39141 ; perimeter
G1 X72.233 Y81.865 E1.44732 ; perimeter
G1 X73.357 Y82.601 E1.50324 ; perimeter
G1 X73.526 Y82.790 E1.51381 ; perimeter
G1 X74.252 Y83.602 E1.55915 ; perimeter
G1 X74.857 Y84.802 E1.61507 ; perimeter
G1 X75.131 Y86.117 E1.67098 ; perimeter
G1 X75.056 Y87.458 E1.72690 ; perimeter
G1 X74.635 Y88.733 E1.78281 ; perimeter
G1 X73.899 Y89.857 E1.83873 ; perimeter
G1 X72.898 Y90.752 E1.89464 ; perimeter
G1 X71.698 Y91.357 E1.95056 ; perimeter
G1 X70.383 Y91.631 E2.00647 ; perimeter
G1 X69.042 Y91.556 E2.06239 ; perimeter
G1 X67.767 Y91.135 E2.11830 ; perimeter
G1 X66.643 Y90.399 E2.17422 ; perimeter
G1 X65.748 Y89.398 E2.23013 ; perimeter
G1 X65.143 Y88.198 E2.28605 ; perimeter
G1 X64.891 Y86.991 E2.33737 ; perimeter
G1 X64.869 Y86.883 E2.34196 ; perimeter
G1 X65.609 Y86.828 F7800.000 ; move to first perimeter point
G1 X65.673 Y85.680 F720.000 E2.38981 ; perimeter
G1 X66.033 Y84.589 E2.43767 ; perimeter
G1 X66.663 Y83.627 E2.48552 ; perimeter
G1 X67.520 Y82.861 E2.53337 ; perimeter
G1 X68.547 Y82.343 E2.58122 ; perimeter
G1 X69.518 Y82.141 E2.62254 ; perimeter
G1 X69.672 Y82.109 E2.62908 ; perimeter
G1 X70.820 Y82.173 E2.67693 ; perimeter
G1 X71.911 Y82.533 E2.72478 ; perimeter
G1 X72.873 Y83.163 E2.77263 ; perimeter
G1 X72.978 Y83.280 E2.77917 ; perimeter
G1 X73.639 Y84.020 E2.82048 ; perimeter
G1 X74.157 Y85.047 E2.86834 ; perimeter
G1 X74.391 Y86.172 E2.91619 ; perimeter
G1 X74.327 Y87.320 E2.96404 ; perimeter
G1 X73.967 Y88.411 E3.01189 ; perimeter
G1 X73.337 Y89.373 E3.05975 ; perimeter
G1 X72.480 Y90.139 E3.10760 ; perimeter
G1 X71.453 Y90.657 E3.15545 ; perimeter
G1 X70.328 Y90.891 E3.20330 ; perimeter
G1 X69.180 Y90.827 E3.25115 ; perimeter
G1 X68.089 Y90.467 E3.29901 ; perimeter
G1 X67.127 Y89.837 E3.34686 ; perimeter
G1 X66.361 Y88.980 E3.39471 ; perimeter
G1 X65.843 Y87.953 E3.44256 ; perimeter
G1 X65.631 Y86.936 E3.48582 ; perimeter
G1 X65.609 Y86.828 E3.49041 ; perimeter
G1 X64.961 Y86.480 F7800.000 ; move inwards before travel
G1 F1800.000 E2.49041 ; retract
G1 Z1.400 ; lift plate during travel
G92 E0 ; reset extrusion distance
G1 X77.252 Y86.226 F7800.000 ; move to first perimeter point
G1 Z0.400 ; restore layer Z
G1 F1800.000 E1.00000 ; compensate retraction
G1 X77.442 Y85.335 F900.000 E1.03790 ; perimeter
G1 X77.855 Y84.524 E1.07580 ; perimeter
G1 X78.465 Y83.848 E1.11369 ; perimeter
G1 X79.228 Y83.352 E1.15159 ; perimeter
G1 X80.094 Y83.071 E1.18949 ; perimeter
G1 X81.003 Y83.023 E1.22738 ; perimeter
G1 X82.289 Y83.297 E1.28208 ; perimeter
G1 X82.289 Y81.129 E1.37234 ; perimeter
G1 X97.692 Y81.129 E2.01352 ; perimeter
G1 X97.692 Y83.396 E2.10789 ; perimeter
G1 X98.514 Y83.096 E2.14432 ; perimeter
G1 X99.421 Y83.016 E2.18222 ; perimeter
G1 X100.317 Y83.173 E2.22012 ; perimeter
G1 X101.143 Y83.557 E2.25801 ; perimeter
G1 X101.840 Y84.142 E2.29591 ; perimeter
G1 X102.363 Y84.887 E2.33381 ; perimeter
G1 X102.675 Y85.743 E2.37171 ; perimeter
G1 X102.755 Y86.650 E2.40960 ; perimeter
G1 X102.598 Y87.546 E2.44750 ; perimeter
G1 X102.214 Y88.372 E2.48540 ; perimeter
G1 X101.629 Y89.069 E2.52329 ; perimeter
G1 X100.884 Y89.592 E2.56119 ; perimeter
G1 X100.028 Y89.904 E2.59909 ; perimeter
G1 X99.121 Y89.984 E2.63699 ; perimeter
G1 X98.225 Y89.827 E2.67488 ; perimeter
G1 X97.692 Y89.579 E2.69937 ; perimeter
G1 X97.692 Y91.871 E2.79481 ; perimeter
G1 X82.289 Y91.871 E3.43599 ; perimeter
G1 X82.289 Y89.629 E3.52933 ; perimeter
G1 X81.364 Y89.929 E3.56982 ; perimeter
G1 X80.455 Y89.977 E3.60771 ; perimeter
G1 X79.564 Y89.787 E3.64561 ; perimeter
G1 X78.753 Y89.374 E3.68351 ; perimeter
G1 X78.077 Y88.764 E3.72141 ; perimeter
G1 X77.581 Y88.001 E3.75930 ; perimeter
G1 X77.300 Y87.135 E3.79720 ; perimeter
G1 X77.258 Y86.336 E3.83050 ; perimeter
G1 X77.252 Y86.226 E3.83510 ; perimeter
G1 X77.992 Y86.284 F7800.000 ; move to first perimeter point
G1 X78.141 Y85.583 F900.000 E3.86493 ; perimeter
G1 X78.467 Y84.944 E3.89477 ; perimeter
G1 X78.947 Y84.412 E3.92460 ; perimeter
G1 X79.548 Y84.022 E3.95444 ; perimeter
G1 X80.229 Y83.800 E3.98427 ; perimeter
G1 X80.945 Y83.763 E4.01410 ; perimeter
G1 X81.646 Y83.912 E4.04394 ; perimeter
G1 X82.285 Y84.238 E4.07377 ; perimeter
G1 X83.024 Y84.904 E4.11522 ; perimeter
G1 X83.024 Y81.864 E4.24176 ; perimeter
G1 X96.956 Y81.864 E4.82170 ; perimeter
G1 X96.956 Y84.799 E4.94386 ; perimeter
G1 X98.001 Y84.066 E4.99702 ; perimeter
G1 X98.675 Y83.820 E5.02685 ; perimeter
G1 X99.389 Y83.757 E5.05669 ; perimeter
G1 X100.095 Y83.881 E5.08652 ; perimeter
G1 X100.744 Y84.183 E5.11636 ; perimeter
G1 X101.294 Y84.644 E5.14619 ; perimeter
G1 X101.705 Y85.230 E5.17603 ; perimeter
G1 X101.951 Y85.904 E5.20586 ; perimeter
G1 X102.014 Y86.618 E5.23569 ; perimeter
G1 X101.890 Y87.324 E5.26553 ; perimeter
G1 X101.588 Y87.973 E5.29536 ; perimeter
G1 X101.127 Y88.523 E5.32520 ; perimeter
G1 X100.541 Y88.934 E5.35503 ; perimeter
G1 X99.867 Y89.180 E5.38487 ; perimeter
G1 X99.153 Y89.243 E5.41470 ; perimeter
G1 X98.447 Y89.119 E5.44454 ; perimeter
G1 X97.798 Y88.817 E5.47437 ; perimeter
G1 X96.956 Y88.111 E5.52008 ; perimeter
G1 X96.956 Y91.136 E5.64597 ; perimeter
G1 X83.024 Y91.136 E6.22591 ; perimeter
G1 X83.024 Y88.255 E6.34581 ; perimeter
G1 X81.910 Y88.978 E6.40110 ; perimeter
G1 X81.229 Y89.200 E6.43093 ; perimeter
G1 X80.513 Y89.237 E6.46077 ; perimeter
G1 X79.812 Y89.088 E6.49060 ; perimeter
G1 X79.173 Y88.762 E6.52044 ; perimeter
G1 X78.641 Y88.282 E6.55027 ; perimeter
G1 X78.251 Y87.681 E6.58010 ; perimeter
G1 X78.029 Y87.000 E6.60994 ; perimeter
G1 X77.998 Y86.394 E6.63518 ; perimeter
G1 X77.992 Y86.284 E6.63977 ; perimeter
G1 X78.732 Y86.342 F7800.000 ; move to first perimeter point
G1 X78.841 Y85.831 F720.000 E6.66154 ; perimeter
G1 X79.078 Y85.365 E6.68331 ; perimeter
G1 X79.428 Y84.976 E6.70509 ; perimeter
G1 X79.867 Y84.692 E6.72686 ; perimeter
G1 X80.275 Y84.559 E6.74470 ; perimeter
G1 X80.364 Y84.530 E6.74863 ; perimeter
G1 X80.887 Y84.503 E6.77040 ; perimeter
G1 X81.398 Y84.612 E6.79217 ; perimeter
G1 X81.864 Y84.849 E6.81394 ; perimeter
G1 X82.253 Y85.199 E6.83571 ; perimeter
G1 X82.537 Y85.638 E6.85749 ; perimeter
G1 X82.699 Y86.135 E6.87926 ; perimeter
G1 X82.726 Y86.658 E6.90103 ; perimeter
G1 X82.617 Y87.169 E6.92280 ; perimeter
G1 X82.380 Y87.635 E6.94457 ; perimeter
G1 X82.030 Y88.024 E6.96634 ; perimeter
G1 X81.591 Y88.308 E6.98811 ; perimeter
G1 X81.094 Y88.470 E7.00989 ; perimeter
G1 X80.571 Y88.497 E7.03166 ; perimeter
G1 X80.152 Y88.408 E7.04950 ; perimeter
G1 X80.060 Y88.388 E7.05343 ; perimeter
G1 X79.594 Y88.151 E7.07520 ; perimeter
G1 X79.205 Y87.801 E7.09697 ; perimeter
G1 X78.921 Y87.362 E7.11874 ; perimeter
G1 X78.759 Y86.865 E7.14052 ; perimeter
G1 X78.738 Y86.453 E7.15769 ; perimeter
G1 X78.732 Y86.342 E7.16229 ; perimeter
G1 X78.144 Y85.899 F7800.000 ; move inwards before travel
G1 F1800.000 E6.16229 ; retract
G1 Z1.400 ; lift plate during travel
G92 E0 ; reset extrusion distance
G1 X83.760 Y82.600 F7800.000 ; move to first perimeter point
G1 Z0.400 ; restore layer Z
G1 F1800.000 E1.00000 ; compensate retraction
G1 X96.220 Y82.600 F720.000 E1.51870 ; perimeter
G1 X96.220 Y90.400 E1.84339 ; perimeter
G1 X83.760 Y90.400 E2.36209 ; perimeter
G1 X83.760 Y82.710 E2.68219 ; perimeter
G1 X83.760 Y82.600 E2.68678 ; perimeter
G1 X83.760 Y81.864 F7800.000 ; move inwards before travel
G1 F1800.000 E1.68678 ; retract
G1 Z1.400 ; lift plate during travel
G92 E0 ; reset extrusion distance
G1 X97.360 Y85.899 F7800.000 ; move to first perimeter point
G1 Z0.400 ; restore layer Z
G1 F1800.000 E1.00000 ; compensate retraction
G1 X97.581 Y85.425 F720.000 E1.02177 ; perimeter
G1 X97.916 Y85.024 E1.04354 ; perimeter
G1 X98.345 Y84.724 E1.06531 ; perimeter
G1 X98.836 Y84.544 E1.08709 ; perimeter
G1 X99.357 Y84.498 E1.10886 ; perimeter
G1 X99.872 Y84.589 E1.13063 ; perimeter
G1 X100.346 Y84.809 E1.15240 ; perimeter
G1 X100.675 Y85.085 E1.17024 ; perimeter
G1 X100.747 Y85.145 E1.17417 ; perimeter
G1 X101.047 Y85.574 E1.19594 ; perimeter
G1 X101.227 Y86.065 E1.21771 ; perimeter
G1 X101.273 Y86.586 E1.23949 ; perimeter
G1 X101.182 Y87.101 E1.26126 ; perimeter
G1 X100.961 Y87.575 E1.28303 ; perimeter
G1 X100.626 Y87.976 E1.30480 ; perimeter
G1 X100.197 Y88.276 E1.32657 ; perimeter
G1 X99.706 Y88.456 E1.34834 ; perimeter
G1 X99.185 Y88.502 E1.37011 ; perimeter
