; generated by Slic3r 1.0.1 on 2014-06-21 at 19:58:00

; layer_height = 0.4
; perimeters = 3
; top_solid_layers = 3
; bottom_solid_layers = 3
; fill_density = 0.4
; perimeter_speed = 30
; infill_speed = 60
; travel_speed = 130
; nozzle_diameter = 0.5
; filament_diameter = 3
; extrusion_multiplier = 1
; perimeters extrusion width = 0.50mm
; infill extrusion width = 0.53mm
; solid infill extrusion width = 0.53mm
; top infill extrusion width = 0.53mm
; first layer extrusion width = 0.70mm

G21 ; set units to millimeters
M190 S60 ; wait for bed temperature to be reached
M104 S185 ; set temperature
G28 ; home all axes
G1 Z5 F5000 ; lift nozzle
G92 E0 ;reset extruder
M109 S185 ; wait for temperature to be reached
G90 ; use absolute coordinates
G92 E0 ; reset extrusion distance
M82 ; use absolute distances for extrusion
G1 F1800.000 E-1.00000 ; retract
G1 Z0.850 F7800.000 ; move to next layer (0) and lift
G92 E0 ; reset extrusion distance
G1 X30.800 Y53.960 F7800.000 ; move to first skirt point
G1 Z0.350 F7800.000 ; restore layer Z
G1 E1.00000 F1800.000 ; compensate retraction
G1 X31.950 Y53.350 E1.04235 F540.000 ; skirt
G1 X33.200 Y52.970 E1.08486 ; skirt
G1 X34.500 Y52.840 E1.12737 ; skirt
G1 X165.500 Y52.840 E5.38948 ; skirt
G1 X166.800 Y52.970 E5.43199 ; skirt
G1 X168.050 Y53.350 E5.47449 ; skirt
G1 X169.200 Y53.960 E5.51685 ; skirt
G1 X170.210 Y54.790 E5.55938 ; skirt
G1 X171.040 Y55.800 E5.60191 ; skirt
G1 X171.650 Y56.950 E5.64427 ; skirt
G1 X172.030 Y58.200 E5.68677 ; skirt
G1 X172.160 Y59.500 E5.72928 ; skirt
G1 X172.160 Y118.500 E7.64886 ; skirt
G1 X172.030 Y119.800 E7.69136 ; skirt
G1 X171.650 Y121.050 E7.73387 ; skirt
G1 X171.040 Y122.200 E7.77622 ; skirt
G1 X170.210 Y123.210 E7.81876 ; skirt
G1 X169.200 Y124.040 E7.86129 ; skirt
G1 X168.050 Y124.650 E7.90364 ; skirt
G1 X166.800 Y125.030 E7.94615 ; skirt
G1 X165.500 Y125.160 E7.98866 ; skirt
G1 X34.500 Y125.160 E12.25077 ; skirt
G1 X33.200 Y125.030 E12.29328 ; skirt
G1 X31.950 Y124.650 E12.33578 ; skirt
G1 X30.800 Y124.040 E12.37814 ; skirt
G1 X29.790 Y123.210 E12.42067 ; skirt
G1 X28.960 Y122.200 E12.46320 ; skirt
G1 X28.350 Y121.050 E12.50555 ; skirt
G1 X27.970 Y119.800 E12.54806 ; skirt
G1 X27.840 Y118.500 E12.59057 ; skirt
G1 X27.840 Y59.500 E14.51015 ; skirt
G1 X27.970 Y58.200 E14.55265 ; skirt
G1 X28.350 Y56.950 E14.59516 ; skirt
G1 X28.960 Y55.800 E14.63751 ; skirt
G1 X29.790 Y54.790 E14.68005 ; skirt
G1 X30.724 Y54.023 E14.71937 ; skirt
G1 F1800.000 E13.71937 ; retract
G1 Z0.850 F7800.000 ; lift plate during travel
G92 E0 ; reset extrusion distance
G1 X36.493 Y61.493 F7800.000 ; move to first perimeter point
G1 Z0.350 F7800.000 ; restore layer Z
G1 E1.00000 F1800.000 ; compensate retraction
G1 X60.507 Y61.493 E1.78131 F540.000 ; perimeter
G1 X60.507 Y72.493 E2.13919 ; perimeter
G1 X69.493 Y72.493 E2.43155 ; perimeter
G1 X69.493 Y61.493 E2.78944 ; perimeter
G1 X152.507 Y61.493 E5.49032 ; perimeter
G1 X152.507 Y72.493 E5.84821 ; perimeter
G1 X163.507 Y72.493 E6.20609 ; perimeter
G1 X163.507 Y105.507 E7.28022 ; perimeter
G1 X152.507 Y105.507 E7.63810 ; perimeter
G1 X152.507 Y116.507 E7.99599 ; perimeter
G1 X69.493 Y116.507 E10.69688 ; perimeter
G1 X69.493 Y105.507 E11.05476 ; perimeter
G1 X60.507 Y105.507 E11.34712 ; perimeter
G1 X60.507 Y116.507 E11.70501 ; perimeter
G1 X36.493 Y116.507 E12.48631 ; perimeter
G1 X36.493 Y100.193 E13.01710 ; perimeter
G1 X42.593 Y100.193 E13.21556 ; perimeter
G1 X42.593 Y96.089 E13.34907 ; perimeter
G1 X36.493 Y96.089 E13.54754 ; perimeter
G1 X36.493 Y81.739 E14.01442 ; perimeter
G1 X42.593 Y81.739 E14.21289 ; perimeter
G1 X42.593 Y77.853 E14.33932 ; perimeter
G1 X36.493 Y77.853 E14.53778 ; perimeter
G1 X36.493 Y61.591 E15.06686 ; perimeter
G1 X37.150 Y62.150 F7800.000 ; move to first perimeter point
G1 X59.850 Y62.150 E15.80541 F378.000 ; perimeter
G1 X59.850 Y73.150 E16.16330 ; perimeter
G1 X70.150 Y73.150 E16.49841 ; perimeter
G1 X70.150 Y62.150 E16.85630 ; perimeter
G1 X151.850 Y62.150 E19.51443 ; perimeter
G1 X151.850 Y73.150 E19.87231 ; perimeter
G1 X162.850 Y73.150 E20.23020 ; perimeter
G1 X162.850 Y104.850 E21.26157 ; perimeter
G1 X151.850 Y104.850 E21.61945 ; perimeter
G1 X151.850 Y115.850 E21.97734 ; perimeter
G1 X70.150 Y115.850 E24.63547 ; perimeter
G1 X70.150 Y104.850 E24.99336 ; perimeter
G1 X59.850 Y104.850 E25.32847 ; perimeter
G1 X59.850 Y115.850 E25.68636 ; perimeter
G1 X37.150 Y115.850 E26.42490 ; perimeter
G1 X37.150 Y100.850 E26.91293 ; perimeter
G1 X43.250 Y100.850 E27.11140 ; perimeter
G1 X43.250 Y95.432 E27.28767 ; perimeter
G1 X37.150 Y95.432 E27.48613 ; perimeter
G1 X37.150 Y82.396 E27.91026 ; perimeter
G1 X43.250 Y82.396 E28.10873 ; perimeter
G1 X43.250 Y77.196 E28.27791 ; perimeter
G1 X37.150 Y77.196 E28.47637 ; perimeter
G1 X37.150 Y62.249 E28.96270 ; perimeter
G1 X37.150 Y61.493 F7800.000 ; move inwards before travel
G1 F1800.000 E27.96270 ; retract
G1 Z0.850 F7800.000 ; lift plate during travel
G92 E0 ; reset extrusion distance
G1 X153.164 Y106.164 F7800.000 ; move to first perimeter point
G1 Z0.350 F7800.000 ; restore layer Z
G1 E1.00000 F1800.000 ; compensate retraction
G1 X163.836 Y106.164 E1.34721 F540.000 ; perimeter
G1 X163.836 Y116.836 E1.69441 ; perimeter
G1 X153.164 Y116.836 E2.04162 ; perimeter
G1 X153.164 Y106.263 E2.38562 ; perimeter
G1 F1800.000 E1.38562 ; retract
G1 Z0.850 F7800.000 ; lift plate during travel
G92 E0 ; reset extrusion distance
G1 X153.164 Y71.836 F7800.000 ; move to first perimeter point
G1 Z0.350 F7800.000 ; restore layer Z
G1 E1.00000 F1800.000 ; compensate retraction
G1 X153.164 Y61.164 E1.34721 F540.000 ; perimeter
G1 X163.836 Y61.164 E1.69441 ; perimeter
G1 X163.836 Y71.836 E2.04162 ; perimeter
G1 X153.263 Y71.836 E2.38562 ; perimeter
G1 F1800.000 E1.38562 ; retract
G1 Z0.850 F7800.000 ; lift plate during travel
G92 E0 ; reset extrusion distance
G1 X68.836 Y71.836 F7800.000 ; move to first perimeter point
G1 Z0.350 F7800.000 ; restore layer Z
G1 E1.00000 F1800.000 ; compensate retraction
G1 X61.164 Y71.836 E1.24960 F324.000 ; perimeter
G1 X61.164 Y61.164 E1.59681 ; perimeter
G1 X68.836 Y61.164 E1.84641 ; perimeter
G1 X68.836 Y71.737 E2.19040 ; perimeter
G1 F1800.000 E1.19040 ; retract
G1 Z0.850 F7800.000 ; lift plate during travel
G92 E0 ; reset extrusion distance
G1 X41.936 Y78.510 F7800.000 ; move to first perimeter point
G1 Z0.350 F7800.000 ; restore layer Z
G1 E1.00000 F1800.000 ; compensate retraction
G1 X41.936 Y81.082 E1.08367 F324.000 ; perimeter
G1 X36.164 Y81.082 E1.27145 ; perimeter
G1 X36.164 Y78.510 E1.35512 ; perimeter
G1 X41.837 Y78.510 E1.53970 ; perimeter
G1 F1800.000 E0.53970 ; retract
G1 Z0.850 F7800.000 ; lift plate during travel
G92 E0 ; reset extrusion distance
G1 X41.936 Y96.746 F7800.000 ; move to first perimeter point
G1 Z0.350 F7800.000 ; restore layer Z
G1 E1.00000 F1800.000 ; compensate retraction
G1 X41.936 Y99.536 E1.09075 F324.000 ; perimeter
G1 X36.164 Y99.536 E1.27854 ; perimeter
G1 X36.164 Y96.746 E1.36929 ; perimeter
G1 X41.837 Y96.746 E1.55387 ; perimeter
G1 F1800.000 E0.55387 ; retract
G1 Z0.850 F7800.000 ; lift plate during travel
G92 E0 ; reset extrusion distance
G1 X61.164 Y106.164 F7800.000 ; move to first perimeter point
G1 Z0.350 F7800.000 ; restore layer Z
G1 E1.00000 F1800.000 ; compensate retraction
G1 X68.836 Y106.164 E1.24960 F324.000 ; perimeter
G1 X68.836 Y116.836 E1.59681 ; perimeter
G1 X61.164 Y116.836 E1.84641 ; perimeter
G1 X61.164 Y106.263 E2.19040 ; perimeter
G1 F1800.000 E1.19040 ; retract
G1 Z0.850 F7800.000 ; lift plate during travel
G92 E0 ; reset extrusion distance
G1 X35.507 Y117.493 F7800.000 ; move to first perimeter point
G1 Z0.350 F7800.000 ; restore layer Z
G1 E1.00000 F1800.000 ; compensate retraction
G1 X35.507 Y60.507 E2.85405 F540.000 ; perimeter
G1 X164.493 Y60.507 E7.05063 ; perimeter
G1 X164.493 Y117.493 E8.90467 ; perimeter
G1 X35.606 Y117.493 E13.09805 ; perimeter
G1 X34.850 Y118.150 F7800.000 ; move to first perimeter point
G1 X34.850 Y59.850 E14.99485 F378.000 ; perimeter
G1 X165.150 Y59.850 E19.23419 ; perimeter
G1 X165.150 Y118.150 E21.13099 ; perimeter
G1 X34.949 Y118.150 E25.36713 ; perimeter
G1 X35.179 Y117.581 F7800.000 ; move inwards before travel
G1 X153.651 Y116.369 F7800.000 ; move to first fill point
G1 X153.631 Y116.349 E25.36809 F1080.000 ; fill
G1 X153.631 Y115.378 E25.40116 ; fill
G1 X154.622 Y116.369 E25.44889 ; fill
G1 X155.594 Y116.369 E25.48197 ; fill
G1 X153.631 Y114.406 E25.57647 ; fill
G1 X153.631 Y113.434 E25.60954 ; fill
G1 X156.566 Y116.369 E25.75082 ; fill
G1 X157.538 Y116.369 E25.78389 ; fill
G1 X153.631 Y112.462 E25.97194 ; fill
G1 X153.631 Y111.490 E26.00501 ; fill
G1 X158.510 Y116.369 E26.23982 ; fill
G1 X159.482 Y116.369 E26.27290 ; fill
G1 X153.631 Y110.518 E26.55448 ; fill
G1 X153.631 Y109.546 E26.58756 ; fill
G1 X160.454 Y116.369 E26.91592 ; fill
G1 X161.426 Y116.369 E26.94899 ; fill
G1 X153.631 Y108.574 E27.32412 ; fill
G1 X153.631 Y107.602 E27.35719 ; fill
G1 X162.398 Y116.369 E27.77909 ; fill
G1 X163.359 Y116.359 E27.81182 ; fill
G1 X153.641 Y106.641 E28.27953 ; fill
G1 X154.602 Y106.631 E28.31227 ; fill
G1 X163.369 Y115.398 E28.73417 ; fill
G1 X163.369 Y114.426 E28.76724 ; fill
G1 X155.574 Y106.631 E29.14237 ; fill
G1 X156.546 Y106.631 E29.17544 ; fill
G1 X163.369 Y113.454 E29.50380 ; fill
G1 X163.369 Y112.482 E29.53687 ; fill
G1 X157.518 Y106.631 E29.81846 ; fill
G1 X158.490 Y106.631 E29.85153 ; fill
G1 X163.369 Y111.510 E30.08634 ; fill
G1 X163.369 Y110.538 E30.11942 ; fill
G1 X159.462 Y106.631 E30.30746 ; fill
G1 X160.434 Y106.631 E30.34053 ; fill
G1 X163.369 Y109.566 E30.48181 ; fill
G1 X163.369 Y108.594 E30.51488 ; fill
G1 X161.406 Y106.631 E30.60938 ; fill
G1 X162.378 Y106.631 E30.64246 ; fill
G1 X163.369 Y107.622 E30.69019 ; fill
G1 X163.369 Y106.650 E30.72326 ; fill
G1 X163.349 Y106.631 E30.72422 ; fill
G1 F1800.000 E29.72422 ; retract
G1 Z0.850 F7800.000 ; lift plate during travel
G92 E0 ; reset extrusion distance
G1 X153.651 Y71.369 F7800.000 ; move to first fill point
G1 Z0.350 F7800.000 ; restore layer Z
G1 E1.00000 F1800.000 ; compensate retraction
G1 X153.631 Y71.349 E1.00096 F1080.000 ; fill
G1 X153.631 Y70.378 E1.03403 ; fill
G1 X154.622 Y71.369 E1.08177 ; fill
G1 X155.594 Y71.369 E1.11484 ; fill
G1 X153.631 Y69.406 E1.20934 ; fill
G1 X153.631 Y68.434 E1.24242 ; fill
G1 X156.566 Y71.369 E1.38369 ; fill
G1 X157.538 Y71.369 E1.41676 ; fill
G1 X153.631 Y67.462 E1.60481 ; fill
G1 X153.631 Y66.490 E1.63788 ; fill
G1 X158.510 Y71.369 E1.87270 ; fill
G1 X159.482 Y71.369 E1.90577 ; fill
G1 X153.631 Y65.518 E2.18736 ; fill
G1 X153.631 Y64.546 E2.22043 ; fill
G1 X160.454 Y71.369 E2.54879 ; fill
G1 X161.426 Y71.369 E2.58186 ; fill
G1 X153.631 Y63.574 E2.95699 ; fill
G1 X153.631 Y62.602 E2.99006 ; fill
G1 X162.398 Y71.369 E3.41196 ; fill
G1 X163.359 Y71.359 E3.44470 ; fill
G1 X153.641 Y61.641 E3.91241 ; fill
G1 X154.602 Y61.631 E3.94514 ; fill
G1 X163.369 Y70.398 E4.36704 ; fill
G1 X163.369 Y69.426 E4.40011 ; fill
G1 X155.574 Y61.631 E4.77524 ; fill
G1 X156.546 Y61.631 E4.80831 ; fill
G1 X163.369 Y68.454 E5.13667 ; fill
G1 X163.369 Y67.482 E5.16974 ; fill
G1 X157.518 Y61.631 E5.45133 ; fill
G1 X158.490 Y61.631 E5.48440 ; fill
G1 X163.369 Y66.510 E5.71922 ; fill
G1 X163.369 Y65.538 E5.75229 ; fill
G1 X159.462 Y61.631 E5.94034 ; fill
G1 X160.434 Y61.631 E5.97341 ; fill
G1 X163.369 Y64.566 E6.11468 ; fill
G1 X163.369 Y63.594 E6.14775 ; fill
G1 X161.406 Y61.631 E6.24226 ; fill
G1 X162.378 Y61.631 E6.27533 ; fill
G1 X163.369 Y62.622 E6.32306 ; fill
G1 X163.369 Y61.651 E6.35613 ; fill
G1 X163.349 Y61.631 E6.35710 ; fill
G1 X68.369 Y61.651 F7800.000 ; move to first fill point
G1 X68.349 Y61.631 E6.35805 F1080.000 ; fill
G1 X67.383 Y61.631 E6.39079 ; fill
G1 X68.369 Y62.617 E6.43804 ; fill
G1 X68.369 Y63.584 E6.47077 ; fill
G1 X66.416 Y61.631 E6.56432 ; fill
G1 X65.449 Y61.631 E6.59706 ; fill
G1 X68.369 Y64.551 E6.73690 ; fill
G1 X68.369 Y65.518 E6.76963 ; fill
G1 X64.482 Y61.631 E6.95577 ; fill
G1 X63.515 Y61.631 E6.98850 ; fill
G1 X68.369 Y66.485 E7.22094 ; fill
G1 X68.369 Y67.452 E7.25367 ; fill
G1 X62.548 Y61.631 E7.53240 ; fill
G1 X61.631 Y61.680 E7.56350 ; fill
G1 X68.369 Y68.419 E7.88614 ; fill
G1 X68.369 Y69.386 E7.91888 ; fill
G1 X61.631 Y62.647 E8.24153 ; fill
G1 X61.631 Y63.614 E8.27426 ; fill
G1 X68.369 Y70.353 E8.59691 ; fill
G1 X68.369 Y71.320 E8.62964 ; fill
G1 X61.631 Y64.581 E8.95229 ; fill
G1 X61.631 Y65.548 E8.98503 ; fill
G1 X67.452 Y71.369 E9.26375 ; fill
G1 X66.485 Y71.369 E9.29649 ; fill
G1 X61.631 Y66.515 E9.52892 ; fill
G1 X61.631 Y67.482 E9.56165 ; fill
G1 X65.518 Y71.369 E9.74779 ; fill
G1 X64.551 Y71.369 E9.78053 ; fill
G1 X61.631 Y68.449 E9.92037 ; fill
G1 X61.631 Y69.416 E9.95310 ; fill
G1 X63.584 Y71.369 E10.04665 ; fill
G1 X62.617 Y71.369 E10.07939 ; fill
G1 X61.631 Y70.383 E10.12664 ; fill
G1 X61.631 Y71.349 E10.15937 ; fill
G1 X61.651 Y71.369 E10.16033 ; fill
G1 F1800.000 E9.16033 ; retract
G1 Z0.850 F7800.000 ; lift plate during travel
G92 E0 ; reset extrusion distance
G1 X41.449 Y78.977 F7800.000 ; move to first fill point
G1 Z0.350 F7800.000 ; restore layer Z
G1 E1.00000 F1800.000 ; compensate retraction
G1 X41.469 Y78.997 E1.00106 F1080.000 ; fill
G1 X41.469 Y80.070 E1.04137 ; fill
G1 X40.376 Y78.977 E1.09944 ; fill
G1 X39.304 Y78.977 E1.13975 ; fill
G1 X40.942 Y80.616 E1.22683 ; fill
G1 X39.869 Y80.616 E1.26714 ; fill
G1 X38.231 Y78.977 E1.35421 ; fill
G1 X37.158 Y78.977 E1.39452 ; fill
G1 X38.796 Y80.616 E1.48160 ; fill
G1 X37.724 Y80.616 E1.52191 ; fill
G1 X36.631 Y79.523 E1.57998 ; fill
G1 X36.631 Y80.596 E1.62029 ; fill
G1 X36.651 Y80.616 E1.62135 ; fill
G1 F1800.000 E0.62135 ; retract
G1 Z0.850 F7800.000 ; lift plate during travel
G92 E0 ; reset extrusion distance
G1 X41.469 Y97.233 F7800.000 ; move to first fill point
G1 Z0.350 F7800.000 ; restore layer Z
G1 E1.00000 F1800.000 ; compensate retraction
G1 X41.449 Y97.213 E1.00094 F1080.000 ; fill
G1 X40.499 Y97.213 E1.03259 ; fill
G1 X41.469 Y98.184 E1.07830 ; fill
G1 X41.405 Y99.069 E1.10787 ; fill
G1 X39.548 Y97.213 E1.19528 ; fill
G1 X38.597 Y97.213 E1.22693 ; fill
G1 X40.454 Y99.069 E1.31435 ; fill
G1 X39.503 Y99.069 E1.34600 ; fill
G1 X37.646 Y97.213 E1.43341 ; fill
G1 X36.695 Y97.213 E1.46507 ; fill
G1 X38.552 Y99.069 E1.55248 ; fill
G1 X37.601 Y99.069 E1.58413 ; fill
G1 X36.631 Y98.099 E1.62984 ; fill
G1 X36.631 Y99.049 E1.66149 ; fill
G1 X36.651 Y99.069 E1.66243 ; fill
G1 F1800.000 E0.66243 ; retract
G1 Z0.850 F7800.000 ; lift plate during travel
G92 E0 ; reset extrusion distance
G1 X61.651 Y116.369 F7800.000 ; move to first fill point
G1 Z0.350 F7800.000 ; restore layer Z
G1 E1.00000 F1800.000 ; compensate retraction
G1 X61.631 Y116.349 E1.00096 F1080.000 ; fill
G1 X61.631 Y115.383 E1.03369 ; fill
G1 X62.617 Y116.369 E1.08095 ; fill
G1 X63.584 Y116.369 E1.11368 ; fill
G1 X61.631 Y114.416 E1.20723 ; fill
G1 X61.631 Y113.449 E1.23996 ; fill
G1 X64.551 Y116.369 E1.37981 ; fill
G1 X65.518 Y116.369 E1.41254 ; fill
G1 X61.631 Y112.482 E1.59868 ; fill
G1 X61.631 Y111.515 E1.63141 ; fill
G1 X66.485 Y116.369 E1.86384 ; fill
G1 X67.452 Y116.369 E1.89658 ; fill
G1 X61.631 Y110.548 E2.17531 ; fill
G1 X61.631 Y109.581 E2.20804 ; fill
G1 X68.369 Y116.320 E2.53069 ; fill
G1 X68.369 Y115.353 E2.56342 ; fill
G1 X61.631 Y108.614 E2.88607 ; fill
G1 X61.631 Y107.647 E2.91880 ; fill
G1 X68.369 Y114.386 E3.24145 ; fill
G1 X68.369 Y113.419 E3.27419 ; fill
G1 X61.631 Y106.680 E3.59683 ; fill
G1 X62.548 Y106.631 E3.62793 ; fill
G1 X68.369 Y112.452 E3.90666 ; fill
G1 X68.369 Y111.485 E3.93940 ; fill
G1 X63.515 Y106.631 E4.17183 ; fill
G1 X64.482 Y106.631 E4.20456 ; fill
G1 X68.369 Y110.518 E4.39070 ; fill
G1 X68.369 Y109.551 E4.42343 ; fill
G1 X65.449 Y106.631 E4.56327 ; fill
G1 X66.416 Y106.631 E4.59601 ; fill
G1 X68.369 Y108.584 E4.68956 ; fill
G1 X68.369 Y107.617 E4.72229 ; fill
G1 X67.383 Y106.631 E4.76954 ; fill
G1 X68.349 Y106.631 E4.80228 ; fill
G1 X68.369 Y106.651 E4.80324 ; fill
G1 X69.709 Y116.966 F7800.000 ; move to first fill point
G1 X69.778 Y117.034 E4.80481 F360.000 ; fill
G1 X70.173 Y116.966 E4.81132 F360.000 ; fill
