; generated by Slic3r 0.9.8-dev on 2012-12-31 at 11:16:12

; layer_height = 0.4
; perimeters = 3
; top_solid_layers = 3
; bottom_solid_layers = 3
; fill_density = 0.40
; perimeter_speed = 30
; infill_speed = 60
; travel_speed = 130
; scale = 1
; nozzle_diameter = 0.5
; filament_diameter = 3
; extrusion_multiplier = 1
; perimeters extrusion width = 0.53mm
; infill extrusion width = 0.53mm
; first layer extrusion width = 0.80mm

M190 S60 ; wait for bed temperature to be reached
M104 S185 ; set temperature
M104 S185 ; set extruder temperature
G28 ; home all axes
M109 S185 ; wait for temperature to be reached
G90 ; use absolute coordinates
G21 ; set units to millimeters
G92 E0 ; reset extrusion distance
M82 ; use absolute distances for extrusion
G1 F1800.000 E-1.00000 ; retract
G92 E0 ; reset extrusion distance
G1 Z0.400 F7800.000 ; move to next layer (0)
G1 X143.070 Y103.605 ; move to first skirt point
G1 F1800.000 E1.00000 ; compensate retraction
G1 X140.550 Y120.175 F540.000 E1.69770 ; skirt
G1 X140.340 Y121.225 E1.74227 ; skirt
G1 X140.040 Y122.085 E1.78019 ; skirt
G1 X139.640 Y122.905 E1.81817 ; skirt
G1 X139.480 Y123.185 E1.83159 ; skirt
G1 X139.110 Y123.735 E1.85919 ; skirt
G1 X133.180 Y130.915 E2.24683 ; skirt
G1 X132.570 Y131.505 E2.28216 ; skirt
G1 X131.900 Y132.015 E2.31721 ; skirt
G1 X131.170 Y132.435 E2.35227 ; skirt
G1 X130.390 Y132.765 E2.38752 ; skirt
G1 X129.850 Y132.925 E2.41097 ; skirt
G1 X129.290 Y133.045 E2.43481 ; skirt
G1 X128.730 Y133.115 E2.45830 ; skirt
G1 X128.170 Y133.145 E2.48165 ; skirt
G1 X69.280 Y133.145 E4.93309 ; skirt
G1 X68.720 Y133.115 E4.95644 ; skirt
G1 X67.880 Y132.995 E4.99176 ; skirt
G1 X67.330 Y132.855 E5.01539 ; skirt
G1 X67.060 Y132.765 E5.02723 ; skirt
G1 X66.280 Y132.435 E5.06249 ; skirt
G1 X65.790 Y132.165 E5.08578 ; skirt
G1 X65.320 Y131.855 E5.10922 ; skirt
G1 X64.880 Y131.505 E5.13262 ; skirt
G1 X64.270 Y130.915 E5.16795 ; skirt
G1 X58.340 Y123.735 E5.55559 ; skirt
G1 X57.970 Y123.185 E5.58319 ; skirt
G1 X57.810 Y122.905 E5.59661 ; skirt
G1 X57.540 Y122.355 E5.62211 ; skirt
G1 X57.270 Y121.725 E5.65065 ; skirt
G1 X57.070 Y121.075 E5.67896 ; skirt
G1 X56.900 Y120.115 E5.71954 ; skirt
G1 X56.830 Y119.165 E5.75919 ; skirt
G1 X56.840 Y63.165 E8.09034 ; skirt
G1 X56.910 Y62.225 E8.12958 ; skirt
G1 X58.470 Y51.155 E8.59495 ; skirt
G1 X58.610 Y50.435 E8.62548 ; skirt
G1 X58.880 Y49.575 E8.66300 ; skirt
G1 X59.070 Y49.075 E8.68527 ; skirt
G1 X59.430 Y48.345 E8.71915 ; skirt
G1 X59.870 Y47.675 E8.75252 ; skirt
G1 X60.390 Y47.055 E8.78620 ; skirt
G1 X60.980 Y46.505 E8.81978 ; skirt
G1 X61.640 Y46.035 E8.85351 ; skirt
G1 X62.340 Y45.635 E8.88707 ; skirt
G1 X62.830 Y45.425 E8.90926 ; skirt
G1 X63.340 Y45.255 E8.93164 ; skirt
G1 X63.600 Y45.175 E8.94296 ; skirt
G1 X64.130 Y45.065 E8.96549 ; skirt
G1 X64.930 Y44.975 E8.99901 ; skirt
G1 X65.200 Y44.965 E9.01025 ; skirt
G1 X65.740 Y44.985 E9.03275 ; skirt
G1 X128.640 Y49.365 E11.65746 ; skirt
G1 X129.180 Y49.425 E11.68008 ; skirt
G1 X129.720 Y49.525 E11.70294 ; skirt
G1 X130.500 Y49.765 E11.73691 ; skirt
G1 X131.000 Y49.975 E11.75949 ; skirt
G1 X131.490 Y50.225 E11.78239 ; skirt
G1 X132.170 Y50.665 E11.81610 ; skirt
G1 X132.600 Y51.015 E11.83918 ; skirt
G1 X133.000 Y51.385 E11.86186 ; skirt
G1 X133.360 Y51.795 E11.88458 ; skirt
G1 X138.820 Y58.395 E12.24115 ; skirt
G1 X139.240 Y58.945 E12.26995 ; skirt
G1 X139.560 Y59.425 E12.29397 ; skirt
G1 X139.830 Y59.925 E12.31762 ; skirt
G1 X139.950 Y60.195 E12.32992 ; skirt
G1 X142.490 Y65.965 E12.59236 ; skirt
G1 X142.870 Y67.035 E12.63962 ; skirt
G1 X142.930 Y67.265 E12.64952 ; skirt
G1 X143.030 Y67.725 E12.66911 ; skirt
G1 X143.100 Y68.195 E12.68889 ; skirt
G1 X143.170 Y69.215 E12.73145 ; skirt
G1 X143.170 Y102.345 E14.11057 ; skirt
G1 X143.082 Y103.495 E14.15860 ; skirt
G1 X143.070 Y103.605 E14.16319 ; skirt
G1 F1800.000 E13.16319 ; retract
G92 E0 ; reset extrusion distance
G1 X125.379 Y122.083 F7800.000 ; move to first perimeter point
G1 F1800.000 E1.00000 ; compensate retraction
G1 X125.623 Y122.316 F144.000 E1.01404 ; perimeter
G1 X125.852 Y122.643 E1.03065 ; perimeter
G1 X125.976 Y122.888 E1.04210 ; perimeter
G1 X126.074 Y123.211 E1.05614 ; perimeter
G1 X126.117 Y123.546 E1.07018 ; perimeter
G1 X126.103 Y123.883 E1.08423 ; perimeter
G1 X126.032 Y124.212 E1.09827 ; perimeter
G1 X125.906 Y124.525 E1.11231 ; perimeter
G1 X125.729 Y124.813 E1.12636 ; perimeter
G1 X125.506 Y125.066 E1.14040 ; perimeter
G1 X125.244 Y125.278 E1.15444 ; perimeter
G1 X124.949 Y125.442 E1.16848 ; perimeter
G1 X124.631 Y125.555 E1.18253 ; perimeter
G1 X124.130 Y125.641 E1.20369 ; perimeter
G1 X123.629 Y125.555 E1.22486 ; perimeter
G1 X123.311 Y125.442 E1.23891 ; perimeter
G1 X123.016 Y125.278 E1.25295 ; perimeter
G1 X122.754 Y125.066 E1.26699 ; perimeter
G1 X122.531 Y124.813 E1.28103 ; perimeter
G1 X122.354 Y124.525 E1.29508 ; perimeter
G1 X122.228 Y124.212 E1.30912 ; perimeter
G1 X122.157 Y123.883 E1.32316 ; perimeter
G1 X122.143 Y123.546 E1.33721 ; perimeter
G1 X122.186 Y123.211 E1.35125 ; perimeter
G1 X122.284 Y122.888 E1.36529 ; perimeter
G1 X122.436 Y122.587 E1.37933 ; perimeter
G1 X122.682 Y122.273 E1.39594 ; perimeter
G1 X122.880 Y122.083 E1.40739 ; perimeter
G1 X123.160 Y121.894 E1.42143 ; perimeter
G1 X123.467 Y121.755 E1.43548 ; perimeter
G1 X123.794 Y121.670 E1.44952 ; perimeter
G1 X124.130 Y121.641 E1.46356 ; perimeter
G1 X124.466 Y121.670 E1.47760 ; perimeter
G1 X124.793 Y121.755 E1.49165 ; perimeter
G1 X125.100 Y121.894 E1.50569 ; perimeter
G1 X125.288 Y122.021 E1.51514 ; perimeter
G1 X125.379 Y122.083 E1.51973 ; perimeter
G1 X126.073 Y121.838 F7800.000 ; move inwards before travel
G1 F1800.000 E0.51973 ; retract
G92 E0 ; reset extrusion distance
G1 X124.299 Y60.842 F7800.000 ; move to first perimeter point
G1 F1800.000 E1.00000 ; compensate retraction
G1 X123.961 Y60.842 F144.000 E1.01404 ; perimeter
G1 X123.629 Y60.785 E1.02809 ; perimeter
G1 X123.311 Y60.672 E1.04213 ; perimeter
G1 X123.016 Y60.508 E1.05617 ; perimeter
G1 X122.754 Y60.296 E1.07021 ; perimeter
G1 X122.531 Y60.043 E1.08426 ; perimeter
G1 X122.354 Y59.755 E1.09830 ; perimeter
G1 X122.228 Y59.442 E1.11235 ; perimeter
G1 X122.157 Y59.113 E1.12639 ; perimeter
G1 X122.143 Y58.776 E1.14043 ; perimeter
G1 X122.186 Y58.441 E1.15447 ; perimeter
G1 X122.284 Y58.118 E1.16852 ; perimeter
G1 X122.436 Y57.817 E1.18256 ; perimeter
G1 X122.637 Y57.546 E1.19660 ; perimeter
G1 X122.881 Y57.313 E1.21065 ; perimeter
G1 X123.160 Y57.124 E1.22469 ; perimeter
G1 X123.467 Y56.985 E1.23873 ; perimeter
G1 X123.794 Y56.900 E1.25277 ; perimeter
G1 X124.130 Y56.871 E1.26682 ; perimeter
G1 X124.466 Y56.900 E1.28086 ; perimeter
G1 X124.793 Y56.985 E1.29490 ; perimeter
G1 X125.152 Y57.159 E1.31151 ; perimeter
G1 X125.379 Y57.313 E1.32296 ; perimeter
G1 X125.623 Y57.546 E1.33700 ; perimeter
G1 X125.824 Y57.817 E1.35104 ; perimeter
G1 X125.976 Y58.118 E1.36509 ; perimeter
G1 X126.074 Y58.441 E1.37913 ; perimeter
G1 X126.115 Y58.838 E1.39574 ; perimeter
G1 X126.103 Y59.113 E1.40718 ; perimeter
G1 X126.032 Y59.442 E1.42123 ; perimeter
G1 X125.906 Y59.755 E1.43527 ; perimeter
G1 X125.729 Y60.043 E1.44931 ; perimeter
G1 X125.506 Y60.296 E1.46336 ; perimeter
G1 X125.244 Y60.508 E1.47740 ; perimeter
G1 X124.949 Y60.672 E1.49144 ; perimeter
G1 X124.631 Y60.785 E1.50549 ; perimeter
G1 X124.407 Y60.823 E1.51494 ; perimeter
G1 X124.299 Y60.842 E1.51953 ; perimeter
G1 X123.968 Y61.499 F7800.000 ; move inwards before travel
G1 F1800.000 E0.51953 ; retract
G92 E0 ; reset extrusion distance
G1 X75.303 Y59.113 F7800.000 ; move to first perimeter point
G1 F1800.000 E1.00000 ; compensate retraction
G1 X75.232 Y59.442 F144.000 E1.01404 ; perimeter
G1 X75.106 Y59.755 E1.02809 ; perimeter
G1 X74.929 Y60.043 E1.04213 ; perimeter
G1 X74.706 Y60.296 E1.05617 ; perimeter
G1 X74.444 Y60.508 E1.07021 ; perimeter
G1 X74.149 Y60.672 E1.08426 ; perimeter
G1 X73.831 Y60.785 E1.09830 ; perimeter
G1 X73.499 Y60.842 E1.11234 ; perimeter
G1 X73.161 Y60.842 E1.12639 ; perimeter
G1 X72.770 Y60.764 E1.14299 ; perimeter
G1 X72.511 Y60.672 E1.15444 ; perimeter
G1 X72.216 Y60.508 E1.16848 ; perimeter
G1 X71.954 Y60.296 E1.18253 ; perimeter
G1 X71.731 Y60.043 E1.19657 ; perimeter
G1 X71.554 Y59.755 E1.21061 ; perimeter
G1 X71.428 Y59.442 E1.22466 ; perimeter
G1 X71.357 Y59.113 E1.23870 ; perimeter
G1 X71.343 Y58.776 E1.25274 ; perimeter
G1 X71.386 Y58.441 E1.26678 ; perimeter
G1 X71.484 Y58.118 E1.28083 ; perimeter
G1 X71.636 Y57.817 E1.29487 ; perimeter
G1 X71.837 Y57.546 E1.30892 ; perimeter
G1 X72.080 Y57.313 E1.32296 ; perimeter
G1 X72.360 Y57.124 E1.33700 ; perimeter
G1 X72.667 Y56.985 E1.35104 ; perimeter
G1 X72.994 Y56.900 E1.36509 ; perimeter
G1 X73.330 Y56.871 E1.37913 ; perimeter
G1 X73.666 Y56.900 E1.39317 ; perimeter
G1 X73.993 Y56.985 E1.40722 ; perimeter
G1 X74.300 Y57.124 E1.42126 ; perimeter
G1 X74.579 Y57.313 E1.43530 ; perimeter
G1 X74.823 Y57.546 E1.44934 ; perimeter
G1 X75.024 Y57.817 E1.46339 ; perimeter
G1 X75.176 Y58.118 E1.47743 ; perimeter
G1 X75.274 Y58.441 E1.49147 ; perimeter
G1 X75.317 Y58.776 E1.50552 ; perimeter
G1 X75.308 Y59.002 E1.51497 ; perimeter
G1 X75.303 Y59.113 E1.51956 ; perimeter
G1 X75.875 Y59.575 F7800.000 ; move inwards before travel
G1 F1800.000 E0.51956 ; retract
G92 E0 ; reset extrusion distance
G1 X75.915 Y64.709 F7800.000 ; move to first perimeter point
G1 F1800.000 E1.00000 ; compensate retraction
G1 X76.247 Y64.736 F540.000 E1.01388 ; perimeter
G1 X76.614 Y64.824 E1.02961 ; perimeter
G1 X76.964 Y64.969 E1.04535 ; perimeter
G1 X77.286 Y65.166 E1.06109 ; perimeter
G1 X77.573 Y65.412 E1.07682 ; perimeter
G1 X77.966 Y65.871 E1.10195 ; perimeter
G1 X78.366 Y65.487 E1.12502 ; perimeter
G1 X78.660 Y65.289 E1.13979 ; perimeter
G1 X78.983 Y65.142 E1.15456 ; perimeter
G1 X79.326 Y65.053 E1.16934 ; perimeter
G1 X79.680 Y65.023 E1.18411 ; perimeter
G1 X80.034 Y65.053 E1.19888 ; perimeter
G1 X80.377 Y65.142 E1.21365 ; perimeter
G1 X80.700 Y65.289 E1.22843 ; perimeter
G1 X80.994 Y65.487 E1.24320 ; perimeter
G1 X81.394 Y65.871 E1.26626 ; perimeter
G1 X81.786 Y65.412 E1.29139 ; perimeter
G1 X82.074 Y65.166 E1.30713 ; perimeter
G1 X82.396 Y64.969 E1.32287 ; perimeter
G1 X82.746 Y64.824 E1.33861 ; perimeter
G1 X83.113 Y64.736 E1.35434 ; perimeter
G1 X83.445 Y64.709 E1.36822 ; perimeter
G1 X129.255 Y64.709 E3.27514 ; perimeter
G1 X129.587 Y64.736 E3.28902 ; perimeter
G1 X129.954 Y64.824 E3.30475 ; perimeter
G1 X130.304 Y64.969 E3.32049 ; perimeter
G1 X130.626 Y65.166 E3.33623 ; perimeter
G1 X130.914 Y65.412 E3.35196 ; perimeter
G1 X131.159 Y65.699 E3.36770 ; perimeter
G1 X131.357 Y66.021 E3.38343 ; perimeter
G1 X131.501 Y66.371 E3.39917 ; perimeter
G1 X131.589 Y66.738 E3.41491 ; perimeter
G1 X131.616 Y67.070 E3.42878 ; perimeter
G1 X131.616 Y69.022 E3.51002 ; perimeter
G1 X131.558 Y69.706 E3.53857 ; perimeter
G1 X132.104 Y69.752 E3.56137 ; perimeter
G1 X132.447 Y69.841 E3.57614 ; perimeter
G1 X132.770 Y69.988 E3.59091 ; perimeter
G1 X133.064 Y70.186 E3.60568 ; perimeter
G1 X133.321 Y70.432 E3.62046 ; perimeter
G1 X133.532 Y70.717 E3.63523 ; perimeter
G1 X133.691 Y71.034 E3.65000 ; perimeter
G1 X133.795 Y71.373 E3.66477 ; perimeter
G1 X133.840 Y71.725 E3.67954 ; perimeter
G1 X133.825 Y72.080 E3.69432 ; perimeter
G1 X133.750 Y72.427 E3.70909 ; perimeter
G1 X133.618 Y72.756 E3.72386 ; perimeter
G1 X133.432 Y73.058 E3.73864 ; perimeter
G1 X133.008 Y73.540 E3.76536 ; perimeter
G1 X133.454 Y73.921 E3.78975 ; perimeter
G1 X133.699 Y74.208 E3.80548 ; perimeter
G1 X133.897 Y74.530 E3.82122 ; perimeter
G1 X134.041 Y74.880 E3.83696 ; perimeter
G1 X134.129 Y75.247 E3.85269 ; perimeter
G1 X134.156 Y75.579 E3.86657 ; perimeter
G1 X134.156 Y95.989 E4.71616 ; perimeter
G1 X134.129 Y96.321 E4.73003 ; perimeter
G1 X134.041 Y96.689 E4.74576 ; perimeter
G1 X133.897 Y97.038 E4.76150 ; perimeter
G1 X133.699 Y97.360 E4.77724 ; perimeter
G1 X133.454 Y97.648 E4.79297 ; perimeter
G1 X132.984 Y98.049 E4.81870 ; perimeter
G1 X133.321 Y98.372 E4.83812 ; perimeter
G1 X133.532 Y98.657 E4.85289 ; perimeter
G1 X133.691 Y98.974 E4.86767 ; perimeter
G1 X133.795 Y99.313 E4.88244 ; perimeter
G1 X133.840 Y99.665 E4.89721 ; perimeter
G1 X133.825 Y100.020 E4.91198 ; perimeter
G1 X133.750 Y100.367 E4.92676 ; perimeter
G1 X133.618 Y100.696 E4.94153 ; perimeter
G1 X133.432 Y100.998 E4.95630 ; perimeter
G1 X133.198 Y101.265 E4.97107 ; perimeter
G1 X132.922 Y101.488 E4.98585 ; perimeter
G1 X132.612 Y101.661 E5.00062 ; perimeter
G1 X132.277 Y101.779 E5.01539 ; perimeter
G1 X131.927 Y101.839 E5.03016 ; perimeter
G1 X131.556 Y101.839 E5.04562 ; perimeter
G1 X131.616 Y102.546 E5.07517 ; perimeter
G1 X131.616 Y115.420 E5.61107 ; perimeter
G1 X131.589 Y115.752 E5.62494 ; perimeter
G1 X131.501 Y116.120 E5.64068 ; perimeter
G1 X131.357 Y116.469 E5.65641 ; perimeter
G1 X131.159 Y116.791 E5.67215 ; perimeter
G1 X130.914 Y117.079 E5.68789 ; perimeter
G1 X130.626 Y117.324 E5.70363 ; perimeter
G1 X130.304 Y117.522 E5.71936 ; perimeter
G1 X129.954 Y117.666 E5.73510 ; perimeter
G1 X129.587 Y117.755 E5.75084 ; perimeter
G1 X129.255 Y117.781 E5.76471 ; perimeter
G1 X84.716 Y117.781 E7.61876 ; perimeter
G1 X84.383 Y117.755 E7.63264 ; perimeter
G1 X84.016 Y117.666 E7.64838 ; perimeter
G1 X83.666 Y117.522 E7.66412 ; perimeter
G1 X83.344 Y117.324 E7.67985 ; perimeter
G1 X83.056 Y117.079 E7.69559 ; perimeter
G1 X82.690 Y116.650 E7.71908 ; perimeter
G1 X82.122 Y117.109 E7.74949 ; perimeter
G1 X81.812 Y117.282 E7.76426 ; perimeter
G1 X81.477 Y117.400 E7.77904 ; perimeter
G1 X81.127 Y117.460 E7.79381 ; perimeter
G1 X80.773 Y117.460 E7.80858 ; perimeter
G1 X80.423 Y117.400 E7.82335 ; perimeter
G1 X80.088 Y117.282 E7.83812 ; perimeter
G1 X79.778 Y117.108 E7.85290 ; perimeter
G1 X79.210 Y116.650 E7.88331 ; perimeter
G1 X78.844 Y117.079 E7.90680 ; perimeter
G1 X78.556 Y117.324 E7.92253 ; perimeter
G1 X78.234 Y117.522 E7.93827 ; perimeter
G1 X77.884 Y117.666 E7.95401 ; perimeter
G1 X77.517 Y117.755 E7.96975 ; perimeter
G1 X77.185 Y117.781 E7.98362 ; perimeter
G1 X68.206 Y117.781 E8.35740 ; perimeter
G1 X67.873 Y117.755 E8.37128 ; perimeter
G1 X67.506 Y117.666 E8.38701 ; perimeter
G1 X67.156 Y117.522 E8.40275 ; perimeter
G1 X66.834 Y117.324 E8.41849 ; perimeter
G1 X66.546 Y117.079 E8.43422 ; perimeter
G1 X66.301 Y116.791 E8.44996 ; perimeter
G1 X66.103 Y116.469 E8.46570 ; perimeter
G1 X65.959 Y116.120 E8.48143 ; perimeter
G1 X65.871 Y115.752 E8.49717 ; perimeter
G1 X65.844 Y115.420 E8.51105 ; perimeter
G1 X65.844 Y67.071 E10.52370 ; perimeter
G1 X65.871 Y66.738 E10.53758 ; perimeter
G1 X65.959 Y66.371 E10.55331 ; perimeter
G1 X66.103 Y66.021 E10.56905 ; perimeter
G1 X66.301 Y65.699 E10.58479 ; perimeter
G1 X66.546 Y65.412 E10.60052 ; perimeter
G1 X66.834 Y65.166 E10.61626 ; perimeter
G1 X67.156 Y64.969 E10.63200 ; perimeter
G1 X67.506 Y64.824 E10.64773 ; perimeter
G1 X67.873 Y64.736 E10.66347 ; perimeter
G1 X68.205 Y64.709 E10.67734 ; perimeter
G1 X75.804 Y64.709 E10.99367 ; perimeter
G1 X75.915 Y64.709 E10.99826 ; perimeter
G1 X75.886 Y65.445 F7800.000 ; move to first perimeter point
G1 X76.131 Y65.464 F540.000 E11.00852 ; perimeter
G1 X76.386 Y65.526 E11.01944 ; perimeter
G1 X76.629 Y65.626 E11.03035 ; perimeter
G1 X76.852 Y65.763 E11.04127 ; perimeter
G1 X77.052 Y65.933 E11.05219 ; perimeter
G1 X77.222 Y66.133 E11.06310 ; perimeter
G1 X77.359 Y66.356 E11.07402 ; perimeter
G1 X77.459 Y66.599 E11.08494 ; perimeter
G1 X77.521 Y66.854 E11.09585 ; perimeter
G1 X77.838 Y70.881 E11.26402 ; perimeter
G1 X78.356 Y66.830 E11.43404 ; perimeter
G1 X78.424 Y66.610 E11.44360 ; perimeter
G1 X78.527 Y66.405 E11.45316 ; perimeter
G1 X78.664 Y66.221 E11.46272 ; perimeter
G1 X78.829 Y66.062 E11.47228 ; perimeter
G1 X79.020 Y65.933 E11.48184 ; perimeter
G1 X79.229 Y65.838 E11.49140 ; perimeter
G1 X79.451 Y65.781 E11.50096 ; perimeter
G1 X79.680 Y65.761 E11.51052 ; perimeter
G1 X79.909 Y65.781 E11.52008 ; perimeter
G1 X80.131 Y65.838 E11.52964 ; perimeter
G1 X80.340 Y65.933 E11.53920 ; perimeter
G1 X80.531 Y66.062 E11.54876 ; perimeter
G1 X80.696 Y66.221 E11.55831 ; perimeter
G1 X80.833 Y66.405 E11.56787 ; perimeter
