; generated by Slic3r 1.0.1 on 2014-08-26 at 12:00:30

; layer_height = 0.4
; perimeters = 3
; top_solid_layers = 3
; bottom_solid_layers = 3
; fill_density = 0.4
; perimeter_speed = 30
; infill_speed = 60
; travel_speed = 130
; nozzle_diameter = 0.5
; filament_diameter = 3
; extrusion_multiplier = 1
; perimeters extrusion width = 0.50mm
; infill extrusion width = 0.53mm
; solid infill extrusion width = 0.53mm
; top infill extrusion width = 0.53mm
; first layer extrusion width = 0.70mm

G21 ; set units to millimeters
M107
M190 S60 ; wait for bed temperature to be reached
M104 S180 ; set temperature
G28 ; home all axes
G1 Z5 F5000 ; lift nozzle
M109 S180 ; wait for temperature to be reached
G90 ; use absolute coordinates
G92 E0
M82 ; use absolute distances for extrusion
G1 F1800.000 E-1.00000
G1 Z0.850 F7800.000
G92 E0
G1 X28.950 Y53.350 F7800.000
G1 Z0.350 F7800.000
G1 E1.00000 F1800.000
G1 X30.200 Y52.970 E1.04251 F540.000
G1 X31.500 Y52.840 E1.08501
G1 X168.500 Y52.840 E5.54234
G1 X169.800 Y52.970 E5.58484
G1 X171.050 Y53.350 E5.62735
G1 X172.200 Y53.960 E5.66970
G1 X173.210 Y54.790 E5.71224
G1 X174.040 Y55.800 E5.75477
G1 X174.650 Y56.950 E5.79712
G1 X175.030 Y58.200 E5.83963
G1 X175.160 Y59.500 E5.88214
G1 X175.160 Y118.500 E7.80171
G1 X175.030 Y119.800 E7.84422
G1 X174.650 Y121.050 E7.88673
G1 X174.040 Y122.200 E7.92908
G1 X173.210 Y123.210 E7.97161
G1 X172.200 Y124.040 E8.01415
G1 X171.050 Y124.650 E8.05650
G1 X169.800 Y125.030 E8.09901
G1 X168.500 Y125.160 E8.14151
G1 X31.500 Y125.160 E12.59884
G1 X30.200 Y125.030 E12.64134
G1 X28.950 Y124.650 E12.68385
G1 X27.800 Y124.040 E12.72620
G1 X26.790 Y123.210 E12.76874
G1 X25.960 Y122.200 E12.81127
G1 X25.350 Y121.050 E12.85362
G1 X24.970 Y119.800 E12.89613
G1 X24.840 Y118.500 E12.93864
G1 X24.840 Y59.500 E14.85821
G1 X24.970 Y58.200 E14.90072
G1 X25.350 Y56.950 E14.94323
G1 X25.960 Y55.800 E14.98558
G1 X26.790 Y54.790 E15.02811
G1 X27.800 Y53.960 E15.07065
G1 X28.863 Y53.396 E15.10979
G1 F1800.000 E14.10979
G1 Z0.850 F7800.000
G92 E0
G1 X33.493 Y61.493 F7800.000
G1 Z0.350 F7800.000
G1 E1.00000 F1800.000
G1 X63.507 Y61.493 E1.97652 F540.000
G1 X63.507 Y72.491 E2.33435
G1 X70.464 Y72.479 E2.56069
G1 X70.799 Y72.396 E2.57191
G1 X71.158 Y72.244 E2.58460
G1 X71.490 Y72.039 E2.59729
G1 X71.786 Y71.786 E2.60997
G1 X72.039 Y71.490 E2.62266
G1 X72.244 Y71.158 E2.63534
G1 X72.396 Y70.799 E2.64803
G1 X72.480 Y70.463 E2.65929
G1 X72.493 Y61.493 E2.95113
G1 X155.507 Y61.493 E5.65201
G1 X155.520 Y70.463 E5.94385
G1 X155.604 Y70.799 E5.95511
G1 X155.756 Y71.158 E5.96780
G1 X155.961 Y71.490 E5.98048
G1 X156.214 Y71.786 E5.99317
G1 X156.510 Y72.039 E6.00585
G1 X156.842 Y72.244 E6.01854
G1 X157.201 Y72.396 E6.03123
G1 X157.536 Y72.479 E6.04245
G1 X166.507 Y72.495 E6.33432
G1 X166.507 Y105.507 E7.40839
G1 X158.533 Y105.507 E7.66783
G1 X158.110 Y105.535 E7.68163
G1 X157.726 Y105.611 E7.69436
G1 X157.355 Y105.737 E7.70709
G1 X157.005 Y105.910 E7.71982
G1 X156.679 Y106.127 E7.73254
G1 X156.385 Y106.385 E7.74527
G1 X156.127 Y106.679 E7.75800
G1 X155.910 Y107.005 E7.77073
G1 X155.737 Y107.355 E7.78346
G1 X155.611 Y107.726 E7.79619
G1 X155.535 Y108.110 E7.80891
G1 X155.507 Y108.533 E7.82272
G1 X155.507 Y116.507 E8.08216
G1 X72.493 Y116.507 E10.78304
G1 X72.493 Y108.533 E11.04248
G1 X72.465 Y108.110 E11.05628
G1 X72.389 Y107.726 E11.06901
G1 X72.263 Y107.355 E11.08174
G1 X72.090 Y107.005 E11.09447
G1 X71.873 Y106.679 E11.10719
G1 X71.615 Y106.385 E11.11992
G1 X71.321 Y106.127 E11.13265
G1 X70.995 Y105.910 E11.14538
G1 X70.645 Y105.737 E11.15811
G1 X70.274 Y105.611 E11.17083
G1 X69.890 Y105.535 E11.18356
G1 X69.467 Y105.507 E11.19737
G1 X63.507 Y105.507 E11.39127
G1 X63.507 Y116.507 E11.74916
G1 X33.493 Y116.507 E12.72568
G1 X33.493 Y100.193 E13.25646
G1 X39.593 Y100.193 E13.45493
G1 X39.593 Y96.089 E13.58844
G1 X33.493 Y96.089 E13.78690
G1 X33.493 Y81.739 E14.25379
G1 X39.593 Y81.739 E14.45226
G1 X39.593 Y77.853 E14.57868
G1 X33.493 Y77.853 E14.77715
G1 X33.493 Y61.591 E15.30623
G1 X34.150 Y62.150 F7800.000
G1 X62.850 Y62.150 E16.23999 F378.000
G1 X62.850 Y73.149 E16.59786
G1 X70.545 Y73.136 E16.84822
G1 X71.007 Y73.021 E16.86371
G1 X71.460 Y72.830 E16.87970
G1 X71.878 Y72.572 E16.89570
G1 X72.252 Y72.252 E16.91170
G1 X72.572 Y71.878 E16.92769
G1 X72.830 Y71.460 E16.94369
G1 X73.021 Y71.007 E16.95969
G1 X73.137 Y70.544 E16.97521
G1 X73.150 Y62.150 E17.24831
G1 X154.850 Y62.150 E19.90644
G1 X154.863 Y70.544 E20.17954
G1 X154.979 Y71.007 E20.19507
G1 X155.170 Y71.460 E20.21107
G1 X155.428 Y71.878 E20.22706
G1 X155.748 Y72.252 E20.24306
G1 X156.122 Y72.572 E20.25905
G1 X156.540 Y72.830 E20.27505
G1 X156.993 Y73.021 E20.29105
G1 X157.455 Y73.136 E20.30654
G1 X165.850 Y73.151 E20.57967
G1 X165.850 Y104.850 E21.61102
G1 X158.511 Y104.850 E21.84978
G1 X158.024 Y104.882 E21.86569
G1 X157.556 Y104.975 E21.88122
G1 X157.104 Y105.129 E21.89675
G1 X156.675 Y105.340 E21.91228
G1 X156.278 Y105.605 E21.92781
G1 X155.920 Y105.920 E21.94334
G1 X155.605 Y106.278 E21.95887
G1 X155.340 Y106.675 E21.97440
G1 X155.129 Y107.104 E21.98993
G1 X154.975 Y107.556 E22.00546
G1 X154.882 Y108.024 E22.02099
G1 X154.850 Y108.511 E22.03690
G1 X154.850 Y115.850 E22.27566
G1 X73.150 Y115.850 E24.93378
G1 X73.150 Y108.511 E25.17254
G1 X73.118 Y108.024 E25.18845
G1 X73.025 Y107.555 E25.20398
G1 X72.871 Y107.103 E25.21951
G1 X72.660 Y106.675 E25.23504
G1 X72.395 Y106.278 E25.25057
G1 X72.080 Y105.920 E25.26610
G1 X71.722 Y105.605 E25.28163
G1 X71.325 Y105.340 E25.29716
G1 X70.897 Y105.129 E25.31269
G1 X70.444 Y104.975 E25.32822
G1 X69.976 Y104.882 E25.34375
G1 X69.489 Y104.850 E25.35966
G1 X62.850 Y104.850 E25.57564
G1 X62.850 Y115.850 E25.93353
G1 X34.150 Y115.850 E26.86729
G1 X34.150 Y100.850 E27.35532
G1 X40.250 Y100.850 E27.55379
G1 X40.250 Y95.432 E27.73005
G1 X34.150 Y95.432 E27.92852
G1 X34.150 Y82.396 E28.35265
G1 X40.250 Y82.396 E28.55111
G1 X40.250 Y77.196 E28.72030
G1 X34.150 Y77.196 E28.91876
G1 X34.150 Y62.249 E29.40509
G1 X34.150 Y61.493 F7800.000
G1 F1800.000 E28.40509
G1 Z0.850 F7800.000
G92 E0
G1 X156.345 Y107.607 F7800.000
G1 Z0.350 F7800.000
G1 E1.00000 F1800.000
G1 X156.480 Y107.334 E1.00993 F540.000
G1 X156.650 Y107.080 E1.01985
G1 X156.851 Y106.851 E1.02978
G1 X157.080 Y106.650 E1.03970
G1 X157.334 Y106.480 E1.04963
G1 X157.607 Y106.345 E1.05955
G1 X157.896 Y106.247 E1.06948
G1 X158.196 Y106.188 E1.07941
G1 X158.554 Y106.164 E1.09111
G1 X166.836 Y106.164 E1.36054
G1 X166.836 Y116.836 E1.70775
G1 X156.164 Y116.836 E2.05495
G1 X156.164 Y108.554 E2.32439
G1 X156.188 Y108.196 E2.33609
G1 X156.247 Y107.896 E2.34602
G1 X156.314 Y107.701 E2.35274
G1 F1800.000 E1.35274
G1 Z0.850 F7800.000
G92 E0
G1 X157.617 Y71.822 F7800.000
G1 Z0.350 F7800.000
G1 E1.00000 F1800.000
G1 X157.410 Y71.771 E1.00696 F540.000
G1 X157.144 Y71.659 E1.01634
G1 X156.899 Y71.507 E1.02571
G1 X156.680 Y71.320 E1.03509
G1 X156.493 Y71.101 E1.04447
G1 X156.341 Y70.856 E1.05384
G1 X156.229 Y70.590 E1.06322
G1 X156.177 Y70.382 E1.07021
G1 X156.164 Y61.164 E1.37010
G1 X166.836 Y61.164 E1.71731
G1 X166.836 Y71.838 E2.06459
G1 X157.716 Y71.823 E2.36130
G1 F1800.000 E1.36130
G1 Z0.850 F7800.000
G92 E0
G1 X71.823 Y70.382 F7800.000
G1 Z0.350 F7800.000
G1 E1.00000 F1800.000
G1 X71.771 Y70.590 E1.00700 F324.000
G1 X71.659 Y70.856 E1.01637
G1 X71.507 Y71.101 E1.02575
G1 X71.320 Y71.320 E1.03512
G1 X71.101 Y71.507 E1.04450
G1 X70.856 Y71.659 E1.05388
G1 X70.590 Y71.771 E1.06325
G1 X70.383 Y71.822 E1.07021
G1 X64.164 Y71.833 E1.27253
G1 X64.164 Y61.164 E1.61964
G1 X71.836 Y61.164 E1.86924
G1 X71.823 Y70.283 E2.16593
G1 F1800.000 E1.16593
G1 Z0.850 F7800.000
G92 E0
G1 X38.936 Y78.510 F7800.000
G1 Z0.350 F7800.000
G1 E1.00000 F1800.000
G1 X38.936 Y81.082 E1.08367 F324.000
G1 X33.164 Y81.082 E1.27145
G1 X33.164 Y78.510 E1.35512
G1 X38.837 Y78.510 E1.53970
G1 F1800.000 E0.53970
G1 Z0.850 F7800.000
G92 E0
G1 X38.936 Y96.746 F7800.000
G1 Z0.350 F7800.000
G1 E1.00000 F1800.000
G1 X38.936 Y99.536 E1.09075 F324.000
G1 X33.164 Y99.536 E1.27854
G1 X33.164 Y96.746 E1.36929
G1 X38.837 Y96.746 E1.55387
G1 F1800.000 E0.55387
G1 Z0.850 F7800.000
G92 E0
G1 X64.164 Y106.164 F7800.000
G1 Z0.350 F7800.000
G1 E1.00000 F1800.000
G1 X69.446 Y106.164 E1.17183 F324.000
G1 X69.804 Y106.188 E1.18353
G1 X70.104 Y106.247 E1.19346
G1 X70.393 Y106.345 E1.20338
G1 X70.666 Y106.480 E1.21331
G1 X70.920 Y106.650 E1.22324
G1 X71.149 Y106.851 E1.23316
G1 X71.350 Y107.080 E1.24309
G1 X71.520 Y107.334 E1.25301
G1 X71.655 Y107.607 E1.26294
G1 X71.753 Y107.896 E1.27286
G1 X71.812 Y108.196 E1.28279
G1 X71.836 Y108.554 E1.29449
G1 X71.836 Y116.836 E1.56393
G1 X64.164 Y116.836 E1.81353
G1 X64.164 Y106.263 E2.15753
G1 F1800.000 E1.15753
G1 Z0.850 F7800.000
G92 E0
G1 X32.507 Y117.493 F7800.000
G1 Z0.350 F7800.000
G1 E1.00000 F1800.000
G1 X32.507 Y60.507 E2.85405 F540.000
G1 X167.493 Y60.507 E7.24584
G1 X167.493 Y117.493 E9.09989
G1 X32.606 Y117.493 E13.48847
G1 X31.850 Y118.150 F7800.000
G1 X31.850 Y59.850 E15.38528 F378.000
G1 X168.150 Y59.850 E19.81983
G1 X168.150 Y118.150 E21.71663
G1 X31.949 Y118.150 E26.14797
G1 X32.179 Y117.581 F7800.000
G1 X156.651 Y116.369 F7800.000
G1 X156.631 Y116.349 E26.14893 F1080.000
G1 X156.631 Y115.378 E26.18201
G1 X157.622 Y116.369 E26.22974
G1 X158.594 Y116.369 E26.26281
G1 X156.631 Y114.406 E26.35732
G1 X156.631 Y113.434 E26.39039
G1 X159.566 Y116.369 E26.53166
G1 X160.538 Y116.369 E26.56473
G1 X156.631 Y112.462 E26.75278
G1 X156.631 Y111.490 E26.78585
G1 X161.510 Y116.369 E27.02067
G1 X162.482 Y116.369 E27.05374
G1 X156.631 Y110.518 E27.33533
G1 X156.631 Y109.546 E27.36840
G1 X163.454 Y116.369 E27.69676
G1 X164.426 Y116.369 E27.72983
G1 X156.631 Y108.574 E28.10496
G1 X156.789 Y107.761 E28.13315
G1 X165.398 Y116.369 E28.54741
G1 X166.359 Y116.359 E28.58014
G1 X157.188 Y107.188 E29.02148
G1 X157.761 Y106.789 E29.04524
G1 X166.369 Y115.398 E29.45950
G1 X166.369 Y114.426 E29.49257
G1 X158.574 Y106.631 E29.86770
G1 X159.546 Y106.631 E29.90077
G1 X166.369 Y113.454 E30.22913
G1 X166.369 Y112.482 E30.26220
G1 X160.518 Y106.631 E30.54379
G1 X161.490 Y106.631 E30.57686
G1 X166.369 Y111.510 E30.81167
G1 X166.369 Y110.538 E30.84475
G1 X162.462 Y106.631 E31.03279
G1 X163.434 Y106.631 E31.06586
G1 X166.369 Y109.566 E31.20714
G1 X166.369 Y108.594 E31.24021
G1 X164.406 Y106.631 E31.33471
G1 X165.378 Y106.631 E31.36778
G1 X166.369 Y107.622 E31.41552
G1 X166.369 Y106.650 E31.44859
G1 X166.349 Y106.631 E31.44955
G1 F1800.000 E30.44955
G1 Z0.850 F7800.000
G92 E0
G1 X157.110 Y71.073 F7800.000
G1 Z0.350 F7800.000
G1 E1.00000 F1800.000
G1 X156.927 Y70.890 E1.00847 F1080.000
G1 X156.643 Y69.672 E1.04938
G1 X158.328 Y71.357 E1.12731
G1 X159.263 Y71.359 E1.15792
G1 X156.641 Y68.737 E1.27919
G1 X156.640 Y67.801 E1.30979
G1 X160.199 Y71.360 E1.47441
G1 X161.135 Y71.362 E1.50501
G1 X156.639 Y66.866 E1.71298
G1 X156.637 Y65.930 E1.74357
G1 X162.071 Y71.364 E1.99488
G1 X163.006 Y71.365 E2.02549
G1 X156.636 Y64.995 E2.32013
G1 X156.635 Y64.059 E2.35073
G1 X163.942 Y71.367 E2.68872
G1 X164.878 Y71.368 E2.71933
G1 X156.633 Y63.124 E3.10066
G1 X156.632 Y62.189 E3.13126
G1 X165.813 Y71.370 E3.55594
G1 X166.369 Y70.992 E3.57793
G1 X157.008 Y61.631 E4.01093
G1 X157.942 Y61.631 E4.04148
G1 X166.369 Y70.058 E4.43127
G1 X166.369 Y69.124 E4.46182
G1 X158.876 Y61.631 E4.80840
G1 X159.811 Y61.631 E4.83896
G1 X166.369 Y68.189 E5.14233
G1 X166.369 Y67.255 E5.17288
G1 X160.745 Y61.631 E5.43305
G1 X161.679 Y61.631 E5.46361
G1 X166.369 Y66.321 E5.68057
G1 X166.369 Y65.387 E5.71112
G1 X162.613 Y61.631 E5.88487
G1 X163.547 Y61.631 E5.91542
G1 X166.369 Y64.453 E6.04597
G1 X166.369 Y63.519 E6.07652
G1 X164.481 Y61.631 E6.16386
G1 X165.415 Y61.631 E6.19441
G1 X166.369 Y62.585 E6.23855
G1 X166.369 Y61.651 E6.26910
G1 X166.349 Y61.631 E6.27002
G1 X71.369 Y61.650 F7800.000
G1 X71.349 Y61.631 E6.27098 F1080.000
G1 X70.382 Y61.631 E6.30370
G1 X71.367 Y62.616 E6.35086
G1 X71.366 Y63.581 E6.38353
G1 X69.415 Y61.631 E6.47689
G1 X68.449 Y61.631 E6.50961
G1 X71.365 Y64.546 E6.64918
G1 X71.363 Y65.512 E6.68185
G1 X67.482 Y61.631 E6.86763
G1 X66.515 Y61.631 E6.90034
G1 X71.362 Y66.477 E7.13232
G1 X71.361 Y67.442 E7.16499
G1 X65.549 Y61.631 E7.44317
G1 X64.631 Y61.679 E7.47430
G1 X71.359 Y68.408 E7.79636
G1 X71.358 Y69.373 E7.82903
G1 X64.631 Y62.646 E8.15103
G1 X64.631 Y63.612 E8.18375
G1 X71.354 Y70.335 E8.50555
G1 X71.008 Y70.956 E8.52960
G1 X64.631 Y64.579 E8.83484
G1 X64.631 Y65.546 E8.86756
G1 X70.418 Y71.333 E9.14457
G1 X69.476 Y71.358 E9.17646
G1 X64.631 Y66.512 E9.40838
G1 X64.631 Y67.479 E9.44110
G1 X68.511 Y71.359 E9.62682
G1 X67.546 Y71.361 E9.65948
G1 X64.631 Y68.446 E9.79901
G1 X64.631 Y69.412 E9.83173
G1 X66.581 Y71.363 E9.92507
G1 X65.616 Y71.364 E9.95773
G1 X64.631 Y70.379 E10.00488
G1 X64.631 Y71.346 E10.03760
G1 X64.651 Y71.366 E10.03856
G1 F1800.000 E9.03856
G1 Z0.850 F7800.000
G92 E0
G1 X38.449 Y78.977 F7800.000
G1 Z0.350 F7800.000
G1 E1.00000 F1800.000
G1 X38.469 Y78.997 E1.00106 F1080.000
G1 X38.469 Y80.070 E1.04137
G1 X37.376 Y78.977 E1.09944
G1 X36.304 Y78.977 E1.13975
G1 X37.942 Y80.616 E1.22683
G1 X36.869 Y80.616 E1.26714
G1 X35.231 Y78.977 E1.35421
G1 X34.158 Y78.977 E1.39452
G1 X35.796 Y80.616 E1.48160
G1 X34.724 Y80.616 E1.52191
G1 X33.631 Y79.523 E1.57998
G1 X33.631 Y80.596 E1.62029
G1 X33.651 Y80.616 E1.62135
G1 F1800.000 E0.62135
G1 Z0.850 F7800.000
G92 E0
G1 X38.469 Y97.233 F7800.000
G1 Z0.350 F7800.000
G1 E1.00000 F1800.000
G1 X38.449 Y97.213 E1.00094 F1080.000
G1 X37.499 Y97.213 E1.03259
G1 X38.469 Y98.184 E1.07830
G1 X38.405 Y99.069 E1.10787
G1 X36.548 Y97.213 E1.19528
G1 X35.597 Y97.213 E1.22693
G1 X37.454 Y99.069 E1.31435
G1 X36.503 Y99.069 E1.34600
G1 X34.646 Y97.213 E1.43341
G1 X33.695 Y97.213 E1.46507
G1 X35.552 Y99.069 E1.55248
G1 X34.601 Y99.069 E1.58413
G1 X33.631 Y98.099 E1.62984
G1 X33.631 Y99.049 E1.66149
G1 X33.651 Y99.069 E1.66243
G1 F1800.000 E0.66243
G1 Z0.850 F7800.000
G92 E0
G1 X64.651 Y116.369 F7800.000
G1 Z0.350 F7800.000
G1 E1.00000 F1800.000
G1 X64.631 Y116.349 E1.00095 F1080.000
G1 X64.631 Y115.391 E1.03314
G1 X65.609 Y116.369 E1.07962
G1 X66.568 Y116.369 E1.11181
G1 X64.631 Y114.432 E1.20382
G1 X64.631 Y113.473 E1.23601
G1 X67.527 Y116.369 E1.37354
G1 X68.486 Y116.369 E1.40573
G1 X64.631 Y112.514 E1.58879
G1 X64.631 Y111.555 E1.62098
G1 X69.445 Y116.369 E1.84957
G1 X70.404 Y116.369 E1.88176
G1 X64.631 Y110.596 E2.15587
G1 X64.631 Y109.637 E2.18806
G1 X71.356 Y116.363 E2.50739
G1 X71.369 Y115.417 E2.53914
G1 X64.631 Y108.678 E2.85910
G1 X64.631 Y107.719 E2.89129
G1 X71.369 Y114.458 E3.21125
G1 X71.369 Y113.500 E3.24344
G1 X64.631 Y106.761 E3.56340
G1 X65.459 Y106.631 E3.59157
G1 X71.369 Y112.541 E3.87218
G1 X71.369 Y111.582 E3.90437
G1 X66.418 Y106.631 E4.13945
G1 X67.377 Y106.631 E4.17164
G1 X71.369 Y110.623 E4.36120
G1 X71.369 Y109.664 E4.39339
G1 X68.336 Y106.631 E4.53742
G1 X69.295 Y106.631 E4.56961
G1 X71.369 Y108.705 E4.66811
G1 X70.920 Y107.296 E4.71776
G1 X70.704 Y107.080 E4.72802
G1 X72.294 Y117.014 F7800.000
G1 X72.709 Y116.966 E4.73480 F360.000
G1 X72.778 Y117.034 E4.73637 F360.000
G1 X73.173 Y116.966 E4.74288 F360.000
G1 X73.242 Y117.034 E4.74446 F360.000
G1 X73.636 Y116.966 E4.75096 F360.000
G1 X73.705 Y117.034 E4.75254 F360.000
G1 X74.100 Y116.966 E4.75904 F360.000
G1 X74.169 Y117.034 E4.76062 F360.000
G1 X74.563 Y116.966 E4.76712 F360.000
G1 X74.632 Y117.034 E4.76870 F360.000
G1 X75.027 Y116.966 E4.77521 F360.000
G1 X75.096 Y117.034 E4.77679 F360.000
G1 X75.491 Y116.966 E4.78329 F360.000
G1 X75.559 Y117.034 E4.78487 F360.000
G1 X75.954 Y116.966 E4.79137 F360.000
G1 X76.023 Y117.034 E4.79295 F360.000
G1 X76.418 Y116.966 E4.79945 F360.000
G1 X76.486 Y117.034 E4.80103 F360.000
G1 X76.881 Y116.966 E4.80754 F360.000
G1 X76.950 Y117.034 E4.80911 F360.000
G1 X77.345 Y116.966 E4.81562 F360.000
G1 X77.414 Y117.034 E4.81720 F360.000
G1 X77.808 Y116.966 E4.82370 F360.000
G1 X77.877 Y117.034 E4.82528 F360.000
G1 X78.272 Y116.966 E4.83178 F360.000
G1 X78.341 Y117.034 E4.83336 F360.000
G1 X78.735 Y116.966 E4.83987 F360.000
G1 X78.804 Y117.034 E4.84144 F360.000
G1 X79.199 Y116.966 E4.84795 F360.000
G1 X79.268 Y117.034 E4.84953 F360.000
