; generated by Slic3r 0.9.8-dev on 2013-01-11 at 20:42:41

; layer_height = 0.4
; perimeters = 3
; top_solid_layers = 3
; bottom_solid_layers = 3
; fill_density = 0.40
; perimeter_speed = 30
; infill_speed = 60
; travel_speed = 130
; scale = 1
; nozzle_diameter = 0.5
; filament_diameter = 3
; extrusion_multiplier = 1
; perimeters extrusion width = 0.53mm
; infill extrusion width = 0.53mm
; first layer extrusion width = 0.80mm

M190 S60 ; wait for bed temperature to be reached
M104 S180 ; set temperature
G28 ; home all axes
G92 E0 ;reset extruder
M109 S180 ; wait for temperature to be reached
G90 ; use absolute coordinates
G21 ; set units to millimeters
G92 E0 ; reset extrusion distance
M82 ; use absolute distances for extrusion
G1 F1800.000 E-1.00000 ; retract
G1 Z0.900 ; move to next layer (0) and lift
G92 E0 ; reset extrusion distance
G1 X151.430 Y64.940 F7800.000 ; move to first skirt point
G1 Z0.400 ; restore layer Z
G1 F1800.000 E1.00000 ; compensate retraction
G1 X151.430 Y113.040 F540.000 E3.00228 ; skirt
G1 X151.370 Y113.910 E3.03859 ; skirt
G1 X150.670 Y119.260 E3.26319 ; skirt
G1 X150.610 Y119.610 E3.27797 ; skirt
G1 X150.540 Y119.960 E3.29283 ; skirt
G1 X150.340 Y120.630 E3.32194 ; skirt
G1 X148.010 Y126.270 E3.57596 ; skirt
G1 X147.670 Y126.900 E3.60577 ; skirt
G1 X147.270 Y127.480 E3.63509 ; skirt
G1 X143.980 Y131.750 E3.85949 ; skirt
G1 X143.760 Y132.020 E3.87398 ; skirt
G1 X143.280 Y132.520 E3.90284 ; skirt
G1 X142.750 Y132.980 E3.93205 ; skirt
G1 X138.480 Y136.270 E4.15644 ; skirt
G1 X137.900 Y136.670 E4.18577 ; skirt
G1 X137.270 Y137.010 E4.21557 ; skirt
G1 X131.960 Y139.210 E4.45483 ; skirt
G1 X131.300 Y139.450 E4.48407 ; skirt
G1 X130.960 Y139.540 E4.49871 ; skirt
G1 X130.260 Y139.670 E4.52835 ; skirt
G1 X124.910 Y140.370 E4.75295 ; skirt
G1 X124.040 Y140.430 E4.78925 ; skirt
G1 X75.940 Y140.430 E6.79154 ; skirt
G1 X75.060 Y140.370 E6.82826 ; skirt
G1 X69.720 Y139.670 E7.05245 ; skirt
G1 X69.020 Y139.540 E7.08209 ; skirt
G1 X68.680 Y139.450 E7.09673 ; skirt
G1 X68.010 Y139.210 E7.12635 ; skirt
G1 X62.720 Y137.010 E7.36485 ; skirt
G1 X62.400 Y136.850 E7.37974 ; skirt
G1 X62.100 Y136.670 E7.39430 ; skirt
G1 X61.510 Y136.270 E7.42398 ; skirt
G1 X57.240 Y132.980 E7.64837 ; skirt
G1 X56.710 Y132.520 E7.67758 ; skirt
G1 X56.230 Y132.020 E7.70643 ; skirt
G1 X56.010 Y131.750 E7.72093 ; skirt
G1 X52.720 Y127.480 E7.94532 ; skirt
G1 X52.320 Y126.890 E7.97500 ; skirt
G1 X52.140 Y126.590 E7.98956 ; skirt
G1 X51.980 Y126.270 E8.00445 ; skirt
G1 X49.780 Y120.980 E8.24295 ; skirt
G1 X49.540 Y120.310 E8.27257 ; skirt
G1 X49.450 Y119.960 E8.28762 ; skirt
G1 X49.320 Y119.260 E8.31725 ; skirt
G1 X48.620 Y113.910 E8.54186 ; skirt
G1 X48.560 Y113.040 E8.57816 ; skirt
G1 X48.560 Y64.940 E10.58045 ; skirt
G1 X48.620 Y64.060 E10.61716 ; skirt
G1 X49.320 Y58.720 E10.84136 ; skirt
G1 X49.380 Y58.380 E10.85573 ; skirt
G1 X49.450 Y58.030 E10.87059 ; skirt
G1 X49.650 Y57.350 E10.90009 ; skirt
G1 X51.980 Y51.720 E11.15373 ; skirt
G1 X52.320 Y51.090 E11.18353 ; skirt
G1 X52.720 Y50.510 E11.21286 ; skirt
G1 X56.010 Y46.240 E11.43725 ; skirt
G1 X56.230 Y45.970 E11.45175 ; skirt
G1 X56.710 Y45.470 E11.48060 ; skirt
G1 X57.240 Y45.010 E11.50982 ; skirt
G1 X61.510 Y41.720 E11.73421 ; skirt
G1 X62.090 Y41.320 E11.76354 ; skirt
G1 X62.720 Y40.980 E11.79334 ; skirt
G1 X68.350 Y38.650 E12.04698 ; skirt
G1 X69.030 Y38.450 E12.07648 ; skirt
G1 X69.720 Y38.320 E12.10571 ; skirt
G1 X75.060 Y37.620 E12.32991 ; skirt
G1 X75.940 Y37.560 E12.36662 ; skirt
G1 X124.040 Y37.560 E14.36891 ; skirt
G1 X124.910 Y37.620 E14.40521 ; skirt
G1 X130.260 Y38.320 E14.62982 ; skirt
G1 X130.960 Y38.450 E14.65945 ; skirt
G1 X131.300 Y38.540 E14.67409 ; skirt
G1 X131.960 Y38.780 E14.70333 ; skirt
G1 X137.270 Y40.980 E14.94259 ; skirt
G1 X137.900 Y41.320 E14.97239 ; skirt
G1 X138.480 Y41.720 E15.00172 ; skirt
G1 X142.750 Y45.010 E15.22611 ; skirt
G1 X143.280 Y45.470 E15.25533 ; skirt
G1 X143.760 Y45.970 E15.28418 ; skirt
G1 X143.980 Y46.240 E15.29868 ; skirt
G1 X147.270 Y50.510 E15.52307 ; skirt
G1 X147.670 Y51.090 E15.55240 ; skirt
G1 X148.010 Y51.720 E15.58220 ; skirt
G1 X150.210 Y57.030 E15.82146 ; skirt
G1 X150.340 Y57.350 E15.83584 ; skirt
G1 X150.450 Y57.690 E15.85071 ; skirt
G1 X150.540 Y58.030 E15.86535 ; skirt
G1 X150.670 Y58.720 E15.89458 ; skirt
G1 X151.370 Y64.060 E16.11878 ; skirt
G1 X151.422 Y64.830 E16.15090 ; skirt
G1 X151.430 Y64.940 E16.15549 ; skirt
G1 F1800.000 E15.15549 ; retract
G1 Z0.900 ; lift plate during travel
G92 E0 ; reset extrusion distance
G1 X136.547 Y116.398 F7800.000 ; move to first perimeter point
G1 Z0.400 ; restore layer Z
G1 F1800.000 E1.00000 ; compensate retraction
G1 X135.254 Y119.519 F540.000 E1.14059 ; perimeter
G1 X135.076 Y119.751 E1.15277 ; perimeter
G1 X133.198 Y122.198 E1.28118 ; perimeter
G1 X130.519 Y124.254 E1.42177 ; perimeter
G1 X127.398 Y125.547 E1.56236 ; perimeter
G1 X124.340 Y125.949 E1.69078 ; perimeter
G1 X124.050 Y125.987 E1.70295 ; perimeter
G1 X120.702 Y125.547 E1.84354 ; perimeter
G1 X117.581 Y124.254 E1.98413 ; perimeter
G1 X114.902 Y122.198 E2.12472 ; perimeter
G1 X112.846 Y119.519 E2.26531 ; perimeter
G1 X111.553 Y116.398 E2.40590 ; perimeter
G1 X111.113 Y113.050 E2.54649 ; perimeter
G1 X111.553 Y109.702 E2.68708 ; perimeter
G1 X112.846 Y106.581 E2.82767 ; perimeter
G1 X114.902 Y103.902 E2.96826 ; perimeter
G1 X117.581 Y101.846 E3.10885 ; perimeter
G1 X120.702 Y100.553 E3.24944 ; perimeter
G1 X123.760 Y100.151 E3.37786 ; perimeter
G1 X124.050 Y100.113 E3.39003 ; perimeter
G1 X127.398 Y100.553 E3.53062 ; perimeter
G1 X130.519 Y101.846 E3.67121 ; perimeter
G1 X132.966 Y103.724 E3.79963 ; perimeter
G1 X133.198 Y103.902 E3.81181 ; perimeter
G1 X135.254 Y106.581 E3.95239 ; perimeter
G1 X136.547 Y109.702 E4.09298 ; perimeter
G1 X136.987 Y113.050 E4.23357 ; perimeter
G1 X136.561 Y116.289 E4.36957 ; perimeter
G1 X136.547 Y116.398 E4.37416 ; perimeter
G1 X135.830 Y116.206 F7800.000 ; move to first perimeter point
G1 X134.612 Y119.148 F540.000 E4.50669 ; perimeter
G1 X134.492 Y119.303 E4.51484 ; perimeter
G1 X132.673 Y121.673 E4.63922 ; perimeter
G1 X130.148 Y123.612 E4.77175 ; perimeter
G1 X127.206 Y124.830 E4.90427 ; perimeter
G1 X124.244 Y125.220 E5.02866 ; perimeter
G1 X124.050 Y125.245 E5.03680 ; perimeter
G1 X120.894 Y124.830 E5.16933 ; perimeter
G1 X117.952 Y123.612 E5.30186 ; perimeter
G1 X115.427 Y121.673 E5.43438 ; perimeter
G1 X113.488 Y119.148 E5.56691 ; perimeter
G1 X112.270 Y116.206 E5.69944 ; perimeter
G1 X112.245 Y116.012 E5.70758 ; perimeter
G1 X111.855 Y113.050 E5.83196 ; perimeter
G1 X112.270 Y109.894 E5.96449 ; perimeter
G1 X113.488 Y106.952 E6.09702 ; perimeter
G1 X115.427 Y104.427 E6.22955 ; perimeter
G1 X117.952 Y102.488 E6.36207 ; perimeter
G1 X120.894 Y101.270 E6.49460 ; perimeter
G1 X123.856 Y100.880 E6.61898 ; perimeter
G1 X124.050 Y100.855 E6.62713 ; perimeter
G1 X127.206 Y101.270 E6.75966 ; perimeter
G1 X130.148 Y102.488 E6.89218 ; perimeter
G1 X132.518 Y104.307 E7.01656 ; perimeter
G1 X132.673 Y104.427 E7.02471 ; perimeter
G1 X134.612 Y106.952 E7.15724 ; perimeter
G1 X135.830 Y109.894 E7.28976 ; perimeter
G1 X136.245 Y113.050 E7.42229 ; perimeter
G1 X135.844 Y116.097 E7.55022 ; perimeter
G1 X135.830 Y116.206 E7.55482 ; perimeter
G1 X135.113 Y116.014 F7800.000 ; move to first perimeter point
G1 X133.969 Y118.777 F540.000 E7.67928 ; perimeter
G1 X133.909 Y118.855 E7.68340 ; perimeter
G1 X132.149 Y121.149 E7.80375 ; perimeter
G1 X129.777 Y122.969 E7.92821 ; perimeter
G1 X127.014 Y124.113 E8.05268 ; perimeter
G1 X124.148 Y124.491 E8.17303 ; perimeter
G1 X124.050 Y124.503 E8.17714 ; perimeter
G1 X121.086 Y124.113 E8.30160 ; perimeter
G1 X118.323 Y122.969 E8.42607 ; perimeter
G1 X115.951 Y121.149 E8.55053 ; perimeter
G1 X114.131 Y118.777 E8.67500 ; perimeter
G1 X112.987 Y116.014 E8.79946 ; perimeter
G1 X112.974 Y115.916 E8.80357 ; perimeter
G1 X112.597 Y113.050 E8.92393 ; perimeter
G1 X112.987 Y110.086 E9.04839 ; perimeter
G1 X114.131 Y107.323 E9.17285 ; perimeter
G1 X115.951 Y104.951 E9.29732 ; perimeter
G1 X118.323 Y103.131 E9.42178 ; perimeter
G1 X121.086 Y101.987 E9.54625 ; perimeter
G1 X123.952 Y101.609 E9.66660 ; perimeter
G1 X124.050 Y101.597 E9.67071 ; perimeter
G1 X127.014 Y101.987 E9.79518 ; perimeter
G1 X129.777 Y103.131 E9.91964 ; perimeter
G1 X132.070 Y104.891 E10.03999 ; perimeter
G1 X132.149 Y104.951 E10.04410 ; perimeter
G1 X133.969 Y107.323 E10.16857 ; perimeter
G1 X135.113 Y110.086 E10.29303 ; perimeter
G1 X135.503 Y113.050 E10.41750 ; perimeter
G1 X135.128 Y115.905 E10.53737 ; perimeter
G1 X135.113 Y116.014 E10.54196 ; perimeter
G1 X135.610 Y116.557 F7800.000 ; move inwards before travel
G1 F1800.000 E9.54196 ; retract
G1 Z0.900 ; lift plate during travel
G92 E0 ; reset extrusion distance
G1 X104.887 Y113.050 F7800.000 ; move to first perimeter point
G1 Z0.400 ; restore layer Z
G1 F1800.000 E1.00000 ; compensate retraction
G1 X105.540 Y108.090 F540.000 E1.20824 ; perimeter
G1 X107.170 Y104.156 E1.38552 ; perimeter
G1 X107.455 Y103.469 E1.41648 ; perimeter
G1 X110.500 Y99.500 E1.62472 ; perimeter
G1 X114.469 Y96.455 E1.83296 ; perimeter
G1 X119.090 Y94.540 E2.04120 ; perimeter
G1 X119.282 Y94.515 E2.04924 ; perimeter
G1 X124.050 Y93.887 E2.24944 ; perimeter
G1 X129.010 Y94.540 E2.45768 ; perimeter
G1 X133.631 Y96.455 E2.66592 ; perimeter
G1 X137.600 Y99.500 E2.87416 ; perimeter
G1 X140.528 Y103.315 E3.07435 ; perimeter
G1 X140.645 Y103.469 E3.08240 ; perimeter
G1 X142.560 Y108.090 E3.29063 ; perimeter
G1 X143.213 Y113.050 E3.49887 ; perimeter
G1 X142.560 Y118.010 E3.70711 ; perimeter
G1 X140.645 Y122.631 E3.91535 ; perimeter
G1 X137.600 Y126.600 E4.12359 ; perimeter
G1 X133.631 Y129.645 E4.33183 ; perimeter
G1 X129.010 Y131.560 E4.54007 ; perimeter
G1 X124.050 Y132.213 E4.74831 ; perimeter
G1 X119.090 Y131.560 E4.95655 ; perimeter
G1 X114.469 Y129.645 E5.16479 ; perimeter
G1 X110.500 Y126.600 E5.37303 ; perimeter
G1 X107.455 Y122.631 E5.58127 ; perimeter
G1 X105.540 Y118.010 E5.78951 ; perimeter
G1 X104.902 Y113.159 E5.99316 ; perimeter
G1 X104.887 Y113.050 E5.99775 ; perimeter
G1 X104.145 Y113.050 F7800.000 ; move to first perimeter point
G1 X104.824 Y107.898 F540.000 E6.21405 ; perimeter
G1 X106.701 Y103.366 E6.41828 ; perimeter
G1 X106.812 Y103.098 E6.43035 ; perimeter
G1 X109.975 Y98.975 E6.64666 ; perimeter
G1 X114.098 Y95.812 E6.86296 ; perimeter
G1 X118.898 Y93.824 E7.07926 ; perimeter
G1 X119.186 Y93.786 E7.09134 ; perimeter
G1 X124.050 Y93.145 E7.29556 ; perimeter
G1 X129.202 Y93.824 E7.51187 ; perimeter
G1 X134.002 Y95.812 E7.72817 ; perimeter
G1 X138.125 Y98.975 E7.94447 ; perimeter
G1 X141.111 Y102.868 E8.14870 ; perimeter
G1 X141.288 Y103.098 E8.16077 ; perimeter
G1 X143.276 Y107.898 E8.37708 ; perimeter
G1 X143.955 Y113.050 E8.59338 ; perimeter
G1 X143.276 Y118.202 E8.80968 ; perimeter
G1 X141.288 Y123.002 E9.02598 ; perimeter
G1 X138.125 Y127.125 E9.24229 ; perimeter
G1 X134.002 Y130.288 E9.45859 ; perimeter
G1 X129.202 Y132.276 E9.67489 ; perimeter
G1 X124.050 Y132.955 E9.89119 ; perimeter
G1 X118.898 Y132.276 E10.10750 ; perimeter
G1 X114.098 Y130.288 E10.32380 ; perimeter
G1 X109.975 Y127.125 E10.54010 ; perimeter
G1 X106.812 Y123.002 E10.75640 ; perimeter
G1 X104.824 Y118.202 E10.97271 ; perimeter
G1 X104.160 Y113.159 E11.18442 ; perimeter
G1 X104.145 Y113.050 E11.18901 ; perimeter
G1 X103.403 Y113.050 F7800.000 ; move to first perimeter point
G1 X104.107 Y107.706 F540.000 E11.41337 ; perimeter
G1 X106.170 Y102.727 E11.63774 ; perimeter
G1 X109.451 Y98.451 E11.86210 ; perimeter
G1 X113.727 Y95.170 E12.08647 ; perimeter
G1 X118.706 Y93.107 E12.31084 ; perimeter
G1 X124.050 Y92.403 E12.53520 ; perimeter
G1 X129.394 Y93.107 E12.75957 ; perimeter
G1 X134.373 Y95.170 E12.98393 ; perimeter
G1 X138.649 Y98.451 E13.20830 ; perimeter
G1 X141.930 Y102.727 E13.43266 ; perimeter
G1 X143.993 Y107.706 E13.65703 ; perimeter
G1 X144.646 Y112.666 E13.86529 ; perimeter
G1 X144.697 Y113.050 E13.88139 ; perimeter
G1 X143.993 Y118.394 E14.10576 ; perimeter
G1 X141.930 Y123.373 E14.33012 ; perimeter
G1 X138.649 Y127.649 E14.55449 ; perimeter
G1 X134.373 Y130.930 E14.77886 ; perimeter
G1 X134.016 Y131.079 E14.79496 ; perimeter
G1 X129.394 Y132.993 E15.00322 ; perimeter
G1 X124.050 Y133.697 E15.22759 ; perimeter
G1 X118.706 Y132.993 E15.45195 ; perimeter
G1 X118.349 Y132.845 E15.46806 ; perimeter
G1 X113.727 Y130.930 E15.67632 ; perimeter
G1 X109.451 Y127.649 E15.90068 ; perimeter
G1 X106.170 Y123.373 E16.12505 ; perimeter
G1 X104.107 Y118.394 E16.34941 ; perimeter
G1 X103.418 Y113.159 E16.56919 ; perimeter
G1 X103.403 Y113.050 E16.57378 ; perimeter
G1 X104.056 Y112.710 F7800.000 ; move inwards before travel
G1 F1800.000 E15.57378 ; retract
G1 Z0.900 ; lift plate during travel
G92 E0 ; reset extrusion distance
G1 X107.754 Y121.763 F7800.000 ; move to first fill point
G1 Z0.400 ; restore layer Z
G1 F1800.000 E1.00000 ; compensate retraction
G1 X115.337 Y129.346 F1080.000 E1.44718 ; fill
G1 X117.116 Y130.083 E1.52747 ; fill
G1 X107.017 Y119.984 E2.12299 ; fill
G1 X106.280 Y118.205 E2.20327 ; fill
G1 X118.895 Y130.820 E2.94714 ; fill
G1 X120.297 Y131.180 E3.00750 ; fill
G1 X105.920 Y116.803 E3.85529 ; fill
G1 X105.762 Y115.603 E3.90576 ; fill
G1 X121.497 Y131.338 E4.83362 ; fill
G1 X122.697 Y131.496 E4.88409 ; fill
G1 X105.604 Y114.403 E5.89203 ; fill
G1 X105.446 Y113.203 E5.94249 ; fill
G1 X112.669 Y120.426 E6.36843 ; fill
G1 X111.750 Y118.465 E6.45873 ; fill
G1 X105.477 Y112.192 E6.82864 ; fill
G1 X105.599 Y111.271 E6.86736 ; fill
G1 X111.059 Y116.731 E7.18932 ; fill
G1 X110.901 Y115.531 E7.23979 ; fill
G1 X105.720 Y110.350 E7.54529 ; fill
G1 X105.841 Y109.429 E7.58401 ; fill
G1 X110.743 Y114.331 E7.87305 ; fill
G1 X110.620 Y113.167 E7.92187 ; fill
G1 X105.962 Y108.509 E8.19654 ; fill
G1 X106.175 Y107.680 E8.23222 ; fill
G1 X110.742 Y112.246 E8.50147 ; fill
G1 X110.863 Y111.325 E8.54019 ; fill
G1 X106.481 Y106.943 E8.79859 ; fill
G1 X106.786 Y106.206 E8.83184 ; fill
G1 X110.984 Y110.404 E9.07939 ; fill
G1 X111.157 Y109.535 E9.11633 ; fill
G1 X107.091 Y105.469 E9.35610 ; fill
G1 X107.396 Y104.732 E9.38935 ; fill
G1 X111.462 Y108.799 E9.62912 ; fill
G1 X111.768 Y108.062 E9.66237 ; fill
G1 X107.701 Y103.996 E9.90214 ; fill
G1 X108.076 Y103.328 E9.93405 ; fill
G1 X112.073 Y107.325 E10.16973 ; fill
G1 X112.378 Y106.588 E10.20299 ; fill
G1 X108.528 Y102.739 E10.42998 ; fill
G1 X108.981 Y102.149 E10.46097 ; fill
G1 X112.802 Y105.970 E10.68628 ; fill
G1 X113.254 Y105.380 E10.71726 ; fill
G1 X109.433 Y101.559 E10.94257 ; fill
G1 X109.886 Y100.970 E10.97356 ; fill
G1 X113.707 Y104.791 E11.19887 ; fill
G1 X114.159 Y104.201 E11.22986 ; fill
G1 X110.338 Y100.380 E11.45517 ; fill
G1 X110.791 Y99.791 E11.48616 ; fill
G1 X114.611 Y103.611 E11.71146 ; fill
G1 X115.201 Y103.159 E11.74245 ; fill
G1 X111.380 Y99.338 E11.96776 ; fill
G1 X111.970 Y98.886 E11.99875 ; fill
G1 X115.791 Y102.707 E12.22406 ; fill
G1 X116.380 Y102.254 E12.25505 ; fill
G1 X112.559 Y98.433 E12.48036 ; fill
G1 X113.149 Y97.981 E12.51135 ; fill
G1 X116.970 Y101.802 E12.73665 ; fill
G1 X117.588 Y101.378 E12.76790 ; fill
G1 X113.739 Y97.528 E12.99490 ; fill
G1 X114.328 Y97.076 E13.02589 ; fill
G1 X118.325 Y101.073 E13.26157 ; fill
G1 X119.062 Y100.768 E13.29483 ; fill
G1 X114.996 Y96.701 E13.53459 ; fill
G1 X115.733 Y96.396 E13.56785 ; fill
G1 X119.799 Y100.462 E13.80761 ; fill
G1 X120.535 Y100.157 E13.84086 ; fill
G1 X116.469 Y96.091 E14.08063 ; fill
G1 X117.206 Y95.786 E14.11389 ; fill
G1 X121.404 Y99.984 E14.36144 ; fill
G1 X122.325 Y99.863 E14.40016 ; fill
G1 X117.943 Y95.481 E14.65856 ; fill
G1 X118.680 Y95.175 E14.69182 ; fill
G1 X123.246 Y99.741 E14.96106 ; fill
G1 X124.167 Y99.620 E14.99979 ; fill
G1 X119.509 Y94.962 E15.27446 ; fill
G1 X120.429 Y94.841 E15.31318 ; fill
G1 X125.331 Y99.743 E15.60222 ; fill
G1 X126.531 Y99.901 E15.65269 ; fill
G1 X121.350 Y94.720 E15.95819 ; fill
G1 X122.271 Y94.599 E15.99691 ; fill
G1 X127.731 Y100.059 E16.31888 ; fill
G1 X129.465 Y100.750 E16.39671 ; fill
G1 X123.192 Y94.477 E16.76661 ; fill
G1 X124.203 Y94.446 E16.80878 ; fill
