; generated by Slic3r 0.9.8-dev on 2013-01-01 at 11:08:03

; layer_height = 0.4
; perimeters = 3
; top_solid_layers = 3
; bottom_solid_layers = 3
; fill_density = 0.40
; perimeter_speed = 30
; infill_speed = 60
; travel_speed = 130
; scale = 1
; nozzle_diameter = 0.5
; filament_diameter = 3
; extrusion_multiplier = 1
; perimeters extrusion width = 0.53mm
; infill extrusion width = 0.53mm
; first layer extrusion width = 0.80mm

M190 S65 ; wait for bed temperature to be reached
M104 S180 ; set temperature
G28                 ; home all axes
G92 E0 ;reset extruder
G1 E3 F1200 ;Prime extruder 3mm
G1 E2 F1200 ;retract extruder 1mm
G92 E0 ;reset extruder
M109 S180 ; wait for temperature to be reached
G90 ; use absolute coordinates
G21 ; set units to millimeters
G92 E0 ; reset extrusion distance
M82 ; use absolute distances for extrusion
G1 F1800.000 E-1.00000 ; retract
G1 Z0.900 ; move to next layer (0) and lift
G92 E0 ; reset extrusion distance
G1 X124.280 Y107.320 F7800.000 ; move to first skirt point
G1 Z0.400 ; restore layer Z
G1 F1800.000 E1.00000 ; compensate retraction
G1 X123.840 Y107.340 F540.000 E1.01834 ; skirt
G1 X76.010 Y107.340 E3.00938 ; skirt
G1 X75.530 Y107.320 E3.02938 ; skirt
G1 X74.000 Y107.210 E3.09323 ; skirt
G1 X73.190 Y107.100 E3.12726 ; skirt
G1 X71.700 Y106.810 E3.19045 ; skirt
G1 X70.810 Y106.570 E3.22882 ; skirt
G1 X69.380 Y106.080 E3.29175 ; skirt
G1 X68.580 Y105.750 E3.32777 ; skirt
G1 X67.220 Y105.080 E3.39088 ; skirt
G1 X66.480 Y104.660 E3.42630 ; skirt
G1 X65.210 Y103.820 E3.48969 ; skirt
G1 X64.490 Y103.260 E3.52766 ; skirt
G1 X63.350 Y102.260 E3.59078 ; skirt
G1 X62.730 Y101.640 E3.62728 ; skirt
G1 X61.730 Y100.500 E3.69041 ; skirt
G1 X61.170 Y99.780 E3.72838 ; skirt
G1 X60.330 Y98.510 E3.79176 ; skirt
G1 X59.910 Y97.770 E3.82718 ; skirt
G1 X59.240 Y96.410 E3.89029 ; skirt
G1 X58.910 Y95.610 E3.92632 ; skirt
G1 X58.420 Y94.180 E3.98924 ; skirt
G1 X58.180 Y93.310 E4.02681 ; skirt
G1 X57.860 Y91.660 E4.09678 ; skirt
G1 X57.780 Y90.950 E4.12652 ; skirt
G1 X57.680 Y89.430 E4.18993 ; skirt
G1 X57.680 Y88.540 E4.22698 ; skirt
G1 X57.780 Y87.030 E4.28997 ; skirt
G1 X57.890 Y86.190 E4.32524 ; skirt
G1 X58.180 Y84.700 E4.38843 ; skirt
G1 X58.420 Y83.810 E4.42680 ; skirt
G1 X58.910 Y82.380 E4.48973 ; skirt
G1 X59.240 Y81.580 E4.52575 ; skirt
G1 X59.910 Y80.220 E4.58886 ; skirt
G1 X60.340 Y79.470 E4.62485 ; skirt
G1 X61.110 Y78.310 E4.68281 ; skirt
G1 X61.730 Y77.490 E4.72560 ; skirt
G1 X62.730 Y76.350 E4.78873 ; skirt
G1 X63.350 Y75.730 E4.82523 ; skirt
G1 X64.490 Y74.730 E4.88835 ; skirt
G1 X65.210 Y74.170 E4.92632 ; skirt
G1 X66.480 Y73.330 E4.98971 ; skirt
G1 X67.220 Y72.910 E5.02513 ; skirt
G1 X68.580 Y72.240 E5.08824 ; skirt
G1 X69.380 Y71.910 E5.12426 ; skirt
G1 X70.810 Y71.420 E5.18719 ; skirt
G1 X71.700 Y71.180 E5.22556 ; skirt
G1 X73.190 Y70.890 E5.28875 ; skirt
G1 X74.040 Y70.780 E5.32443 ; skirt
G1 X75.570 Y70.680 E5.38825 ; skirt
G1 X76.020 Y70.660 E5.40700 ; skirt
G1 X125.790 Y70.770 E7.47881 ; skirt
G1 X126.310 Y70.810 E7.50052 ; skirt
G1 X126.820 Y70.890 E7.52201 ; skirt
G1 X128.300 Y71.180 E7.58479 ; skirt
G1 X129.180 Y71.420 E7.62276 ; skirt
G1 X130.610 Y71.910 E7.68569 ; skirt
G1 X131.410 Y72.240 E7.72171 ; skirt
G1 X132.770 Y72.910 E7.78482 ; skirt
G1 X133.560 Y73.370 E7.82287 ; skirt
G1 X134.820 Y74.220 E7.88614 ; skirt
G1 X135.490 Y74.740 E7.92145 ; skirt
G1 X136.630 Y75.740 E7.98458 ; skirt
G1 X137.250 Y76.360 E8.02107 ; skirt
G1 X138.250 Y77.500 E8.08420 ; skirt
G1 X138.770 Y78.170 E8.11951 ; skirt
G1 X139.620 Y79.430 E8.18278 ; skirt
G1 X140.080 Y80.220 E8.22083 ; skirt
G1 X140.750 Y81.580 E8.28394 ; skirt
G1 X141.080 Y82.380 E8.31996 ; skirt
G1 X141.570 Y83.810 E8.38289 ; skirt
G1 X141.810 Y84.700 E8.42126 ; skirt
G1 X142.100 Y86.190 E8.48445 ; skirt
G1 X142.210 Y87.030 E8.51972 ; skirt
G1 X142.310 Y88.540 E8.58271 ; skirt
G1 X142.310 Y89.480 E8.62184 ; skirt
G1 X142.200 Y91.000 E8.68528 ; skirt
G1 X142.070 Y91.920 E8.72396 ; skirt
G1 X141.750 Y93.410 E8.78740 ; skirt
G1 X141.520 Y94.220 E8.82245 ; skirt
G1 X141.050 Y95.570 E8.88195 ; skirt
G1 X140.680 Y96.450 E8.92169 ; skirt
G1 X140.000 Y97.810 E8.98499 ; skirt
G1 X139.540 Y98.600 E9.02304 ; skirt
G1 X138.680 Y99.860 E9.08655 ; skirt
G1 X138.160 Y100.530 E9.12185 ; skirt
G1 X137.150 Y101.670 E9.18525 ; skirt
G1 X136.510 Y102.300 E9.22264 ; skirt
G1 X135.350 Y103.300 E9.28639 ; skirt
G1 X134.670 Y103.820 E9.32203 ; skirt
G1 X133.400 Y104.660 E9.38541 ; skirt
G1 X132.640 Y105.090 E9.42176 ; skirt
G1 X131.270 Y105.760 E9.48524 ; skirt
G1 X130.480 Y106.090 E9.52088 ; skirt
G1 X129.040 Y106.580 E9.58420 ; skirt
G1 X128.190 Y106.800 E9.62075 ; skirt
G1 X126.690 Y107.100 E9.68443 ; skirt
G1 X125.810 Y107.220 E9.72140 ; skirt
G1 X124.390 Y107.313 E9.78063 ; skirt
G1 X124.280 Y107.320 E9.78523 ; skirt
G1 F1800.000 E8.78523 ; retract
G1 Z0.900 ; lift plate during travel
G92 E0 ; reset extrusion distance
G1 X73.040 Y89.809 F7800.000 ; move to first perimeter point
G1 Z0.400 ; restore layer Z
G1 F1800.000 E1.00000 ; compensate retraction
G1 X72.727 Y90.568 F324.000 E1.03418 ; perimeter
G1 X72.228 Y91.220 E1.06836 ; perimeter
G1 X71.577 Y91.721 E1.10254 ; perimeter
G1 X70.819 Y92.037 E1.13672 ; perimeter
G1 X70.005 Y92.145 E1.17091 ; perimeter
G1 X69.191 Y92.040 E1.20509 ; perimeter
G1 X68.432 Y91.727 E1.23927 ; perimeter
G1 X67.780 Y91.228 E1.27345 ; perimeter
G1 X67.657 Y91.068 E1.28185 ; perimeter
G1 X67.279 Y90.577 E1.30763 ; perimeter
G1 X66.963 Y89.819 E1.34181 ; perimeter
G1 X66.855 Y89.005 E1.37599 ; perimeter
G1 X66.960 Y88.191 E1.41017 ; perimeter
G1 X67.273 Y87.432 E1.44436 ; perimeter
G1 X67.772 Y86.780 E1.47854 ; perimeter
G1 X68.423 Y86.279 E1.51272 ; perimeter
G1 X69.181 Y85.963 E1.54690 ; perimeter
G1 X69.995 Y85.855 E1.58108 ; perimeter
G1 X70.809 Y85.960 E1.61526 ; perimeter
G1 X71.381 Y86.196 E1.64105 ; perimeter
G1 X71.568 Y86.273 E1.64944 ; perimeter
G1 X72.220 Y86.772 E1.68362 ; perimeter
G1 X72.721 Y87.423 E1.71780 ; perimeter
G1 X73.037 Y88.181 E1.75199 ; perimeter
G1 X73.145 Y88.995 E1.78617 ; perimeter
G1 X73.054 Y89.699 E1.81575 ; perimeter
G1 X73.040 Y89.809 E1.82035 ; perimeter
G1 X72.323 Y89.618 F7800.000 ; move to first perimeter point
G1 X72.084 Y90.198 F324.000 E1.84647 ; perimeter
G1 X71.702 Y90.697 E1.87258 ; perimeter
G1 X71.205 Y91.079 E1.89870 ; perimeter
G1 X70.626 Y91.320 E1.92482 ; perimeter
G1 X70.004 Y91.403 E1.95094 ; perimeter
G1 X69.382 Y91.323 E1.97706 ; perimeter
G1 X68.802 Y91.084 E2.00318 ; perimeter
G1 X68.303 Y90.702 E2.02929 ; perimeter
G1 X68.239 Y90.619 E2.03366 ; perimeter
G1 X67.921 Y90.205 E2.05541 ; perimeter
G1 X67.680 Y89.626 E2.08153 ; perimeter
G1 X67.597 Y89.004 E2.10765 ; perimeter
G1 X67.677 Y88.382 E2.13377 ; perimeter
G1 X67.916 Y87.802 E2.15989 ; perimeter
G1 X68.298 Y87.303 E2.18600 ; perimeter
G1 X68.795 Y86.921 E2.21212 ; perimeter
G1 X69.374 Y86.680 E2.23824 ; perimeter
G1 X69.996 Y86.597 E2.26436 ; perimeter
G1 X70.618 Y86.677 E2.29048 ; perimeter
G1 X71.101 Y86.876 E2.31223 ; perimeter
G1 X71.198 Y86.916 E2.31659 ; perimeter
G1 X71.697 Y87.298 E2.34271 ; perimeter
G1 X72.079 Y87.795 E2.36883 ; perimeter
G1 X72.320 Y88.374 E2.39495 ; perimeter
G1 X72.403 Y88.996 E2.42107 ; perimeter
G1 X72.337 Y89.509 E2.44259 ; perimeter
G1 X72.323 Y89.618 E2.44719 ; perimeter
G1 X72.821 Y90.160 F7800.000 ; move inwards before travel
G1 F1800.000 E1.44719 ; retract
G1 Z0.900 ; lift plate during travel
G92 E0 ; reset extrusion distance
G1 X74.869 Y89.383 F7800.000 ; move to first perimeter point
G1 Z0.400 ; restore layer Z
G1 F1800.000 E1.00000 ; compensate retraction
G1 X74.944 Y88.042 F324.000 E1.05591 ; perimeter
G1 X75.365 Y86.767 E1.11183 ; perimeter
G1 X76.101 Y85.643 E1.16775 ; perimeter
G1 X77.102 Y84.748 E1.22366 ; perimeter
G1 X78.302 Y84.143 E1.27958 ; perimeter
G1 X79.368 Y83.921 E1.32492 ; perimeter
G1 X79.617 Y83.869 E1.33549 ; perimeter
G1 X80.958 Y83.944 E1.39141 ; perimeter
G1 X82.233 Y84.365 E1.44732 ; perimeter
G1 X83.357 Y85.101 E1.50324 ; perimeter
G1 X83.526 Y85.290 E1.51381 ; perimeter
G1 X84.252 Y86.102 E1.55915 ; perimeter
G1 X84.857 Y87.302 E1.61507 ; perimeter
G1 X85.131 Y88.617 E1.67098 ; perimeter
G1 X85.056 Y89.958 E1.72690 ; perimeter
G1 X84.635 Y91.233 E1.78281 ; perimeter
G1 X83.899 Y92.357 E1.83873 ; perimeter
G1 X82.898 Y93.252 E1.89464 ; perimeter
G1 X81.698 Y93.857 E1.95056 ; perimeter
G1 X80.383 Y94.131 E2.00647 ; perimeter
G1 X79.042 Y94.056 E2.06239 ; perimeter
G1 X77.767 Y93.635 E2.11830 ; perimeter
G1 X76.643 Y92.899 E2.17422 ; perimeter
G1 X75.748 Y91.898 E2.23013 ; perimeter
G1 X75.143 Y90.698 E2.28605 ; perimeter
G1 X74.891 Y89.491 E2.33737 ; perimeter
G1 X74.869 Y89.383 E2.34196 ; perimeter
G1 X75.609 Y89.328 F7800.000 ; move to first perimeter point
G1 X75.673 Y88.180 F324.000 E2.38981 ; perimeter
G1 X76.033 Y87.089 E2.43767 ; perimeter
G1 X76.663 Y86.127 E2.48552 ; perimeter
G1 X77.520 Y85.361 E2.53337 ; perimeter
G1 X78.547 Y84.843 E2.58122 ; perimeter
G1 X79.518 Y84.641 E2.62254 ; perimeter
G1 X79.672 Y84.609 E2.62908 ; perimeter
G1 X80.820 Y84.673 E2.67693 ; perimeter
G1 X81.911 Y85.033 E2.72478 ; perimeter
G1 X82.873 Y85.663 E2.77263 ; perimeter
G1 X82.978 Y85.780 E2.77917 ; perimeter
G1 X83.639 Y86.520 E2.82048 ; perimeter
G1 X84.157 Y87.547 E2.86834 ; perimeter
G1 X84.391 Y88.672 E2.91619 ; perimeter
G1 X84.327 Y89.820 E2.96404 ; perimeter
G1 X83.967 Y90.911 E3.01189 ; perimeter
G1 X83.337 Y91.873 E3.05975 ; perimeter
G1 X82.480 Y92.639 E3.10760 ; perimeter
G1 X81.453 Y93.157 E3.15545 ; perimeter
G1 X80.328 Y93.391 E3.20330 ; perimeter
G1 X79.180 Y93.327 E3.25115 ; perimeter
G1 X78.089 Y92.967 E3.29901 ; perimeter
G1 X77.127 Y92.337 E3.34686 ; perimeter
G1 X76.361 Y91.480 E3.39471 ; perimeter
G1 X75.843 Y90.453 E3.44256 ; perimeter
G1 X75.631 Y89.436 E3.48582 ; perimeter
G1 X75.609 Y89.328 E3.49041 ; perimeter
G1 X74.961 Y88.980 F7800.000 ; move inwards before travel
G1 F1800.000 E2.49041 ; retract
G1 Z0.900 ; lift plate during travel
G92 E0 ; reset extrusion distance
G1 X87.252 Y88.726 F7800.000 ; move to first perimeter point
G1 Z0.400 ; restore layer Z
G1 F1800.000 E1.00000 ; compensate retraction
G1 X87.442 Y87.835 F540.000 E1.03790 ; perimeter
G1 X87.855 Y87.024 E1.07580 ; perimeter
G1 X88.465 Y86.348 E1.11369 ; perimeter
G1 X89.228 Y85.852 E1.15159 ; perimeter
G1 X90.094 Y85.571 E1.18949 ; perimeter
G1 X91.003 Y85.523 E1.22738 ; perimeter
G1 X92.289 Y85.797 E1.28208 ; perimeter
G1 X92.289 Y83.629 E1.37234 ; perimeter
G1 X107.692 Y83.629 E2.01352 ; perimeter
G1 X107.692 Y85.896 E2.10789 ; perimeter
G1 X108.514 Y85.596 E2.14432 ; perimeter
G1 X109.421 Y85.516 E2.18222 ; perimeter
G1 X110.317 Y85.673 E2.22012 ; perimeter
G1 X111.143 Y86.057 E2.25801 ; perimeter
G1 X111.840 Y86.642 E2.29591 ; perimeter
G1 X112.363 Y87.387 E2.33381 ; perimeter
G1 X112.675 Y88.243 E2.37171 ; perimeter
G1 X112.755 Y89.150 E2.40960 ; perimeter
G1 X112.598 Y90.046 E2.44750 ; perimeter
G1 X112.214 Y90.872 E2.48540 ; perimeter
G1 X111.629 Y91.569 E2.52329 ; perimeter
G1 X110.884 Y92.092 E2.56119 ; perimeter
G1 X110.028 Y92.404 E2.59909 ; perimeter
G1 X109.121 Y92.484 E2.63699 ; perimeter
G1 X108.225 Y92.327 E2.67488 ; perimeter
G1 X107.692 Y92.079 E2.69937 ; perimeter
G1 X107.692 Y94.371 E2.79481 ; perimeter
G1 X92.289 Y94.371 E3.43599 ; perimeter
G1 X92.289 Y92.129 E3.52933 ; perimeter
G1 X91.364 Y92.429 E3.56982 ; perimeter
G1 X90.455 Y92.477 E3.60771 ; perimeter
G1 X89.564 Y92.287 E3.64561 ; perimeter
G1 X88.753 Y91.874 E3.68351 ; perimeter
G1 X88.077 Y91.264 E3.72141 ; perimeter
G1 X87.581 Y90.501 E3.75930 ; perimeter
G1 X87.300 Y89.635 E3.79720 ; perimeter
G1 X87.258 Y88.836 E3.83050 ; perimeter
G1 X87.252 Y88.726 E3.83510 ; perimeter
G1 X87.992 Y88.784 F7800.000 ; move to first perimeter point
G1 X88.141 Y88.083 F540.000 E3.86493 ; perimeter
G1 X88.467 Y87.444 E3.89477 ; perimeter
G1 X88.947 Y86.912 E3.92460 ; perimeter
G1 X89.548 Y86.522 E3.95444 ; perimeter
G1 X90.229 Y86.300 E3.98427 ; perimeter
G1 X90.945 Y86.263 E4.01410 ; perimeter
G1 X91.646 Y86.412 E4.04394 ; perimeter
G1 X92.285 Y86.738 E4.07377 ; perimeter
G1 X93.024 Y87.404 E4.11522 ; perimeter
G1 X93.024 Y84.364 E4.24176 ; perimeter
G1 X106.956 Y84.364 E4.82170 ; perimeter
G1 X106.956 Y87.299 E4.94386 ; perimeter
G1 X108.001 Y86.566 E4.99702 ; perimeter
G1 X108.675 Y86.320 E5.02685 ; perimeter
G1 X109.389 Y86.257 E5.05669 ; perimeter
G1 X110.095 Y86.381 E5.08652 ; perimeter
G1 X110.744 Y86.683 E5.11636 ; perimeter
G1 X111.294 Y87.144 E5.14619 ; perimeter
G1 X111.705 Y87.730 E5.17603 ; perimeter
G1 X111.951 Y88.404 E5.20586 ; perimeter
G1 X112.014 Y89.118 E5.23569 ; perimeter
G1 X111.890 Y89.824 E5.26553 ; perimeter
G1 X111.588 Y90.473 E5.29536 ; perimeter
G1 X111.127 Y91.023 E5.32520 ; perimeter
G1 X110.541 Y91.434 E5.35503 ; perimeter
G1 X109.867 Y91.680 E5.38487 ; perimeter
G1 X109.153 Y91.743 E5.41470 ; perimeter
G1 X108.447 Y91.619 E5.44454 ; perimeter
G1 X107.798 Y91.317 E5.47437 ; perimeter
G1 X106.956 Y90.611 E5.52008 ; perimeter
G1 X106.956 Y93.636 E5.64597 ; perimeter
G1 X93.024 Y93.636 E6.22591 ; perimeter
G1 X93.024 Y90.755 E6.34581 ; perimeter
G1 X91.910 Y91.478 E6.40110 ; perimeter
G1 X91.229 Y91.700 E6.43093 ; perimeter
G1 X90.513 Y91.737 E6.46077 ; perimeter
G1 X89.812 Y91.588 E6.49060 ; perimeter
G1 X89.173 Y91.262 E6.52044 ; perimeter
G1 X88.641 Y90.782 E6.55027 ; perimeter
G1 X88.251 Y90.181 E6.58010 ; perimeter
G1 X88.029 Y89.500 E6.60994 ; perimeter
G1 X87.998 Y88.894 E6.63518 ; perimeter
G1 X87.992 Y88.784 E6.63977 ; perimeter
G1 X88.732 Y88.842 F7800.000 ; move to first perimeter point
G1 X88.841 Y88.331 F324.000 E6.66154 ; perimeter
G1 X89.078 Y87.865 E6.68331 ; perimeter
G1 X89.428 Y87.476 E6.70509 ; perimeter
G1 X89.867 Y87.192 E6.72686 ; perimeter
G1 X90.275 Y87.059 E6.74470 ; perimeter
G1 X90.364 Y87.030 E6.74863 ; perimeter
G1 X90.887 Y87.003 E6.77040 ; perimeter
G1 X91.398 Y87.112 E6.79217 ; perimeter
G1 X91.864 Y87.349 E6.81394 ; perimeter
G1 X92.253 Y87.699 E6.83571 ; perimeter
G1 X92.537 Y88.138 E6.85749 ; perimeter
G1 X92.699 Y88.635 E6.87926 ; perimeter
G1 X92.726 Y89.158 E6.90103 ; perimeter
G1 X92.617 Y89.669 E6.92280 ; perimeter
G1 X92.380 Y90.135 E6.94457 ; perimeter
G1 X92.030 Y90.524 E6.96634 ; perimeter
G1 X91.591 Y90.808 E6.98811 ; perimeter
G1 X91.094 Y90.970 E7.00989 ; perimeter
G1 X90.571 Y90.997 E7.03166 ; perimeter
G1 X90.152 Y90.908 E7.04950 ; perimeter
G1 X90.060 Y90.888 E7.05343 ; perimeter
G1 X89.594 Y90.651 E7.07520 ; perimeter
G1 X89.205 Y90.301 E7.09697 ; perimeter
G1 X88.921 Y89.862 E7.11874 ; perimeter
G1 X88.759 Y89.365 E7.14052 ; perimeter
G1 X88.738 Y88.953 E7.15769 ; perimeter
G1 X88.732 Y88.842 E7.16229 ; perimeter
G1 X88.144 Y88.399 F7800.000 ; move inwards before travel
G1 F1800.000 E6.16229 ; retract
G1 Z0.900 ; lift plate during travel
G92 E0 ; reset extrusion distance
G1 X93.760 Y85.100 F7800.000 ; move to first perimeter point
G1 Z0.400 ; restore layer Z
G1 F1800.000 E1.00000 ; compensate retraction
G1 X106.220 Y85.100 F324.000 E1.51870 ; perimeter
G1 X106.220 Y92.900 E1.84339 ; perimeter
G1 X93.760 Y92.900 E2.36209 ; perimeter
G1 X93.760 Y85.210 E2.68219 ; perimeter
G1 X93.760 Y85.100 E2.68678 ; perimeter
G1 X93.760 Y84.364 F7800.000 ; move inwards before travel
G1 F1800.000 E1.68678 ; retract
G1 Z0.900 ; lift plate during travel
G92 E0 ; reset extrusion distance
G1 X107.360 Y88.399 F7800.000 ; move to first perimeter point
G1 Z0.400 ; restore layer Z
G1 F1800.000 E1.00000 ; compensate retraction
G1 X107.580 Y87.925 F324.000 E1.02177 ; perimeter
G1 X107.916 Y87.524 E1.04354 ; perimeter
G1 X108.345 Y87.224 E1.06531 ; perimeter
G1 X108.836 Y87.044 E1.08709 ; perimeter
G1 X109.357 Y86.998 E1.10886 ; perimeter
G1 X109.872 Y87.089 E1.13063 ; perimeter
G1 X110.346 Y87.309 E1.15240 ; perimeter
G1 X110.675 Y87.585 E1.17024 ; perimeter
G1 X110.747 Y87.645 E1.17417 ; perimeter
G1 X111.047 Y88.074 E1.19594 ; perimeter
G1 X111.227 Y88.565 E1.21771 ; perimeter
G1 X111.273 Y89.086 E1.23949 ; perimeter
G1 X111.182 Y89.601 E1.26126 ; perimeter
G1 X110.961 Y90.075 E1.28303 ; perimeter
