; generated by Slic3r 0.9.8-dev on 2013-01-26 at 13:05:07

; layer_height = 0.4
; perimeters = 3
; top_solid_layers = 3
; bottom_solid_layers = 3
; fill_density = 0.40
; perimeter_speed = 30
; infill_speed = 60
; travel_speed = 130
; scale = 1
; nozzle_diameter = 0.5
; filament_diameter = 3
; extrusion_multiplier = 1
; perimeters extrusion width = 0.53mm
; infill extrusion width = 0.53mm
; first layer extrusion width = 0.80mm

M190 S60 ; wait for bed temperature to be reached
M104 S175 ; set temperature
G28 ; home all axes
G92 E0 ;reset extruder
M109 S175 ; wait for temperature to be reached
G90 ; use absolute coordinates
G21 ; set units to millimeters
G92 E0 ; reset extrusion distance
M82 ; use absolute distances for extrusion
G1 F1800.000 E-1.00000 ; retract
G1 Z1.400 ; move to next layer (0) and lift
G92 E0 ; reset extrusion distance
G1 X113.840 Y103.340 F7800.000 ; move to first skirt point
G1 Z0.400 ; restore layer Z
G1 F1800.000 E1.00000 ; compensate retraction
G1 X66.010 Y103.340 F900.000 E2.99105 ; skirt
G1 X65.530 Y103.320 E3.01104 ; skirt
G1 X64.000 Y103.210 E3.07490 ; skirt
G1 X63.190 Y103.100 E3.10893 ; skirt
G1 X61.700 Y102.810 E3.17212 ; skirt
G1 X60.810 Y102.570 E3.21049 ; skirt
G1 X59.380 Y102.080 E3.27341 ; skirt
G1 X58.560 Y101.740 E3.31036 ; skirt
G1 X57.150 Y101.040 E3.37589 ; skirt
G1 X56.420 Y100.620 E3.41095 ; skirt
G1 X55.200 Y99.810 E3.47191 ; skirt
G1 X54.490 Y99.260 E3.50930 ; skirt
G1 X53.350 Y98.260 E3.57243 ; skirt
G1 X52.730 Y97.640 E3.60892 ; skirt
G1 X51.730 Y96.500 E3.67205 ; skirt
G1 X51.170 Y95.780 E3.71002 ; skirt
G1 X50.330 Y94.510 E3.77341 ; skirt
G1 X49.910 Y93.770 E3.80883 ; skirt
G1 X49.240 Y92.410 E3.87194 ; skirt
G1 X48.910 Y91.610 E3.90796 ; skirt
G1 X48.420 Y90.180 E3.97089 ; skirt
G1 X48.180 Y89.290 E4.00926 ; skirt
G1 X47.890 Y87.800 E4.07245 ; skirt
G1 X47.780 Y86.950 E4.10812 ; skirt
G1 X47.680 Y85.430 E4.17154 ; skirt
G1 X47.680 Y84.540 E4.20858 ; skirt
G1 X47.780 Y83.030 E4.27158 ; skirt
G1 X47.890 Y82.190 E4.30684 ; skirt
G1 X48.180 Y80.700 E4.37003 ; skirt
G1 X48.420 Y79.810 E4.40841 ; skirt
G1 X48.910 Y78.380 E4.47133 ; skirt
G1 X49.240 Y77.580 E4.50735 ; skirt
G1 X49.910 Y76.220 E4.57047 ; skirt
G1 X50.330 Y75.480 E4.60589 ; skirt
G1 X51.170 Y74.210 E4.66927 ; skirt
G1 X51.730 Y73.490 E4.70724 ; skirt
G1 X52.730 Y72.350 E4.77037 ; skirt
G1 X53.350 Y71.730 E4.80687 ; skirt
G1 X54.490 Y70.730 E4.86999 ; skirt
G1 X55.210 Y70.170 E4.90796 ; skirt
G1 X56.480 Y69.330 E4.97135 ; skirt
G1 X57.220 Y68.910 E5.00677 ; skirt
G1 X58.580 Y68.240 E5.06988 ; skirt
G1 X59.380 Y67.910 E5.10590 ; skirt
G1 X60.810 Y67.420 E5.16883 ; skirt
G1 X61.700 Y67.180 E5.20720 ; skirt
G1 X63.190 Y66.890 E5.27039 ; skirt
G1 X64.040 Y66.780 E5.30607 ; skirt
G1 X65.570 Y66.680 E5.36989 ; skirt
G1 X66.020 Y66.660 E5.38864 ; skirt
G1 X115.790 Y66.770 E7.46045 ; skirt
G1 X116.310 Y66.810 E7.48216 ; skirt
G1 X116.820 Y66.890 E7.50365 ; skirt
G1 X118.300 Y67.180 E7.56643 ; skirt
G1 X119.180 Y67.420 E7.60440 ; skirt
G1 X120.610 Y67.910 E7.66733 ; skirt
G1 X121.410 Y68.240 E7.70335 ; skirt
G1 X122.770 Y68.910 E7.76646 ; skirt
G1 X123.570 Y69.370 E7.80488 ; skirt
G1 X124.870 Y70.250 E7.87022 ; skirt
G1 X125.540 Y70.780 E7.90579 ; skirt
G1 X126.640 Y71.750 E7.96684 ; skirt
G1 X127.250 Y72.360 E8.00275 ; skirt
G1 X128.250 Y73.500 E8.06587 ; skirt
G1 X128.770 Y74.170 E8.10118 ; skirt
G1 X129.620 Y75.430 E8.16445 ; skirt
G1 X130.080 Y76.220 E8.20250 ; skirt
G1 X130.750 Y77.580 E8.26561 ; skirt
G1 X131.080 Y78.380 E8.30164 ; skirt
G1 X131.570 Y79.810 E8.36456 ; skirt
G1 X131.810 Y80.700 E8.40293 ; skirt
G1 X132.100 Y82.190 E8.46612 ; skirt
G1 X132.210 Y83.030 E8.50139 ; skirt
G1 X132.310 Y84.540 E8.56438 ; skirt
G1 X132.310 Y85.480 E8.60351 ; skirt
G1 X132.200 Y87.000 E8.66695 ; skirt
G1 X132.070 Y87.920 E8.70563 ; skirt
G1 X131.750 Y89.410 E8.76907 ; skirt
G1 X131.520 Y90.210 E8.80372 ; skirt
G1 X131.020 Y91.650 E8.86718 ; skirt
G1 X130.680 Y92.450 E8.90336 ; skirt
G1 X130.000 Y93.810 E8.96666 ; skirt
G1 X129.540 Y94.600 E9.00471 ; skirt
G1 X128.680 Y95.860 E9.06821 ; skirt
G1 X128.160 Y96.530 E9.10352 ; skirt
G1 X127.150 Y97.670 E9.16692 ; skirt
G1 X126.510 Y98.300 E9.20430 ; skirt
G1 X125.350 Y99.300 E9.26806 ; skirt
G1 X124.680 Y99.810 E9.30311 ; skirt
G1 X123.370 Y100.680 E9.36857 ; skirt
G1 X122.560 Y101.140 E9.40735 ; skirt
G1 X121.230 Y101.780 E9.46879 ; skirt
G1 X120.480 Y102.090 E9.50257 ; skirt
G1 X119.040 Y102.580 E9.56589 ; skirt
G1 X118.190 Y102.800 E9.60244 ; skirt
G1 X116.690 Y103.100 E9.66612 ; skirt
G1 X115.810 Y103.220 E9.70309 ; skirt
G1 X113.950 Y103.335 E9.78066 ; skirt
G1 X113.840 Y103.340 E9.78525 ; skirt
G1 F1800.000 E8.78525 ; retract
G1 Z1.400 ; move to next layer (0) and lift
G92 E0 ; reset extrusion distance
G1 X63.040 Y85.809 F7800.000 ; move to first perimeter point
G1 Z0.400 ; restore layer Z
G1 F1800.000 E1.00000 ; compensate retraction
G1 X62.727 Y86.568 F720.000 E1.03418 ; perimeter
G1 X62.228 Y87.220 E1.06836 ; perimeter
G1 X61.577 Y87.721 E1.10254 ; perimeter
G1 X60.819 Y88.037 E1.13672 ; perimeter
G1 X60.005 Y88.145 E1.17091 ; perimeter
G1 X59.191 Y88.040 E1.20509 ; perimeter
G1 X58.432 Y87.727 E1.23927 ; perimeter
G1 X57.780 Y87.228 E1.27345 ; perimeter
G1 X57.673 Y87.089 E1.28076 ; perimeter
G1 X57.279 Y86.577 E1.30763 ; perimeter
G1 X56.963 Y85.819 E1.34181 ; perimeter
G1 X56.855 Y85.005 E1.37599 ; perimeter
G1 X56.960 Y84.191 E1.41017 ; perimeter
G1 X57.273 Y83.432 E1.44436 ; perimeter
G1 X57.772 Y82.780 E1.47854 ; perimeter
G1 X58.423 Y82.279 E1.51272 ; perimeter
G1 X59.181 Y81.963 E1.54690 ; perimeter
G1 X59.995 Y81.855 E1.58108 ; perimeter
G1 X60.809 Y81.960 E1.61526 ; perimeter
G1 X61.568 Y82.273 E1.64944 ; perimeter
G1 X62.220 Y82.772 E1.68363 ; perimeter
G1 X62.721 Y83.423 E1.71780 ; perimeter
G1 X63.037 Y84.181 E1.75199 ; perimeter
G1 X63.145 Y84.995 E1.78617 ; perimeter
G1 X63.054 Y85.699 E1.81576 ; perimeter
G1 X63.040 Y85.809 E1.82035 ; perimeter
G1 X62.323 Y85.618 F7800.000 ; move to first perimeter point
G1 X62.084 Y86.198 F720.000 E1.84647 ; perimeter
G1 X61.702 Y86.697 E1.87259 ; perimeter
G1 X61.205 Y87.079 E1.89870 ; perimeter
G1 X60.626 Y87.320 E1.92482 ; perimeter
G1 X60.004 Y87.403 E1.95094 ; perimeter
G1 X59.382 Y87.323 E1.97706 ; perimeter
G1 X58.802 Y87.084 E2.00318 ; perimeter
G1 X58.303 Y86.702 E2.02929 ; perimeter
G1 X58.255 Y86.640 E2.03257 ; perimeter
G1 X57.921 Y86.205 E2.05541 ; perimeter
G1 X57.680 Y85.626 E2.08153 ; perimeter
G1 X57.597 Y85.004 E2.10765 ; perimeter
G1 X57.677 Y84.382 E2.13377 ; perimeter
G1 X57.916 Y83.802 E2.15989 ; perimeter
G1 X58.298 Y83.303 E2.18600 ; perimeter
G1 X58.795 Y82.921 E2.21212 ; perimeter
G1 X59.374 Y82.680 E2.23824 ; perimeter
G1 X59.996 Y82.597 E2.26436 ; perimeter
G1 X60.618 Y82.677 E2.29048 ; perimeter
G1 X61.198 Y82.916 E2.31659 ; perimeter
G1 X61.697 Y83.298 E2.34271 ; perimeter
G1 X62.079 Y83.795 E2.36883 ; perimeter
G1 X62.320 Y84.374 E2.39495 ; perimeter
G1 X62.403 Y84.996 E2.42107 ; perimeter
G1 X62.337 Y85.509 E2.44259 ; perimeter
G1 X62.323 Y85.618 E2.44719 ; perimeter
G1 X62.821 Y86.160 F7800.000 ; move inwards before travel
G1 F1800.000 E1.44719 ; retract
G1 Z1.400 ; lift plate during travel
G92 E0 ; reset extrusion distance
G1 X64.869 Y85.383 F7800.000 ; move to first perimeter point
G1 Z0.400 ; restore layer Z
G1 F1800.000 E1.00000 ; compensate retraction
G1 X64.944 Y84.042 F720.000 E1.05591 ; perimeter
G1 X65.365 Y82.767 E1.11183 ; perimeter
G1 X66.101 Y81.643 E1.16775 ; perimeter
G1 X67.102 Y80.748 E1.22366 ; perimeter
G1 X68.302 Y80.143 E1.27958 ; perimeter
G1 X69.368 Y79.921 E1.32492 ; perimeter
G1 X69.617 Y79.869 E1.33549 ; perimeter
G1 X70.958 Y79.944 E1.39141 ; perimeter
G1 X72.233 Y80.365 E1.44732 ; perimeter
G1 X73.357 Y81.101 E1.50324 ; perimeter
G1 X73.526 Y81.290 E1.51381 ; perimeter
G1 X74.252 Y82.102 E1.55915 ; perimeter
G1 X74.857 Y83.302 E1.61507 ; perimeter
G1 X75.131 Y84.617 E1.67098 ; perimeter
G1 X75.056 Y85.958 E1.72690 ; perimeter
G1 X74.635 Y87.233 E1.78281 ; perimeter
G1 X73.899 Y88.357 E1.83873 ; perimeter
G1 X72.898 Y89.252 E1.89464 ; perimeter
G1 X71.698 Y89.857 E1.95056 ; perimeter
G1 X70.383 Y90.131 E2.00647 ; perimeter
G1 X69.042 Y90.056 E2.06239 ; perimeter
G1 X67.767 Y89.635 E2.11830 ; perimeter
G1 X66.643 Y88.899 E2.17422 ; perimeter
G1 X65.748 Y87.898 E2.23013 ; perimeter
G1 X65.143 Y86.698 E2.28605 ; perimeter
G1 X64.891 Y85.491 E2.33737 ; perimeter
G1 X64.869 Y85.383 E2.34196 ; perimeter
G1 X65.609 Y85.328 F7800.000 ; move to first perimeter point
G1 X65.673 Y84.180 F720.000 E2.38981 ; perimeter
G1 X66.033 Y83.089 E2.43767 ; perimeter
G1 X66.663 Y82.127 E2.48552 ; perimeter
G1 X67.520 Y81.361 E2.53337 ; perimeter
G1 X68.547 Y80.843 E2.58122 ; perimeter
G1 X69.518 Y80.641 E2.62254 ; perimeter
G1 X69.672 Y80.609 E2.62908 ; perimeter
G1 X70.820 Y80.673 E2.67693 ; perimeter
G1 X71.911 Y81.033 E2.72478 ; perimeter
G1 X72.873 Y81.663 E2.77263 ; perimeter
G1 X72.978 Y81.780 E2.77917 ; perimeter
G1 X73.639 Y82.520 E2.82048 ; perimeter
G1 X74.157 Y83.547 E2.86834 ; perimeter
G1 X74.391 Y84.672 E2.91619 ; perimeter
G1 X74.327 Y85.820 E2.96404 ; perimeter
G1 X73.967 Y86.911 E3.01189 ; perimeter
G1 X73.337 Y87.873 E3.05975 ; perimeter
G1 X72.480 Y88.639 E3.10760 ; perimeter
G1 X71.453 Y89.157 E3.15545 ; perimeter
G1 X70.328 Y89.391 E3.20330 ; perimeter
G1 X69.180 Y89.327 E3.25115 ; perimeter
G1 X68.089 Y88.967 E3.29901 ; perimeter
G1 X67.127 Y88.337 E3.34686 ; perimeter
G1 X66.361 Y87.480 E3.39471 ; perimeter
G1 X65.843 Y86.453 E3.44256 ; perimeter
G1 X65.631 Y85.436 E3.48582 ; perimeter
G1 X65.609 Y85.328 E3.49041 ; perimeter
G1 X64.961 Y84.980 F7800.000 ; move inwards before travel
G1 F1800.000 E2.49041 ; retract
G1 Z1.400 ; lift plate during travel
G92 E0 ; reset extrusion distance
G1 X77.252 Y84.726 F7800.000 ; move to first perimeter point
G1 Z0.400 ; restore layer Z
G1 F1800.000 E1.00000 ; compensate retraction
G1 X77.442 Y83.835 F900.000 E1.03790 ; perimeter
G1 X77.855 Y83.024 E1.07580 ; perimeter
G1 X78.465 Y82.348 E1.11369 ; perimeter
G1 X79.228 Y81.852 E1.15159 ; perimeter
G1 X80.094 Y81.571 E1.18949 ; perimeter
G1 X81.003 Y81.523 E1.22738 ; perimeter
G1 X82.289 Y81.797 E1.28208 ; perimeter
G1 X82.289 Y79.629 E1.37234 ; perimeter
G1 X97.692 Y79.629 E2.01352 ; perimeter
G1 X97.692 Y81.896 E2.10789 ; perimeter
G1 X98.514 Y81.596 E2.14432 ; perimeter
G1 X99.421 Y81.516 E2.18222 ; perimeter
G1 X100.317 Y81.673 E2.22012 ; perimeter
G1 X101.143 Y82.057 E2.25801 ; perimeter
G1 X101.840 Y82.642 E2.29591 ; perimeter
G1 X102.363 Y83.387 E2.33381 ; perimeter
G1 X102.675 Y84.243 E2.37171 ; perimeter
G1 X102.755 Y85.150 E2.40960 ; perimeter
G1 X102.598 Y86.046 E2.44750 ; perimeter
G1 X102.214 Y86.872 E2.48540 ; perimeter
G1 X101.629 Y87.569 E2.52329 ; perimeter
G1 X100.884 Y88.092 E2.56119 ; perimeter
G1 X100.028 Y88.404 E2.59909 ; perimeter
G1 X99.121 Y88.484 E2.63699 ; perimeter
G1 X98.225 Y88.327 E2.67488 ; perimeter
G1 X97.692 Y88.079 E2.69937 ; perimeter
G1 X97.692 Y90.371 E2.79481 ; perimeter
G1 X82.289 Y90.371 E3.43599 ; perimeter
G1 X82.289 Y88.129 E3.52933 ; perimeter
G1 X81.364 Y88.429 E3.56982 ; perimeter
G1 X80.455 Y88.477 E3.60771 ; perimeter
G1 X79.564 Y88.287 E3.64561 ; perimeter
G1 X78.753 Y87.874 E3.68351 ; perimeter
G1 X78.077 Y87.264 E3.72141 ; perimeter
G1 X77.581 Y86.501 E3.75930 ; perimeter
G1 X77.300 Y85.635 E3.79720 ; perimeter
G1 X77.258 Y84.836 E3.83050 ; perimeter
G1 X77.252 Y84.726 E3.83510 ; perimeter
G1 X77.992 Y84.784 F7800.000 ; move to first perimeter point
G1 X78.141 Y84.083 F900.000 E3.86493 ; perimeter
G1 X78.467 Y83.444 E3.89477 ; perimeter
G1 X78.947 Y82.912 E3.92460 ; perimeter
G1 X79.548 Y82.522 E3.95444 ; perimeter
G1 X80.229 Y82.300 E3.98427 ; perimeter
G1 X80.945 Y82.263 E4.01410 ; perimeter
G1 X81.646 Y82.412 E4.04394 ; perimeter
G1 X82.285 Y82.738 E4.07377 ; perimeter
G1 X83.024 Y83.404 E4.11522 ; perimeter
G1 X83.024 Y80.364 E4.24176 ; perimeter
G1 X96.956 Y80.364 E4.82170 ; perimeter
G1 X96.956 Y83.299 E4.94386 ; perimeter
G1 X98.001 Y82.566 E4.99702 ; perimeter
G1 X98.675 Y82.320 E5.02685 ; perimeter
G1 X99.389 Y82.257 E5.05669 ; perimeter
G1 X100.095 Y82.381 E5.08652 ; perimeter
G1 X100.744 Y82.683 E5.11636 ; perimeter
G1 X101.294 Y83.144 E5.14619 ; perimeter
G1 X101.705 Y83.730 E5.17603 ; perimeter
G1 X101.951 Y84.404 E5.20586 ; perimeter
G1 X102.014 Y85.118 E5.23569 ; perimeter
G1 X101.890 Y85.824 E5.26553 ; perimeter
G1 X101.588 Y86.473 E5.29536 ; perimeter
G1 X101.127 Y87.023 E5.32520 ; perimeter
G1 X100.541 Y87.434 E5.35503 ; perimeter
G1 X99.867 Y87.680 E5.38487 ; perimeter
G1 X99.153 Y87.743 E5.41470 ; perimeter
G1 X98.447 Y87.619 E5.44454 ; perimeter
G1 X97.798 Y87.317 E5.47437 ; perimeter
G1 X96.956 Y86.611 E5.52008 ; perimeter
G1 X96.956 Y89.636 E5.64597 ; perimeter
G1 X83.024 Y89.636 E6.22591 ; perimeter
G1 X83.024 Y86.755 E6.34581 ; perimeter
G1 X81.910 Y87.478 E6.40110 ; perimeter
G1 X81.229 Y87.700 E6.43093 ; perimeter
G1 X80.513 Y87.737 E6.46077 ; perimeter
G1 X79.812 Y87.588 E6.49060 ; perimeter
G1 X79.173 Y87.262 E6.52044 ; perimeter
G1 X78.641 Y86.782 E6.55027 ; perimeter
G1 X78.251 Y86.181 E6.58010 ; perimeter
G1 X78.029 Y85.500 E6.60994 ; perimeter
G1 X77.998 Y84.894 E6.63518 ; perimeter
G1 X77.992 Y84.784 E6.63977 ; perimeter
G1 X78.732 Y84.842 F7800.000 ; move to first perimeter point
G1 X78.841 Y84.331 F720.000 E6.66154 ; perimeter
G1 X79.078 Y83.865 E6.68331 ; perimeter
G1 X79.428 Y83.476 E6.70509 ; perimeter
G1 X79.867 Y83.192 E6.72686 ; perimeter
G1 X80.275 Y83.059 E6.74470 ; perimeter
G1 X80.364 Y83.030 E6.74863 ; perimeter
G1 X80.887 Y83.003 E6.77040 ; perimeter
G1 X81.398 Y83.112 E6.79217 ; perimeter
G1 X81.864 Y83.349 E6.81394 ; perimeter
G1 X82.253 Y83.699 E6.83571 ; perimeter
G1 X82.537 Y84.138 E6.85749 ; perimeter
G1 X82.699 Y84.635 E6.87926 ; perimeter
G1 X82.726 Y85.158 E6.90103 ; perimeter
G1 X82.617 Y85.669 E6.92280 ; perimeter
G1 X82.380 Y86.135 E6.94457 ; perimeter
G1 X82.030 Y86.524 E6.96634 ; perimeter
G1 X81.591 Y86.808 E6.98811 ; perimeter
G1 X81.094 Y86.970 E7.00989 ; perimeter
G1 X80.571 Y86.997 E7.03166 ; perimeter
G1 X80.152 Y86.908 E7.04950 ; perimeter
G1 X80.060 Y86.888 E7.05343 ; perimeter
G1 X79.594 Y86.651 E7.07520 ; perimeter
G1 X79.205 Y86.301 E7.09697 ; perimeter
G1 X78.921 Y85.862 E7.11874 ; perimeter
G1 X78.759 Y85.365 E7.14052 ; perimeter
G1 X78.738 Y84.953 E7.15769 ; perimeter
G1 X78.732 Y84.842 E7.16229 ; perimeter
G1 X78.144 Y84.399 F7800.000 ; move inwards before travel
G1 F1800.000 E6.16229 ; retract
G1 Z1.400 ; lift plate during travel
G92 E0 ; reset extrusion distance
G1 X83.760 Y81.100 F7800.000 ; move to first perimeter point
G1 Z0.400 ; restore layer Z
G1 F1800.000 E1.00000 ; compensate retraction
G1 X96.220 Y81.100 F720.000 E1.51870 ; perimeter
G1 X96.220 Y88.900 E1.84339 ; perimeter
G1 X83.760 Y88.900 E2.36209 ; perimeter
G1 X83.760 Y81.210 E2.68219 ; perimeter
G1 X83.760 Y81.100 E2.68678 ; perimeter
G1 X83.760 Y80.364 F7800.000 ; move inwards before travel
G1 F1800.000 E1.68678 ; retract
G1 Z1.400 ; lift plate during travel
G92 E0 ; reset extrusion distance
G1 X97.360 Y84.399 F7800.000 ; move to first perimeter point
G1 Z0.400 ; restore layer Z
G1 F1800.000 E1.00000 ; compensate retraction
G1 X97.580 Y83.925 F720.000 E1.02177 ; perimeter
G1 X97.916 Y83.524 E1.04354 ; perimeter
G1 X98.345 Y83.224 E1.06531 ; perimeter
G1 X98.836 Y83.044 E1.08709 ; perimeter
G1 X99.357 Y82.998 E1.10886 ; perimeter
G1 X99.872 Y83.089 E1.13063 ; perimeter
G1 X100.346 Y83.309 E1.15240 ; perimeter
G1 X100.675 Y83.585 E1.17024 ; perimeter
G1 X100.747 Y83.645 E1.17417 ; perimeter
G1 X101.047 Y84.074 E1.19594 ; perimeter
G1 X101.227 Y84.565 E1.21771 ; perimeter
G1 X101.273 Y85.086 E1.23949 ; perimeter
G1 X101.182 Y85.601 E1.26126 ; perimeter
G1 X100.961 Y86.075 E1.28303 ; perimeter
G1 X100.626 Y86.476 E1.30480 ; perimeter
G1 X100.197 Y86.776 E1.32657 ; perimeter
G1 X99.706 Y86.956 E1.34834 ; perimeter
G1 X99.185 Y87.002 E1.37011 ; perimeter
G1 X98.670 Y86.911 E1.39189 ; perimeter
G1 X98.196 Y86.690 E1.41366 ; perimeter
