; generated by Slic3r 1.0.1 on 2014-08-30 at 12:30:07

; layer_height = 0.4
; perimeters = 3
; top_solid_layers = 3
; bottom_solid_layers = 3
; fill_density = 0.4
; perimeter_speed = 30
; infill_speed = 60
; travel_speed = 130
; nozzle_diameter = 0.5
; filament_diameter = 3
; extrusion_multiplier = 1
; perimeters extrusion width = 0.50mm
; infill extrusion width = 0.53mm
; solid infill extrusion width = 0.53mm
; top infill extrusion width = 0.53mm
; first layer extrusion width = 0.70mm

G21 ; set units to millimeters
M190 S60 ; wait for bed temperature to be reached
M104 S185 ; set temperature
G28 ; home all axes
G1 Z5 F5000 ; lift nozzle
G92 E0 ;reset extruder
M109 S185 ; wait for temperature to be reached
G90 ; use absolute coordinates
G92 E0 ; reset extrusion distance
M82 ; use absolute distances for extrusion
G1 F1800.000 E-1.00000 ; retract
G1 Z0.850 F7800.000 ; move to next layer (0) and lift
G92 E0 ; reset extrusion distance
G1 X49.790 Y53.290 F7800.000 ; move to first skirt point
G1 Z0.350 F7800.000 ; restore layer Z
G1 E1.00000 F1800.000 ; compensate retraction
G1 X50.800 Y52.460 E1.04253 F540.000 ; skirt
G1 X51.950 Y51.850 E1.08489 ; skirt
G1 X53.200 Y51.470 E1.12739 ; skirt
G1 X54.500 Y51.340 E1.16990 ; skirt
G1 X145.500 Y51.340 E4.13060 ; skirt
G1 X146.800 Y51.470 E4.17311 ; skirt
G1 X148.050 Y51.850 E4.21562 ; skirt
G1 X149.200 Y52.460 E4.25797 ; skirt
G1 X150.210 Y53.290 E4.30050 ; skirt
G1 X151.040 Y54.300 E4.34304 ; skirt
G1 X151.650 Y55.450 E4.38539 ; skirt
G1 X152.030 Y56.700 E4.42790 ; skirt
G1 X152.160 Y58.000 E4.47040 ; skirt
G1 X152.160 Y120.000 E6.48759 ; skirt
G1 X152.030 Y121.300 E6.53009 ; skirt
G1 X151.650 Y122.550 E6.57260 ; skirt
G1 X151.040 Y123.700 E6.61495 ; skirt
G1 X150.210 Y124.710 E6.65749 ; skirt
G1 X149.200 Y125.540 E6.70002 ; skirt
G1 X148.050 Y126.150 E6.74237 ; skirt
G1 X146.800 Y126.530 E6.78488 ; skirt
G1 X145.500 Y126.660 E6.82739 ; skirt
G1 X54.500 Y126.660 E9.78809 ; skirt
G1 X53.200 Y126.530 E9.83060 ; skirt
G1 X51.950 Y126.150 E9.87310 ; skirt
G1 X50.800 Y125.540 E9.91546 ; skirt
G1 X49.790 Y124.710 E9.95799 ; skirt
G1 X48.960 Y123.700 E10.00052 ; skirt
G1 X48.350 Y122.550 E10.04288 ; skirt
G1 X47.970 Y121.300 E10.08538 ; skirt
G1 X47.840 Y120.000 E10.12789 ; skirt
G1 X47.840 Y58.000 E12.14507 ; skirt
G1 X47.970 Y56.700 E12.18758 ; skirt
G1 X48.350 Y55.450 E12.23009 ; skirt
G1 X48.960 Y54.300 E12.27244 ; skirt
G1 X49.727 Y53.366 E12.31177 ; skirt
G1 F1800.000 E11.31177 ; retract
G1 Z0.850 F7800.000 ; lift plate during travel
G92 E0 ; reset extrusion distance
G1 X56.515 Y66.493 F7800.000 ; move to first perimeter point
G1 Z0.350 F7800.000 ; restore layer Z
G1 E1.00000 F1800.000 ; compensate retraction
G1 X63.093 Y66.493 E1.21401 F540.000 ; perimeter
G1 X63.093 Y59.701 E1.43498 ; perimeter
G1 X117.107 Y59.701 E3.19234 ; perimeter
G1 X117.107 Y66.493 E3.41331 ; perimeter
G1 X121.093 Y66.493 E3.54299 ; perimeter
G1 X121.093 Y60.003 E3.75413 ; perimeter
G1 X140.507 Y60.003 E4.38577 ; perimeter
G1 X140.507 Y116.995 E6.24000 ; perimeter
G1 X121.093 Y116.995 E6.87164 ; perimeter
G1 X121.093 Y111.507 E7.05019 ; perimeter
G1 X117.107 Y111.507 E7.17987 ; perimeter
G1 X117.107 Y117.504 E7.37497 ; perimeter
G1 X63.093 Y117.504 E9.13233 ; perimeter
G1 X63.093 Y111.507 E9.32743 ; perimeter
G1 X56.515 Y111.507 E9.54144 ; perimeter
G1 X56.515 Y66.591 E11.00278 ; perimeter
G1 X57.172 Y67.150 F7800.000 ; move to first perimeter point
G1 X63.750 Y67.150 E11.21679 F378.000 ; perimeter
G1 X63.750 Y60.358 E11.43776 ; perimeter
G1 X116.450 Y60.358 E13.15237 ; perimeter
G1 X116.450 Y67.150 E13.37333 ; perimeter
G1 X121.750 Y67.150 E13.54577 ; perimeter
G1 X121.750 Y60.660 E13.75691 ; perimeter
G1 X139.850 Y60.660 E14.34580 ; perimeter
G1 X139.850 Y116.338 E16.15727 ; perimeter
G1 X121.750 Y116.338 E16.74616 ; perimeter
G1 X121.750 Y110.850 E16.92470 ; perimeter
G1 X116.450 Y110.850 E17.09714 ; perimeter
G1 X116.450 Y116.847 E17.29224 ; perimeter
G1 X63.750 Y116.847 E19.00684 ; perimeter
G1 X63.750 Y110.850 E19.20194 ; perimeter
G1 X57.172 Y110.850 E19.41596 ; perimeter
G1 X57.172 Y67.249 E20.83454 ; perimeter
G1 X57.172 Y66.493 F7800.000 ; move inwards before travel
G1 F1800.000 E19.83454 ; retract
G1 Z0.850 F7800.000 ; lift plate during travel
G92 E0 ; reset extrusion distance
G1 X117.764 Y112.164 F7800.000 ; move to first perimeter point
G1 Z0.350 F7800.000 ; restore layer Z
G1 E1.00000 F1800.000 ; compensate retraction
G1 X120.436 Y112.164 E1.08692 F540.000 ; perimeter
G1 X120.436 Y117.652 E1.26547 ; perimeter
G1 X141.164 Y117.652 E1.93987 ; perimeter
G1 X141.164 Y59.664 E3.82651 ; perimeter
G1 X143.836 Y59.664 E3.91344 ; perimeter
G1 X143.836 Y118.336 E5.82233 ; perimeter
G1 X117.764 Y118.336 E6.67058 ; perimeter
G1 X117.764 Y112.263 E6.86817 ; perimeter
G1 F1800.000 E5.86817 ; retract
G1 Z0.850 F7800.000 ; lift plate during travel
G92 E0 ; reset extrusion distance
G1 X117.764 Y65.836 F7800.000 ; move to first perimeter point
G1 Z0.350 F7800.000 ; restore layer Z
G1 E1.00000 F1800.000 ; compensate retraction
G1 X117.764 Y59.664 E1.20080 F324.000 ; perimeter
G1 X120.436 Y59.664 E1.28772 ; perimeter
G1 X120.436 Y65.836 E1.48852 ; perimeter
G1 X117.863 Y65.836 E1.57223 ; perimeter
G1 F1800.000 E0.57223 ; retract
G1 Z0.850 F7800.000 ; lift plate during travel
G92 E0 ; reset extrusion distance
G1 X62.436 Y65.836 F7800.000 ; move to first perimeter point
G1 Z0.350 F7800.000 ; restore layer Z
G1 E1.00000 F1800.000 ; compensate retraction
G1 X56.164 Y65.836 E1.20405 F324.000 ; perimeter
G1 X56.164 Y59.664 E1.40485 ; perimeter
G1 X62.436 Y59.664 E1.60890 ; perimeter
G1 X62.436 Y65.737 E1.80649 ; perimeter
G1 F1800.000 E0.80649 ; retract
G1 Z0.850 F7800.000 ; lift plate during travel
G92 E0 ; reset extrusion distance
G1 X62.436 Y112.164 F7800.000 ; move to first perimeter point
G1 Z0.350 F7800.000 ; restore layer Z
G1 E1.00000 F1800.000 ; compensate retraction
G1 X62.436 Y118.336 E1.20080 F324.000 ; perimeter
G1 X56.164 Y118.336 E1.40485 ; perimeter
G1 X56.164 Y112.164 E1.60564 ; perimeter
G1 X62.337 Y112.164 E1.80649 ; perimeter
G1 X55.507 Y118.993 F7800.000 ; move to first perimeter point
G1 X55.507 Y59.007 E3.75814 F540.000 ; perimeter
G1 X144.493 Y59.007 E6.65331 ; perimeter
G1 X144.493 Y118.993 E8.60497 ; perimeter
G1 X55.606 Y118.993 E11.49693 ; perimeter
G1 X54.850 Y119.650 F7800.000 ; move to first perimeter point
G1 X54.850 Y58.350 E13.49134 F378.000 ; perimeter
G1 X145.150 Y58.350 E16.42927 ; perimeter
G1 X145.150 Y119.650 E18.42368 ; perimeter
G1 X54.949 Y119.650 E21.35840 ; perimeter
G1 X55.179 Y119.081 F7800.000 ; move inwards before travel
G1 X141.979 Y117.869 F7800.000 ; move to first fill point
G1 X141.959 Y117.849 E21.35933 F1080.000 ; fill
G1 X142.917 Y117.869 E21.39082 ; fill
G1 X141.631 Y116.583 E21.45060 ; fill
G1 X141.631 Y115.644 E21.48142 ; fill
G1 X143.369 Y117.383 E21.56221 ; fill
G1 X143.369 Y116.445 E21.59303 ; fill
G1 X141.631 Y114.706 E21.67381 ; fill
G1 X141.631 Y113.768 E21.70463 ; fill
G1 X143.369 Y115.507 E21.78542 ; fill
G1 X143.369 Y114.569 E21.81624 ; fill
G1 X141.631 Y112.830 E21.89703 ; fill
G1 X141.631 Y111.891 E21.92785 ; fill
G1 X143.369 Y113.630 E22.00864 ; fill
G1 X143.369 Y112.692 E22.03946 ; fill
G1 X141.631 Y110.953 E22.12025 ; fill
G1 X141.631 Y110.015 E22.15107 ; fill
G1 X143.369 Y111.754 E22.23186 ; fill
G1 X143.369 Y110.816 E22.26268 ; fill
G1 X141.631 Y109.077 E22.34346 ; fill
G1 X141.631 Y108.138 E22.37429 ; fill
G1 X143.369 Y109.877 E22.45507 ; fill
G1 X143.369 Y108.939 E22.48589 ; fill
G1 X141.631 Y107.200 E22.56668 ; fill
G1 X141.631 Y106.262 E22.59750 ; fill
G1 X143.369 Y108.001 E22.67829 ; fill
G1 X143.369 Y107.063 E22.70911 ; fill
G1 X141.631 Y105.324 E22.78990 ; fill
G1 X141.631 Y104.386 E22.82072 ; fill
G1 X143.369 Y106.124 E22.90151 ; fill
G1 X143.369 Y105.186 E22.93233 ; fill
G1 X141.631 Y103.447 E23.01311 ; fill
G1 X141.631 Y102.509 E23.04394 ; fill
G1 X143.369 Y104.248 E23.12472 ; fill
G1 X143.369 Y103.310 E23.15554 ; fill
G1 X141.631 Y101.571 E23.23633 ; fill
G1 X141.631 Y100.633 E23.26715 ; fill
G1 X143.369 Y102.371 E23.34794 ; fill
G1 X143.369 Y101.433 E23.37876 ; fill
G1 X141.631 Y99.694 E23.45955 ; fill
G1 X141.631 Y98.756 E23.49037 ; fill
G1 X143.369 Y100.495 E23.57116 ; fill
G1 X143.369 Y99.557 E23.60198 ; fill
G1 X141.631 Y97.818 E23.68276 ; fill
G1 X141.631 Y96.880 E23.71359 ; fill
G1 X143.369 Y98.619 E23.79437 ; fill
G1 X143.369 Y97.680 E23.82519 ; fill
G1 X141.631 Y95.941 E23.90598 ; fill
G1 X141.631 Y95.003 E23.93680 ; fill
G1 X143.369 Y96.742 E24.01759 ; fill
G1 X143.369 Y95.804 E24.04841 ; fill
G1 X141.631 Y94.065 E24.12920 ; fill
G1 X141.631 Y93.127 E24.16002 ; fill
G1 X143.369 Y94.866 E24.24081 ; fill
G1 X143.369 Y93.927 E24.27163 ; fill
G1 X141.631 Y92.188 E24.35241 ; fill
G1 X141.631 Y91.250 E24.38324 ; fill
G1 X143.369 Y92.989 E24.46402 ; fill
G1 X143.369 Y92.051 E24.49484 ; fill
G1 X141.631 Y90.312 E24.57563 ; fill
G1 X141.631 Y89.374 E24.60645 ; fill
G1 X143.369 Y91.113 E24.68724 ; fill
G1 X143.369 Y90.174 E24.71806 ; fill
G1 X141.631 Y88.435 E24.79885 ; fill
G1 X141.631 Y87.497 E24.82967 ; fill
G1 X143.369 Y89.236 E24.91046 ; fill
G1 X143.369 Y88.298 E24.94128 ; fill
G1 X141.631 Y86.559 E25.02206 ; fill
G1 X141.631 Y85.621 E25.05289 ; fill
G1 X143.369 Y87.360 E25.13367 ; fill
G1 X143.369 Y86.421 E25.16449 ; fill
G1 X141.631 Y84.682 E25.24528 ; fill
G1 X141.631 Y83.744 E25.27610 ; fill
G1 X143.369 Y85.483 E25.35689 ; fill
G1 X143.369 Y84.545 E25.38771 ; fill
G1 X141.631 Y82.806 E25.46850 ; fill
G1 X141.631 Y81.868 E25.49932 ; fill
G1 X143.369 Y83.607 E25.58011 ; fill
G1 X143.369 Y82.668 E25.61093 ; fill
G1 X141.631 Y80.929 E25.69171 ; fill
G1 X141.631 Y79.991 E25.72254 ; fill
G1 X143.369 Y81.730 E25.80332 ; fill
G1 X143.369 Y80.792 E25.83414 ; fill
G1 X141.631 Y79.053 E25.91493 ; fill
G1 X141.631 Y78.115 E25.94575 ; fill
G1 X143.369 Y79.854 E26.02654 ; fill
G1 X143.369 Y78.915 E26.05736 ; fill
G1 X141.631 Y77.176 E26.13815 ; fill
G1 X141.631 Y76.238 E26.16897 ; fill
G1 X143.369 Y77.977 E26.24976 ; fill
G1 X143.369 Y77.039 E26.28058 ; fill
G1 X141.631 Y75.300 E26.36136 ; fill
G1 X141.631 Y74.362 E26.39219 ; fill
G1 X143.369 Y76.101 E26.47297 ; fill
G1 X143.369 Y75.162 E26.50379 ; fill
G1 X141.631 Y73.423 E26.58458 ; fill
G1 X141.631 Y72.485 E26.61540 ; fill
G1 X143.369 Y74.224 E26.69619 ; fill
G1 X143.369 Y73.286 E26.72701 ; fill
G1 X141.631 Y71.547 E26.80780 ; fill
G1 X141.631 Y70.609 E26.83862 ; fill
G1 X143.369 Y72.348 E26.91941 ; fill
G1 X143.369 Y71.409 E26.95023 ; fill
G1 X141.631 Y69.670 E27.03101 ; fill
G1 X141.631 Y68.732 E27.06184 ; fill
G1 X143.369 Y70.471 E27.14262 ; fill
G1 X143.369 Y69.533 E27.17344 ; fill
G1 X141.631 Y67.794 E27.25423 ; fill
G1 X141.631 Y66.856 E27.28505 ; fill
G1 X143.369 Y68.595 E27.36584 ; fill
G1 X143.369 Y67.656 E27.39666 ; fill
G1 X141.631 Y65.917 E27.47745 ; fill
G1 X141.631 Y64.979 E27.50827 ; fill
G1 X143.369 Y66.718 E27.58906 ; fill
G1 X143.369 Y65.780 E27.61988 ; fill
G1 X141.631 Y64.041 E27.70067 ; fill
G1 X141.631 Y63.103 E27.73149 ; fill
G1 X143.369 Y64.842 E27.81227 ; fill
G1 X143.369 Y63.903 E27.84309 ; fill
G1 X141.631 Y62.164 E27.92388 ; fill
G1 X141.631 Y61.226 E27.95470 ; fill
G1 X143.369 Y62.965 E28.03549 ; fill
G1 X143.369 Y62.027 E28.06631 ; fill
G1 X141.631 Y60.288 E28.14710 ; fill
G1 X142.411 Y60.131 E28.17326 ; fill
G1 X143.369 Y61.089 E28.21778 ; fill
G1 X143.369 Y60.150 E28.24860 ; fill
G1 X143.350 Y60.131 E28.24953 ; fill
G1 F1800.000 E27.24953 ; retract
G1 Z0.850 F7800.000 ; lift plate during travel
G92 E0 ; reset extrusion distance
G1 X119.969 Y112.651 F7800.000 ; move to first fill point
G1 Z0.350 F7800.000 ; restore layer Z
G1 E1.00000 F1800.000 ; compensate retraction
G1 X119.949 Y112.631 E1.00098 F1080.000 ; fill
G1 X118.958 Y112.631 E1.03538 ; fill
G1 X119.969 Y113.642 E1.08500 ; fill
G1 X119.969 Y114.633 E1.11939 ; fill
G1 X118.231 Y112.894 E1.20473 ; fill
G1 X118.231 Y113.885 E1.23913 ; fill
G1 X119.969 Y115.624 E1.32447 ; fill
G1 X119.969 Y116.615 E1.35886 ; fill
G1 X118.231 Y114.876 E1.44420 ; fill
G1 X118.231 Y115.867 E1.47860 ; fill
G1 X119.877 Y117.514 E1.55942 ; fill
G1 X119.242 Y117.869 E1.58469 ; fill
G1 X118.231 Y116.858 E1.63431 ; fill
G1 X118.231 Y117.849 E1.66871 ; fill
G1 X118.251 Y117.869 E1.66969 ; fill
G1 F1800.000 E0.66969 ; retract
G1 Z0.850 F7800.000 ; lift plate during travel
G92 E0 ; reset extrusion distance
G1 X118.251 Y65.369 F7800.000 ; move to first fill point
G1 Z0.350 F7800.000 ; restore layer Z
G1 E1.00000 F1800.000 ; compensate retraction
G1 X118.231 Y65.349 E1.00098 F1080.000 ; fill
G1 X118.231 Y64.358 E1.03538 ; fill
G1 X119.242 Y65.369 E1.08500 ; fill
G1 X119.969 Y65.106 E1.11186 ; fill
G1 X118.231 Y63.367 E1.19720 ; fill
G1 X118.231 Y62.376 E1.23159 ; fill
G1 X119.969 Y64.115 E1.31693 ; fill
G1 X119.969 Y63.124 E1.35133 ; fill
G1 X118.231 Y61.385 E1.43667 ; fill
G1 X118.231 Y60.394 E1.47106 ; fill
G1 X119.969 Y62.133 E1.55640 ; fill
G1 X119.969 Y61.142 E1.59080 ; fill
G1 X118.958 Y60.131 E1.64042 ; fill
G1 X119.949 Y60.131 E1.67481 ; fill
G1 X119.969 Y60.151 E1.67579 ; fill
G1 X61.969 Y60.151 F7800.000 ; move to first fill point
G1 X61.949 Y60.131 E1.67674 F1080.000 ; fill
G1 X60.991 Y60.131 E1.70887 ; fill
G1 X61.969 Y61.109 E1.75526 ; fill
G1 X61.969 Y62.066 E1.78740 ; fill
G1 X60.033 Y60.131 E1.87923 ; fill
G1 X59.076 Y60.131 E1.91136 ; fill
G1 X61.969 Y63.024 E2.04864 ; fill
G1 X61.969 Y63.982 E2.08077 ; fill
G1 X58.118 Y60.131 E2.26349 ; fill
G1 X57.160 Y60.131 E2.29562 ; fill
G1 X61.969 Y64.940 E2.52378 ; fill
G1 X61.440 Y65.369 E2.54662 ; fill
G1 X56.631 Y60.560 E2.77478 ; fill
G1 X56.631 Y61.518 E2.80692 ; fill
G1 X60.482 Y65.369 E2.98964 ; fill
G1 X59.524 Y65.369 E3.02177 ; fill
G1 X56.631 Y62.475 E3.15904 ; fill
G1 X56.631 Y63.433 E3.19118 ; fill
G1 X58.567 Y65.369 E3.28301 ; fill
G1 X57.609 Y65.369 E3.31514 ; fill
G1 X56.631 Y64.391 E3.36153 ; fill
G1 X56.631 Y65.349 E3.39367 ; fill
G1 X56.651 Y65.369 E3.39461 ; fill
G1 F1800.000 E2.39461 ; retract
G1 Z0.850 F7800.000 ; lift plate during travel
G92 E0 ; reset extrusion distance
G1 X61.969 Y112.651 F7800.000 ; move to first fill point
G1 Z0.350 F7800.000 ; restore layer Z
G1 E1.00000 F1800.000 ; compensate retraction
G1 X61.949 Y112.631 E1.00095 F1080.000 ; fill
G1 X60.991 Y112.631 E1.03308 ; fill
G1 X61.969 Y113.609 E1.07947 ; fill
G1 X61.969 Y114.566 E1.11160 ; fill
G1 X60.033 Y112.631 E1.20344 ; fill
G1 X59.076 Y112.631 E1.23557 ; fill
G1 X61.969 Y115.524 E1.37284 ; fill
G1 X61.969 Y116.482 E1.40498 ; fill
G1 X58.118 Y112.631 E1.58769 ; fill
G1 X57.160 Y112.631 E1.61983 ; fill
G1 X61.969 Y117.440 E1.84799 ; fill
G1 X61.440 Y117.869 E1.87083 ; fill
G1 X56.631 Y113.060 E2.09899 ; fill
G1 X56.631 Y114.018 E2.13112 ; fill
G1 X60.482 Y117.869 E2.31384 ; fill
G1 X59.524 Y117.869 E2.34597 ; fill
G1 X56.631 Y114.975 E2.48325 ; fill
G1 X56.631 Y115.933 E2.51538 ; fill
G1 X58.567 Y117.869 E2.60722 ; fill
G1 X57.609 Y117.869 E2.63935 ; fill
G1 X56.631 Y116.891 E2.68574 ; fill
G1 X56.631 Y117.849 E2.71787 ; fill
G1 X56.651 Y117.869 E2.71882 ; fill
G1 X55.986 Y111.706 F7800.000 ; move to first fill point
G1 X55.966 Y111.686 E2.71928 F360.000 ; fill
G1 X56.057 Y111.313 E2.72552 F360.000 ; fill
G1 X55.966 Y111.222 E2.72760 F360.000 ; fill
G1 X56.057 Y110.849 E2.73384 F360.000 ; fill
G1 X55.966 Y110.758 E2.73593 F360.000 ; fill
G1 X56.057 Y110.385 E2.74216 F360.000 ; fill
G1 X55.966 Y110.294 E2.74425 F360.000 ; fill
G1 X56.057 Y109.921 E2.75049 F360.000 ; fill
G1 X55.966 Y109.830 E2.75258 F360.000 ; fill
G1 X56.057 Y109.457 E2.75881 F360.000 ; fill
G1 X55.966 Y109.366 E2.76090 F360.000 ; fill
G1 X56.057 Y108.993 E2.76713 F360.000 ; fill
G1 X55.966 Y108.902 E2.76922 F360.000 ; fill
G1 X56.057 Y108.529 E2.77546 F360.000 ; fill
G1 X55.966 Y108.438 E2.77755 F360.000 ; fill
G1 X56.057 Y108.065 E2.78378 F360.000 ; fill
G1 X55.966 Y107.974 E2.78587 F360.000 ; fill
G1 X56.057 Y107.601 E2.79211 F360.000 ; fill
G1 X55.966 Y107.511 E2.79419 F360.000 ; fill
G1 X56.057 Y107.138 E2.80043 F360.000 ; fill
G1 X55.966 Y107.047 E2.80252 F360.000 ; fill
