; generated by Slic3r 0.9.8-dev on 2012-12-29 at 22:51:52

; layer_height = 0.4
; perimeters = 3
; top_solid_layers = 3
; bottom_solid_layers = 3
; fill_density = 0.4
; perimeter_speed = 30
; infill_speed = 60
; travel_speed = 130
; scale = 1
; nozzle_diameter = 0.5
; filament_diameter = 3
; extrusion_multiplier = 1
; perimeters extrusion width = 0.53mm
; infill extrusion width = 0.53mm
; first layer extrusion width = 0.80mm

M107 ; disable fan
M190 S60 ; wait for bed temperature to be reached
M104 S185 ; set temperature
M104 S185 ; set extruder temperature
G28 ; home all axes
M109 S185 ; wait for temperature to be reached
G90 ; use absolute coordinates
G21 ; set units to millimeters
G92 E0 ; reset extrusion distance
M82 ; use absolute distances for extrusion
G1 F1800.000 E-1.00000 ; retract
G92 E0 ; reset extrusion distance
G1 Z0.400 F7800.000 ; move to next layer (0)
G1 X139.425 Y109.481 ; move to first skirt point
G1 F1800.000 E1.00000 ; compensate retraction
G1 X138.535 Y111.121 F540.000 E1.07767 ; skirt
G1 X137.725 Y112.481 E1.14357 ; skirt
G1 X136.535 Y114.281 E1.23339 ; skirt
G1 X135.425 Y115.811 E1.31208 ; skirt
G1 X134.445 Y117.051 E1.37787 ; skirt
G1 X133.275 Y118.431 E1.45318 ; skirt
G1 X131.995 Y119.821 E1.53184 ; skirt
G1 X130.495 Y121.311 E1.61985 ; skirt
G1 X129.095 Y122.581 E1.69854 ; skirt
G1 X127.885 Y123.591 E1.76415 ; skirt
G1 X126.415 Y124.721 E1.84133 ; skirt
G1 X124.655 Y125.971 E1.93119 ; skirt
G1 X123.115 Y126.951 E2.00718 ; skirt
G1 X121.755 Y127.751 E2.07286 ; skirt
G1 X119.825 Y128.751 E2.16335 ; skirt
G1 X118.155 Y129.541 E2.24025 ; skirt
G1 X116.435 Y130.271 E2.31803 ; skirt
G1 X114.715 Y130.921 E2.39457 ; skirt
G1 X113.225 Y131.421 E2.46000 ; skirt
G1 X111.135 Y132.011 E2.55040 ; skirt
G1 X109.305 Y132.441 E2.62865 ; skirt
G1 X107.495 Y132.791 E2.70540 ; skirt
G1 X105.935 Y133.031 E2.77110 ; skirt
G1 X104.115 Y133.241 E2.84736 ; skirt
G1 X102.195 Y133.371 E2.92747 ; skirt
G1 X100.105 Y133.431 E3.01451 ; skirt
G1 X98.525 Y133.411 E3.08029 ; skirt
G1 X96.355 Y133.281 E3.17078 ; skirt
G1 X94.525 Y133.091 E3.24737 ; skirt
G1 X92.665 Y132.821 E3.32561 ; skirt
G1 X90.865 Y132.481 E3.40186 ; skirt
G1 X89.325 Y132.131 E3.46760 ; skirt
G1 X87.505 Y131.641 E3.54606 ; skirt
G1 X85.735 Y131.081 E3.62334 ; skirt
G1 X83.705 Y130.331 E3.71343 ; skirt
G1 X82.035 Y129.631 E3.78881 ; skirt
G1 X80.595 Y128.971 E3.85475 ; skirt
G1 X78.925 Y128.121 E3.93275 ; skirt
G1 X77.055 Y127.051 E4.02244 ; skirt
G1 X75.485 Y126.061 E4.09970 ; skirt
G1 X74.185 Y125.171 E4.16528 ; skirt
G1 X72.435 Y123.851 E4.25653 ; skirt
G1 X71.035 Y122.691 E4.33222 ; skirt
G1 X69.855 Y121.641 E4.39797 ; skirt
G1 X68.515 Y120.361 E4.47511 ; skirt
G1 X67.225 Y119.001 E4.55314 ; skirt
G1 X65.815 Y117.381 E4.64254 ; skirt
G1 X64.655 Y115.921 E4.72016 ; skirt
G1 X63.565 Y114.431 E4.79701 ; skirt
G1 X62.685 Y113.121 E4.86271 ; skirt
G1 X61.715 Y111.571 E4.93882 ; skirt
G1 X60.675 Y109.691 E5.02826 ; skirt
G1 X59.955 Y108.271 E5.09454 ; skirt
G1 X59.065 Y106.301 E5.18452 ; skirt
G1 X58.365 Y104.541 E5.26337 ; skirt
G1 X57.845 Y103.051 E5.32906 ; skirt
G1 X57.305 Y101.321 E5.40451 ; skirt
G1 X56.745 Y99.201 E5.49578 ; skirt
G1 X56.375 Y97.451 E5.57024 ; skirt
G1 X56.095 Y95.901 E5.63581 ; skirt
G1 X55.815 Y93.731 E5.72689 ; skirt
G1 X55.655 Y91.901 E5.80336 ; skirt
G1 X55.565 Y89.981 E5.88337 ; skirt
G1 X55.565 Y88.401 E5.94914 ; skirt
G1 X55.625 Y86.611 E6.02370 ; skirt
G1 X55.795 Y84.461 E6.11348 ; skirt
G1 X55.985 Y82.881 E6.17972 ; skirt
G1 X56.335 Y80.751 E6.26958 ; skirt
G1 X56.715 Y78.921 E6.34738 ; skirt
G1 X57.105 Y77.391 E6.41311 ; skirt
G1 X57.625 Y75.621 E6.48990 ; skirt
G1 X58.315 Y73.601 E6.57876 ; skirt
G1 X58.885 Y72.131 E6.64439 ; skirt
G1 X59.615 Y70.441 E6.72102 ; skirt
G1 X60.575 Y68.481 E6.81188 ; skirt
G1 X61.455 Y66.871 E6.88825 ; skirt
G1 X62.265 Y65.511 E6.95415 ; skirt
G1 X63.305 Y63.931 E7.03289 ; skirt
G1 X64.375 Y62.431 E7.10959 ; skirt
G1 X65.545 Y60.941 E7.18845 ; skirt
G1 X66.915 Y59.331 E7.27645 ; skirt
G1 X68.185 Y57.981 E7.35361 ; skirt
G1 X69.525 Y56.661 E7.43191 ; skirt
G1 X70.875 Y55.441 E7.50765 ; skirt
G1 X72.085 Y54.421 E7.57353 ; skirt
G1 X73.575 Y53.271 E7.65188 ; skirt
G1 X75.335 Y52.021 E7.74174 ; skirt
G1 X76.895 Y51.031 E7.81865 ; skirt
G1 X78.495 Y50.101 E7.89569 ; skirt
G1 X79.885 Y49.361 E7.96124 ; skirt
G1 X81.875 Y48.421 E8.05286 ; skirt
G1 X83.325 Y47.811 E8.11834 ; skirt
G1 X85.285 Y47.071 E8.20555 ; skirt
G1 X87.075 Y46.481 E8.28401 ; skirt
G1 X88.855 Y45.981 E8.36098 ; skirt
G1 X90.685 Y45.551 E8.43923 ; skirt
G1 X92.495 Y45.201 E8.51597 ; skirt
G1 X94.055 Y44.961 E8.58167 ; skirt
G1 X95.875 Y44.751 E8.65794 ; skirt
G1 X97.795 Y44.621 E8.73805 ; skirt
G1 X99.885 Y44.561 E8.82508 ; skirt
G1 X101.465 Y44.581 E8.89086 ; skirt
G1 X103.635 Y44.711 E8.98135 ; skirt
G1 X105.465 Y44.901 E9.05794 ; skirt
G1 X107.025 Y45.121 E9.12352 ; skirt
G1 X108.875 Y45.461 E9.20182 ; skirt
G1 X110.675 Y45.861 E9.27858 ; skirt
G1 X112.755 Y46.431 E9.36836 ; skirt
G1 X114.255 Y46.911 E9.43392 ; skirt
G1 X115.995 Y47.541 E9.51095 ; skirt
G1 X117.705 Y48.241 E9.58787 ; skirt
G1 X119.425 Y49.031 E9.66666 ; skirt
G1 X121.065 Y49.871 E9.74336 ; skirt
G1 X122.905 Y50.921 E9.83155 ; skirt
G1 X124.245 Y51.751 E9.89717 ; skirt
G1 X126.055 Y53.001 E9.98873 ; skirt
G1 X127.525 Y54.121 E10.06566 ; skirt
G1 X128.955 Y55.301 E10.14284 ; skirt
G1 X130.335 Y56.531 E10.21979 ; skirt
G1 X131.475 Y57.631 E10.28574 ; skirt
G1 X132.765 Y58.991 E10.36377 ; skirt
G1 X134.165 Y60.591 E10.45227 ; skirt
G1 X135.355 Y62.081 E10.53165 ; skirt
G1 X136.405 Y63.531 E10.60617 ; skirt
G1 X137.295 Y64.841 E10.67210 ; skirt
G1 X138.295 Y66.451 E10.75100 ; skirt
G1 X139.335 Y68.321 E10.84007 ; skirt
G1 X140.185 Y70.021 E10.91919 ; skirt
G1 X140.825 Y71.461 E10.98479 ; skirt
G1 X141.505 Y73.121 E11.05946 ; skirt
G1 X142.145 Y74.941 E11.13977 ; skirt
G1 X142.685 Y76.671 E11.21521 ; skirt
G1 X143.245 Y78.791 E11.30649 ; skirt
G1 X143.615 Y80.541 E11.38095 ; skirt
G1 X143.895 Y82.091 E11.44652 ; skirt
G1 X144.175 Y84.261 E11.53760 ; skirt
G1 X144.335 Y86.091 E11.61406 ; skirt
G1 X144.415 Y87.671 E11.67992 ; skirt
G1 X144.435 Y89.551 E11.75818 ; skirt
G1 X144.365 Y91.421 E11.83608 ; skirt
G1 X144.195 Y93.531 E11.92420 ; skirt
G1 X144.005 Y95.111 E11.99045 ; skirt
G1 X143.665 Y97.221 E12.07941 ; skirt
G1 X143.275 Y99.071 E12.15812 ; skirt
G1 X142.885 Y100.601 E12.22384 ; skirt
G1 X142.385 Y102.331 E12.29881 ; skirt
G1 X141.755 Y104.171 E12.37977 ; skirt
G1 X141.105 Y105.861 E12.45514 ; skirt
G1 X140.375 Y107.551 E12.53178 ; skirt
G1 X139.474 Y109.382 E12.61673 ; skirt
G1 X139.425 Y109.481 E12.62132 ; skirt
G1 F1800.000 E11.62132 ; retract
G92 E0 ; reset extrusion distance
G1 X131.279 Y70.722 F7800.000 ; move to first perimeter point
G1 F1800.000 E1.00000 ; compensate retraction
G1 X132.017 Y72.048 F540.000 E1.06317 ; perimeter
G1 X132.699 Y73.403 E1.12633 ; perimeter
G1 X133.324 Y74.786 E1.18950 ; perimeter
G1 X133.890 Y76.194 E1.25267 ; perimeter
G1 X134.396 Y77.624 E1.31583 ; perimeter
G1 X134.842 Y79.075 E1.37900 ; perimeter
G1 X135.227 Y80.543 E1.44217 ; perimeter
G1 X135.551 Y82.025 E1.50533 ; perimeter
G1 X135.811 Y83.520 E1.56850 ; perimeter
G1 X136.010 Y85.025 E1.63166 ; perimeter
G1 X136.144 Y86.536 E1.69483 ; perimeter
G1 X136.216 Y88.052 E1.75800 ; perimeter
G1 X136.224 Y89.569 E1.82116 ; perimeter
G1 X136.168 Y91.085 E1.88433 ; perimeter
G1 X136.049 Y92.598 E1.94749 ; perimeter
G1 X135.867 Y94.105 E2.01066 ; perimeter
G1 X135.622 Y95.602 E2.07383 ; perimeter
G1 X135.314 Y97.088 E2.13699 ; perimeter
G1 X134.944 Y98.560 E2.20016 ; perimeter
G1 X134.513 Y100.015 E2.26333 ; perimeter
G1 X134.022 Y101.450 E2.32650 ; perimeter
G1 X133.471 Y102.864 E2.38966 ; perimeter
G1 X132.861 Y104.253 E2.45283 ; perimeter
G1 X132.193 Y105.616 E2.51599 ; perimeter
G1 X131.469 Y106.950 E2.57916 ; perimeter
G1 X130.690 Y108.252 E2.64233 ; perimeter
G1 X129.857 Y109.520 E2.70549 ; perimeter
G1 X128.971 Y110.752 E2.76866 ; perimeter
G1 X128.035 Y111.946 E2.83182 ; perimeter
G1 X127.049 Y113.100 E2.89499 ; perimeter
G1 X126.017 Y114.212 E2.95816 ; perimeter
G1 X124.938 Y115.279 E3.02133 ; perimeter
G1 X123.816 Y116.300 E3.08450 ; perimeter
G1 X122.652 Y117.274 E3.14766 ; perimeter
G1 X121.448 Y118.197 E3.21082 ; perimeter
G1 X120.206 Y119.070 E3.27399 ; perimeter
G1 X118.929 Y119.890 E3.33716 ; perimeter
G1 X117.619 Y120.655 E3.40032 ; perimeter
G1 X116.278 Y121.365 E3.46349 ; perimeter
G1 X114.908 Y122.019 E3.52666 ; perimeter
G1 X113.513 Y122.614 E3.58982 ; perimeter
G1 X112.093 Y123.150 E3.65299 ; perimeter
G1 X110.653 Y123.627 E3.71615 ; perimeter
G1 X109.193 Y124.042 E3.77932 ; perimeter
G1 X107.718 Y124.397 E3.84248 ; perimeter
G1 X106.229 Y124.689 E3.90566 ; perimeter
G1 X104.729 Y124.918 E3.96882 ; perimeter
G1 X103.221 Y125.085 E4.03198 ; perimeter
G1 X101.707 Y125.188 E4.09515 ; perimeter
G1 X100.190 Y125.228 E4.15832 ; perimeter
G1 X98.672 Y125.204 E4.22149 ; perimeter
G1 X97.158 Y125.117 E4.28465 ; perimeter
G1 X95.648 Y124.966 E4.34782 ; perimeter
G1 X94.145 Y124.752 E4.41099 ; perimeter
G1 X92.653 Y124.476 E4.47415 ; perimeter
G1 X91.174 Y124.137 E4.53732 ; perimeter
G1 X89.711 Y123.736 E4.60048 ; perimeter
G1 X88.265 Y123.275 E4.66365 ; perimeter
G1 X86.840 Y122.754 E4.72681 ; perimeter
G1 X85.438 Y122.173 E4.78998 ; perimeter
G1 X84.062 Y121.534 E4.85316 ; perimeter
G1 X82.713 Y120.838 E4.91632 ; perimeter
G1 X81.395 Y120.086 E4.97948 ; perimeter
G1 X80.110 Y119.280 E5.04265 ; perimeter
G1 X78.859 Y118.420 E5.10582 ; perimeter
G1 X77.646 Y117.509 E5.16899 ; perimeter
G1 X76.472 Y116.548 E5.23215 ; perimeter
G1 X75.339 Y115.539 E5.29532 ; perimeter
G1 X74.249 Y114.483 E5.35848 ; perimeter
G1 X73.204 Y113.382 E5.42165 ; perimeter
G1 X72.207 Y112.239 E5.48482 ; perimeter
G1 X71.258 Y111.054 E5.54798 ; perimeter
G1 X70.360 Y109.831 E5.61115 ; perimeter
G1 X69.513 Y108.572 E5.67432 ; perimeter
G1 X68.721 Y107.278 E5.73748 ; perimeter
G1 X67.983 Y105.952 E5.80065 ; perimeter
G1 X67.301 Y104.597 E5.86381 ; perimeter
G1 X66.676 Y103.214 E5.92698 ; perimeter
G1 X66.110 Y101.806 E5.99015 ; perimeter
G1 X65.604 Y100.375 E6.05331 ; perimeter
G1 X65.158 Y98.925 E6.11648 ; perimeter
G1 X64.773 Y97.457 E6.17965 ; perimeter
G1 X64.449 Y95.975 E6.24281 ; perimeter
G1 X64.188 Y94.480 E6.30598 ; perimeter
G1 X63.990 Y92.976 E6.36914 ; perimeter
G1 X63.856 Y91.464 E6.43231 ; perimeter
G1 X63.784 Y89.948 E6.49548 ; perimeter
G1 X63.776 Y88.431 E6.55864 ; perimeter
G1 X63.832 Y86.915 E6.62181 ; perimeter
G1 X63.951 Y85.402 E6.68498 ; perimeter
G1 X64.133 Y83.895 E6.74814 ; perimeter
G1 X64.378 Y82.398 E6.81131 ; perimeter
G1 X64.686 Y80.912 E6.87448 ; perimeter
G1 X65.056 Y79.440 E6.93764 ; perimeter
G1 X65.487 Y77.985 E7.00081 ; perimeter
G1 X65.978 Y76.550 E7.06398 ; perimeter
G1 X66.529 Y75.136 E7.12714 ; perimeter
G1 X67.139 Y73.747 E7.19031 ; perimeter
G1 X67.807 Y72.384 E7.25348 ; perimeter
G1 X68.531 Y71.050 E7.31664 ; perimeter
G1 X69.310 Y69.748 E7.37981 ; perimeter
G1 X70.143 Y68.480 E7.44297 ; perimeter
G1 X71.029 Y67.248 E7.50614 ; perimeter
G1 X71.965 Y66.054 E7.56931 ; perimeter
G1 X72.951 Y64.900 E7.63248 ; perimeter
G1 X73.983 Y63.788 E7.69564 ; perimeter
G1 X75.062 Y62.721 E7.75881 ; perimeter
G1 X76.184 Y61.700 E7.82197 ; perimeter
G1 X77.348 Y60.726 E7.88514 ; perimeter
G1 X78.552 Y59.803 E7.94831 ; perimeter
G1 X79.794 Y58.930 E8.01147 ; perimeter
G1 X81.071 Y58.110 E8.07464 ; perimeter
G1 X82.381 Y57.345 E8.13781 ; perimeter
G1 X83.722 Y56.635 E8.20097 ; perimeter
G1 X85.092 Y55.981 E8.26414 ; perimeter
G1 X86.487 Y55.386 E8.32731 ; perimeter
G1 X87.907 Y54.850 E8.39047 ; perimeter
G1 X89.347 Y54.373 E8.45364 ; perimeter
G1 X90.807 Y53.957 E8.51680 ; perimeter
G1 X92.282 Y53.603 E8.57997 ; perimeter
G1 X93.771 Y53.311 E8.64314 ; perimeter
G1 X95.271 Y53.082 E8.70630 ; perimeter
G1 X96.780 Y52.915 E8.76947 ; perimeter
G1 X98.293 Y52.812 E8.83264 ; perimeter
G1 X99.810 Y52.772 E8.89580 ; perimeter
G1 X101.328 Y52.796 E8.95897 ; perimeter
G1 X102.842 Y52.883 E9.02214 ; perimeter
G1 X104.352 Y53.034 E9.08530 ; perimeter
G1 X105.855 Y53.248 E9.14847 ; perimeter
G1 X107.347 Y53.524 E9.21164 ; perimeter
G1 X108.826 Y53.863 E9.27480 ; perimeter
G1 X110.289 Y54.264 E9.33797 ; perimeter
G1 X111.735 Y54.725 E9.40113 ; perimeter
G1 X113.160 Y55.246 E9.46430 ; perimeter
G1 X114.562 Y55.827 E9.52746 ; perimeter
G1 X115.938 Y56.466 E9.59063 ; perimeter
G1 X117.287 Y57.162 E9.65380 ; perimeter
G1 X118.605 Y57.914 E9.71697 ; perimeter
G1 X119.890 Y58.720 E9.78013 ; perimeter
G1 X121.141 Y59.580 E9.84330 ; perimeter
G1 X122.354 Y60.491 E9.90647 ; perimeter
G1 X123.528 Y61.452 E9.96963 ; perimeter
G1 X124.661 Y62.461 E10.03280 ; perimeter
G1 X125.751 Y63.517 E10.09596 ; perimeter
G1 X126.796 Y64.618 E10.15913 ; perimeter
G1 X127.793 Y65.761 E10.22229 ; perimeter
G1 X128.742 Y66.946 E10.28547 ; perimeter
G1 X129.640 Y68.169 E10.34863 ; perimeter
G1 X130.487 Y69.428 E10.41180 ; perimeter
G1 X131.222 Y70.628 E10.47037 ; perimeter
G1 X131.279 Y70.722 E10.47496 ; perimeter
G1 X131.915 Y70.351 F7800.000 ; move to first perimeter point
G1 X132.668 Y71.703 F540.000 E10.53941 ; perimeter
G1 X133.363 Y73.087 E10.60386 ; perimeter
G1 X134.000 Y74.498 E10.66831 ; perimeter
G1 X134.578 Y75.934 E10.73276 ; perimeter
G1 X135.095 Y77.393 E10.79720 ; perimeter
G1 X135.550 Y78.873 E10.86166 ; perimeter
G1 X135.943 Y80.371 E10.92611 ; perimeter
G1 X136.273 Y81.884 E10.99056 ; perimeter
G1 X136.539 Y83.409 E11.05500 ; perimeter
G1 X136.741 Y84.944 E11.11946 ; perimeter
G1 X136.879 Y86.486 E11.18391 ; perimeter
G1 X136.951 Y88.032 E11.24835 ; perimeter
G1 X136.960 Y89.581 E11.31280 ; perimeter
G1 X136.903 Y91.128 E11.37725 ; perimeter
G1 X136.781 Y92.671 E11.44170 ; perimeter
G1 X136.595 Y94.208 E11.50615 ; perimeter
G1 X136.345 Y95.736 E11.57060 ; perimeter
G1 X136.031 Y97.252 E11.63504 ; perimeter
G1 X135.654 Y98.754 E11.69950 ; perimeter
G1 X135.214 Y100.238 E11.76395 ; perimeter
G1 X134.713 Y101.703 E11.82840 ; perimeter
G1 X134.150 Y103.146 E11.89285 ; perimeter
G1 X133.528 Y104.563 E11.95730 ; perimeter
G1 X132.847 Y105.954 E12.02175 ; perimeter
G1 X132.108 Y107.314 E12.08619 ; perimeter
G1 X131.313 Y108.643 E12.15064 ; perimeter
G1 X130.463 Y109.937 E12.21509 ; perimeter
G1 X129.560 Y111.194 E12.27954 ; perimeter
G1 X128.604 Y112.412 E12.34399 ; perimeter
G1 X127.599 Y113.590 E12.40844 ; perimeter
G1 X126.545 Y114.724 E12.47289 ; perimeter
G1 X125.444 Y115.813 E12.53734 ; perimeter
G1 X124.299 Y116.855 E12.60179 ; perimeter
G1 X123.112 Y117.848 E12.66624 ; perimeter
G1 X121.883 Y118.790 E12.73068 ; perimeter
G1 X120.617 Y119.681 E12.79513 ; perimeter
G1 X119.314 Y120.517 E12.85959 ; perimeter
G1 X117.977 Y121.298 E12.92403 ; perimeter
G1 X116.609 Y122.023 E12.98849 ; perimeter
G1 X115.211 Y122.689 E13.05294 ; perimeter
G1 X113.787 Y123.297 E13.11738 ; perimeter
G1 X112.339 Y123.844 E13.18183 ; perimeter
G1 X110.869 Y124.330 E13.24628 ; perimeter
G1 X109.380 Y124.754 E13.31073 ; perimeter
G1 X107.875 Y125.116 E13.37518 ; perimeter
G1 X106.355 Y125.414 E13.43963 ; perimeter
G1 X104.825 Y125.648 E13.50408 ; perimeter
G1 X103.286 Y125.818 E13.56852 ; perimeter
G1 X101.741 Y125.923 E13.63297 ; perimeter
G1 X100.193 Y125.964 E13.69743 ; perimeter
G1 X98.645 Y125.939 E13.76188 ; perimeter
G1 X97.100 Y125.850 E13.82632 ; perimeter
G1 X95.559 Y125.696 E13.89078 ; perimeter
G1 X94.026 Y125.478 E13.95522 ; perimeter
G1 X92.504 Y125.196 E14.01967 ; perimeter
G1 X90.995 Y124.850 E14.08412 ; perimeter
G1 X89.502 Y124.442 E14.14857 ; perimeter
G1 X88.027 Y123.971 E14.21302 ; perimeter
G1 X86.573 Y123.439 E14.27747 ; perimeter
G1 X85.142 Y122.847 E14.34192 ; perimeter
G1 X83.738 Y122.195 E14.40637 ; perimeter
G1 X82.362 Y121.485 E14.47082 ; perimeter
G1 X81.017 Y120.718 E14.53527 ; perimeter
G1 X79.706 Y119.895 E14.59971 ; perimeter
G1 X78.430 Y119.018 E14.66417 ; perimeter
G1 X77.192 Y118.088 E14.72862 ; perimeter
G1 X75.994 Y117.108 E14.79306 ; perimeter
G1 X74.838 Y116.078 E14.85752 ; perimeter
G1 X73.726 Y115.000 E14.92196 ; perimeter
