; generated by Slic3r 0.9.10b on 2013-10-02 at 20:15:07

; layer_height = 0.4
; perimeters = 3
; top_solid_layers = 3
; bottom_solid_layers = 3
; fill_density = 0.4
; perimeter_speed = 30
; infill_speed = 60
; travel_speed = 130
; nozzle_diameter = 0.5
; filament_diameter = 3
; extrusion_multiplier = 1
; perimeters extrusion width = 0.53mm
; infill extrusion width = 0.53mm
; solid infill extrusion width = 0.53mm
; top infill extrusion width = 0.53mm
; first layer extrusion width = 0.80mm

G21 ; set units to millimeters
M190 S60 ; wait for bed temperature to be reached
M104 S185 ; set temperature
G28 ; home all axes
G1 Z5 F5000 ; lift nozzle
G92 E0 ;reset extruder
M109 S185 ; wait for temperature to be reached
G90 ; use absolute coordinates
G92 E0 ; reset extrusion distance
M82 ; use absolute distances for extrusion
G1 F1800.000 E-1.00000 ; retract
G92 E0 ; reset extrusion distance
G1 Z0.400 F7800.000 ; move to next layer (0)
G1 X70.240 Y59.240 ; move to first skirt point
G1 F1800.000 E1.00000 ; compensate retraction
G1 X71.260 Y58.400 F1440.000 E1.05501 ; skirt
G1 X72.420 Y57.780 E1.10976 ; skirt
G1 X73.690 Y57.390 E1.16506 ; skirt
G1 X75.000 Y57.260 E1.21986 ; skirt
G1 X125.000 Y57.260 E3.30124 ; skirt
G1 X126.310 Y57.390 E3.35604 ; skirt
G1 X127.580 Y57.780 E3.41134 ; skirt
G1 X128.740 Y58.400 E3.46609 ; skirt
G1 X129.760 Y59.240 E3.52110 ; skirt
G1 X130.600 Y60.260 E3.57610 ; skirt
G1 X131.220 Y61.420 E3.63086 ; skirt
G1 X131.610 Y62.690 E3.68616 ; skirt
G1 X131.740 Y64.000 E3.74096 ; skirt
G1 X131.740 Y114.000 E5.82234 ; skirt
G1 X131.610 Y115.310 E5.87714 ; skirt
G1 X131.220 Y116.580 E5.93244 ; skirt
G1 X130.600 Y117.740 E5.98719 ; skirt
G1 X129.760 Y118.760 E6.04220 ; skirt
G1 X128.740 Y119.600 E6.09720 ; skirt
G1 X127.580 Y120.220 E6.15196 ; skirt
G1 X126.310 Y120.610 E6.20726 ; skirt
G1 X125.000 Y120.740 E6.26206 ; skirt
G1 X75.000 Y120.740 E8.34344 ; skirt
G1 X73.690 Y120.610 E8.39824 ; skirt
G1 X72.420 Y120.220 E8.45354 ; skirt
G1 X71.260 Y119.600 E8.50829 ; skirt
G1 X70.240 Y118.760 E8.56330 ; skirt
G1 X69.400 Y117.740 E8.61830 ; skirt
G1 X68.780 Y116.580 E8.67306 ; skirt
G1 X68.390 Y115.310 E8.72836 ; skirt
G1 X68.260 Y114.000 E8.78316 ; skirt
G1 X68.260 Y64.000 E10.86454 ; skirt
G1 X68.390 Y62.690 E10.91934 ; skirt
G1 X68.780 Y61.420 E10.97464 ; skirt
G1 X69.400 Y60.260 E11.02939 ; skirt
G1 X70.170 Y59.325 E11.07980 ; skirt
G1 F1800.000 E10.07980 ; retract
G92 E0 ; reset extrusion distance
G1 X83.161 Y72.161 F7800.000 ; move to first perimeter point
G1 F1800.000 E1.00000 ; compensate retraction
G1 X116.839 Y72.161 F1440.000 E2.40194 ; perimeter
G1 X116.839 Y105.839 E3.80387 ; perimeter
G1 X83.161 Y105.839 E5.20581 ; perimeter
G1 X83.161 Y72.271 E6.60315 ; perimeter
G1 X83.897 Y72.897 F7800.000 ; move to first perimeter point
G1 X116.103 Y72.897 F1440.000 E7.94384 ; perimeter
G1 X116.103 Y105.103 E9.28454 ; perimeter
G1 X83.897 Y105.103 E10.62523 ; perimeter
G1 X83.897 Y73.007 E11.96133 ; perimeter
G1 X84.632 Y73.632 F7800.000 ; move to first perimeter point
G1 X115.368 Y73.632 F1440.000 E13.24078 ; perimeter
G1 X115.368 Y104.368 E14.52023 ; perimeter
G1 X84.632 Y104.368 E15.79967 ; perimeter
G1 X84.632 Y73.743 E17.07453 ; perimeter
G1 X85.269 Y74.000 F7800.000 ; move inwards before travel
G1 F1800.000 E16.07453 ; retract
G92 E0 ; reset extrusion distance
G1 X76.839 Y65.839 F7800.000 ; move to first perimeter point
G1 F1800.000 E1.00000 ; compensate retraction
G1 X123.161 Y65.839 F1440.000 E2.92827 ; perimeter
G1 X123.161 Y112.161 E4.85653 ; perimeter
G1 X76.839 Y112.161 E6.78480 ; perimeter
G1 X76.839 Y65.949 E8.70847 ; perimeter
G1 F1800.000 E7.70847 ; retract
G92 E0 ; reset extrusion distance
G1 X123.897 Y65.103 F7800.000 ; move to first perimeter point
G1 F1800.000 E1.00000 ; compensate retraction
G1 X123.897 Y112.897 F1440.000 E2.98951 ; perimeter
G1 X76.103 Y112.897 E4.97902 ; perimeter
G1 X76.103 Y65.103 E6.96853 ; perimeter
G1 X123.786 Y65.103 E8.95345 ; perimeter
G1 X124.632 Y64.368 F7800.000 ; move to first perimeter point
G1 X124.632 Y113.632 F1440.000 E11.00421 ; perimeter
G1 X75.368 Y113.632 E13.05496 ; perimeter
G1 X75.368 Y64.368 E15.10572 ; perimeter
G1 X124.522 Y64.368 E17.15188 ; perimeter
G1 X124.264 Y65.005 F7800.000 ; move inwards before travel
G1 F1800.000 E16.15188 ; retract
G92 E0 ; reset extrusion distance
G1 X122.628 Y67.106 F7800.000 ; move to first fill point
G1 F1800.000 E1.00000 ; compensate retraction
G1 X121.894 Y66.372 F2880.000 E1.04350 ; fill
G1 X120.846 Y66.372 E1.08742 ; fill
G1 X122.628 Y68.154 E1.19302 ; fill
G1 X122.628 Y69.201 E1.23693 ; fill
G1 X119.799 Y66.372 E1.40464 ; fill
G1 X118.751 Y66.372 E1.44855 ; fill
G1 X122.628 Y70.249 E1.67835 ; fill
G1 X122.628 Y71.296 E1.72226 ; fill
G1 X117.704 Y66.372 E2.01417 ; fill
G1 X116.656 Y66.372 E2.05808 ; fill
G1 X122.628 Y72.344 E2.41208 ; fill
G1 X122.628 Y73.392 E2.45599 ; fill
G1 X115.608 Y66.372 E2.87210 ; fill
G1 X114.561 Y66.372 E2.91601 ; fill
G1 X122.628 Y74.439 E3.39421 ; fill
G1 X122.628 Y75.487 E3.43812 ; fill
G1 X113.513 Y66.372 E3.97843 ; fill
G1 X112.466 Y66.372 E4.02234 ; fill
G1 X122.628 Y76.534 E4.62474 ; fill
G1 F1800.000 E3.62474 ; retract
G92 E0 ; reset extrusion distance
G1 X117.372 Y72.326 F7800.000 ; move to first fill point
G1 F1800.000 E1.00000 ; compensate retraction
G1 X122.628 Y77.582 F2880.000 E1.31155 ; fill
G1 X122.628 Y78.629 E1.35546 ; fill
G1 X117.372 Y73.374 E1.66700 ; fill
G1 X117.372 Y74.421 E1.71092 ; fill
G1 X122.628 Y79.677 E2.02246 ; fill
G1 X122.628 Y80.724 E2.06637 ; fill
G1 X117.372 Y75.469 E2.37792 ; fill
G1 X117.372 Y76.517 E2.42183 ; fill
G1 X122.628 Y81.772 E2.73338 ; fill
G1 X122.628 Y82.820 E2.77729 ; fill
G1 X117.372 Y77.564 E3.08883 ; fill
G1 X117.372 Y78.612 E3.13275 ; fill
G1 X122.628 Y83.867 E3.44429 ; fill
G1 X122.628 Y84.915 E3.48820 ; fill
G1 X117.372 Y79.659 E3.79975 ; fill
G1 X117.372 Y80.707 E3.84366 ; fill
G1 X122.628 Y85.962 E4.15521 ; fill
G1 X122.628 Y87.010 E4.19912 ; fill
G1 X117.372 Y81.754 E4.51067 ; fill
G1 X117.372 Y82.802 E4.55458 ; fill
G1 X122.628 Y88.057 E4.86612 ; fill
G1 X122.628 Y89.105 E4.91003 ; fill
G1 X117.372 Y83.850 E5.22158 ; fill
G1 X117.372 Y84.897 E5.26549 ; fill
G1 X122.628 Y90.153 E5.57704 ; fill
G1 X122.628 Y91.200 E5.62095 ; fill
G1 X117.372 Y85.945 E5.93250 ; fill
G1 X117.372 Y86.992 E5.97641 ; fill
G1 X122.628 Y92.248 E6.28795 ; fill
G1 X122.628 Y93.295 E6.33186 ; fill
G1 X117.372 Y88.040 E6.64341 ; fill
G1 X117.372 Y89.087 E6.68732 ; fill
G1 X122.628 Y94.343 E6.99887 ; fill
G1 X122.628 Y95.390 E7.04278 ; fill
G1 X117.372 Y90.135 E7.35433 ; fill
G1 X117.372 Y91.182 E7.39824 ; fill
G1 X122.628 Y96.438 E7.70978 ; fill
G1 X122.628 Y97.486 E7.75370 ; fill
G1 X117.372 Y92.230 E8.06524 ; fill
G1 X117.372 Y93.278 E8.10915 ; fill
G1 X122.628 Y98.533 E8.42070 ; fill
G1 X122.628 Y99.581 E8.46461 ; fill
G1 X117.372 Y94.325 E8.77616 ; fill
G1 X117.372 Y95.373 E8.82007 ; fill
G1 X122.628 Y100.628 E9.13161 ; fill
G1 X122.628 Y101.676 E9.17553 ; fill
G1 X117.372 Y96.420 E9.48707 ; fill
G1 X117.372 Y97.468 E9.53098 ; fill
G1 X122.628 Y102.723 E9.84253 ; fill
G1 X122.628 Y103.771 E9.88644 ; fill
G1 X117.372 Y98.515 E10.19799 ; fill
G1 X117.372 Y99.563 E10.24190 ; fill
G1 X122.628 Y104.819 E10.55345 ; fill
G1 X122.628 Y105.866 E10.59736 ; fill
G1 X117.372 Y100.611 E10.90890 ; fill
G1 X117.372 Y101.658 E10.95281 ; fill
G1 X122.628 Y106.914 E11.26436 ; fill
G1 X122.628 Y107.961 E11.30827 ; fill
G1 X117.372 Y102.706 E11.61982 ; fill
G1 X117.372 Y103.753 E11.66373 ; fill
G1 X122.628 Y109.009 E11.97528 ; fill
G1 X122.628 Y110.056 E12.01919 ; fill
G1 X117.372 Y104.801 E12.33073 ; fill
G1 X117.372 Y105.848 E12.37464 ; fill
G1 X122.628 Y111.104 E12.68619 ; fill
G1 X122.104 Y111.628 E12.71724 ; fill
G1 X116.849 Y106.372 E13.02879 ; fill
G1 X115.801 Y106.372 E13.07270 ; fill
G1 X121.056 Y111.628 E13.38425 ; fill
G1 X120.009 Y111.628 E13.42816 ; fill
G1 X114.753 Y106.372 E13.73970 ; fill
G1 X113.706 Y106.372 E13.78361 ; fill
G1 X118.961 Y111.628 E14.09516 ; fill
G1 X117.914 Y111.628 E14.13907 ; fill
G1 X112.658 Y106.372 E14.45062 ; fill
G1 X111.611 Y106.372 E14.49453 ; fill
G1 X116.866 Y111.628 E14.80608 ; fill
G1 X115.819 Y111.628 E14.84999 ; fill
G1 X110.563 Y106.372 E15.16153 ; fill
G1 X109.516 Y106.372 E15.20544 ; fill
G1 X114.771 Y111.628 E15.51699 ; fill
G1 X113.723 Y111.628 E15.56090 ; fill
G1 X108.468 Y106.372 E15.87245 ; fill
G1 X107.420 Y106.372 E15.91636 ; fill
G1 X112.676 Y111.628 E16.22791 ; fill
G1 X111.628 Y111.628 E16.27182 ; fill
G1 X106.373 Y106.372 E16.58336 ; fill
G1 X105.325 Y106.372 E16.62728 ; fill
G1 X110.581 Y111.628 E16.93882 ; fill
G1 X109.533 Y111.628 E16.98273 ; fill
G1 X104.278 Y106.372 E17.29428 ; fill
G1 X103.230 Y106.372 E17.33819 ; fill
G1 X108.486 Y111.628 E17.64974 ; fill
G1 X107.438 Y111.628 E17.69365 ; fill
G1 X102.183 Y106.372 E18.00519 ; fill
G1 X101.135 Y106.372 E18.04911 ; fill
G1 X106.391 Y111.628 E18.36065 ; fill
G1 X105.343 Y111.628 E18.40456 ; fill
G1 X100.087 Y106.372 E18.71611 ; fill
G1 X99.040 Y106.372 E18.76002 ; fill
G1 X104.295 Y111.628 E19.07157 ; fill
G1 X103.248 Y111.628 E19.11548 ; fill
G1 X97.992 Y106.372 E19.42702 ; fill
G1 X96.945 Y106.372 E19.47094 ; fill
G1 X102.200 Y111.628 E19.78248 ; fill
G1 X101.153 Y111.628 E19.82639 ; fill
G1 X95.897 Y106.372 E20.13794 ; fill
G1 X94.850 Y106.372 E20.18185 ; fill
G1 X100.105 Y111.628 E20.49340 ; fill
G1 X99.058 Y111.628 E20.53731 ; fill
G1 X93.802 Y106.372 E20.84886 ; fill
G1 X92.754 Y106.372 E20.89277 ; fill
G1 X98.010 Y111.628 E21.20431 ; fill
G1 X96.962 Y111.628 E21.24822 ; fill
G1 X91.707 Y106.372 E21.55977 ; fill
G1 X90.659 Y106.372 E21.60368 ; fill
G1 X95.915 Y111.628 E21.91523 ; fill
G1 X94.867 Y111.628 E21.95914 ; fill
G1 X89.612 Y106.372 E22.27069 ; fill
G1 X88.564 Y106.372 E22.31460 ; fill
G1 X93.820 Y111.628 E22.62614 ; fill
G1 X92.772 Y111.628 E22.67005 ; fill
G1 X87.517 Y106.372 E22.98160 ; fill
G1 X86.469 Y106.372 E23.02551 ; fill
G1 X91.725 Y111.628 E23.33706 ; fill
G1 X90.677 Y111.628 E23.38097 ; fill
G1 X85.422 Y106.372 E23.69252 ; fill
G1 X84.374 Y106.372 E23.73643 ; fill
G1 X89.629 Y111.628 E24.04797 ; fill
G1 F1800.000 E23.04797 ; retract
G92 E0 ; reset extrusion distance
G1 X83.326 Y106.372 F7800.000 ; move to first fill point
G1 F1800.000 E1.00000 ; compensate retraction
G1 X88.582 Y111.628 F2880.000 E1.31155 ; fill
G1 X87.534 Y111.628 E1.35546 ; fill
G1 X77.372 Y101.466 E1.95787 ; fill
G1 X77.372 Y102.513 E2.00178 ; fill
G1 X86.487 Y111.628 E2.54209 ; fill
G1 X85.439 Y111.628 E2.58600 ; fill
G1 X77.372 Y103.561 E3.06421 ; fill
G1 X77.372 Y104.608 E3.10812 ; fill
G1 X84.392 Y111.628 E3.52423 ; fill
G1 X83.344 Y111.628 E3.56814 ; fill
G1 X77.372 Y105.656 E3.92215 ; fill
G1 X77.372 Y106.704 E3.96606 ; fill
G1 X82.296 Y111.628 E4.25797 ; fill
G1 X81.249 Y111.628 E4.30188 ; fill
G1 X77.372 Y107.751 E4.53169 ; fill
G1 X77.372 Y108.799 E4.57560 ; fill
G1 X80.201 Y111.628 E4.74331 ; fill
G1 X79.154 Y111.628 E4.78722 ; fill
G1 X77.372 Y109.846 E4.89283 ; fill
G1 X77.372 Y110.894 E4.93674 ; fill
G1 X78.106 Y111.628 E4.98025 ; fill
G1 F1800.000 E3.98025 ; retract
G92 E0 ; reset extrusion distance
G1 X82.628 Y105.674 F7800.000 ; move to first fill point
G1 F1800.000 E1.00000 ; compensate retraction
G1 X77.372 Y100.418 F2880.000 E1.31155 ; fill
G1 X77.372 Y99.371 E1.35546 ; fill
G1 X82.628 Y104.626 E1.66700 ; fill
G1 X82.628 Y103.578 E1.71092 ; fill
G1 X77.372 Y98.323 E2.02246 ; fill
G1 X77.372 Y97.275 E2.06637 ; fill
G1 X82.628 Y102.531 E2.37792 ; fill
G1 X82.628 Y101.483 E2.42183 ; fill
G1 X77.372 Y96.228 E2.73338 ; fill
G1 X77.372 Y95.180 E2.77729 ; fill
G1 X82.628 Y100.436 E3.08883 ; fill
G1 X82.628 Y99.388 E3.13275 ; fill
G1 X77.372 Y94.133 E3.44429 ; fill
G1 X77.372 Y93.085 E3.48820 ; fill
G1 X82.628 Y98.341 E3.79975 ; fill
G1 X82.628 Y97.293 E3.84366 ; fill
G1 X77.372 Y92.038 E4.15521 ; fill
G1 X77.372 Y90.990 E4.19912 ; fill
G1 X82.628 Y96.246 E4.51066 ; fill
G1 X82.628 Y95.198 E4.55458 ; fill
G1 X77.372 Y89.942 E4.86612 ; fill
G1 X77.372 Y88.895 E4.91003 ; fill
G1 X82.628 Y94.150 E5.22158 ; fill
G1 X82.628 Y93.103 E5.26549 ; fill
G1 X77.372 Y87.847 E5.57704 ; fill
G1 X77.372 Y86.800 E5.62095 ; fill
G1 X82.628 Y92.055 E5.93250 ; fill
G1 X82.628 Y91.008 E5.97641 ; fill
G1 X77.372 Y85.752 E6.28795 ; fill
G1 X77.372 Y84.705 E6.33186 ; fill
G1 X82.628 Y89.960 E6.64341 ; fill
G1 X82.628 Y88.913 E6.68732 ; fill
G1 X77.372 Y83.657 E6.99887 ; fill
G1 X77.372 Y82.609 E7.04278 ; fill
G1 X82.628 Y87.865 E7.35433 ; fill
G1 X82.628 Y86.817 E7.39824 ; fill
G1 X77.372 Y81.562 E7.70978 ; fill
G1 X77.372 Y80.514 E7.75369 ; fill
G1 X82.628 Y85.770 E8.06524 ; fill
G1 X82.628 Y84.722 E8.10915 ; fill
G1 X77.372 Y79.467 E8.42070 ; fill
G1 X77.372 Y78.419 E8.46461 ; fill
G1 X82.628 Y83.675 E8.77616 ; fill
G1 X82.628 Y82.627 E8.82007 ; fill
G1 X77.372 Y77.372 E9.13161 ; fill
G1 X77.372 Y76.324 E9.17553 ; fill
G1 X82.628 Y81.580 E9.48707 ; fill
G1 X82.628 Y80.532 E9.53098 ; fill
G1 X77.372 Y75.277 E9.84253 ; fill
G1 X77.372 Y74.229 E9.88644 ; fill
G1 X82.628 Y79.484 E10.19799 ; fill
G1 X82.628 Y78.437 E10.24190 ; fill
G1 X77.372 Y73.181 E10.55344 ; fill
G1 X77.372 Y72.134 E10.59736 ; fill
G1 X82.628 Y77.389 E10.90890 ; fill
G1 X82.628 Y76.342 E10.95281 ; fill
G1 X77.372 Y71.086 E11.26436 ; fill
G1 X77.372 Y70.039 E11.30827 ; fill
G1 X82.628 Y75.294 E11.61982 ; fill
G1 X82.628 Y74.247 E11.66373 ; fill
G1 X77.372 Y68.991 E11.97527 ; fill
G1 X77.372 Y67.944 E12.01919 ; fill
G1 X82.628 Y73.199 E12.33073 ; fill
G1 X82.628 Y72.151 E12.37464 ; fill
G1 X77.372 Y66.896 E12.68619 ; fill
G1 X77.896 Y66.372 E12.71724 ; fill
G1 X83.152 Y71.628 E13.02879 ; fill
G1 X84.199 Y71.628 E13.07270 ; fill
G1 X78.944 Y66.372 E13.38424 ; fill
G1 X79.991 Y66.372 E13.42815 ; fill
G1 X85.247 Y71.628 E13.73970 ; fill
G1 X86.294 Y71.628 E13.78361 ; fill
G1 X81.039 Y66.372 E14.09516 ; fill
G1 X82.086 Y66.372 E14.13907 ; fill
G1 X87.342 Y71.628 E14.45062 ; fill
G1 X88.389 Y71.628 E14.49453 ; fill
G1 X83.134 Y66.372 E14.80607 ; fill
G1 X84.181 Y66.372 E14.84999 ; fill
G1 X89.437 Y71.628 E15.16153 ; fill
G1 X90.485 Y71.628 E15.20544 ; fill
G1 X85.229 Y66.372 E15.51699 ; fill
G1 X86.277 Y66.372 E15.56090 ; fill
G1 X91.532 Y71.628 E15.87245 ; fill
G1 X92.580 Y71.628 E15.91636 ; fill
G1 X87.324 Y66.372 E16.22790 ; fill
G1 X88.372 Y66.372 E16.27182 ; fill
G1 X93.627 Y71.628 E16.58336 ; fill
G1 X94.675 Y71.628 E16.62727 ; fill
G1 X89.419 Y66.372 E16.93882 ; fill
G1 X90.467 Y66.372 E16.98273 ; fill
G1 X95.722 Y71.628 E17.29428 ; fill
G1 X96.770 Y71.628 E17.33819 ; fill
G1 X91.514 Y66.372 E17.64974 ; fill
G1 X92.562 Y66.372 E17.69365 ; fill
G1 X97.817 Y71.628 E18.00519 ; fill
G1 X98.865 Y71.628 E18.04910 ; fill
G1 X93.610 Y66.372 E18.36065 ; fill
G1 X94.657 Y66.372 E18.40456 ; fill
G1 X99.913 Y71.628 E18.71611 ; fill
G1 X100.960 Y71.628 E18.76002 ; fill
G1 X95.705 Y66.372 E19.07157 ; fill
G1 X96.752 Y66.372 E19.11548 ; fill
G1 X102.008 Y71.628 E19.42702 ; fill
G1 X103.055 Y71.628 E19.47093 ; fill
G1 X97.800 Y66.372 E19.78248 ; fill
G1 X98.847 Y66.372 E19.82639 ; fill
G1 X104.103 Y71.628 E20.13794 ; fill
G1 X105.150 Y71.628 E20.18185 ; fill
G1 X99.895 Y66.372 E20.49340 ; fill
G1 X100.943 Y66.372 E20.53731 ; fill
G1 X106.198 Y71.628 E20.84885 ; fill
G1 X107.246 Y71.628 E20.89276 ; fill
G1 X101.990 Y66.372 E21.20431 ; fill
G1 X103.038 Y66.372 E21.24822 ; fill
G1 X108.293 Y71.628 E21.55977 ; fill
G1 X109.341 Y71.628 E21.60368 ; fill
G1 X104.085 Y66.372 E21.91523 ; fill
G1 X105.133 Y66.372 E21.95914 ; fill
G1 X110.388 Y71.628 E22.27068 ; fill
G1 X111.436 Y71.628 E22.31460 ; fill
G1 X106.180 Y66.372 E22.62614 ; fill
G1 X107.228 Y66.372 E22.67005 ; fill
G1 X112.483 Y71.628 E22.98160 ; fill
G1 X113.531 Y71.628 E23.02551 ; fill
G1 X108.275 Y66.372 E23.33706 ; fill
G1 X109.323 Y66.372 E23.38097 ; fill
G1 X114.579 Y71.628 E23.69251 ; fill
G1 X115.626 Y71.628 E23.73643 ; fill
G1 X110.371 Y66.372 E24.04797 ; fill
G1 X111.418 Y66.372 E24.09188 ; fill
G1 X116.674 Y71.628 E24.40343 ; fill
G1 F1800.000 E23.40343 ; retract
G92 E0 ; reset extrusion distance
