; generated by Slic3r 0.9.8-dev on 2013-01-09 at 17:25:48

; layer_height = 0.4
; perimeters = 3
; top_solid_layers = 3
; bottom_solid_layers = 3
; fill_density = 0.40
; perimeter_speed = 30
; infill_speed = 60
; travel_speed = 130
; scale = 1
; nozzle_diameter = 0.5
; filament_diameter = 3
; extrusion_multiplier = 1
; perimeters extrusion width = 0.53mm
; infill extrusion width = 0.53mm
; first layer extrusion width = 0.80mm

M190 S60 ; wait for bed temperature to be reached
M104 S180 ; set temperature
G28 ; home all axes
G92 E0 ;reset extruder
M109 S180 ; wait for temperature to be reached
G90 ; use absolute coordinates
G21 ; set units to millimeters
G92 E0 ; reset extrusion distance
M82 ; use absolute distances for extrusion
G1 F1800.000 E-1.00000 ; retract
G1 Z0.900 ; move to next layer (0) and lift
G92 E0 ; reset extrusion distance
G1 X123.821 Y74.740 F7800.000 ; move to first skirt point
G1 Z0.400 ; restore layer Z
G1 F1800.000 E1.00000 ; compensate retraction
G1 X96.461 Y117.930 F540.000 E3.12828 ; skirt
G1 X95.961 Y118.570 E3.16209 ; skirt
G1 X95.581 Y118.960 E3.18476 ; skirt
G1 X95.181 Y119.320 E3.20716 ; skirt
G1 X94.961 Y119.490 E3.21873 ; skirt
G1 X94.291 Y119.930 E3.25210 ; skirt
G1 X93.811 Y120.190 E3.27482 ; skirt
G1 X93.051 Y120.490 E3.30884 ; skirt
G1 X92.271 Y120.700 E3.34246 ; skirt
G1 X91.731 Y120.790 E3.36525 ; skirt
G1 X90.921 Y120.840 E3.39903 ; skirt
G1 X81.721 Y120.840 E3.78201 ; skirt
G1 X80.911 Y120.790 E3.81579 ; skirt
G1 X80.111 Y120.640 E3.84967 ; skirt
G1 X79.331 Y120.400 E3.88364 ; skirt
G1 X78.831 Y120.190 E3.90622 ; skirt
G1 X78.351 Y119.930 E3.92894 ; skirt
G1 X77.891 Y119.640 E3.95158 ; skirt
G1 X77.461 Y119.320 E3.97389 ; skirt
G1 X77.251 Y119.140 E3.98540 ; skirt
G1 X77.051 Y118.960 E3.99661 ; skirt
G1 X76.681 Y118.570 E4.01898 ; skirt
G1 X76.501 Y118.360 E4.03050 ; skirt
G1 X76.181 Y117.930 E4.05281 ; skirt
G1 X75.891 Y117.470 E4.07545 ; skirt
G1 X75.631 Y116.990 E4.09817 ; skirt
G1 X75.421 Y116.490 E4.12075 ; skirt
G1 X75.181 Y115.710 E4.15472 ; skirt
G1 X75.071 Y115.180 E4.17725 ; skirt
G1 X75.031 Y114.910 E4.18861 ; skirt
G1 X74.981 Y114.100 E4.22239 ; skirt
G1 X74.981 Y82.730 E5.52825 ; skirt
G1 X75.031 Y81.920 E5.56203 ; skirt
G1 X75.121 Y81.380 E5.58482 ; skirt
G1 X75.251 Y80.860 E5.60713 ; skirt
G1 X75.521 Y80.090 E5.64110 ; skirt
G1 X75.751 Y79.600 E5.66363 ; skirt
G1 X75.891 Y79.360 E5.67520 ; skirt
G1 X76.171 Y78.910 E5.69726 ; skirt
G1 X76.331 Y78.690 E5.70859 ; skirt
G1 X76.501 Y78.470 E5.72016 ; skirt
G1 X76.861 Y78.070 E5.74256 ; skirt
G1 X77.251 Y77.690 E5.76523 ; skirt
G1 X77.671 Y77.350 E5.78772 ; skirt
G1 X78.351 Y76.900 E5.82167 ; skirt
G1 X110.891 Y58.080 E7.38647 ; skirt
G1 X111.641 Y57.740 E7.42075 ; skirt
G1 X111.891 Y57.650 E7.43181 ; skirt
G1 X112.411 Y57.500 E7.45433 ; skirt
G1 X113.211 Y57.350 E7.48822 ; skirt
G1 X114.031 Y57.300 E7.52242 ; skirt
G1 X114.841 Y57.350 E7.55620 ; skirt
G1 X115.111 Y57.390 E7.56756 ; skirt
G1 X115.641 Y57.500 E7.59009 ; skirt
G1 X116.161 Y57.650 E7.61262 ; skirt
G1 X116.921 Y57.950 E7.64663 ; skirt
G1 X117.161 Y58.070 E7.65780 ; skirt
G1 X117.631 Y58.350 E7.68058 ; skirt
G1 X118.071 Y58.650 E7.70275 ; skirt
G1 X118.501 Y59.000 E7.72583 ; skirt
G1 X118.891 Y59.370 E7.74820 ; skirt
G1 X119.251 Y59.780 E7.77092 ; skirt
G1 X119.721 Y60.440 E7.80465 ; skirt
G1 X123.961 Y67.770 E8.15715 ; skirt
G1 X124.221 Y68.250 E8.17987 ; skirt
G1 X124.331 Y68.500 E8.19124 ; skirt
G1 X124.601 Y69.270 E8.22521 ; skirt
G1 X124.731 Y69.790 E8.24752 ; skirt
G1 X124.821 Y70.330 E8.27031 ; skirt
G1 X124.871 Y71.140 E8.30409 ; skirt
G1 X124.821 Y71.950 E8.33787 ; skirt
G1 X124.671 Y72.760 E8.37216 ; skirt
G1 X124.521 Y73.280 E8.39469 ; skirt
G1 X124.331 Y73.780 E8.41696 ; skirt
G1 X124.091 Y74.270 E8.43967 ; skirt
G1 X123.878 Y74.646 E8.45764 ; skirt
G1 X123.821 Y74.740 E8.46224 ; skirt
G1 F1800.000 E7.46224 ; retract
G1 Z0.900 ; lift plate during travel
G92 E0 ; reset extrusion distance
G1 X116.123 Y70.609 F7800.000 ; move to first perimeter point
G1 Z0.400 ; restore layer Z
G1 F1800.000 E1.00000 ; compensate retraction
G1 X89.449 Y86.010 F540.000 E2.28215 ; perimeter
G1 X89.449 Y112.629 E3.39024 ; perimeter
G1 X83.192 Y112.629 E3.65073 ; perimeter
G1 X83.192 Y83.579 E4.85999 ; perimeter
G1 X113.495 Y66.057 E6.31714 ; perimeter
G1 X116.068 Y70.514 E6.53137 ; perimeter
G1 X116.123 Y70.609 E6.53596 ; perimeter
G1 X117.128 Y70.879 F7800.000 ; move to first perimeter point
G1 X90.185 Y86.434 F540.000 E7.83105 ; perimeter
G1 X90.185 Y113.364 E8.95209 ; perimeter
G1 X82.456 Y113.364 E9.27381 ; perimeter
G1 X82.456 Y83.155 E10.53136 ; perimeter
G1 X113.764 Y65.052 E12.03683 ; perimeter
G1 X117.073 Y70.783 E12.31232 ; perimeter
G1 X117.128 Y70.879 E12.31691 ; perimeter
G1 X118.133 Y71.148 F7800.000 ; move to first perimeter point
G1 X90.921 Y86.859 F540.000 E13.62494 ; perimeter
G1 X90.921 Y114.100 E14.75892 ; perimeter
G1 X81.721 Y114.100 E15.14189 ; perimeter
G1 X81.721 Y82.730 E16.44773 ; perimeter
G1 X114.033 Y64.046 E18.00150 ; perimeter
G1 X118.078 Y71.052 E18.33825 ; perimeter
G1 X118.133 Y71.148 E18.34285 ; perimeter
G1 X117.397 Y71.148 F7800.000 ; move inwards before travel
G1 F1800.000 E17.34285 ; retract
G1 Z0.900 ; lift plate during travel
G92 E0 ; reset extrusion distance
G1 X89.092 Y85.736 F7800.000 ; move to first fill point
G1 Z0.400 ; restore layer Z
G1 F1800.000 E1.00000 ; compensate retraction
G1 X85.868 Y82.512 F1080.000 E1.19048 ; fill
G1 X86.530 Y82.129 E1.22241 ; fill
G1 X89.754 Y85.354 E1.41291 ; fill
G1 X90.416 Y84.971 E1.44484 ; fill
G1 X87.191 Y81.747 E1.63536 ; fill
G1 X87.853 Y81.364 E1.66729 ; fill
G1 X91.078 Y84.589 E1.85783 ; fill
G1 X91.740 Y84.207 E1.88976 ; fill
G1 X88.515 Y80.982 E2.08032 ; fill
G1 X89.176 Y80.599 E2.11225 ; fill
G1 X92.402 Y83.825 E2.30284 ; fill
G1 X93.064 Y83.443 E2.33477 ; fill
G1 X89.838 Y80.217 E2.52538 ; fill
G1 X90.499 Y79.834 E2.55730 ; fill
G1 X93.726 Y83.061 E2.74793 ; fill
G1 X94.388 Y82.678 E2.77987 ; fill
G1 X91.161 Y79.452 E2.97052 ; fill
G1 X91.822 Y79.069 E3.00245 ; fill
G1 X95.049 Y82.296 E3.19312 ; fill
G1 X95.711 Y81.914 E3.22505 ; fill
G1 X92.484 Y78.686 E3.41575 ; fill
G1 X93.145 Y78.304 E3.44767 ; fill
G1 X96.373 Y81.532 E3.63839 ; fill
G1 X97.035 Y81.150 E3.67032 ; fill
G1 X93.807 Y77.921 E3.86106 ; fill
G1 X94.468 Y77.539 E3.89299 ; fill
G1 X97.697 Y80.768 E4.08375 ; fill
G1 X98.359 Y80.385 E4.11568 ; fill
G1 X95.130 Y77.156 E4.30646 ; fill
G1 X95.792 Y76.774 E4.33838 ; fill
G1 X99.021 Y80.003 E4.52919 ; fill
G1 X99.683 Y79.621 E4.56112 ; fill
G1 X96.453 Y76.391 E4.75195 ; fill
G1 X97.115 Y76.009 E4.78388 ; fill
G1 X100.345 Y79.239 E4.97472 ; fill
G1 X101.007 Y78.857 E5.00666 ; fill
G1 X97.776 Y75.626 E5.19753 ; fill
G1 X98.438 Y75.244 E5.22945 ; fill
G1 X101.669 Y78.475 E5.42034 ; fill
G1 X102.331 Y78.093 E5.45227 ; fill
G1 X99.099 Y74.861 E5.64319 ; fill
G1 X99.761 Y74.479 E5.67511 ; fill
G1 X102.993 Y77.710 E5.86605 ; fill
G1 X103.654 Y77.328 E5.89798 ; fill
G1 X100.422 Y74.096 E6.08894 ; fill
G1 X101.084 Y73.714 E6.12086 ; fill
G1 X104.316 Y76.946 E6.31184 ; fill
G1 X104.978 Y76.564 E6.34377 ; fill
G1 X101.746 Y73.331 E6.53477 ; fill
G1 X102.407 Y72.949 E6.56669 ; fill
G1 X105.640 Y76.182 E6.75771 ; fill
G1 X106.302 Y75.800 E6.78965 ; fill
G1 X103.069 Y72.566 E6.98069 ; fill
G1 X103.730 Y72.184 E7.01261 ; fill
G1 X106.964 Y75.417 E7.20368 ; fill
G1 X107.626 Y75.035 E7.23561 ; fill
G1 X104.392 Y71.801 E7.42670 ; fill
G1 X105.053 Y71.418 E7.45862 ; fill
G1 X108.288 Y74.653 E7.64973 ; fill
G1 X108.950 Y74.271 E7.68166 ; fill
G1 X105.715 Y71.036 E7.87279 ; fill
G1 X106.376 Y70.653 E7.90471 ; fill
G1 X109.612 Y73.889 E8.09587 ; fill
G1 X110.274 Y73.507 E8.12780 ; fill
G1 X107.038 Y70.271 E8.31897 ; fill
G1 X107.700 Y69.888 E8.35090 ; fill
G1 X110.936 Y73.124 E8.54209 ; fill
G1 X111.597 Y72.742 E8.57403 ; fill
G1 X108.361 Y69.506 E8.76524 ; fill
G1 X109.023 Y69.123 E8.79716 ; fill
G1 X112.259 Y72.360 E8.98840 ; fill
G1 X112.921 Y71.978 E9.02033 ; fill
G1 X109.684 Y68.741 E9.21160 ; fill
G1 X110.346 Y68.358 E9.24352 ; fill
G1 X113.583 Y71.596 E9.43480 ; fill
G1 X114.245 Y71.214 E9.46674 ; fill
G1 X111.007 Y67.976 E9.65804 ; fill
G1 X111.669 Y67.593 E9.68996 ; fill
G1 X114.907 Y70.831 E9.88129 ; fill
G1 X114.887 Y69.767 E9.92577 ; fill
G1 X112.330 Y67.211 E10.07680 ; fill
G1 X112.992 Y66.828 E10.10872 ; fill
G1 X113.460 Y67.296 E10.13640 ; fill
G1 F1800.000 E9.13640 ; retract
G1 Z0.900 ; lift plate during travel
G92 E0 ; reset extrusion distance
G1 X84.162 Y112.127 F7800.000 ; move to first fill point
G1 Z0.400 ; restore layer Z
G1 F1800.000 E1.00000 ; compensate retraction
G1 X83.693 Y111.659 F1080.000 E1.02767 ; fill
G1 X83.693 Y110.615 E1.07129 ; fill
G1 X85.206 Y112.127 E1.16064 ; fill
G1 X86.250 Y112.127 E1.20426 ; fill
G1 X83.693 Y109.571 E1.35531 ; fill
G1 X83.693 Y108.527 E1.39893 ; fill
G1 X87.294 Y112.127 E1.61167 ; fill
G1 X88.338 Y112.127 E1.65528 ; fill
G1 X83.693 Y107.483 E1.92970 ; fill
G1 X83.693 Y106.439 E1.97332 ; fill
G1 X88.948 Y111.693 E2.28378 ; fill
G1 X88.948 Y110.649 E2.32740 ; fill
G1 X83.693 Y105.395 E2.63785 ; fill
G1 X83.693 Y104.350 E2.68148 ; fill
G1 X88.948 Y109.605 E2.99194 ; fill
G1 X88.948 Y108.561 E3.03556 ; fill
G1 X83.693 Y103.306 E3.34602 ; fill
G1 X83.693 Y102.262 E3.38963 ; fill
G1 X88.948 Y107.517 E3.70009 ; fill
G1 X88.948 Y106.473 E3.74371 ; fill
G1 X83.693 Y101.218 E4.05417 ; fill
G1 X83.693 Y100.174 E4.09779 ; fill
G1 X88.948 Y105.429 E4.40825 ; fill
G1 X88.948 Y104.385 E4.45187 ; fill
G1 X83.693 Y99.130 E4.76233 ; fill
G1 X83.693 Y98.086 E4.80595 ; fill
G1 X88.948 Y103.341 E5.11641 ; fill
G1 X88.948 Y102.296 E5.16003 ; fill
G1 X83.693 Y97.042 E5.47048 ; fill
G1 X83.693 Y95.998 E5.51411 ; fill
G1 X88.948 Y101.252 E5.82457 ; fill
G1 X88.948 Y100.208 E5.86819 ; fill
G1 X83.693 Y94.954 E6.17865 ; fill
G1 X83.693 Y93.910 E6.22226 ; fill
G1 X88.948 Y99.164 E6.53272 ; fill
G1 X88.948 Y98.120 E6.57634 ; fill
G1 X83.693 Y92.866 E6.88680 ; fill
G1 X83.693 Y91.821 E6.93042 ; fill
G1 X88.948 Y97.076 E7.24088 ; fill
G1 X88.948 Y96.032 E7.28450 ; fill
G1 X83.693 Y90.777 E7.59496 ; fill
G1 X83.693 Y89.733 E7.63858 ; fill
G1 X88.948 Y94.988 E7.94904 ; fill
G1 X88.948 Y93.944 E7.99266 ; fill
G1 X83.693 Y88.689 E8.30312 ; fill
G1 X83.693 Y87.645 E8.34674 ; fill
G1 X88.948 Y92.900 E8.65720 ; fill
G1 X88.948 Y91.856 E8.70082 ; fill
G1 X83.693 Y86.601 E9.01128 ; fill
G1 X83.693 Y85.557 E9.05489 ; fill
G1 X88.948 Y90.812 E9.36535 ; fill
G1 X88.948 Y89.768 E9.40897 ; fill
G1 X83.693 Y84.513 E9.71943 ; fill
G1 X83.884 Y83.659 E9.75597 ; fill
G1 X88.948 Y88.724 E10.05518 ; fill
G1 X88.948 Y87.679 E10.09880 ; fill
G1 X84.545 Y83.277 E10.35892 ; fill
G1 X85.207 Y82.894 E10.39084 ; fill
G1 X88.948 Y86.635 E10.61187 ; fill
M104 S175 ; set temperature
G1 F1800.000 E9.61187 ; retract
G1 Z1.300 ; move to next layer (1) and lift
G92 E0 ; reset extrusion distance
G1 X113.703 Y65.278 F7800.000 ; move to first perimeter point
G1 Z0.800 ; restore layer Z
G1 F1800.000 E1.00000 ; compensate retraction
G1 X116.901 Y70.818 F1800.000 E1.18809 ; perimeter
G1 X90.019 Y86.338 E2.10087 ; perimeter
G1 X90.019 Y113.198 E2.89069 ; perimeter
G1 X82.622 Y113.198 E3.10819 ; perimeter
G1 X82.622 Y83.250 E3.98882 ; perimeter
G1 X113.636 Y65.317 E5.04226 ; perimeter
G1 X113.703 Y65.278 E5.04455 ; perimeter
G1 X113.436 Y64.833 F7800.000 ; move to first perimeter point
G1 X113.893 Y64.568 F1800.000 E5.06009 ; perimeter
G1 X117.611 Y71.008 E5.27874 ; perimeter
G1 X90.538 Y86.638 E6.19797 ; perimeter
G1 X90.538 Y113.718 E6.99425 ; perimeter
G1 X82.103 Y113.718 E7.24231 ; perimeter
G1 X82.103 Y82.951 E8.14703 ; perimeter
G1 X113.368 Y64.872 E9.20904 ; perimeter
G1 X113.436 Y64.833 E9.21133 ; perimeter
G1 X113.176 Y64.383 F7800.000 ; move to first perimeter point
G1 X114.083 Y63.859 F1800.000 E9.24215 ; perimeter
G1 X118.321 Y71.198 E9.49136 ; perimeter
G1 X91.058 Y86.938 E10.41705 ; perimeter
G1 X91.058 Y114.237 E11.21979 ; perimeter
G1 X81.583 Y114.237 E11.49841 ; perimeter
G1 X81.583 Y82.651 E12.42721 ; perimeter
G1 X113.108 Y64.422 E13.49805 ; perimeter
G1 X113.176 Y64.383 E13.50034 ; perimeter
G1 X113.626 Y64.642 F7800.000 ; move inwards before travel
G1 F1800.000 E12.50034 ; retract
G1 Z1.300 ; lift plate during travel
G92 E0 ; reset extrusion distance
G1 X92.893 Y84.149 F7800.000 ; move to first fill point
G1 Z0.800 ; restore layer Z
G1 F1800.000 E1.00000 ; compensate retraction
G1 X107.847 Y69.195 F3600.000 E1.62563 ; fill
G1 X109.600 Y68.181 E1.68552 ; fill
G1 X94.642 Y83.139 E2.31130 ; fill
G1 X96.391 Y82.129 E2.37105 ; fill
G1 X111.353 Y67.168 E2.99698 ; fill
G1 X113.106 Y66.154 E3.05688 ; fill
G1 X98.140 Y81.119 E3.68296 ; fill
G1 X99.889 Y80.110 E3.74271 ; fill
G1 X113.861 Y66.138 E4.32720 ; fill
G1 X114.131 Y66.607 E4.34321 ; fill
G1 X101.639 Y79.100 E4.86584 ; fill
G1 X103.388 Y78.090 E4.92559 ; fill
G1 X114.402 Y67.076 E5.38637 ; fill
G1 X114.672 Y67.544 E5.40238 ; fill
G1 X105.137 Y77.080 E5.80130 ; fill
G1 X106.886 Y76.070 E5.86105 ; fill
G1 X114.943 Y68.013 E6.19811 ; fill
G1 X115.214 Y68.482 E6.21412 ; fill
G1 X108.635 Y75.060 E6.48932 ; fill
G1 X110.385 Y74.050 E6.54907 ; fill
G1 X115.484 Y68.951 E6.76242 ; fill
G1 X115.755 Y69.419 E6.77842 ; fill
G1 X112.134 Y73.040 E6.92991 ; fill
G1 X113.883 Y72.030 E6.98966 ; fill
G1 X116.025 Y69.888 E7.07929 ; fill
G1 X116.296 Y70.357 E7.09530 ; fill
G1 X115.632 Y71.020 E7.12307 ; fill
G1 F1800.000 E6.12307 ; retract
G1 Z1.300 ; lift plate during travel
G92 E0 ; reset extrusion distance
G1 X89.665 Y112.513 F7800.000 ; move to first fill point
G1 Z0.800 ; restore layer Z
G1 F1800.000 E1.00000 ; compensate retraction
G1 X89.334 Y112.844 F3600.000 E1.01384 ; fill
G1 X88.594 Y112.844 E1.03572 ; fill
G1 X89.665 Y111.774 E1.08049 ; fill
G1 X89.665 Y111.035 E1.10236 ; fill
G1 X87.855 Y112.844 E1.17806 ; fill
G1 X87.116 Y112.844 E1.19993 ; fill
G1 X89.665 Y110.295 E1.30656 ; fill
G1 X89.665 Y109.556 E1.32843 ; fill
G1 X86.377 Y112.844 E1.46598 ; fill
G1 X85.637 Y112.844 E1.48785 ; fill
G1 X89.665 Y108.817 E1.65634 ; fill
G1 X89.665 Y108.077 E1.67821 ; fill
G1 X84.898 Y112.844 E1.87763 ; fill
G1 X84.159 Y112.844 E1.89949 ; fill
G1 X89.665 Y107.338 E2.12984 ; fill
G1 X89.665 Y106.599 E2.15171 ; fill
G1 X83.419 Y112.844 E2.41298 ; fill
G1 X82.976 Y112.548 E2.42874 ; fill
G1 X89.665 Y105.860 E2.70854 ; fill
G1 X89.665 Y105.120 E2.73042 ; fill
G1 X82.976 Y111.808 E3.01022 ; fill
G1 X82.976 Y111.069 E3.03209 ; fill
G1 X89.665 Y104.381 E3.31189 ; fill
G1 X89.665 Y103.642 E3.33376 ; fill
G1 X82.976 Y110.330 E3.61356 ; fill
G1 X82.976 Y109.590 E3.63543 ; fill
G1 X89.665 Y102.902 E3.91523 ; fill
G1 X89.665 Y102.163 E3.93710 ; fill
G1 X82.976 Y108.851 E4.21690 ; fill
G1 X82.976 Y108.112 E4.23877 ; fill
G1 X89.665 Y101.424 E4.51858 ; fill
G1 X89.665 Y100.684 E4.54044 ; fill
G1 X82.976 Y107.373 E4.82024 ; fill
G1 X82.976 Y106.633 E4.84211 ; fill
G1 X89.665 Y99.945 E5.12191 ; fill
G1 X89.665 Y99.206 E5.14378 ; fill
G1 X82.976 Y105.894 E5.42358 ; fill
G1 X82.976 Y105.155 E5.44545 ; fill
G1 X89.665 Y98.467 E5.72525 ; fill
G1 X89.665 Y97.727 E5.74712 ; fill
G1 X82.976 Y104.415 E6.02692 ; fill
G1 X82.976 Y103.676 E6.04880 ; fill
G1 X89.665 Y96.988 E6.32860 ; fill
G1 X89.665 Y96.249 E6.35046 ; fill
G1 X82.976 Y102.937 E6.63027 ; fill
G1 X82.976 Y102.197 E6.65214 ; fill
G1 X89.665 Y95.509 E6.93194 ; fill
G1 X89.665 Y94.770 E6.95381 ; fill
G1 X82.976 Y101.458 E7.23361 ; fill
G1 X82.976 Y100.719 E7.25548 ; fill
G1 X89.665 Y94.031 E7.53528 ; fill
G1 X89.665 Y93.292 E7.55715 ; fill
G1 X82.976 Y99.980 E7.83695 ; fill
G1 X82.976 Y99.240 E7.85882 ; fill
G1 X89.665 Y92.552 E8.13862 ; fill
G1 X89.665 Y91.813 E8.16049 ; fill
G1 X82.976 Y98.501 E8.44029 ; fill
G1 X82.976 Y97.762 E8.46216 ; fill
G1 X89.665 Y91.074 E8.74196 ; fill
G1 X89.665 Y90.334 E8.76383 ; fill
G1 X82.976 Y97.022 E9.04363 ; fill
G1 X82.976 Y96.283 E9.06550 ; fill
G1 X89.665 Y89.595 E9.34530 ; fill
G1 X89.665 Y88.856 E9.36717 ; fill
G1 X82.976 Y95.544 E9.64697 ; fill
G1 X82.976 Y94.805 E9.66885 ; fill
G1 X89.665 Y88.116 E9.94864 ; fill
G1 X89.665 Y87.377 E9.97051 ; fill
