; generated by Slic3r 0.9.10b on 2013-09-14 at 10:50:03

; layer_height = 0.4
; perimeters = 3
; top_solid_layers = 3
; bottom_solid_layers = 3
; fill_density = 0.4
; perimeter_speed = 30
; infill_speed = 60
; travel_speed = 130
; nozzle_diameter = 0.5
; filament_diameter = 3
; extrusion_multiplier = 1
; perimeters extrusion width = 0.53mm
; infill extrusion width = 0.53mm
; solid infill extrusion width = 0.53mm
; top infill extrusion width = 0.53mm
; first layer extrusion width = 1.00mm

G21 ; set units to millimeters
M107
M104 S180 ; set temperature
G28 ; home all axes
G1 Z5 F5000 ; lift nozzle
M190 S60 ; bed on
M109 S180 ; wait for temperature to be reached
G90 ; use absolute coordinates
G92 E0
M82 ; use absolute distances for extrusion
G1 F1800.000 E-1.00000
G1 Z1.000 F7800.000
G92 E0
G1 X85.130 Y74.130
G1 Z0.500
G1 F1800.000 E1.00000
G1 X86.170 Y73.270 F540.000 E1.08522
G1 X87.360 Y72.630 E1.17054
G1 X88.660 Y72.240 E1.25624
G1 X90.000 Y72.110 E1.34125
G1 X110.000 Y72.110 E2.60416
G1 X111.340 Y72.240 E2.68918
G1 X112.640 Y72.630 E2.77488
G1 X113.830 Y73.270 E2.86020
G1 X114.870 Y74.130 E2.94542
G1 X115.730 Y75.170 E3.03063
G1 X116.370 Y76.360 E3.11595
G1 X116.760 Y77.660 E3.20166
G1 X116.890 Y79.000 E3.28667
G1 X116.890 Y99.000 E4.54958
G1 X116.760 Y100.340 E4.63459
G1 X116.370 Y101.640 E4.72030
G1 X115.730 Y102.830 E4.80562
G1 X114.870 Y103.870 E4.89083
G1 X113.830 Y104.730 E4.97605
G1 X112.640 Y105.370 E5.06137
G1 X111.340 Y105.760 E5.14708
G1 X110.000 Y105.890 E5.23209
G1 X90.000 Y105.890 E6.49500
G1 X88.660 Y105.760 E6.58001
G1 X87.360 Y105.370 E6.66571
G1 X86.170 Y104.730 E6.75104
G1 X85.130 Y103.870 E6.83625
G1 X84.270 Y102.830 E6.92147
G1 X83.630 Y101.640 E7.00679
G1 X83.240 Y100.340 E7.09249
G1 X83.110 Y99.000 E7.17751
G1 X83.110 Y79.000 E8.44042
G1 X83.240 Y77.660 E8.52543
G1 X83.630 Y76.360 E8.61113
G1 X84.270 Y75.170 E8.69645
G1 X85.045 Y74.233 E8.77321
G1 F1800.000 E7.77321
G1 Z1.000 F7800.000
G92 E0
G1 X92.232 Y81.232
G1 Z0.500
G1 F1800.000 E1.00000
G1 X107.768 Y81.232 F540.000 E1.98106
G1 X107.768 Y96.768 E2.96212
G1 X92.232 Y96.768 E3.94318
G1 X92.232 Y81.366 E4.91579
G1 X91.339 Y80.339 F7800.000
G1 X108.661 Y80.339 F540.000 E6.00959
G1 X108.661 Y97.661 E7.10339
G1 X91.339 Y97.661 E8.19719
G1 X91.339 Y80.473 E9.28254
G1 X90.446 Y79.446 F7800.000
G1 X109.554 Y79.446 F378.000 E10.48908
G1 X109.554 Y98.554 E11.69562
G1 X90.446 Y98.554 E12.90216
G1 X90.446 Y79.580 E14.10024
G1 X91.219 Y79.893 F7800.000
G1 X107.021 Y81.879
G1 X107.121 Y81.979 F1080.000 E14.10936
G1 X107.121 Y83.265 E14.19203
G1 X105.735 Y81.879 E14.31806
G1 X104.450 Y81.879 E14.40073
G1 X107.121 Y84.550 E14.64368
G1 X107.121 Y85.836 E14.72635
G1 X103.164 Y81.879 E15.08622
G1 X101.878 Y81.879 E15.16889
G1 X107.121 Y87.122 E15.64568
G1 X107.121 Y88.407 E15.72835
G1 X100.593 Y81.879 E16.32205
G1 X99.307 Y81.879 E16.40473
G1 X107.121 Y89.693 E17.11535
G1 X107.121 Y90.979 E17.19802
G1 X98.021 Y81.879 E18.02556
G1 X96.736 Y81.879 E18.10823
G1 X107.121 Y92.264 E19.05269
G1 X107.121 Y93.550 E19.13537
G1 X95.450 Y81.879 E20.19674
G1 X94.164 Y81.879 E20.27941
G1 X107.121 Y94.836 E21.45771
G1 X107.121 Y96.121 E21.54038
G1 X92.879 Y81.879 E22.83559
G1 X92.879 Y83.164 E22.91827
G1 X105.836 Y96.121 E24.09656
G1 X104.550 Y96.121 E24.17924
G1 X92.879 Y84.450 E25.24061
G1 X92.879 Y85.736 E25.32329
G1 X103.264 Y96.121 E26.26774
G1 X101.979 Y96.121 E26.35042
G1 X92.879 Y87.021 E27.17796
G1 X92.879 Y88.307 E27.26063
G1 X100.693 Y96.121 E27.97125
G1 X99.407 Y96.121 E28.05393
G1 X92.879 Y89.593 E28.64763
G1 X92.879 Y90.878 E28.73030
G1 X98.122 Y96.121 E29.20709
G1 X96.836 Y96.121 E29.28976
G1 X92.879 Y92.164 E29.64963
G1 X92.879 Y93.450 E29.73230
G1 X95.550 Y96.121 E29.97525
G1 X94.265 Y96.121 E30.05792
G1 X92.879 Y94.735 E30.18395
G1 X92.879 Y96.021 E30.26663
G1 X92.979 Y96.121 E30.27574
M106 S255
G1 F1800.000 E29.27574
G1 Z1.400 F7800.000
G92 E0
G1 X91.299 Y97.701
G1 Z0.900
G1 F1800.000 E1.00000
G1 X91.299 Y80.299 F1068.243 E1.51171
G1 X108.701 Y80.299 E2.02341
G1 X108.701 Y97.701 E2.53512
G1 X91.377 Y97.701 E3.04453
G1 X90.779 Y98.221 F7800.000
G1 X90.779 Y79.779 F1068.243 E3.58680
G1 X109.221 Y79.779 E4.12907
G1 X109.221 Y98.221 E4.67133
G1 X90.857 Y98.221 E5.21131
G1 X90.260 Y98.740 F7800.000
G1 X90.260 Y79.260 F747.770 E5.78413
G1 X109.740 Y79.260 E6.35696
G1 X109.740 Y98.740 E6.92979
G1 X90.338 Y98.740 E7.50032
G1 X90.520 Y98.290 F7800.000
G1 X91.676 Y81.046
G1 X92.046 Y80.676 F2136.487 E7.51591
G1 X92.790 Y80.676 E7.53808
G1 X91.676 Y81.790 E7.58502
G1 X91.676 Y82.534 E7.60719
G1 X93.534 Y80.676 E7.68548
G1 X94.279 Y80.676 E7.70765
G1 X91.676 Y83.279 E7.81729
G1 X91.676 Y84.023 E7.83946
G1 X95.023 Y80.676 E7.98045
G1 X95.767 Y80.676 E8.00262
G1 X91.676 Y84.767 E8.17497
G1 X91.676 Y85.512 E8.19713
G1 X96.512 Y80.676 E8.40083
G1 X97.256 Y80.676 E8.42300
G1 X91.676 Y86.256 E8.65805
G1 X91.676 Y87.000 E8.68021
G1 X98.000 Y80.676 E8.94661
G1 X98.745 Y80.676 E8.96878
G1 X91.676 Y87.745 E9.26653
G1 X91.676 Y88.489 E9.28870
G1 X99.489 Y80.676 E9.61780
G1 X100.233 Y80.676 E9.63997
G1 X91.676 Y89.233 E10.00042
G1 X91.676 Y89.978 E10.02259
G1 X100.978 Y80.676 E10.41439
G1 X101.722 Y80.676 E10.43656
G1 X91.676 Y90.722 E10.85971
G1 X91.676 Y91.466 E10.88188
G1 X102.466 Y80.676 E11.33638
G1 X103.211 Y80.676 E11.35855
G1 X91.676 Y92.211 E11.84441
G1 X91.676 Y92.955 E11.86657
G1 X103.955 Y80.676 E12.38378
G1 X104.699 Y80.676 E12.40595
G1 X91.676 Y93.699 E12.95451
G1 X91.676 Y94.444 E12.97667
G1 X105.444 Y80.676 E13.55658
G1 X106.188 Y80.676 E13.57875
G1 X91.676 Y95.188 E14.19001
G1 X91.676 Y95.932 E14.21218
G1 X106.932 Y80.676 E14.85479
G1 X107.677 Y80.676 E14.87696
G1 X91.676 Y96.677 E15.55092
G1 X91.772 Y97.324 E15.57042
G1 X108.324 Y80.772 E16.26759
G1 X108.324 Y81.517 E16.28976
G1 X92.517 Y97.324 E16.95558
G1 X93.261 Y97.324 E16.97775
G1 X108.324 Y82.261 E17.61222
G1 X108.324 Y83.005 E17.63439
G1 X94.005 Y97.324 E18.23750
G1 X94.750 Y97.324 E18.25967
G1 X108.324 Y83.750 E18.83144
G1 X108.324 Y84.494 E18.85361
G1 X95.494 Y97.324 E19.39402
G1 X96.238 Y97.324 E19.41619
G1 X108.324 Y85.238 E19.92525
G1 X108.324 Y85.983 E19.94742
G1 X96.983 Y97.324 E20.42513
G1 X97.727 Y97.324 E20.44730
G1 X108.324 Y86.727 E20.89366
G1 X108.324 Y87.471 E20.91583
G1 X98.471 Y97.324 E21.33084
G1 X99.216 Y97.324 E21.35301
G1 X108.324 Y88.216 E21.73667
G1 X108.324 Y88.960 E21.75884
G1 X99.960 Y97.324 E22.11115
G1 X100.704 Y97.324 E22.13332
G1 X108.324 Y89.704 E22.45427
G1 X108.324 Y90.449 E22.47644
G1 X101.449 Y97.324 E22.76605
G1 X102.193 Y97.324 E22.78822
G1 X108.324 Y91.193 E23.04647
G1 X108.324 Y91.937 E23.06864
G1 X102.937 Y97.324 E23.29555
G1 X103.682 Y97.324 E23.31771
G1 X108.324 Y92.682 E23.51327
G1 X108.324 Y93.426 E23.53544
G1 X104.426 Y97.324 E23.69964
G1 X105.170 Y97.324 E23.72181
G1 X108.324 Y94.170 E23.85466
G1 X108.324 Y94.915 E23.87683
G1 X105.915 Y97.324 E23.97833
G1 X106.659 Y97.324 E24.00050
G1 X108.324 Y95.659 E24.07065
G1 X108.324 Y96.403 E24.09281
G1 X107.403 Y97.324 E24.13161
G1 X108.147 Y97.324 E24.15378
G1 X108.324 Y97.147 E24.16123
G1 F1800.000 E23.16123
G1 Z1.800 F7800.000
G92 E0
G1 X108.701 Y97.701
G1 Z1.300
G1 F1800.000 E1.00000
G1 X91.299 Y97.701 F1068.469 E1.51171
G1 X91.299 Y80.299 E2.02341
G1 X108.701 Y80.299 E2.53512
G1 X108.701 Y97.623 E3.04453
G1 X109.221 Y98.221 F7800.000
G1 X90.779 Y98.221 F1068.469 E3.58680
G1 X90.779 Y79.779 E4.12907
G1 X109.221 Y79.779 E4.67133
G1 X109.221 Y98.143 E5.21131
G1 X109.740 Y98.740 F7800.000
G1 X90.260 Y98.740 F747.929 E5.78413
G1 X90.260 Y79.260 E6.35696
G1 X109.740 Y79.260 E6.92979
G1 X109.740 Y98.662 E7.50032
G1 X109.290 Y98.480 F7800.000
G1 X91.949 Y97.324
G1 X91.676 Y97.051 F2136.939 E7.51184
G1 X91.676 Y96.306 E7.53401
G1 X92.694 Y97.324 E7.57688
G1 X93.438 Y97.324 E7.59905
G1 X91.676 Y95.562 E7.67327
G1 X91.676 Y94.818 E7.69544
G1 X94.182 Y97.324 E7.80101
G1 X94.927 Y97.324 E7.82318
G1 X91.676 Y94.073 E7.96011
G1 X91.676 Y93.329 E7.98228
G1 X95.671 Y97.324 E8.15055
G1 X96.415 Y97.324 E8.17272
G1 X91.676 Y92.585 E8.37235
G1 X91.676 Y91.841 E8.39452
G1 X97.159 Y97.324 E8.62549
G1 X97.904 Y97.324 E8.64766
G1 X91.676 Y91.096 E8.90999
G1 X91.676 Y90.352 E8.93216
G1 X98.648 Y97.324 E9.22584
G1 X99.392 Y97.324 E9.24801
G1 X91.676 Y89.608 E9.57304
G1 X91.676 Y88.863 E9.59521
G1 X100.137 Y97.324 E9.95159
G1 X100.881 Y97.324 E9.97376
G1 X91.676 Y88.119 E10.36149
G1 X91.676 Y87.375 E10.38366
G1 X101.625 Y97.324 E10.80274
G1 X102.370 Y97.324 E10.82491
G1 X91.676 Y86.630 E11.27535
G1 X91.676 Y85.886 E11.29752
G1 X103.114 Y97.324 E11.77930
G1 X103.858 Y97.324 E11.80147
G1 X91.676 Y85.142 E12.31461
G1 X91.676 Y84.397 E12.33678
G1 X104.603 Y97.324 E12.88126
G1 X105.347 Y97.324 E12.90343
G1 X91.676 Y83.653 E13.47927
G1 X91.676 Y82.909 E13.50144
G1 X106.091 Y97.324 E14.10863
G1 X106.836 Y97.324 E14.13080
G1 X91.676 Y82.164 E14.76934
G1 X91.676 Y81.420 E14.79151
G1 X107.580 Y97.324 E15.46140
G1 X108.324 Y97.324 E15.48357
G1 X91.676 Y80.676 E16.18481
G1 X92.420 Y80.676 E16.20698
G1 X108.324 Y96.580 E16.87686
G1 X108.324 Y95.836 E16.89903
G1 X93.164 Y80.676 E17.53757
G1 X93.909 Y80.676 E17.55974
G1 X108.324 Y95.091 E18.16692
G1 X108.324 Y94.347 E18.18909
G1 X94.653 Y80.676 E18.76493
G1 X95.397 Y80.676 E18.78710
G1 X108.324 Y93.603 E19.33158
G1 X108.324 Y92.858 E19.35375
G1 X96.142 Y80.676 E19.86688
G1 X96.886 Y80.676 E19.88905
G1 X108.324 Y92.114 E20.37083
G1 X108.324 Y91.370 E20.39300
G1 X97.630 Y80.676 E20.84343
G1 X98.375 Y80.676 E20.86560
G1 X108.324 Y90.625 E21.28468
G1 X108.324 Y89.881 E21.30685
G1 X99.119 Y80.676 E21.69458
G1 X99.863 Y80.676 E21.71674
G1 X108.324 Y89.137 E22.07312
G1 X108.324 Y88.392 E22.09529
G1 X100.608 Y80.676 E22.42032
G1 X101.352 Y80.676 E22.44249
G1 X108.324 Y87.648 E22.73616
G1 X108.324 Y86.904 E22.75833
G1 X102.096 Y80.676 E23.02065
G1 X102.841 Y80.676 E23.04282
G1 X108.324 Y86.159 E23.27380
G1 X108.324 Y85.415 E23.29596
G1 X103.585 Y80.676 E23.49559
G1 X104.329 Y80.676 E23.51776
G1 X108.324 Y84.671 E23.68603
G1 X108.324 Y83.926 E23.70820
G1 X105.074 Y80.676 E23.84512
G1 X105.818 Y80.676 E23.86728
G1 X108.324 Y83.182 E23.97285
G1 X108.324 Y82.438 E23.99502
G1 X106.562 Y80.676 E24.06924
G1 X107.307 Y80.676 E24.09141
G1 X108.324 Y81.693 E24.13428
G1 X108.324 Y80.949 E24.15644
G1 X108.051 Y80.676 E24.16796
G1 F1800.000 E23.16796
G1 Z2.200 F7800.000
G92 E0
G1 X108.701 Y80.299
G1 Z1.700
G1 F1800.000 E1.00000
G1 X108.701 Y97.701 F786.334 E1.51171
G1 X91.299 Y97.701 E2.02341
G1 X91.299 Y80.299 E2.53512
G1 X108.623 Y80.299 E3.04453
G1 X109.221 Y79.779 F7800.000
G1 X109.221 Y98.221 F786.334 E3.58680
G1 X90.779 Y98.221 E4.12907
G1 X90.779 Y79.779 E4.67133
G1 X109.143 Y79.779 E5.21131
G1 X109.740 Y79.260 F7800.000
G1 X109.740 Y98.740 F600.000 E5.78413
G1 X90.260 Y98.740 E6.35696
G1 X90.260 Y79.260 E6.92979
G1 X109.662 Y79.260 E7.50032
G1 X109.480 Y79.710 F7800.000
G1 X106.540 Y80.676
G1 X107.423 Y81.559 F1572.668 E7.53706
G1 X108.293 Y81.326 E7.56353
G1 X108.324 Y81.358 E7.56484
G1 X108.324 Y84.008 E7.64276
G1 X108.096 Y84.069 E7.64971
G1 X106.823 Y82.796 E7.70264
G1 X107.056 Y81.927 E7.72911
G1 X105.805 Y80.676 E7.78113
G1 X105.701 Y80.676 F7800.000
G1 X104.914 Y80.887 F1572.668 E7.80510
G1 X104.703 Y80.676 E7.81387
G1 X103.968 Y80.676 F7800.000
G1 X104.546 Y81.254 F1572.668 E7.83793
G1 X104.313 Y82.124 E7.86439
G1 X105.586 Y83.396 E7.91733
G1 X106.455 Y83.164 E7.94379
G1 X107.728 Y84.436 E7.99672
G1 X107.495 Y85.306 E8.02319
G1 X108.324 Y86.135 E8.05766
G1 X108.324 Y86.869 E8.07927
G1 X107.128 Y85.673 E8.12902
G1 X106.259 Y85.906 E8.15548
G1 X104.986 Y84.633 E8.20841
G1 X105.219 Y83.764 E8.23488
G1 X103.946 Y82.491 E8.28781
G1 X103.076 Y82.724 E8.31428
G1 X101.804 Y81.451 E8.36721
G1 X102.011 Y80.676 E8.39081
G1 X99.321 Y80.676 F7800.000
G1 X99.294 Y80.779 F1572.668 E8.39394
G1 X100.567 Y82.052 E8.44688
G1 X101.436 Y81.819 E8.47334
G1 X102.709 Y83.091 E8.52627
G1 X102.476 Y83.961 E8.55274
G1 X103.749 Y85.234 E8.60567
G1 X104.618 Y85.001 E8.63214
G1 X105.891 Y86.274 E8.68507
G1 X105.658 Y87.143 E8.71153
G1 X106.931 Y88.416 E8.76447
G1 X107.800 Y88.183 E8.79093
G1 X108.324 Y88.707 E8.81272
G1 X108.324 Y90.732 E8.87228
G1 X107.603 Y90.925 E8.89422
G1 X106.331 Y89.653 E8.94715
G1 X106.564 Y88.783 E8.97362
G1 X105.291 Y87.510 E9.02655
G1 X104.421 Y87.743 E9.05302
G1 X103.148 Y86.470 E9.10595
G1 X103.381 Y85.601 E9.13241
G1 X102.109 Y84.328 E9.18535
G1 X101.239 Y84.561 E9.21181
G1 X99.966 Y83.288 E9.26474
G1 X100.199 Y82.419 E9.29121
G1 X98.926 Y81.146 E9.34414
G1 X98.057 Y81.379 E9.37061
G1 X97.354 Y80.676 E9.39985
G1 X96.619 Y80.676 F7800.000
G1 X97.690 Y81.747 F1572.668 E9.44438
G1 X97.457 Y82.616 E9.47084
G1 X98.730 Y83.889 E9.52378
G1 X99.599 Y83.656 E9.55024
G1 X100.872 Y84.929 E9.60317
G1 X100.639 Y85.798 E9.62964
G1 X101.912 Y87.071 E9.68257
G1 X102.781 Y86.838 E9.70904
G1 X104.054 Y88.111 E9.76197
G1 X103.821 Y88.980 E9.78843
G1 X105.094 Y90.253 E9.84136
G1 X105.963 Y90.020 E9.86783
G1 X107.236 Y91.293 E9.92076
G1 X107.003 Y92.162 E9.94723
G1 X108.276 Y93.435 E10.00016
G1 X108.324 Y93.422 E10.00163
G1 X108.324 Y95.321 E10.05745
G1 X107.675 Y94.672 E10.08443
G1 X107.908 Y93.802 E10.11090
G1 X106.636 Y92.530 E10.16383
G1 X105.766 Y92.763 E10.19029
G1 X104.493 Y91.490 E10.24323
G1 X104.726 Y90.620 E10.26969
G1 X103.453 Y89.348 E10.32262
G1 X102.584 Y89.580 E10.34909
G1 X101.311 Y88.308 E10.40202
G1 X101.544 Y87.438 E10.42849
G1 X100.271 Y86.165 E10.48142
G1 X99.402 Y86.398 E10.50788
G1 X98.129 Y85.126 E10.56082
G1 X98.362 Y84.256 E10.58728
G1 X97.089 Y82.983 E10.64021
G1 X96.220 Y83.216 E10.66668
G1 X94.947 Y81.943 E10.71961
G1 X95.180 Y81.074 E10.74608
G1 X94.782 Y80.676 E10.76264
G1 X95.517 Y80.676 E10.78425
G1 X95.547 Y80.707 E10.78553
G1 X95.662 Y80.676 E10.78903
G1 X92.597 Y80.676 F7800.000
G1 X92.437 Y81.271 F1572.668 E10.80715
G1 X93.710 Y82.544 E10.86008
G1 X94.580 Y82.311 E10.88654
G1 X95.852 Y83.584 E10.93948
G1 X95.620 Y84.453 E10.96594
G1 X96.892 Y85.726 E11.01887
G1 X97.762 Y85.493 E11.04534
G1 X99.035 Y86.766 E11.09827
G1 X98.802 Y87.635 E11.12474
G1 X100.074 Y88.908 E11.17767
G1 X100.944 Y88.675 E11.20413
G1 X102.217 Y89.948 E11.25706
G1 X101.984 Y90.817 E11.28353
G1 X103.257 Y92.090 E11.33646
G1 X104.126 Y91.857 E11.36293
G1 X105.399 Y93.130 E11.41586
G1 X105.166 Y93.999 E11.44233
G1 X106.439 Y95.272 E11.49526
G1 X107.308 Y95.039 E11.52172
G1 X108.324 Y96.055 E11.56398
G1 X108.324 Y97.324 E11.60129
G1 X106.653 Y97.324 E11.65042
G1 X105.838 Y96.509 E11.68432
G1 X106.071 Y95.640 E11.71078
G1 X104.798 Y94.367 E11.76371
G1 X103.929 Y94.600 E11.79018
G1 X102.656 Y93.327 E11.84311
G1 X102.889 Y92.458 E11.86958
G1 X101.616 Y91.185 E11.92251
G1 X100.747 Y91.418 E11.94897
G1 X99.474 Y90.145 E12.00190
G1 X99.707 Y89.275 E12.02837
G1 X98.434 Y88.003 E12.08130
G1 X97.565 Y88.236 E12.10777
G1 X96.292 Y86.963 E12.16070
G1 X96.525 Y86.093 E12.18717
G1 X95.252 Y84.821 E12.24010
G1 X94.383 Y85.053 E12.26656
G1 X93.110 Y83.781 E12.31949
G1 X93.343 Y82.911 E12.34596
G1 X92.070 Y81.638 E12.39889
G1 X91.676 Y81.744 E12.41089
G1 X91.676 Y80.676 E12.44230
G1 X92.742 Y84.148 F7800.000
G1 X94.015 Y85.421 F1572.668 E12.49523
G1 X93.782 Y86.290 E12.52170
G1 X95.055 Y87.563 E12.57463
G1 X95.925 Y87.330 E12.60110
G1 X97.197 Y88.603 E12.65403
G1 X96.964 Y89.472 E12.68050
G1 X98.237 Y90.745 E12.73343
G1 X99.107 Y90.512 E12.75989
G1 X100.380 Y91.785 E12.81282
G1 X100.147 Y92.654 E12.83929
G1 X101.419 Y93.927 E12.89222
G1 X102.289 Y93.694 E12.91869
G1 X103.562 Y94.967 E12.97162
G1 X103.329 Y95.837 E12.99808
G1 X104.601 Y97.109 E13.05102
G1 X105.471 Y96.876 E13.07748
G1 X105.919 Y97.324 E13.09610
G1 X104.081 Y97.324 E13.15012
G1 X102.961 Y96.204 E13.19671
G1 X102.092 Y96.437 E13.22317
G1 X100.819 Y95.164 E13.27611
G1 X101.052 Y94.295 E13.30257
G1 X99.779 Y93.022 E13.35550
G1 X98.910 Y93.255 E13.38197
G1 X97.637 Y91.982 E13.43490
G1 X97.870 Y91.113 E13.46137
G1 X96.597 Y89.840 E13.51430
G1 X95.728 Y90.073 E13.54076
G1 X94.455 Y88.800 E13.59370
G1 X94.688 Y87.931 E13.62016
G1 X93.415 Y86.658 E13.67309
G1 X92.546 Y86.891 E13.69956
G1 X91.676 Y86.021 E13.73573
G1 X91.676 Y84.184 E13.78975
