; generated by Slic3r 0.9.8-dev on 2013-01-20 at 14:02:39

; layer_height = 0.4
; perimeters = 3
; top_solid_layers = 3
; bottom_solid_layers = 3
; fill_density = 0.40
; perimeter_speed = 30
; infill_speed = 60
; travel_speed = 130
; scale = 1
; nozzle_diameter = 0.5
; filament_diameter = 3
; extrusion_multiplier = 1
; perimeters extrusion width = 0.53mm
; infill extrusion width = 0.53mm
; first layer extrusion width = 0.80mm

M190 S60 ; wait for bed temperature to be reached
M104 S175 ; set temperature
G28 ; home all axes
G92 E0 ;reset extruder
M109 S175 ; wait for temperature to be reached
G90 ; use absolute coordinates
G21 ; set units to millimeters
G92 E0 ; reset extrusion distance
M82 ; use absolute distances for extrusion
G1 F1800.000 E-1.00000 ; retract
G1 Z1.400 ; move to next layer (0) and lift
G92 E0 ; reset extrusion distance
G1 X18.600 Y52.360 F7800.000 ; move to first skirt point
G1 Z0.400 ; restore layer Z
G1 F1800.000 E1.00000 ; compensate retraction
G1 X18.830 Y51.870 F900.000 E1.02253 ; skirt
G1 X19.250 Y51.180 E1.05616 ; skirt
G1 X19.750 Y50.540 E1.08997 ; skirt
G1 X20.330 Y49.960 E1.12411 ; skirt
G1 X20.970 Y49.460 E1.15792 ; skirt
G1 X21.420 Y49.170 E1.18020 ; skirt
G1 X22.150 Y48.810 E1.21409 ; skirt
G1 X22.910 Y48.530 E1.24780 ; skirt
G1 X81.800 Y31.350 E3.80144 ; skirt
G1 X82.110 Y31.280 E3.81467 ; skirt
G1 X82.740 Y31.190 E3.84116 ; skirt
G1 X83.380 Y31.160 E3.86783 ; skirt
G1 X103.400 Y31.160 E4.70121 ; skirt
G1 X103.720 Y31.170 E4.71454 ; skirt
G1 X104.360 Y31.230 E4.74130 ; skirt
G1 X104.680 Y31.290 E4.75485 ; skirt
G1 X105.300 Y31.440 E4.78140 ; skirt
G1 X105.610 Y31.540 E4.79496 ; skirt
G1 X157.410 Y49.530 E7.07761 ; skirt
G1 X157.910 Y49.720 E7.09988 ; skirt
G1 X158.630 Y50.090 E7.13357 ; skirt
G1 X159.080 Y50.380 E7.15586 ; skirt
G1 X159.710 Y50.880 E7.18934 ; skirt
G1 X160.090 Y51.260 E7.21171 ; skirt
G1 X160.450 Y51.660 E7.23411 ; skirt
G1 X160.910 Y52.320 E7.26760 ; skirt
G1 X161.300 Y53.030 E7.30132 ; skirt
G1 X161.510 Y53.520 E7.32351 ; skirt
G1 X161.740 Y54.290 E7.35697 ; skirt
G1 X161.890 Y55.090 E7.39085 ; skirt
G1 X161.930 Y55.620 E7.41297 ; skirt
G1 X161.940 Y78.180 E8.35209 ; skirt
G1 X161.910 Y78.730 E8.37502 ; skirt
G1 X161.850 Y79.280 E8.39805 ; skirt
G1 X161.730 Y79.820 E8.42108 ; skirt
G1 X161.580 Y80.350 E8.44401 ; skirt
G1 X161.380 Y80.870 E8.46720 ; skirt
G1 X161.140 Y81.360 E8.48991 ; skirt
G1 X160.700 Y82.070 E8.52468 ; skirt
G1 X160.360 Y82.510 E8.54783 ; skirt
G1 X121.800 Y128.530 E11.04712 ; skirt
G1 X121.430 Y128.940 E11.07011 ; skirt
G1 X121.230 Y129.130 E11.08159 ; skirt
G1 X120.590 Y129.660 E11.11618 ; skirt
G1 X120.130 Y129.960 E11.13904 ; skirt
G1 X119.640 Y130.230 E11.16233 ; skirt
G1 X119.390 Y130.350 E11.17388 ; skirt
G1 X118.620 Y130.640 E11.20813 ; skirt
G1 X89.250 Y138.350 E12.47215 ; skirt
G1 X88.400 Y138.520 E12.50824 ; skirt
G1 X86.100 Y138.810 E12.60474 ; skirt
G1 X85.760 Y138.820 E12.61890 ; skirt
G1 X85.070 Y138.810 E12.64763 ; skirt
G1 X82.790 Y138.520 E12.74330 ; skirt
G1 X82.240 Y138.430 E12.76650 ; skirt
G1 X81.700 Y138.290 E12.78972 ; skirt
G1 X81.440 Y138.200 E12.80118 ; skirt
G1 X29.260 Y120.060 E15.10081 ; skirt
G1 X27.140 Y119.170 E15.19653 ; skirt
G1 X26.540 Y118.840 E15.22503 ; skirt
G1 X25.960 Y118.450 E15.25413 ; skirt
G1 X24.400 Y117.260 E15.33580 ; skirt
G1 X23.850 Y116.790 E15.36592 ; skirt
G1 X23.360 Y116.260 E15.39596 ; skirt
G1 X21.920 Y114.390 E15.49421 ; skirt
G1 X21.630 Y113.970 E15.51546 ; skirt
G1 X18.990 Y109.890 E15.71775 ; skirt
G1 X18.710 Y109.360 E15.74271 ; skirt
G1 X18.480 Y108.810 E15.76752 ; skirt
G1 X18.300 Y108.250 E15.79201 ; skirt
G1 X18.120 Y107.370 E15.82940 ; skirt
G1 X18.070 Y106.780 E15.85405 ; skirt
G1 X18.060 Y55.000 E18.00952 ; skirt
G1 X18.110 Y54.190 E18.04331 ; skirt
G1 X18.200 Y53.650 E18.06609 ; skirt
G1 X18.330 Y53.130 E18.08841 ; skirt
G1 X18.560 Y52.463 E18.11778 ; skirt
G1 X18.600 Y52.360 E18.12238 ; skirt
G1 F1800.000 E17.12238 ; retract
G1 Z1.400 ; move to next layer (0) and lift
G92 E0 ; reset extrusion distance
G1 X27.664 Y55.736 F7800.000 ; move to first perimeter point
G1 Z0.400 ; restore layer Z
G1 F1800.000 E1.00000 ; compensate retraction
G1 X27.664 Y106.674 F900.000 E3.12046 ; perimeter
G1 X27.864 Y108.191 E3.18411 ; perimeter
G1 X29.524 Y112.199 E3.36472 ; perimeter
G1 X29.416 Y112.256 E3.36980 ; perimeter
G1 X25.536 Y106.264 E3.66694 ; perimeter
G1 X25.536 Y55.736 E5.77033 ; perimeter
G1 X27.554 Y55.736 E5.85435 ; perimeter
G1 X27.664 Y55.736 E5.85895 ; perimeter
G1 F1800.000 E4.85895 ; retract
G1 Z1.400 ; lift plate during travel
G92 E0 ; reset extrusion distance
G1 X84.119 Y38.636 F7800.000 ; move to first perimeter point
G1 Z0.400 ; restore layer Z
G1 F1800.000 E1.00000 ; compensate retraction
G1 X102.664 Y38.636 F900.000 E1.77200 ; perimeter
G1 X102.664 Y40.564 E1.85229 ; perimeter
G1 X84.119 Y40.564 E2.62428 ; perimeter
G1 X84.119 Y38.746 E2.69998 ; perimeter
G1 X84.119 Y38.636 E2.70457 ; perimeter
G1 X83.383 Y37.900 F7800.000 ; move to first perimeter point
G1 X103.400 Y37.900 F900.000 E3.53781 ; perimeter
G1 X103.400 Y60.184 E4.46543 ; perimeter
G1 X28.400 Y57.184 E7.58999 ; perimeter
G1 X28.400 Y106.626 E9.64816 ; perimeter
G1 X28.581 Y107.999 E9.70578 ; perimeter
G1 X29.120 Y109.302 E9.76450 ; perimeter
G1 X29.979 Y110.421 E9.82322 ; perimeter
G1 X31.098 Y111.280 E9.88194 ; perimeter
G1 X32.401 Y111.819 E9.94066 ; perimeter
G1 X33.800 Y112.003 E9.99938 ; perimeter
G1 X35.199 Y111.819 E10.05809 ; perimeter
G1 X36.482 Y111.288 E10.11591 ; perimeter
G1 X54.232 Y100.462 E10.98138 ; perimeter
G1 X55.963 Y99.745 E11.05939 ; perimeter
G1 X57.800 Y99.503 E11.13651 ; perimeter
G1 X59.637 Y99.745 E11.21363 ; perimeter
G1 X61.348 Y100.454 E11.29075 ; perimeter
G1 X62.818 Y101.582 E11.36787 ; perimeter
G1 X63.946 Y103.052 E11.44499 ; perimeter
G1 X64.655 Y104.763 E11.52210 ; perimeter
G1 X64.844 Y106.200 E11.58243 ; perimeter
G1 X63.151 Y106.200 E11.65291 ; perimeter
G1 X63.019 Y105.201 E11.69483 ; perimeter
G1 X62.480 Y103.898 E11.75355 ; perimeter
G1 X61.621 Y102.779 E11.81227 ; perimeter
G1 X60.502 Y101.920 E11.87099 ; perimeter
G1 X59.199 Y101.381 E11.92971 ; perimeter
G1 X57.800 Y101.197 E11.98843 ; perimeter
G1 X56.401 Y101.381 E12.04715 ; perimeter
G1 X55.117 Y101.913 E12.10500 ; perimeter
G1 X39.325 Y111.636 E12.87701 ; perimeter
G1 X37.542 Y113.095 E12.97290 ; perimeter
G1 X35.740 Y113.841 E13.05410 ; perimeter
G1 X33.800 Y114.097 E13.13556 ; perimeter
G1 X31.860 Y113.841 E13.21703 ; perimeter
G1 X30.052 Y113.092 E13.29849 ; perimeter
G1 X28.499 Y111.901 E13.37996 ; perimeter
G1 X27.285 Y110.319 E13.46295 ; perimeter
G1 X24.800 Y106.482 E13.65327 ; perimeter
G1 X24.800 Y55.000 E15.79633 ; perimeter
G1 X28.792 Y55.000 E15.96249 ; perimeter
G1 X101.200 Y58.017 E18.97929 ; perimeter
G1 X101.200 Y41.300 E19.67518 ; perimeter
G1 X83.383 Y41.300 E20.41684 ; perimeter
G1 X83.383 Y38.010 E20.55378 ; perimeter
G1 X83.383 Y37.900 E20.55837 ; perimeter
G1 X84.020 Y38.268 F7800.000 ; move inwards before travel
G1 F1800.000 E19.55837 ; retract
G1 Z1.400 ; lift plate during travel
G92 E0 ; reset extrusion distance
G1 X30.957 Y112.627 F7800.000 ; move to first fill point
G1 Z0.400 ; restore layer Z
G1 F1800.000 E1.00000 ; compensate retraction
G1 X30.248 Y111.918 F600.000 E1.06401 ; fill
G1 X32.414 Y112.489 E1.20697 ; fill
G1 X33.286 Y113.361 E1.28566 ; fill
G1 X34.064 Y112.543 E1.35768 ; fill
G1 X34.897 Y113.377 E1.43293 ; fill
G1 X35.398 Y112.282 E1.50975 ; fill
G1 X36.214 Y113.099 E1.58346 ; fill
G1 X37.342 Y112.632 E1.66138 ; fill
G1 X36.526 Y111.816 E1.73503 ; fill
G1 X37.522 Y111.216 E1.80921 ; fill
G1 X38.231 Y111.925 E1.87322 ; fill
G1 F1800.000 E0.87322 ; retract
G1 Z1.400 ; lift plate during travel
G92 E0 ; reset extrusion distance
G1 X27.051 Y106.631 F7800.000 ; move to first fill point
G1 Z0.400 ; restore layer Z
G1 F1800.000 E1.00000 ; compensate retraction
G1 X26.341 Y105.921 F600.000 E1.06423 ; fill
G1 X27.051 Y105.032 E1.13704 ; fill
G1 X26.149 Y104.130 E1.21867 ; fill
G1 X27.052 Y103.433 E1.29163 ; fill
G1 X26.149 Y102.530 E1.37333 ; fill
G1 X27.051 Y101.834 E1.44628 ; fill
G1 X26.149 Y100.931 E1.52797 ; fill
G1 X27.051 Y100.235 E1.60093 ; fill
G1 X26.149 Y99.332 E1.68256 ; fill
G1 X27.051 Y98.635 E1.75550 ; fill
G1 X26.149 Y97.733 E1.83716 ; fill
G1 X27.051 Y97.036 E1.91011 ; fill
G1 X26.149 Y96.134 E1.99178 ; fill
G1 X27.051 Y95.437 E2.06473 ; fill
G1 X26.149 Y94.535 E2.14639 ; fill
G1 X27.051 Y93.838 E2.21934 ; fill
G1 X26.149 Y92.936 E2.30099 ; fill
G1 X27.051 Y92.239 E2.37394 ; fill
G1 X26.149 Y91.337 E2.45560 ; fill
G1 X27.051 Y90.640 E2.52855 ; fill
G1 X26.149 Y89.737 E2.61021 ; fill
G1 X27.051 Y89.041 E2.68316 ; fill
G1 X26.149 Y88.138 E2.76482 ; fill
G1 X27.051 Y87.442 E2.83777 ; fill
G1 X26.149 Y86.539 E2.91943 ; fill
G1 X27.051 Y85.842 E2.99238 ; fill
G1 X26.149 Y84.940 E3.07405 ; fill
G1 X27.051 Y84.243 E3.14700 ; fill
G1 X26.149 Y83.341 E3.22865 ; fill
G1 X27.051 Y82.644 E3.30160 ; fill
G1 X26.149 Y81.742 E3.38326 ; fill
G1 X27.051 Y81.045 E3.45621 ; fill
G1 X26.149 Y80.143 E3.53787 ; fill
G1 X27.051 Y79.446 E3.61082 ; fill
G1 X26.149 Y78.543 E3.69248 ; fill
G1 X27.051 Y77.847 E3.76543 ; fill
G1 X26.149 Y76.944 E3.84709 ; fill
G1 X27.051 Y76.248 E3.92004 ; fill
G1 X26.149 Y75.345 E4.00170 ; fill
G1 X27.051 Y74.649 E4.07465 ; fill
G1 X26.149 Y73.746 E4.15631 ; fill
G1 X27.051 Y73.049 E4.22927 ; fill
G1 X26.149 Y72.147 E4.31093 ; fill
G1 X27.051 Y71.450 E4.38387 ; fill
G1 X26.149 Y70.548 E4.46553 ; fill
G1 X27.051 Y69.851 E4.53848 ; fill
G1 X26.149 Y68.949 E4.62014 ; fill
G1 X27.051 Y68.252 E4.69309 ; fill
G1 X26.149 Y67.350 E4.77475 ; fill
G1 X27.051 Y66.653 E4.84770 ; fill
G1 X26.149 Y65.750 E4.92936 ; fill
G1 X27.051 Y65.054 E5.00231 ; fill
G1 X26.149 Y64.151 E5.08397 ; fill
G1 X27.051 Y63.455 E5.15692 ; fill
G1 X26.149 Y62.552 E5.23858 ; fill
G1 X27.051 Y61.855 E5.31154 ; fill
G1 X26.149 Y60.953 E5.39320 ; fill
G1 X27.051 Y60.256 E5.46614 ; fill
G1 X26.149 Y59.354 E5.54780 ; fill
G1 X27.051 Y58.657 E5.62075 ; fill
G1 X26.149 Y57.755 E5.70241 ; fill
G1 X27.051 Y57.058 E5.77536 ; fill
G1 X26.342 Y56.349 E5.83953 ; fill
G1 F1800.000 E4.83953 ; retract
G1 Z1.400 ; lift plate during travel
G92 E0 ; reset extrusion distance
G1 X41.682 Y109.735 F7800.000 ; move to first fill point
G1 Z0.400 ; restore layer Z
G1 F1800.000 E1.00000 ; compensate retraction
G1 X41.413 Y109.467 F600.000 E1.00923 ; fill
G1 X41.748 Y109.193 E1.01975 ; fill
G1 X42.058 Y109.503 E1.03042 ; fill
G1 X42.434 Y109.271 E1.04117 ; fill
G1 X42.082 Y108.920 E1.05328 ; fill
G1 X42.417 Y108.646 E1.06380 ; fill
G1 X42.685 Y108.914 E1.07303 ; fill
G1 X43.281 Y108.677 F7800.000 ; move to first fill point
G1 X42.813 Y108.208 F600.000 E1.10126 ; fill
G1 X43.313 Y107.644 E1.13335 ; fill
G1 X43.940 Y108.271 E1.17111 ; fill
G1 X44.599 Y107.866 E1.20404 ; fill
G1 X43.974 Y107.241 E1.24168 ; fill
G1 X44.635 Y106.838 E1.27464 ; fill
G1 X45.257 Y107.461 E1.31211 ; fill
G1 X45.916 Y107.055 E1.34504 ; fill
G1 X45.296 Y106.435 E1.38238 ; fill
G1 X45.956 Y106.032 E1.41533 ; fill
G1 X46.574 Y106.650 E1.45255 ; fill
G1 X47.233 Y106.244 E1.48547 ; fill
G1 X46.618 Y105.629 E1.52252 ; fill
G1 X47.278 Y105.226 E1.55547 ; fill
G1 X47.892 Y105.839 E1.59239 ; fill
G1 X48.549 Y105.433 E1.62530 ; fill
G1 X47.939 Y104.822 E1.66205 ; fill
G1 X48.601 Y104.420 E1.69502 ; fill
G1 X49.208 Y105.027 E1.73159 ; fill
G1 X49.867 Y104.622 E1.76452 ; fill
G1 X49.261 Y104.016 E1.80096 ; fill
G1 X49.922 Y103.613 E1.83392 ; fill
G1 X50.525 Y104.216 E1.87024 ; fill
G1 X51.184 Y103.811 E1.90316 ; fill
G1 X50.583 Y103.210 E1.93936 ; fill
G1 X51.244 Y102.807 E1.97232 ; fill
G1 X51.842 Y103.405 E2.00834 ; fill
G1 X52.501 Y103.000 E2.04127 ; fill
G1 X51.905 Y102.404 E2.07716 ; fill
G1 X52.565 Y102.001 E2.11012 ; fill
G1 X53.159 Y102.595 E2.14588 ; fill
G1 X53.818 Y102.189 E2.17881 ; fill
G1 X53.227 Y101.598 E2.21441 ; fill
G1 X53.887 Y101.195 E2.24736 ; fill
G1 X54.477 Y101.784 E2.28283 ; fill
G1 X55.154 Y101.397 E2.31604 ; fill
G1 X54.576 Y100.820 E2.35083 ; fill
G1 X55.329 Y100.508 E2.38550 ; fill
G1 X55.907 Y101.086 E2.42029 ; fill
G1 X56.715 Y100.830 E2.45637 ; fill
G1 X56.119 Y100.234 E2.49222 ; fill
G1 X57.059 Y100.110 E2.53259 ; fill
G1 X57.655 Y100.707 E2.56848 ; fill
G1 X58.131 Y100.118 E2.60069 ; fill
G1 X58.765 Y100.752 E2.63888 ; fill
G1 X59.431 Y100.354 E2.67191 ; fill
G1 X62.036 Y101.895 E2.80079 ; fill
G1 X64.046 Y104.969 E2.95716 ; fill
G1 F1800.000 E1.95716 ; retract
G1 Z1.400 ; lift plate during travel
G92 E0 ; reset extrusion distance
G1 X28.987 Y56.579 F7800.000 ; move to first fill point
G1 Z0.400 ; restore layer Z
G1 F1800.000 E1.00000 ; compensate retraction
G1 X28.278 Y55.870 F600.000 E1.06342 ; fill
G1 X29.653 Y55.665 E1.15134 ; fill
G1 X30.633 Y56.645 E1.23899 ; fill
G1 X31.302 Y55.733 E1.31047 ; fill
G1 X32.279 Y56.711 E1.39786 ; fill
G1 X32.951 Y55.802 E1.46931 ; fill
G1 X33.925 Y56.777 E1.55645 ; fill
G1 X34.599 Y55.871 E1.62785 ; fill
G1 X35.571 Y56.842 E1.71473 ; fill
G1 X36.248 Y55.939 E1.78611 ; fill
G1 X37.217 Y56.908 E1.87273 ; fill
G1 X37.897 Y56.008 E1.94406 ; fill
G1 X38.863 Y56.974 E2.03043 ; fill
G1 X39.546 Y56.077 E2.10173 ; fill
G1 X40.509 Y57.040 E2.18784 ; fill
G1 X41.195 Y56.146 E2.25911 ; fill
G1 X42.155 Y57.106 E2.34496 ; fill
G1 X42.844 Y56.214 E2.41620 ; fill
G1 X43.801 Y57.172 E2.50179 ; fill
G1 X44.493 Y56.283 E2.57299 ; fill
G1 X45.447 Y57.237 E2.65834 ; fill
G1 X46.142 Y56.352 E2.72951 ; fill
G1 X47.093 Y57.303 E2.81460 ; fill
G1 X47.791 Y56.420 E2.88573 ; fill
G1 X48.739 Y57.369 E2.97056 ; fill
G1 X49.440 Y56.489 E3.04167 ; fill
G1 X50.386 Y57.435 E3.12625 ; fill
G1 X51.089 Y56.558 E3.19733 ; fill
G1 X52.032 Y57.501 E3.28165 ; fill
G1 X52.738 Y56.627 E3.35270 ; fill
G1 X53.678 Y57.567 E3.43676 ; fill
G1 X54.387 Y56.695 E3.50779 ; fill
G1 X55.324 Y57.632 E3.59160 ; fill
G1 X56.036 Y56.764 E3.66260 ; fill
G1 X56.970 Y57.698 E3.74615 ; fill
G1 X57.684 Y56.833 E3.81712 ; fill
G1 X58.616 Y57.764 E3.90042 ; fill
G1 X59.333 Y56.901 E3.97137 ; fill
G1 X60.262 Y57.830 E4.05441 ; fill
G1 X60.982 Y56.970 E4.12534 ; fill
G1 X61.908 Y57.896 E4.20812 ; fill
G1 X62.631 Y57.039 E4.27903 ; fill
G1 X63.554 Y57.962 E4.36156 ; fill
G1 X64.280 Y57.107 E4.43245 ; fill
G1 X65.200 Y58.028 E4.51472 ; fill
G1 X65.929 Y57.176 E4.58559 ; fill
G1 X66.846 Y58.093 E4.66761 ; fill
G1 X67.578 Y57.245 E4.73845 ; fill
G1 X68.492 Y58.159 E4.82021 ; fill
G1 X69.227 Y57.314 E4.89104 ; fill
G1 X70.138 Y58.225 E4.97254 ; fill
G1 X70.876 Y57.382 E5.04335 ; fill
G1 X71.784 Y58.291 E5.12460 ; fill
G1 X72.525 Y57.451 E5.19540 ; fill
G1 X73.430 Y58.357 E5.27639 ; fill
G1 X74.174 Y57.520 E5.34717 ; fill
G1 X75.077 Y58.423 E5.42791 ; fill
G1 X75.823 Y57.588 E5.49867 ; fill
G1 X76.723 Y58.488 E5.57915 ; fill
G1 X77.471 Y57.657 E5.64990 ; fill
G1 X78.369 Y58.554 E5.73012 ; fill
G1 X79.120 Y57.726 E5.80086 ; fill
G1 X80.015 Y58.620 E5.88083 ; fill
G1 X80.769 Y57.795 E5.95156 ; fill
G1 X81.661 Y58.686 E6.03127 ; fill
G1 X82.418 Y57.863 E6.10198 ; fill
G1 X83.307 Y58.752 E6.18144 ; fill
G1 X84.067 Y57.932 E6.25214 ; fill
G1 X84.953 Y58.818 E6.33134 ; fill
G1 X85.716 Y58.001 E6.40204 ; fill
G1 X86.599 Y58.883 E6.48099 ; fill
G1 X87.365 Y58.069 E6.55167 ; fill
G1 X88.245 Y58.949 E6.63036 ; fill
G1 X89.014 Y58.138 E6.70104 ; fill
G1 X89.891 Y59.015 E6.77947 ; fill
G1 X90.663 Y58.207 E6.85015 ; fill
G1 X91.537 Y59.081 E6.92833 ; fill
G1 X92.312 Y58.275 E6.99900 ; fill
G1 X93.183 Y59.147 E7.07692 ; fill
G1 X93.961 Y58.344 E7.14758 ; fill
G1 X94.829 Y59.213 E7.22525 ; fill
G1 X95.610 Y58.413 E7.29591 ; fill
G1 X96.475 Y59.279 E7.37332 ; fill
G1 X97.259 Y58.482 E7.44397 ; fill
G1 X98.121 Y59.344 E7.52113 ; fill
G1 X98.908 Y58.550 E7.59180 ; fill
G1 X99.768 Y59.410 E7.66869 ; fill
G1 X100.556 Y58.619 E7.73932 ; fill
G1 X101.413 Y59.476 E7.81597 ; fill
G1 X101.813 Y58.295 E7.89481 ; fill
G1 X102.787 Y59.269 E7.98188 ; fill
G1 X102.787 Y57.689 E8.08178 ; fill
G1 X101.813 Y56.715 E8.16885 ; fill
G1 X102.787 Y56.109 E8.24136 ; fill
G1 X101.813 Y55.135 E8.32842 ; fill
G1 X102.787 Y54.528 E8.40099 ; fill
