; generated by Slic3r 0.9.8-dev on 2012-12-31 at 13:38:29

; layer_height = 0.4
; perimeters = 3
; top_solid_layers = 3
; bottom_solid_layers = 3
; fill_density = 0.40
; perimeter_speed = 30
; infill_speed = 60
; travel_speed = 130
; scale = 1
; nozzle_diameter = 0.5
; filament_diameter = 3
; extrusion_multiplier = 1
; perimeters extrusion width = 0.53mm
; infill extrusion width = 0.53mm
; first layer extrusion width = 0.80mm

M190 S60 ; wait for bed temperature to be reached
M104 S185 ; set temperature
G28                 ; home all axes
G92 E0 ;reset extruder
G1 E3 F1200 ;Prime extruder 3mm
G1 E2 F1200 ;retract extruder 1mm
G92 E0 ;reset extruder
M109 S185 ; wait for temperature to be reached
G90 ; use absolute coordinates
G21 ; set units to millimeters
G92 E0 ; reset extrusion distance
M82 ; use absolute distances for extrusion
G1 F1800.000 E-1.00000 ; retract
G1 Z1.400 ; move to next layer (0) and lift
G92 E0 ; reset extrusion distance
G1 X126.521 Y106.933 F7800.000 ; move to first skirt point
G1 Z0.400 ; restore layer Z
G1 F1800.000 E1.00000 ; compensate retraction
G1 X122.951 Y107.003 F540.000 E1.14864 ; skirt
G1 X76.951 Y106.763 E3.06353 ; skirt
G1 X73.471 Y106.703 E3.20842 ; skirt
G1 X70.281 Y106.543 E3.34138 ; skirt
G1 X66.641 Y106.233 E3.49345 ; skirt
G1 X63.491 Y105.853 E3.62553 ; skirt
G1 X62.421 Y105.633 E3.67100 ; skirt
G1 X61.451 Y105.293 E3.71379 ; skirt
G1 X60.721 Y104.933 E3.74767 ; skirt
G1 X60.201 Y104.603 E3.77331 ; skirt
G1 X59.701 Y104.233 E3.79920 ; skirt
G1 X59.471 Y104.033 E3.81189 ; skirt
G1 X59.181 Y103.743 E3.82896 ; skirt
G1 X58.511 Y102.963 E3.87176 ; skirt
G1 X58.221 Y102.563 E3.89233 ; skirt
G1 X58.051 Y102.293 E3.90561 ; skirt
G1 X57.751 Y101.743 E3.93169 ; skirt
G1 X57.511 Y101.163 E3.95782 ; skirt
G1 X57.251 Y100.343 E3.99363 ; skirt
G1 X57.111 Y99.673 E4.02212 ; skirt
G1 X57.071 Y99.333 E4.03637 ; skirt
G1 X57.031 Y98.533 E4.06972 ; skirt
G1 X57.561 Y78.153 E4.91837 ; skirt
G1 X57.591 Y77.593 E4.94172 ; skirt
G1 X57.681 Y77.033 E4.96533 ; skirt
G1 X57.871 Y76.253 E4.99875 ; skirt
G1 X58.061 Y75.673 E5.02415 ; skirt
G1 X58.311 Y75.113 E5.04968 ; skirt
G1 X58.711 Y74.383 E5.08433 ; skirt
G1 X59.081 Y73.853 E5.11124 ; skirt
G1 X59.491 Y73.363 E5.13784 ; skirt
G1 X59.951 Y72.913 E5.16462 ; skirt
G1 X60.351 Y72.573 E5.18648 ; skirt
G1 X60.931 Y72.153 E5.21629 ; skirt
G1 X61.541 Y71.803 E5.24556 ; skirt
G1 X61.861 Y71.643 E5.26046 ; skirt
G1 X62.251 Y71.483 E5.27800 ; skirt
G1 X62.851 Y71.283 E5.30433 ; skirt
G1 X63.471 Y71.143 E5.33079 ; skirt
G1 X64.001 Y71.063 E5.35310 ; skirt
G1 X64.911 Y70.993 E5.39110 ; skirt
G1 X88.141 Y70.993 E6.35810 ; skirt
G1 X135.261 Y71.233 E8.31962 ; skirt
G1 X135.921 Y71.273 E8.34714 ; skirt
G1 X136.251 Y71.323 E8.36104 ; skirt
G1 X136.901 Y71.453 E8.38863 ; skirt
G1 X137.221 Y71.543 E8.40247 ; skirt
G1 X138.011 Y71.843 E8.43765 ; skirt
G1 X138.581 Y72.113 E8.46390 ; skirt
G1 X138.861 Y72.273 E8.47733 ; skirt
G1 X139.131 Y72.443 E8.49061 ; skirt
G1 X139.641 Y72.813 E8.51684 ; skirt
G1 X140.291 Y73.383 E8.55282 ; skirt
G1 X140.731 Y73.873 E8.58024 ; skirt
G1 X141.191 Y74.473 E8.61171 ; skirt
G1 X141.531 Y75.033 E8.63898 ; skirt
G1 X141.681 Y75.323 E8.65257 ; skirt
G1 X141.931 Y75.923 E8.67963 ; skirt
G1 X142.101 Y76.403 E8.70083 ; skirt
G1 X142.261 Y76.983 E8.72588 ; skirt
G1 X142.361 Y77.583 E8.75120 ; skirt
G1 X142.421 Y78.383 E8.78459 ; skirt
G1 X142.961 Y98.763 E9.63326 ; skirt
G1 X142.951 Y99.213 E9.65200 ; skirt
G1 X142.881 Y99.903 E9.68087 ; skirt
G1 X142.741 Y100.573 E9.70936 ; skirt
G1 X142.581 Y101.093 E9.73201 ; skirt
G1 X142.351 Y101.713 E9.75953 ; skirt
G1 X142.061 Y102.313 E9.78728 ; skirt
G1 X141.601 Y103.043 E9.82319 ; skirt
G1 X141.421 Y103.293 E9.83602 ; skirt
G1 X141.021 Y103.773 E9.86203 ; skirt
G1 X140.801 Y104.003 E9.87528 ; skirt
G1 X140.341 Y104.423 E9.90121 ; skirt
G1 X140.011 Y104.673 E9.91844 ; skirt
G1 X139.121 Y105.233 E9.96221 ; skirt
G1 X138.641 Y105.483 E9.98474 ; skirt
G1 X138.331 Y105.613 E9.99873 ; skirt
G1 X137.681 Y105.843 E10.02744 ; skirt
G1 X136.891 Y106.023 E10.06116 ; skirt
G1 X133.351 Y106.463 E10.20966 ; skirt
G1 X129.701 Y106.773 E10.36215 ; skirt
G1 X126.631 Y106.928 E10.49010 ; skirt
G1 X126.521 Y106.933 E10.49469 ; skirt
G1 F1800.000 E9.49469 ; retract
G1 Z1.400 ; move to next layer (0) and lift
G92 E0 ; reset extrusion distance
G1 X109.814 Y97.858 F7800.000 ; move to first perimeter point
G1 Z0.400 ; restore layer Z
G1 F1800.000 E1.00000 ; compensate retraction
G1 X109.834 Y97.538 F540.000 E1.01334 ; perimeter
G1 X120.127 Y97.538 E1.44183 ; perimeter
G1 X121.294 Y97.220 E1.49219 ; perimeter
G1 X122.140 Y97.084 E1.52784 ; perimeter
G1 X122.999 Y97.040 E1.56365 ; perimeter
G1 X123.860 Y97.084 E1.59954 ; perimeter
G1 X124.706 Y97.220 E1.63519 ; perimeter
G1 X125.873 Y97.538 E1.68555 ; perimeter
G1 X136.166 Y97.538 E2.11404 ; perimeter
G1 X136.186 Y97.858 E2.12738 ; perimeter
G1 X132.396 Y98.313 E2.28627 ; perimeter
G1 X129.270 Y98.580 E2.41688 ; perimeter
G1 X126.137 Y98.740 E2.54747 ; perimeter
G1 X122.999 Y98.795 E2.67810 ; perimeter
G1 X119.863 Y98.740 E2.80865 ; perimeter
G1 X116.728 Y98.580 E2.93932 ; perimeter
G1 X113.604 Y98.313 E3.06985 ; perimeter
G1 X109.924 Y97.871 E3.22415 ; perimeter
G1 X109.814 Y97.858 E3.22874 ; perimeter
G1 X110.509 Y98.682 F7800.000 ; move to first perimeter point
G1 X111.033 Y78.702 F540.000 E4.06074 ; perimeter
G1 X111.763 Y78.702 E4.09115 ; perimeter
G1 X111.763 Y81.998 E4.22835 ; perimeter
G1 X112.898 Y87.331 E4.45532 ; perimeter
G1 X111.763 Y87.331 E4.50256 ; perimeter
G1 X111.763 Y96.802 E4.89683 ; perimeter
G1 X120.029 Y96.802 E5.24089 ; perimeter
G1 X121.139 Y96.500 E5.28879 ; perimeter
G1 X122.063 Y96.352 E5.32773 ; perimeter
G1 X122.999 Y96.304 E5.36676 ; perimeter
G1 X123.937 Y96.352 E5.40588 ; perimeter
G1 X124.861 Y96.500 E5.44482 ; perimeter
G1 X125.971 Y96.802 E5.49272 ; perimeter
G1 X134.235 Y96.802 E5.83670 ; perimeter
G1 X134.235 Y87.331 E6.23096 ; perimeter
G1 X133.102 Y87.331 E6.27813 ; perimeter
G1 X134.235 Y81.998 E6.50509 ; perimeter
G1 X134.235 Y78.702 E6.64228 ; perimeter
G1 X134.967 Y78.702 E6.67278 ; perimeter
G1 X135.491 Y98.682 E7.50477 ; perimeter
G1 X132.471 Y99.045 E7.63137 ; perimeter
G1 X129.320 Y99.314 E7.76303 ; perimeter
G1 X126.162 Y99.476 E7.89465 ; perimeter
G1 X122.999 Y99.531 E8.02634 ; perimeter
G1 X119.838 Y99.476 E8.15794 ; perimeter
G1 X116.678 Y99.314 E8.28964 ; perimeter
G1 X113.529 Y99.045 E8.42122 ; perimeter
G1 X110.619 Y98.695 E8.54323 ; perimeter
G1 X110.509 Y98.682 E8.54782 ; perimeter
G1 X110.344 Y99.403 F7800.000 ; move to first perimeter point
G1 X110.105 Y99.338 F540.000 E8.55817 ; perimeter
G1 X109.945 Y99.224 E8.56632 ; perimeter
G1 X109.883 Y99.151 E8.57030 ; perimeter
G1 X109.798 Y98.976 E8.57839 ; perimeter
G1 X109.771 Y98.770 E8.58704 ; perimeter
G1 X110.300 Y78.565 E9.42841 ; perimeter
G1 X110.341 Y78.350 E9.43750 ; perimeter
G1 X110.446 Y78.176 E9.44599 ; perimeter
G1 X110.522 Y78.102 E9.45040 ; perimeter
G1 X110.605 Y78.044 E9.45461 ; perimeter
G1 X110.797 Y77.976 E9.46308 ; perimeter
G1 X111.995 Y77.975 E9.51296 ; perimeter
G1 X112.171 Y78.032 E9.52063 ; perimeter
G1 X112.323 Y78.142 E9.52847 ; perimeter
G1 X112.384 Y78.214 E9.53238 ; perimeter
G1 X112.469 Y78.380 E9.54017 ; perimeter
G1 X112.499 Y78.580 E9.54857 ; perimeter
G1 X112.499 Y81.921 E9.68763 ; perimeter
G1 X113.700 Y87.565 E9.92786 ; perimeter
G1 X113.758 Y88.024 E9.94709 ; perimeter
G1 X113.293 Y88.067 E9.96653 ; perimeter
G1 X112.499 Y88.067 E9.99956 ; perimeter
G1 X112.499 Y96.067 E10.33259 ; perimeter
G1 X119.930 Y96.067 E10.64194 ; perimeter
G1 X120.984 Y95.780 E10.68737 ; perimeter
G1 X121.985 Y95.619 E10.72960 ; perimeter
G1 X122.999 Y95.567 E10.77186 ; perimeter
G1 X124.015 Y95.619 E10.81420 ; perimeter
G1 X125.016 Y95.780 E10.85643 ; perimeter
G1 X126.070 Y96.067 E10.90186 ; perimeter
G1 X133.499 Y96.067 E11.21113 ; perimeter
G1 X133.499 Y88.067 E11.54415 ; perimeter
G1 X132.706 Y88.067 E11.57718 ; perimeter
G1 X132.243 Y88.023 E11.59654 ; perimeter
G1 X132.300 Y87.565 E11.61576 ; perimeter
G1 X133.499 Y81.921 E11.85597 ; perimeter
G1 X133.499 Y78.583 E11.99492 ; perimeter
G1 X133.531 Y78.380 E12.00344 ; perimeter
G1 X133.616 Y78.214 E12.01122 ; perimeter
G1 X133.677 Y78.142 E12.01513 ; perimeter
G1 X133.828 Y78.032 E12.02292 ; perimeter
G1 X133.914 Y77.997 E12.02680 ; perimeter
G1 X134.114 Y77.967 E12.03523 ; perimeter
G1 X135.203 Y77.976 E12.08055 ; perimeter
G1 X135.395 Y78.044 E12.08901 ; perimeter
G1 X135.554 Y78.176 E12.09761 ; perimeter
G1 X135.659 Y78.350 E12.10610 ; perimeter
G1 X135.700 Y78.565 E12.11519 ; perimeter
G1 X136.229 Y98.770 E12.95656 ; perimeter
G1 X136.202 Y98.976 E12.96521 ; perimeter
G1 X136.166 Y99.068 E12.96932 ; perimeter
G1 X136.053 Y99.225 E12.97736 ; perimeter
G1 X135.895 Y99.338 E12.98543 ; perimeter
G1 X135.699 Y99.398 E12.99400 ; perimeter
G1 X132.546 Y99.777 E13.12617 ; perimeter
G1 X129.370 Y100.048 E13.25888 ; perimeter
G1 X126.187 Y100.211 E13.39153 ; perimeter
G1 X122.999 Y100.267 E13.52427 ; perimeter
G1 X119.813 Y100.211 E13.65693 ; perimeter
G1 X116.628 Y100.048 E13.78966 ; perimeter
G1 X113.454 Y99.777 E13.92228 ; perimeter
G1 X110.454 Y99.416 E14.04806 ; perimeter
G1 X110.344 Y99.403 E14.05266 ; perimeter
G1 X110.123 Y98.702 F7800.000 ; move inwards before travel
G1 F1800.000 E13.05266 ; retract
G1 Z1.400 ; lift plate during travel
G92 E0 ; reset extrusion distance
G1 X90.186 Y97.624 F7800.000 ; move to first perimeter point
G1 Z0.400 ; restore layer Z
G1 F1800.000 E1.00000 ; compensate retraction
G1 X86.396 Y98.080 F540.000 E1.15889 ; perimeter
G1 X83.270 Y98.346 E1.28951 ; perimeter
G1 X80.137 Y98.507 E1.42009 ; perimeter
G1 X76.999 Y98.562 E1.55072 ; perimeter
G1 X73.863 Y98.507 E1.68128 ; perimeter
G1 X70.728 Y98.346 E1.81194 ; perimeter
G1 X67.604 Y98.080 E1.94247 ; perimeter
G1 X63.814 Y97.624 E2.10137 ; perimeter
G1 X63.834 Y97.305 E2.11470 ; perimeter
G1 X74.127 Y97.305 E2.54319 ; perimeter
G1 X75.294 Y96.987 E2.59355 ; perimeter
G1 X76.140 Y96.851 E2.62921 ; perimeter
G1 X76.999 Y96.807 E2.66502 ; perimeter
G1 X77.860 Y96.851 E2.70090 ; perimeter
G1 X78.706 Y96.987 E2.73656 ; perimeter
G1 X79.873 Y97.305 E2.78692 ; perimeter
G1 X90.166 Y97.305 E3.21541 ; perimeter
G1 X90.179 Y97.514 E3.22415 ; perimeter
G1 X90.186 Y97.624 E3.22874 ; perimeter
G1 X89.491 Y98.449 F7800.000 ; move to first perimeter point
G1 X86.471 Y98.811 F540.000 E3.35534 ; perimeter
G1 X83.320 Y99.080 E3.48700 ; perimeter
G1 X80.162 Y99.242 E3.61862 ; perimeter
G1 X76.999 Y99.298 E3.75031 ; perimeter
G1 X73.838 Y99.242 E3.88191 ; perimeter
G1 X70.678 Y99.080 E4.01362 ; perimeter
G1 X67.529 Y98.811 E4.14519 ; perimeter
G1 X64.509 Y98.449 E4.27179 ; perimeter
G1 X65.033 Y78.469 E5.10379 ; perimeter
G1 X65.763 Y78.469 E5.13420 ; perimeter
G1 X65.763 Y81.765 E5.27140 ; perimeter
G1 X66.898 Y87.098 E5.49837 ; perimeter
G1 X65.763 Y87.098 E5.54561 ; perimeter
G1 X65.763 Y96.569 E5.93988 ; perimeter
G1 X74.029 Y96.569 E6.28394 ; perimeter
G1 X75.139 Y96.267 E6.33184 ; perimeter
G1 X76.063 Y96.118 E6.37078 ; perimeter
G1 X76.999 Y96.070 E6.40982 ; perimeter
G1 X77.937 Y96.118 E6.44893 ; perimeter
G1 X78.861 Y96.267 E6.48787 ; perimeter
G1 X79.971 Y96.569 E6.53577 ; perimeter
G1 X88.235 Y96.569 E6.87975 ; perimeter
G1 X88.235 Y87.098 E7.27401 ; perimeter
G1 X87.102 Y87.098 E7.32118 ; perimeter
G1 X88.235 Y81.765 E7.54814 ; perimeter
G1 X88.235 Y78.469 E7.68533 ; perimeter
G1 X88.967 Y78.469 E7.71583 ; perimeter
G1 X89.488 Y98.338 E8.54323 ; perimeter
G1 X89.491 Y98.449 E8.54782 ; perimeter
G1 X90.229 Y98.537 F7800.000 ; move to first perimeter point
G1 X90.202 Y98.743 F540.000 E8.55647 ; perimeter
G1 X90.115 Y98.917 E8.56459 ; perimeter
G1 X89.979 Y99.053 E8.57259 ; perimeter
G1 X89.806 Y99.140 E8.58068 ; perimeter
G1 X86.546 Y99.543 E8.71739 ; perimeter
G1 X83.370 Y99.814 E8.85010 ; perimeter
G1 X80.187 Y99.978 E8.98275 ; perimeter
G1 X76.999 Y100.033 E9.11549 ; perimeter
G1 X73.813 Y99.978 E9.24815 ; perimeter
G1 X70.628 Y99.814 E9.38088 ; perimeter
G1 X67.454 Y99.543 E9.51350 ; perimeter
G1 X64.194 Y99.140 E9.65022 ; perimeter
G1 X64.021 Y99.053 E9.65830 ; perimeter
G1 X63.883 Y98.917 E9.66635 ; perimeter
G1 X63.798 Y98.743 E9.67444 ; perimeter
G1 X63.771 Y98.537 E9.68309 ; perimeter
G1 X64.300 Y78.332 E10.52447 ; perimeter
G1 X64.341 Y78.117 E10.53356 ; perimeter
G1 X64.446 Y77.942 E10.54205 ; perimeter
G1 X64.605 Y77.811 E10.55064 ; perimeter
G1 X64.697 Y77.770 E10.55482 ; perimeter
G1 X64.915 Y77.733 E10.56404 ; perimeter
G1 X65.884 Y77.733 E10.60435 ; perimeter
G1 X66.085 Y77.763 E10.61282 ; perimeter
G1 X66.252 Y77.848 E10.62061 ; perimeter
G1 X66.323 Y77.909 E10.62452 ; perimeter
G1 X66.384 Y77.981 E10.62843 ; perimeter
G1 X66.469 Y78.147 E10.63621 ; perimeter
G1 X66.499 Y78.347 E10.64461 ; perimeter
G1 X66.499 Y81.687 E10.78368 ; perimeter
G1 X67.700 Y87.332 E11.02390 ; perimeter
G1 X67.758 Y87.790 E11.04314 ; perimeter
G1 X67.293 Y87.833 E11.06258 ; perimeter
G1 X66.499 Y87.833 E11.09561 ; perimeter
G1 X66.499 Y95.833 E11.42863 ; perimeter
G1 X73.930 Y95.833 E11.73798 ; perimeter
G1 X74.984 Y95.547 E11.78341 ; perimeter
G1 X75.985 Y95.386 E11.82564 ; perimeter
G1 X76.999 Y95.334 E11.86791 ; perimeter
G1 X78.015 Y95.386 E11.91025 ; perimeter
G1 X79.016 Y95.547 E11.95248 ; perimeter
G1 X80.070 Y95.833 E11.99791 ; perimeter
G1 X87.499 Y95.833 E12.30718 ; perimeter
G1 X87.499 Y87.833 E12.64020 ; perimeter
G1 X86.706 Y87.833 E12.67322 ; perimeter
G1 X86.243 Y87.790 E12.69259 ; perimeter
G1 X86.300 Y87.332 E12.71180 ; perimeter
G1 X87.499 Y81.687 E12.95201 ; perimeter
G1 X87.499 Y78.349 E13.09097 ; perimeter
G1 X87.531 Y78.147 E13.09949 ; perimeter
G1 X87.616 Y77.981 E13.10727 ; perimeter
G1 X87.677 Y77.909 E13.11118 ; perimeter
G1 X87.828 Y77.799 E13.11897 ; perimeter
G1 X88.005 Y77.742 E13.12671 ; perimeter
G1 X89.203 Y77.743 E13.17659 ; perimeter
G1 X89.395 Y77.811 E13.18505 ; perimeter
G1 X89.478 Y77.869 E13.18926 ; perimeter
G1 X89.554 Y77.942 E13.19367 ; perimeter
G1 X89.659 Y78.117 E13.20216 ; perimeter
G1 X89.700 Y78.332 E13.21125 ; perimeter
G1 X90.226 Y98.426 E14.04803 ; perimeter
G1 X90.229 Y98.537 E14.05262 ; perimeter
G1 X89.565 Y98.854 F7800.000 ; move inwards before travel
G1 F1800.000 E13.05262 ; retract
G1 Z1.400 ; lift plate during travel
G92 E0 ; reset extrusion distance
G1 X121.593 Y98.232 F7800.000 ; move to first fill point
G1 Z0.400 ; restore layer Z
G1 F1800.000 E1.00000 ; compensate retraction
G1 X121.125 Y97.764 F360.000 E1.02899 ; fill
G1 X122.065 Y97.611 E1.07068 ; fill
G1 X122.706 Y98.252 E1.11039 ; fill
G1 X123.143 Y97.594 E1.14496 ; fill
G1 X123.800 Y98.251 E1.18565 ; fill
G1 X124.407 Y97.764 E1.21974 ; fill
G1 X124.875 Y98.232 E1.24873 ; fill
G1 F1800.000 E0.24873 ; retract
G1 Z1.400 ; lift plate during travel
G92 E0 ; reset extrusion distance
G1 X118.711 Y98.240 F7800.000 ; move to first fill point
G1 Z0.400 ; restore layer Z
G1 F1800.000 E1.00000 ; compensate retraction
G1 X118.443 Y97.971 F360.000 E1.00905 ; fill
G1 F1800.000 E0.00905 ; retract
G1 Z1.400 ; lift plate during travel
G92 E0 ; reset extrusion distance
G1 X111.257 Y97.104 F7800.000 ; move to first fill point
G1 Z0.400 ; restore layer Z
G1 F1800.000 E1.00000 ; compensate retraction
G1 X110.988 Y96.836 F360.000 E1.01091 ; fill
G1 X111.330 Y96.460 E1.02551 ; fill
G1 X111.006 Y96.136 E1.03865 ; fill
G1 X111.330 Y95.742 E1.05330 ; fill
G1 X111.025 Y95.437 E1.06570 ; fill
G1 X111.330 Y95.024 E1.08045 ; fill
G1 X111.043 Y94.737 E1.09210 ; fill
G1 X111.330 Y94.306 E1.10698 ; fill
G1 X111.061 Y94.037 E1.11788 ; fill
G1 F1800.000 E0.11788 ; retract
G1 Z1.400 ; lift plate during travel
G92 E0 ; reset extrusion distance
G1 X111.829 Y86.797 F7800.000 ; move to first fill point
G1 Z0.400 ; restore layer Z
G1 F1800.000 E1.00000 ; compensate retraction
G1 X111.361 Y86.329 F360.000 E1.04039 ; fill
G1 X111.868 Y85.312 E1.10969 ; fill
G1 X111.400 Y84.844 E1.15008 ; fill
G1 F1800.000 E0.15008 ; retract
G1 Z1.400 ; lift plate during travel
G92 E0 ; reset extrusion distance
