; generated by Slic3r 0.9.8-dev on 2013-01-12 at 18:24:06

; layer_height = 0.4
; perimeters = 3
; top_solid_layers = 3
; bottom_solid_layers = 3
; fill_density = 0.40
; perimeter_speed = 30
; infill_speed = 60
; travel_speed = 130
; scale = 1
; nozzle_diameter = 0.5
; filament_diameter = 3
; extrusion_multiplier = 1
; perimeters extrusion width = 0.53mm
; infill extrusion width = 0.53mm
; first layer extrusion width = 0.80mm

M190 S60 ; wait for bed temperature to be reached
M104 S175 ; set temperature
G28 ; home all axes
G92 E0 ;reset extruder
M109 S175 ; wait for temperature to be reached
G90 ; use absolute coordinates
G21 ; set units to millimeters
G92 E0 ; reset extrusion distance
M82 ; use absolute distances for extrusion
G1 F1800.000 E-1.00000 ; retract
G1 Z1.400 ; move to next layer (0) and lift
G92 E0 ; reset extrusion distance
G1 X134.989 Y120.205 F7800.000 ; move to first skirt point
G1 Z0.400 ; restore layer Z
G1 F1800.000 E1.00000 ; compensate retraction
G1 X134.089 Y120.775 F900.000 E1.04435 ; skirt
G1 X133.619 Y121.015 E1.06631 ; skirt
G1 X133.339 Y121.135 E1.07900 ; skirt
G1 X132.469 Y121.435 E1.11730 ; skirt
G1 X132.169 Y121.505 E1.13013 ; skirt
G1 X131.449 Y121.625 E1.16051 ; skirt
G1 X128.139 Y122.025 E1.29930 ; skirt
G1 X124.359 Y122.345 E1.45722 ; skirt
G1 X121.009 Y122.525 E1.59687 ; skirt
G1 X117.309 Y122.585 E1.75091 ; skirt
G1 X82.679 Y122.585 E3.19248 ; skirt
G1 X78.979 Y122.525 E3.34652 ; skirt
G1 X75.629 Y122.345 E3.48617 ; skirt
G1 X71.849 Y122.025 E3.64409 ; skirt
G1 X68.539 Y121.625 E3.78288 ; skirt
G1 X67.799 Y121.495 E3.81415 ; skirt
G1 X67.159 Y121.325 E3.84172 ; skirt
G1 X66.549 Y121.095 E3.86885 ; skirt
G1 X66.249 Y120.955 E3.88264 ; skirt
G1 X65.779 Y120.705 E3.90480 ; skirt
G1 X64.909 Y120.135 E3.94809 ; skirt
G1 X64.279 Y119.595 E3.98263 ; skirt
G1 X63.789 Y119.065 E4.01268 ; skirt
G1 X63.269 Y118.375 E4.04865 ; skirt
G1 X62.949 Y117.855 E4.07406 ; skirt
G1 X62.679 Y117.305 E4.09957 ; skirt
G1 X62.449 Y116.725 E4.12554 ; skirt
G1 X62.219 Y115.925 E4.16019 ; skirt
G1 X62.109 Y115.305 E4.18641 ; skirt
G1 X62.049 Y114.685 E4.21234 ; skirt
G1 X62.039 Y84.005 E5.48947 ; skirt
G1 X62.599 Y62.615 E6.38019 ; skirt
G1 X62.689 Y61.635 E6.42115 ; skirt
G1 X62.859 Y60.825 E6.45561 ; skirt
G1 X63.029 Y60.275 E6.47957 ; skirt
G1 X63.259 Y59.725 E6.50439 ; skirt
G1 X63.519 Y59.205 E6.52859 ; skirt
G1 X63.959 Y58.515 E6.56265 ; skirt
G1 X64.539 Y57.795 E6.60114 ; skirt
G1 X64.979 Y57.365 E6.62675 ; skirt
G1 X65.619 Y56.835 E6.66134 ; skirt
G1 X66.119 Y56.495 E6.68651 ; skirt
G1 X66.379 Y56.345 E6.69901 ; skirt
G1 X67.039 Y56.015 E6.72972 ; skirt
G1 X67.649 Y55.775 E6.75701 ; skirt
G1 X68.599 Y55.535 E6.79780 ; skirt
G1 X69.159 Y55.465 E6.82129 ; skirt
G1 X69.999 Y55.405 E6.85635 ; skirt
G1 X129.039 Y55.405 E9.31404 ; skirt
G1 X130.479 Y55.425 E9.37399 ; skirt
G1 X131.079 Y55.485 E9.39909 ; skirt
G1 X131.379 Y55.535 E9.41175 ; skirt
G1 X131.959 Y55.675 E9.43659 ; skirt
G1 X132.249 Y55.765 E9.44923 ; skirt
G1 X132.749 Y55.935 E9.47121 ; skirt
G1 X133.039 Y56.055 E9.48428 ; skirt
G1 X133.319 Y56.185 E9.49713 ; skirt
G1 X133.859 Y56.485 E9.52284 ; skirt
G1 X134.369 Y56.835 E9.54859 ; skirt
G1 X135.009 Y57.355 E9.58292 ; skirt
G1 X135.429 Y57.775 E9.60764 ; skirt
G1 X135.889 Y58.315 E9.63717 ; skirt
G1 X136.249 Y58.835 E9.66350 ; skirt
G1 X136.699 Y59.665 E9.70280 ; skirt
G1 X137.019 Y60.475 E9.73906 ; skirt
G1 X137.209 Y61.125 E9.76725 ; skirt
G1 X137.279 Y61.465 E9.78170 ; skirt
G1 X137.369 Y62.135 E9.80984 ; skirt
G1 X137.959 Y84.005 E10.72056 ; skirt
G1 X137.959 Y114.255 E11.97980 ; skirt
G1 X137.899 Y115.195 E12.01901 ; skirt
G1 X137.749 Y115.975 E12.05207 ; skirt
G1 X137.529 Y116.745 E12.08541 ; skirt
G1 X137.289 Y117.345 E12.11231 ; skirt
G1 X136.999 Y117.925 E12.13930 ; skirt
G1 X136.649 Y118.465 E12.16609 ; skirt
G1 X136.349 Y118.885 E12.18757 ; skirt
G1 X136.159 Y119.115 E12.19999 ; skirt
G1 X135.539 Y119.765 E12.23739 ; skirt
G1 X135.077 Y120.139 E12.26211 ; skirt
G1 X134.989 Y120.205 E12.26671 ; skirt
G1 F1800.000 E11.26671 ; retract
G1 Z1.400 ; move to next layer (0) and lift
G92 E0 ; reset extrusion distance
G1 X104.890 Y113.571 F7800.000 ; move to first perimeter point
G1 Z0.400 ; restore layer Z
G1 F1800.000 E1.00000 ; compensate retraction
G1 X104.908 Y112.876 F900.000 E1.02893 ; perimeter
G1 X114.281 Y112.876 E1.41910 ; perimeter
G1 X115.500 Y112.545 E1.47167 ; perimeter
G1 X116.398 Y112.400 E1.50952 ; perimeter
G1 X117.309 Y112.354 E1.54753 ; perimeter
G1 X118.223 Y112.400 E1.58562 ; perimeter
G1 X119.121 Y112.545 E1.62348 ; perimeter
G1 X120.340 Y112.876 E1.67604 ; perimeter
G1 X129.713 Y112.876 E2.06621 ; perimeter
G1 X129.731 Y113.571 E2.09514 ; perimeter
G1 X127.186 Y113.877 E2.20185 ; perimeter
G1 X123.900 Y114.157 E2.33913 ; perimeter
G1 X120.607 Y114.326 E2.47637 ; perimeter
G1 X117.309 Y114.383 E2.61367 ; perimeter
G1 X114.014 Y114.326 E2.75089 ; perimeter
G1 X110.719 Y114.157 E2.88822 ; perimeter
G1 X107.435 Y113.877 E3.02540 ; perimeter
G1 X105.000 Y113.584 E3.12752 ; perimeter
G1 X104.890 Y113.571 E3.13211 ; perimeter
G1 X104.137 Y114.221 F7800.000 ; move to first perimeter point
G1 X104.689 Y93.136 F900.000 E4.01017 ; perimeter
G1 X105.569 Y93.136 E4.04677 ; perimeter
G1 X105.569 Y96.647 E4.19294 ; perimeter
G1 X106.774 Y102.309 E4.43393 ; perimeter
G1 X105.569 Y102.309 E4.48409 ; perimeter
G1 X105.569 Y112.141 E4.89334 ; perimeter
G1 X114.183 Y112.141 E5.25193 ; perimeter
G1 X115.344 Y111.825 E5.30203 ; perimeter
G1 X116.320 Y111.668 E5.34317 ; perimeter
G1 X117.309 Y111.617 E5.38441 ; perimeter
G1 X118.301 Y111.668 E5.42573 ; perimeter
G1 X119.277 Y111.825 E5.46687 ; perimeter
G1 X120.438 Y112.141 E5.51697 ; perimeter
G1 X129.050 Y112.141 E5.87547 ; perimeter
G1 X129.050 Y102.309 E6.28472 ; perimeter
G1 X127.847 Y102.309 E6.33480 ; perimeter
G1 X129.050 Y96.647 E6.57578 ; perimeter
G1 X129.050 Y93.136 E6.72194 ; perimeter
G1 X129.931 Y93.136 E6.75863 ; perimeter
G1 X130.484 Y114.221 E7.63668 ; perimeter
G1 X127.261 Y114.609 E7.77181 ; perimeter
G1 X123.950 Y114.891 E7.91013 ; perimeter
G1 X120.632 Y115.061 E8.04841 ; perimeter
G1 X117.309 Y115.119 E8.18676 ; perimeter
G1 X113.988 Y115.061 E8.32503 ; perimeter
G1 X110.669 Y114.891 E8.46339 ; perimeter
G1 X107.360 Y114.609 E8.60163 ; perimeter
G1 X104.247 Y114.235 E8.73216 ; perimeter
G1 X104.137 Y114.221 E8.73675 ; perimeter
G1 X104.016 Y114.948 F7800.000 ; move to first perimeter point
G1 X103.761 Y114.877 F900.000 E8.74777 ; perimeter
G1 X103.589 Y114.754 E8.75659 ; perimeter
G1 X103.522 Y114.675 E8.76091 ; perimeter
G1 X103.429 Y114.486 E8.76968 ; perimeter
G1 X103.400 Y114.264 E8.77900 ; perimeter
G1 X103.956 Y93.047 E9.66251 ; perimeter
G1 X104.000 Y92.816 E9.67231 ; perimeter
G1 X104.114 Y92.626 E9.68151 ; perimeter
G1 X104.196 Y92.547 E9.68627 ; perimeter
G1 X104.286 Y92.484 E9.69084 ; perimeter
G1 X104.494 Y92.410 E9.70002 ; perimeter
G1 X105.759 Y92.409 E9.75266 ; perimeter
G1 X105.949 Y92.471 E9.76098 ; perimeter
G1 X106.114 Y92.590 E9.76947 ; perimeter
G1 X106.180 Y92.668 E9.77371 ; perimeter
G1 X106.272 Y92.848 E9.78215 ; perimeter
G1 X106.304 Y93.063 E9.79119 ; perimeter
G1 X106.304 Y96.570 E9.93716 ; perimeter
G1 X107.576 Y102.582 E10.19296 ; perimeter
G1 X107.560 Y102.725 E10.19895 ; perimeter
G1 X107.501 Y102.852 E10.20478 ; perimeter
G1 X107.433 Y102.936 E10.20929 ; perimeter
G1 X107.278 Y103.020 E10.21663 ; perimeter
G1 X107.119 Y103.045 E10.22333 ; perimeter
G1 X106.304 Y103.045 E10.25723 ; perimeter
G1 X106.304 Y111.405 E10.60523 ; perimeter
G1 X114.085 Y111.405 E10.92911 ; perimeter
G1 X115.189 Y111.105 E10.97674 ; perimeter
G1 X116.243 Y110.935 E11.02117 ; perimeter
G1 X117.309 Y110.881 E11.06564 ; perimeter
G1 X118.378 Y110.935 E11.11019 ; perimeter
G1 X119.432 Y111.105 E11.15462 ; perimeter
G1 X120.536 Y111.405 E11.20225 ; perimeter
G1 X128.314 Y111.405 E11.52604 ; perimeter
G1 X128.314 Y103.045 E11.87404 ; perimeter
G1 X127.501 Y103.045 E11.90793 ; perimeter
G1 X127.343 Y103.020 E11.91456 ; perimeter
G1 X127.188 Y102.936 E11.92189 ; perimeter
G1 X127.120 Y102.852 E11.92641 ; perimeter
G1 X127.061 Y102.725 E11.93223 ; perimeter
G1 X127.045 Y102.582 E11.93822 ; perimeter
G1 X128.314 Y96.570 E12.19401 ; perimeter
G1 X128.314 Y93.066 E12.33987 ; perimeter
G1 X128.349 Y92.848 E12.34903 ; perimeter
G1 X128.441 Y92.668 E12.35747 ; perimeter
G1 X128.507 Y92.590 E12.36170 ; perimeter
G1 X128.671 Y92.471 E12.37014 ; perimeter
G1 X128.764 Y92.432 E12.37434 ; perimeter
G1 X128.980 Y92.400 E12.38343 ; perimeter
G1 X130.127 Y92.410 E12.43119 ; perimeter
G1 X130.335 Y92.484 E12.44036 ; perimeter
G1 X130.507 Y92.626 E12.44967 ; perimeter
G1 X130.621 Y92.816 E12.45887 ; perimeter
G1 X130.665 Y93.047 E12.46867 ; perimeter
G1 X131.221 Y114.264 E13.35217 ; perimeter
G1 X131.191 Y114.486 E13.36150 ; perimeter
G1 X131.152 Y114.585 E13.36595 ; perimeter
G1 X131.030 Y114.755 E13.37465 ; perimeter
G1 X130.860 Y114.877 E13.38339 ; perimeter
G1 X130.647 Y114.943 E13.39264 ; perimeter
G1 X127.336 Y115.340 E13.53147 ; perimeter
G1 X124.000 Y115.625 E13.67084 ; perimeter
G1 X120.658 Y115.796 E13.81016 ; perimeter
G1 X117.309 Y115.855 E13.94956 ; perimeter
G1 X113.963 Y115.796 E14.08888 ; perimeter
G1 X110.619 Y115.625 E14.22828 ; perimeter
G1 X107.285 Y115.340 E14.36756 ; perimeter
G1 X104.126 Y114.961 E14.50001 ; perimeter
G1 X104.016 Y114.948 E14.50460 ; perimeter
G1 X103.796 Y114.246 F7800.000 ; move inwards before travel
G1 F1800.000 E13.50460 ; retract
G1 Z1.400 ; lift plate during travel
G92 E0 ; reset extrusion distance
G1 X129.397 Y101.696 F7800.000 ; move to first fill point
G1 Z0.400 ; restore layer Z
G1 F1800.000 E1.00000 ; compensate retraction
G1 X128.687 Y100.987 F600.000 E1.06324 ; fill
G1 F1800.000 E0.06324 ; retract
G1 Z1.400 ; lift plate during travel
G92 E0 ; reset extrusion distance
G1 X129.752 Y112.443 F7800.000 ; move to first fill point
G1 Z0.400 ; restore layer Z
G1 F1800.000 E1.00000 ; compensate retraction
G1 X129.484 Y112.174 F600.000 E1.00958 ; fill
G1 X129.989 Y112.049 E1.02272 ; fill
G1 X129.484 Y111.544 E1.04077 ; fill
G1 X129.973 Y111.402 E1.05362 ; fill
G1 X129.484 Y110.913 E1.07106 ; fill
G1 X129.956 Y110.754 E1.08362 ; fill
G1 X129.484 Y110.282 E1.10046 ; fill
G1 X129.939 Y110.107 E1.11277 ; fill
G1 X129.484 Y109.652 E1.12900 ; fill
G1 X129.922 Y109.459 E1.14108 ; fill
G1 X129.484 Y109.021 E1.15671 ; fill
G1 X129.905 Y108.812 E1.16857 ; fill
G1 X129.484 Y108.391 E1.18360 ; fill
G1 X129.888 Y108.164 E1.19528 ; fill
G1 X129.484 Y107.760 E1.20970 ; fill
G1 X129.871 Y107.517 E1.22124 ; fill
G1 X129.484 Y107.130 E1.23506 ; fill
G1 X129.854 Y106.869 E1.24648 ; fill
G1 X129.484 Y106.499 E1.25969 ; fill
G1 X129.837 Y106.222 E1.27102 ; fill
G1 X129.484 Y105.869 E1.28362 ; fill
G1 X129.820 Y105.574 E1.29490 ; fill
G1 X129.484 Y105.238 E1.30689 ; fill
G1 X129.803 Y104.927 E1.31814 ; fill
G1 X129.484 Y104.607 E1.32954 ; fill
G1 X129.786 Y104.279 E1.34080 ; fill
G1 X129.484 Y103.977 E1.35158 ; fill
G1 X129.769 Y103.632 E1.36289 ; fill
G1 X129.484 Y103.346 E1.37307 ; fill
G1 X129.752 Y102.984 E1.38444 ; fill
G1 X129.484 Y102.716 E1.39402 ; fill
G1 F1800.000 E0.39402 ; retract
G1 Z1.400 ; lift plate during travel
G92 E0 ; reset extrusion distance
G1 X123.787 Y113.578 F7800.000 ; move to first fill point
G1 Z0.400 ; restore layer Z
G1 F1800.000 E1.00000 ; compensate retraction
G1 X123.519 Y113.310 F600.000 E1.00973 ; fill
G1 X124.160 Y113.310 E1.02616 ; fill
G1 X124.529 Y113.679 E1.03955 ; fill
G1 X124.801 Y113.310 E1.05131 ; fill
G1 X125.120 Y113.629 E1.06287 ; fill
G1 X125.442 Y113.310 E1.07449 ; fill
G1 X125.710 Y113.578 E1.08423 ; fill
G1 F1800.000 E0.08423 ; retract
G1 Z1.400 ; lift plate during travel
G92 E0 ; reset extrusion distance
G1 X116.646 Y113.752 F7800.000 ; move to first fill point
G1 Z0.400 ; restore layer Z
G1 F1800.000 E1.00000 ; compensate retraction
G1 X115.937 Y113.043 F600.000 E1.08180 ; fill
G1 X117.975 Y113.043 E1.24806 ; fill
G1 X118.684 Y113.752 E1.32985 ; fill
G1 F1800.000 E0.32985 ; retract
G1 Z1.400 ; lift plate during travel
G92 E0 ; reset extrusion distance
G1 X109.178 Y113.578 F7800.000 ; move to first fill point
G1 Z0.400 ; restore layer Z
G1 F1800.000 E1.00000 ; compensate retraction
G1 X108.910 Y113.310 F600.000 E1.00974 ; fill
G1 X109.551 Y113.310 E1.02619 ; fill
G1 X109.879 Y113.638 E1.03810 ; fill
G1 X110.192 Y113.310 E1.04974 ; fill
G1 X110.580 Y113.698 E1.06382 ; fill
G1 X110.833 Y113.310 E1.07571 ; fill
G1 X111.102 Y113.578 E1.08545 ; fill
G1 F1800.000 E0.08545 ; retract
G1 Z1.400 ; lift plate during travel
G92 E0 ; reset extrusion distance
G1 X104.890 Y112.443 F7800.000 ; move to first fill point
G1 Z0.400 ; restore layer Z
G1 F1800.000 E1.00000 ; compensate retraction
G1 X104.621 Y112.174 F600.000 E1.00913 ; fill
G1 X105.135 Y112.087 E1.02168 ; fill
G1 X104.636 Y111.588 E1.03866 ; fill
G1 X105.135 Y111.485 E1.05092 ; fill
G1 X104.652 Y111.002 E1.06737 ; fill
G1 X105.135 Y110.884 E1.07935 ; fill
G1 X104.667 Y110.416 E1.09527 ; fill
G1 X105.135 Y110.282 E1.10699 ; fill
G1 X104.683 Y109.830 E1.12239 ; fill
G1 X105.135 Y109.681 E1.13386 ; fill
G1 X104.698 Y109.243 E1.14875 ; fill
G1 X105.135 Y109.079 E1.15999 ; fill
G1 X104.713 Y108.657 E1.17435 ; fill
G1 X105.135 Y108.478 E1.18539 ; fill
G1 X104.729 Y108.071 E1.19922 ; fill
G1 X105.135 Y107.876 E1.21008 ; fill
G1 X104.744 Y107.485 E1.22339 ; fill
G1 X105.135 Y107.275 E1.23408 ; fill
G1 X104.759 Y106.899 E1.24688 ; fill
G1 X105.135 Y106.673 E1.25743 ; fill
G1 X104.775 Y106.313 E1.26970 ; fill
G1 X105.135 Y106.072 E1.28014 ; fill
G1 X104.790 Y105.727 E1.29189 ; fill
G1 X105.135 Y105.470 E1.30224 ; fill
G1 X104.805 Y105.140 E1.31346 ; fill
G1 X105.135 Y104.869 E1.32375 ; fill
G1 X104.821 Y104.554 E1.33445 ; fill
G1 X105.135 Y104.267 E1.34470 ; fill
G1 X104.836 Y103.968 E1.35488 ; fill
G1 X105.135 Y103.666 E1.36512 ; fill
G1 X104.851 Y103.382 E1.37478 ; fill
G1 X105.135 Y103.064 E1.38503 ; fill
G1 X104.867 Y102.796 E1.39416 ; fill
G1 X105.797 Y101.696 F7800.000 ; move to first fill point
G1 X105.088 Y100.987 F600.000 E1.45740 ; fill
G1 F1800.000 E0.45740 ; retract
G1 Z1.400 ; move to next layer (0) and lift
G92 E0 ; reset extrusion distance
G1 X104.908 Y82.621 F7800.000 ; move to first perimeter point
G1 Z0.400 ; restore layer Z
G1 F1800.000 E1.00000 ; compensate retraction
G1 X114.281 Y82.621 F900.000 E1.39017 ; perimeter
G1 X115.500 Y82.290 E1.44274 ; perimeter
G1 X116.398 Y82.145 E1.48059 ; perimeter
G1 X117.309 Y82.099 E1.51860 ; perimeter
G1 X118.223 Y82.145 E1.55670 ; perimeter
G1 X119.121 Y82.290 E1.59455 ; perimeter
G1 X120.340 Y82.621 E1.64711 ; perimeter
G1 X129.713 Y82.621 E2.03729 ; perimeter
G1 X129.731 Y83.316 E2.06621 ; perimeter
G1 X127.186 Y83.622 E2.17292 ; perimeter
G1 X123.900 Y83.902 E2.31020 ; perimeter
G1 X120.607 Y84.071 E2.44744 ; perimeter
G1 X117.309 Y84.128 E2.58474 ; perimeter
G1 X114.014 Y84.071 E2.72196 ; perimeter
G1 X110.719 Y83.902 E2.85929 ; perimeter
G1 X107.435 Y83.622 E2.99648 ; perimeter
G1 X104.890 Y83.316 E3.10319 ; perimeter
G1 X104.905 Y82.732 E3.12752 ; perimeter
G1 X104.908 Y82.621 E3.13211 ; perimeter
G1 X105.569 Y81.886 F7800.000 ; move to first perimeter point
G1 X114.183 Y81.886 F900.000 E3.49070 ; perimeter
G1 X115.344 Y81.570 E3.54080 ; perimeter
G1 X116.320 Y81.413 E3.58195 ; perimeter
G1 X117.309 Y81.362 E3.62318 ; perimeter
G1 X118.301 Y81.413 E3.66450 ; perimeter
G1 X119.277 Y81.570 E3.70565 ; perimeter
G1 X120.438 Y81.886 E3.75574 ; perimeter
G1 X129.050 Y81.886 E4.11425 ; perimeter
G1 X129.050 Y72.054 E4.52350 ; perimeter
G1 X127.847 Y72.054 E4.57358 ; perimeter
G1 X129.050 Y66.392 E4.81455 ; perimeter
G1 X129.050 Y62.881 E4.96072 ; perimeter
G1 X129.931 Y62.881 E4.99741 ; perimeter
G1 X130.484 Y83.966 E5.87546 ; perimeter
G1 X127.261 Y84.354 E6.01058 ; perimeter
G1 X123.950 Y84.636 E6.14891 ; perimeter
G1 X120.632 Y84.806 E6.28719 ; perimeter
G1 X117.309 Y84.864 E6.42554 ; perimeter
G1 X113.988 Y84.806 E6.56380 ; perimeter
G1 X110.669 Y84.636 E6.70217 ; perimeter
G1 X107.360 Y84.354 E6.84041 ; perimeter
