; generated by Slic3r 0.9.10b on 2013-10-06 at 13:52:48

; layer_height = 0.4
; perimeters = 3
; top_solid_layers = 3
; bottom_solid_layers = 3
; fill_density = 0.4
; perimeter_speed = 30
; infill_speed = 60
; travel_speed = 130
; nozzle_diameter = 0.5
; filament_diameter = 3
; extrusion_multiplier = 1
; perimeters extrusion width = 0.53mm
; infill extrusion width = 0.53mm
; solid infill extrusion width = 0.53mm
; top infill extrusion width = 0.53mm
; first layer extrusion width = 0.80mm

G21 ; set units to millimeters
M190 S60 ; wait for bed temperature to be reached
M104 S185 ; set temperature
G28 ; home all axes
G1 Z5 F5000 ; lift nozzle
G92 E0 ;reset extruder
M109 S185 ; wait for temperature to be reached
G90 ; use absolute coordinates
G92 E0 ; reset extrusion distance
M82 ; use absolute distances for extrusion
G1 F1800.000 E-1.00000 ; retract
G92 E0 ; reset extrusion distance
G1 Z0.400 F7800.000 ; move to next layer (0)
G1 X72.160 Y-1.356 ; move to first skirt point
G1 F1800.000 E1.00000 ; compensate retraction
G1 X72.290 Y-2.666 F1440.000 E1.05480 ; skirt
G1 X72.680 Y-3.936 E1.11010 ; skirt
G1 X73.300 Y-5.096 E1.16486 ; skirt
G1 X74.140 Y-6.116 E1.21986 ; skirt
G1 X75.160 Y-6.956 E1.27487 ; skirt
G1 X76.320 Y-7.576 E1.32962 ; skirt
G1 X77.590 Y-7.966 E1.38492 ; skirt
G1 X78.900 Y-8.096 E1.43972 ; skirt
G1 X88.900 Y-8.096 E1.85600 ; skirt
G1 X90.160 Y-7.976 E1.90869 ; skirt
G1 X91.380 Y-7.616 E1.96164 ; skirt
G1 X92.520 Y-7.036 E2.01488 ; skirt
G1 X93.520 Y-6.256 E2.06767 ; skirt
G1 X94.360 Y-5.306 E2.12046 ; skirt
G1 X95.000 Y-4.206 E2.17344 ; skirt
G1 X95.430 Y-3.016 E2.22611 ; skirt
G1 X127.630 Y123.984 E7.68009 ; skirt
G1 X127.780 Y124.814 E7.71520 ; skirt
G1 X127.840 Y125.644 E7.74984 ; skirt
G1 X127.840 Y151.634 E8.83174 ; skirt
G1 X127.610 Y153.374 E8.90480 ; skirt
G1 X126.930 Y155.004 E8.97832 ; skirt
G1 X110.920 Y182.724 E10.31087 ; skirt
G1 X110.150 Y183.794 E10.36575 ; skirt
G1 X109.190 Y184.694 E10.42052 ; skirt
G1 X108.070 Y185.394 E10.47550 ; skirt
G1 X106.830 Y185.864 E10.53071 ; skirt
G1 X105.530 Y186.074 E10.58552 ; skirt
G1 X104.210 Y186.034 E10.64050 ; skirt
G1 X102.920 Y185.734 E10.69563 ; skirt
G1 X101.720 Y185.184 E10.75058 ; skirt
G1 X93.060 Y180.184 E11.16684 ; skirt
G1 X91.940 Y179.374 E11.22438 ; skirt
G1 X91.010 Y178.344 E11.28215 ; skirt
G1 X90.300 Y177.154 E11.33983 ; skirt
G1 X72.770 Y138.744 E13.09740 ; skirt
G1 X72.320 Y137.374 E13.15743 ; skirt
G1 X72.160 Y135.944 E13.21733 ; skirt
G1 X72.160 Y-1.246 E18.92819 ; skirt
G1 F1800.000 E17.92819 ; retract
G92 E0 ; reset extrusion distance
G1 X80.739 Y0.483 F7800.000 ; move to first perimeter point
G1 F1800.000 E1.00000 ; compensate retraction
G1 X87.061 Y0.483 F1440.000 E1.26317 ; perimeter
G1 X87.061 Y127.483 E6.54986 ; perimeter
G1 X119.261 Y127.483 E7.89027 ; perimeter
G1 X119.261 Y151.151 E8.87552 ; perimeter
G1 X104.427 Y176.844 E10.11053 ; perimeter
G1 X98.952 Y173.683 E10.37370 ; perimeter
G1 X112.939 Y149.457 E11.53819 ; perimeter
G1 X112.939 Y134.109 E12.17709 ; perimeter
G1 X80.739 Y134.109 E13.51750 ; perimeter
G1 X80.739 Y0.593 E19.07544 ; perimeter
G1 F1800.000 E18.07544 ; retract
G92 E0 ; reset extrusion distance
G1 X119.997 Y151.348 F7800.000 ; move to first perimeter point
G1 F1800.000 E1.00000 ; compensate retraction
G1 X104.696 Y177.849 F1440.000 E2.27384 ; perimeter
G1 X97.947 Y173.953 E2.59825 ; perimeter
G1 X112.203 Y149.260 E3.78516 ; perimeter
G1 X112.203 Y134.845 E4.38523 ; perimeter
G1 X80.003 Y134.845 E5.72564 ; perimeter
G1 X80.003 Y-0.253 E11.34942 ; perimeter
G1 X87.797 Y-0.253 E11.67383 ; perimeter
G1 X87.797 Y126.747 E16.96053 ; perimeter
G1 X119.997 Y126.747 E18.30094 ; perimeter
G1 X119.997 Y151.238 E19.32042 ; perimeter
G1 X120.682 Y151.631 F7800.000 ; move to first perimeter point
G1 X104.965 Y178.854 F1440.000 E20.62893 ; perimeter
G1 X96.942 Y174.222 E21.01458 ; perimeter
G1 X111.468 Y149.063 E22.22391 ; perimeter
G1 X111.468 Y135.580 E22.78516 ; perimeter
G1 X79.268 Y135.580 E24.12556 ; perimeter
G1 X79.268 Y-0.989 E29.81059 ; perimeter
G1 X88.532 Y-0.989 E30.19624 ; perimeter
G1 X88.532 Y126.011 E35.48294 ; perimeter
G1 X120.732 Y126.011 E36.82335 ; perimeter
G1 X120.732 Y151.535 E37.88581 ; perimeter
G1 X119.958 Y151.759 F7800.000 ; move inwards before travel
G1 F1800.000 E36.88581 ; retract
G92 E0 ; reset extrusion distance
G1 X118.728 Y128.611 F7800.000 ; move to first fill point
G1 F1800.000 E1.00000 ; compensate retraction
G1 X118.132 Y128.016 F2880.000 E1.03507 ; fill
G1 X117.092 Y128.016 E1.07838 ; fill
G1 X118.728 Y129.652 E1.17470 ; fill
G1 X118.728 Y130.692 E1.21802 ; fill
G1 X116.051 Y128.016 E1.37560 ; fill
G1 X115.011 Y128.016 E1.41891 ; fill
G1 X118.728 Y131.733 E1.63774 ; fill
G1 X118.728 Y132.773 E1.68106 ; fill
G1 X113.970 Y128.016 E1.96114 ; fill
G1 X112.930 Y128.016 E2.00446 ; fill
G1 X118.728 Y133.814 E2.34580 ; fill
G1 X118.728 Y134.854 E2.38912 ; fill
G1 X111.890 Y128.016 E2.79171 ; fill
G1 X110.849 Y128.016 E2.83503 ; fill
G1 X118.728 Y135.894 E3.29888 ; fill
G1 X118.728 Y136.935 E3.34219 ; fill
G1 X109.809 Y128.016 E3.86730 ; fill
G1 F1800.000 E2.86730 ; retract
G92 E0 ; reset extrusion distance
G1 X82.075 Y133.576 F7800.000 ; move to first fill point
G1 F1800.000 E1.00000 ; compensate retraction
G1 X81.272 Y132.773 F2880.000 E1.04728 ; fill
G1 X81.272 Y131.732 E1.09060 ; fill
G1 X83.116 Y133.576 E1.19914 ; fill
G1 X84.156 Y133.576 E1.24245 ; fill
G1 X81.272 Y130.692 E1.41225 ; fill
G1 X81.272 Y129.651 E1.45556 ; fill
G1 X85.197 Y133.576 E1.68661 ; fill
G1 X86.237 Y133.576 E1.72992 ; fill
G1 X81.272 Y128.611 E2.02223 ; fill
G1 X81.272 Y127.571 E2.06554 ; fill
G1 X87.277 Y133.576 E2.41910 ; fill
G1 X88.318 Y133.576 E2.46242 ; fill
G1 X81.272 Y126.530 E2.87723 ; fill
G1 X81.272 Y125.490 E2.92055 ; fill
G1 X89.358 Y133.576 E3.39662 ; fill
G1 X90.399 Y133.576 E3.43993 ; fill
G1 X81.272 Y124.449 E3.97726 ; fill
G1 F1800.000 E2.97726 ; retract
G92 E0 ; reset extrusion distance
G1 X100.765 Y174.115 F7800.000 ; move to first fill point
G1 F1800.000 E1.00000 ; compensate retraction
G1 X99.848 Y173.197 F2880.000 E1.05400 ; fill
G1 X100.229 Y172.538 E1.08571 ; fill
G1 X103.227 Y175.536 E1.26222 ; fill
G1 X104.457 Y175.725 E1.31404 ; fill
G1 X100.610 Y171.878 E1.54055 ; fill
G1 X100.991 Y171.219 E1.57226 ; fill
G1 X104.838 Y175.066 E1.79877 ; fill
G1 X105.219 Y174.406 E1.83047 ; fill
G1 X101.371 Y170.559 E2.05699 ; fill
G1 X101.752 Y169.899 E2.08869 ; fill
G1 X105.600 Y173.747 E2.31520 ; fill
G1 X105.980 Y173.087 E2.34691 ; fill
G1 X102.133 Y169.240 E2.57342 ; fill
G1 X102.514 Y168.580 E2.60513 ; fill
G1 X106.361 Y172.427 E2.83164 ; fill
G1 X106.742 Y171.768 E2.86335 ; fill
G1 X102.895 Y167.921 E3.08986 ; fill
G1 X103.276 Y167.261 E3.12157 ; fill
G1 X107.123 Y171.108 E3.34808 ; fill
G1 X107.504 Y170.449 E3.37979 ; fill
G1 X103.656 Y166.601 E3.60630 ; fill
G1 X104.037 Y165.942 E3.63800 ; fill
G1 X107.884 Y169.789 E3.86452 ; fill
G1 X108.265 Y169.129 E3.89622 ; fill
G1 X104.418 Y165.282 E4.12273 ; fill
G1 X104.799 Y164.623 E4.15444 ; fill
G1 X108.646 Y168.470 E4.38095 ; fill
G1 X109.027 Y167.810 E4.41266 ; fill
G1 X105.180 Y163.963 E4.63917 ; fill
G1 X105.560 Y163.303 E4.67088 ; fill
G1 X109.408 Y167.151 E4.89739 ; fill
G1 X109.789 Y166.491 E4.92910 ; fill
G1 X105.941 Y162.644 E5.15561 ; fill
G1 X106.322 Y161.984 E5.18731 ; fill
G1 X110.169 Y165.831 E5.41382 ; fill
G1 X110.550 Y165.172 E5.44553 ; fill
G1 X106.703 Y161.325 E5.67204 ; fill
G1 X107.084 Y160.665 E5.70375 ; fill
G1 X110.931 Y164.512 E5.93026 ; fill
G1 X111.312 Y163.853 E5.96197 ; fill
G1 X107.465 Y160.005 E6.18848 ; fill
G1 X107.845 Y159.346 E6.22018 ; fill
G1 X111.693 Y163.193 E6.44669 ; fill
G1 X112.073 Y162.533 E6.47840 ; fill
G1 X108.226 Y158.686 E6.70491 ; fill
G1 X108.607 Y158.027 E6.73662 ; fill
G1 X112.454 Y161.874 E6.96313 ; fill
G1 X112.835 Y161.214 E6.99484 ; fill
G1 X108.988 Y157.367 E7.22135 ; fill
G1 X109.369 Y156.707 E7.25305 ; fill
G1 X113.216 Y160.555 E7.47956 ; fill
G1 X113.597 Y159.895 E7.51127 ; fill
G1 X109.749 Y156.048 E7.73778 ; fill
G1 X110.130 Y155.388 E7.76949 ; fill
G1 X113.978 Y159.235 E7.99600 ; fill
G1 X114.358 Y158.576 E8.02771 ; fill
G1 X110.511 Y154.729 E8.25422 ; fill
G1 X110.892 Y154.069 E8.28592 ; fill
G1 X114.739 Y157.916 E8.51243 ; fill
G1 X115.120 Y157.257 E8.54414 ; fill
G1 X111.273 Y153.409 E8.77065 ; fill
G1 X111.654 Y152.750 E8.80236 ; fill
G1 X115.501 Y156.597 E9.02887 ; fill
G1 X115.882 Y155.937 E9.06057 ; fill
G1 X112.034 Y152.090 E9.28708 ; fill
G1 X112.415 Y151.431 E9.31879 ; fill
G1 X116.262 Y155.278 E9.54530 ; fill
G1 X116.643 Y154.618 E9.57701 ; fill
G1 X112.796 Y150.771 E9.80352 ; fill
G1 X113.177 Y150.111 E9.83522 ; fill
G1 X117.024 Y153.959 E10.06173 ; fill
G1 X117.405 Y153.299 E10.09344 ; fill
G1 X113.472 Y149.366 E10.32498 ; fill
G1 X113.472 Y148.326 E10.36829 ; fill
G1 X117.786 Y152.639 E10.62225 ; fill
G1 X118.167 Y151.980 E10.65396 ; fill
G1 X113.472 Y147.286 E10.93034 ; fill
G1 X113.472 Y146.245 E10.97366 ; fill
G1 X118.547 Y151.320 E11.27246 ; fill
G1 X118.728 Y150.460 E11.30905 ; fill
G1 X113.472 Y145.205 E11.61847 ; fill
G1 X113.472 Y144.164 E11.66178 ; fill
G1 X118.728 Y149.420 E11.97120 ; fill
G1 X118.728 Y148.379 E12.01451 ; fill
G1 X113.472 Y143.124 E12.32393 ; fill
G1 X113.472 Y142.083 E12.36725 ; fill
G1 X118.728 Y147.339 E12.67667 ; fill
G1 X118.728 Y146.299 E12.71998 ; fill
G1 X113.472 Y141.043 E13.02940 ; fill
G1 X113.472 Y140.003 E13.07272 ; fill
G1 X118.728 Y145.258 E13.38214 ; fill
G1 X118.728 Y144.218 E13.42545 ; fill
G1 X113.472 Y138.962 E13.73487 ; fill
G1 X113.472 Y137.922 E13.77819 ; fill
G1 X118.728 Y143.177 E14.08761 ; fill
G1 X118.728 Y142.137 E14.13092 ; fill
G1 X113.472 Y136.881 E14.44034 ; fill
G1 X113.472 Y135.841 E14.48365 ; fill
G1 X118.728 Y141.096 E14.79307 ; fill
G1 X118.728 Y140.056 E14.83639 ; fill
G1 X113.472 Y134.801 E15.14581 ; fill
G1 X113.472 Y133.760 E15.18912 ; fill
G1 X118.728 Y139.016 E15.49854 ; fill
G1 X118.728 Y137.975 E15.54186 ; fill
G1 X108.768 Y128.016 E16.12822 ; fill
G1 X107.728 Y128.016 E16.17154 ; fill
G1 X113.288 Y133.576 E16.49888 ; fill
G1 X112.247 Y133.576 E16.54219 ; fill
G1 X106.688 Y128.016 E16.86954 ; fill
G1 X105.647 Y128.016 E16.91285 ; fill
G1 X111.207 Y133.576 E17.24020 ; fill
G1 X110.167 Y133.576 E17.28351 ; fill
G1 X104.607 Y128.016 E17.61086 ; fill
G1 X103.566 Y128.016 E17.65417 ; fill
G1 X109.126 Y133.576 E17.98152 ; fill
G1 X108.086 Y133.576 E18.02483 ; fill
G1 X102.526 Y128.016 E18.35217 ; fill
G1 X101.485 Y128.016 E18.39549 ; fill
G1 X107.045 Y133.576 E18.72283 ; fill
G1 X106.005 Y133.576 E18.76615 ; fill
G1 X100.445 Y128.016 E19.09349 ; fill
G1 X99.405 Y128.016 E19.13681 ; fill
G1 X104.965 Y133.576 E19.46415 ; fill
G1 X103.924 Y133.576 E19.50747 ; fill
G1 X98.364 Y128.016 E19.83481 ; fill
G1 X97.324 Y128.016 E19.87812 ; fill
G1 X102.884 Y133.576 E20.20547 ; fill
G1 X101.843 Y133.576 E20.24878 ; fill
G1 X96.283 Y128.016 E20.57613 ; fill
G1 X95.243 Y128.016 E20.61944 ; fill
G1 X100.803 Y133.576 E20.94679 ; fill
G1 X99.762 Y133.576 E20.99010 ; fill
G1 X94.203 Y128.016 E21.31745 ; fill
G1 X93.162 Y128.016 E21.36076 ; fill
G1 X98.722 Y133.576 E21.68810 ; fill
G1 X97.682 Y133.576 E21.73142 ; fill
G1 X92.122 Y128.016 E22.05876 ; fill
G1 X91.081 Y128.016 E22.10208 ; fill
G1 X96.641 Y133.576 E22.42942 ; fill
G1 X95.601 Y133.576 E22.47274 ; fill
G1 X90.041 Y128.016 E22.80008 ; fill
G1 X89.000 Y128.016 E22.84340 ; fill
G1 X94.560 Y133.576 E23.17074 ; fill
G1 X93.520 Y133.576 E23.21405 ; fill
G1 X87.960 Y128.016 E23.54140 ; fill
G1 X86.920 Y128.016 E23.58471 ; fill
G1 X92.480 Y133.576 E23.91206 ; fill
G1 X91.439 Y133.576 E23.95537 ; fill
G1 X81.272 Y123.409 E24.55395 ; fill
G1 X81.272 Y122.368 E24.59727 ; fill
G1 X86.528 Y127.624 E24.90669 ; fill
G1 X86.528 Y126.584 E24.95000 ; fill
G1 X81.272 Y121.328 E25.25942 ; fill
G1 X81.272 Y120.288 E25.30274 ; fill
G1 X86.528 Y125.543 E25.61216 ; fill
G1 X86.528 Y124.503 E25.65547 ; fill
G1 X81.272 Y119.247 E25.96489 ; fill
G1 X81.272 Y118.207 E26.00820 ; fill
G1 X86.528 Y123.462 E26.31762 ; fill
G1 X86.528 Y122.422 E26.36094 ; fill
G1 X81.272 Y117.166 E26.67036 ; fill
G1 X81.272 Y116.126 E26.71367 ; fill
G1 X86.528 Y121.381 E27.02309 ; fill
G1 X86.528 Y120.341 E27.06641 ; fill
G1 X81.272 Y115.086 E27.37583 ; fill
G1 X81.272 Y114.045 E27.41914 ; fill
G1 X86.528 Y119.301 E27.72856 ; fill
G1 X86.528 Y118.260 E27.77188 ; fill
G1 X81.272 Y113.005 E28.08130 ; fill
G1 X81.272 Y111.964 E28.12461 ; fill
G1 X86.528 Y117.220 E28.43403 ; fill
G1 X86.528 Y116.179 E28.47734 ; fill
G1 X81.272 Y110.924 E28.78676 ; fill
G1 X81.272 Y109.883 E28.83008 ; fill
G1 X86.528 Y115.139 E29.13950 ; fill
G1 X86.528 Y114.099 E29.18281 ; fill
G1 X81.272 Y108.843 E29.49223 ; fill
G1 X81.272 Y107.803 E29.53555 ; fill
G1 X86.528 Y113.058 E29.84497 ; fill
G1 X86.528 Y112.018 E29.88828 ; fill
G1 X81.272 Y106.762 E30.19770 ; fill
G1 X81.272 Y105.722 E30.24102 ; fill
G1 X86.528 Y110.977 E30.55044 ; fill
G1 X86.528 Y109.937 E30.59375 ; fill
G1 X81.272 Y104.681 E30.90317 ; fill
G1 X81.272 Y103.641 E30.94648 ; fill
G1 X86.528 Y108.896 E31.25591 ; fill
G1 X86.528 Y107.856 E31.29922 ; fill
G1 X81.272 Y102.601 E31.60864 ; fill
G1 X81.272 Y101.560 E31.65195 ; fill
G1 X86.528 Y106.816 E31.96137 ; fill
G1 X86.528 Y105.775 E32.00469 ; fill
G1 X81.272 Y100.520 E32.31411 ; fill
G1 X81.272 Y99.479 E32.35742 ; fill
G1 X86.528 Y104.735 E32.66684 ; fill
G1 X86.528 Y103.694 E32.71016 ; fill
G1 X81.272 Y98.439 E33.01958 ; fill
G1 X81.272 Y97.398 E33.06289 ; fill
G1 X86.528 Y102.654 E33.37231 ; fill
G1 X86.528 Y101.614 E33.41562 ; fill
G1 X81.272 Y96.358 E33.72505 ; fill
G1 X81.272 Y95.318 E33.76836 ; fill
G1 X86.528 Y100.573 E34.07778 ; fill
G1 X86.528 Y99.533 E34.12109 ; fill
G1 X81.272 Y94.277 E34.43051 ; fill
G1 X81.272 Y93.237 E34.47383 ; fill
G1 X86.528 Y98.492 E34.78325 ; fill
G1 X86.528 Y97.452 E34.82656 ; fill
G1 X81.272 Y92.196 E35.13598 ; fill
G1 X81.272 Y91.156 E35.17930 ; fill
G1 X86.528 Y96.411 E35.48872 ; fill
G1 X86.528 Y95.371 E35.53203 ; fill
G1 X81.272 Y90.116 E35.84145 ; fill
G1 X81.272 Y89.075 E35.88477 ; fill
G1 X86.528 Y94.331 E36.19419 ; fill
G1 X86.528 Y93.290 E36.23750 ; fill
G1 X81.272 Y88.035 E36.54692 ; fill
G1 X81.272 Y86.994 E36.59023 ; fill
G1 X86.528 Y92.250 E36.89965 ; fill
G1 X86.528 Y91.209 E36.94297 ; fill
G1 X81.272 Y85.954 E37.25239 ; fill
G1 X81.272 Y84.913 E37.29570 ; fill
G1 X86.528 Y90.169 E37.60512 ; fill
G1 X86.528 Y89.129 E37.64844 ; fill
G1 X81.272 Y83.873 E37.95786 ; fill
G1 X81.272 Y82.833 E38.00117 ; fill
G1 X86.528 Y88.088 E38.31059 ; fill
G1 X86.528 Y87.048 E38.35391 ; fill
G1 X81.272 Y81.792 E38.66333 ; fill
G1 X81.272 Y80.752 E38.70664 ; fill
G1 X86.528 Y86.007 E39.01606 ; fill
G1 X86.528 Y84.967 E39.05937 ; fill
G1 X81.272 Y79.711 E39.36879 ; fill
G1 X81.272 Y78.671 E39.41211 ; fill
G1 X86.528 Y83.926 E39.72153 ; fill
G1 X86.528 Y82.886 E39.76484 ; fill
G1 X81.272 Y77.631 E40.07426 ; fill
G1 X81.272 Y76.590 E40.11758 ; fill
G1 X86.528 Y81.846 E40.42700 ; fill
G1 X86.528 Y80.805 E40.47031 ; fill
G1 X81.272 Y75.550 E40.77973 ; fill
G1 X81.272 Y74.509 E40.82305 ; fill
G1 X86.528 Y79.765 E41.13247 ; fill
G1 X86.528 Y78.724 E41.17578 ; fill
G1 X81.272 Y73.469 E41.48520 ; fill
G1 X81.272 Y72.428 E41.52851 ; fill
G1 X86.528 Y77.684 E41.83793 ; fill
G1 X86.528 Y76.644 E41.88125 ; fill
G1 X81.272 Y71.388 E42.19067 ; fill
G1 X81.272 Y70.348 E42.23398 ; fill
G1 X86.528 Y75.603 E42.54340 ; fill
G1 X86.528 Y74.563 E42.58672 ; fill
G1 X81.272 Y69.307 E42.89614 ; fill
G1 X81.272 Y68.267 E42.93945 ; fill
G1 X86.528 Y73.522 E43.24887 ; fill
G1 X86.528 Y72.482 E43.29219 ; fill
G1 X81.272 Y67.226 E43.60161 ; fill
G1 X81.272 Y66.186 E43.64492 ; fill
G1 X86.528 Y71.441 E43.95434 ; fill
G1 X86.528 Y70.401 E43.99765 ; fill
G1 X81.272 Y65.146 E44.30707 ; fill
G1 X81.272 Y64.105 E44.35039 ; fill
G1 X86.528 Y69.361 E44.65981 ; fill
G1 X86.528 Y68.320 E44.70312 ; fill
G1 X81.272 Y63.065 E45.01254 ; fill
G1 X81.272 Y62.024 E45.05586 ; fill
G1 X86.528 Y67.280 E45.36528 ; fill
G1 X86.528 Y66.239 E45.40859 ; fill
G1 X81.272 Y60.984 E45.71801 ; fill
