; generated by Slic3r 0.9.9 on 2013-06-12 at 19:10:16

; layer_height = 0.4
; perimeters = 3
; top_solid_layers = 3
; bottom_solid_layers = 3
; fill_density = 0.4
; perimeter_speed = 30
; infill_speed = 60
; travel_speed = 130
; nozzle_diameter = 0.5
; filament_diameter = 3
; extrusion_multiplier = 1
; perimeters extrusion width = 0.53mm
; infill extrusion width = 0.53mm
; solid infill extrusion width = 0.53mm
; top infill extrusion width = 0.53mm
; first layer extrusion width = 1.00mm

G21 ; set units to millimeters
M107
M190 S60 ; wait for bed temperature to be reached
M104 S180 ; set temperature
G28 ; home all axes
G1 Z5 F5000 ; lift nozzle

M109 S180 ; wait for temperature to be reached
G90 ; use absolute coordinates
G92 E0
M82 ; use absolute distances for extrusion
G1 F1800.000 E-1.00000
G1 Z1.000
G92 E0
G1 X69.440 Y65.820 F7800.000
G1 Z0.500
G1 F1800.000 E1.00000
G1 X70.020 Y65.260 F540.000 E1.05091
G1 X70.450 Y64.920 E1.08552
G1 X70.900 Y64.620 E1.11968
G1 X71.610 Y64.240 E1.17053
G1 X72.370 Y63.940 E1.22212
G1 X72.890 Y63.800 E1.25613
G1 X73.420 Y63.690 E1.29031
G1 X74.230 Y63.610 E1.34170
G1 X125.770 Y63.610 E4.59622
G1 X126.580 Y63.690 E4.64762
G1 X126.840 Y63.740 E4.66434
G1 X127.630 Y63.940 E4.71580
G1 X127.890 Y64.030 E4.73317
G1 X128.630 Y64.360 E4.78434
G1 X129.100 Y64.620 E4.81825
G1 X129.550 Y64.920 E4.85240
G1 X130.180 Y65.440 E4.90399
G1 X130.740 Y66.020 E4.95490
G1 X131.080 Y66.450 E4.98951
G1 X131.230 Y66.670 E5.00632
G1 X131.380 Y66.900 E5.02366
G1 X131.640 Y67.370 E5.05758
G1 X131.970 Y68.110 E5.10874
G1 X132.060 Y68.370 E5.12612
G1 X132.200 Y68.890 E5.16012
G1 X132.310 Y69.420 E5.19430
G1 X132.390 Y70.230 E5.24570
G1 X132.390 Y107.770 E7.61618
G1 X132.310 Y108.580 E7.66758
G1 X132.260 Y108.840 E7.68430
G1 X132.060 Y109.630 E7.73576
G1 X131.970 Y109.890 E7.75313
G1 X131.640 Y110.630 E7.80429
G1 X131.380 Y111.100 E7.83821
G1 X131.080 Y111.550 E7.87236
G1 X130.560 Y112.180 E7.92395
G1 X129.980 Y112.740 E7.97485
G1 X129.550 Y113.080 E8.00947
G1 X129.330 Y113.230 E8.02628
G1 X129.100 Y113.380 E8.04362
G1 X128.630 Y113.640 E8.07754
G1 X127.890 Y113.970 E8.12870
G1 X127.630 Y114.060 E8.14608
G1 X127.110 Y114.200 E8.18008
G1 X126.580 Y114.310 E8.21426
G1 X125.770 Y114.390 E8.26566
G1 X74.230 Y114.390 E11.52018
G1 X73.420 Y114.310 E11.57158
G1 X73.160 Y114.260 E11.58830
G1 X72.370 Y114.060 E11.63975
G1 X72.110 Y113.970 E11.65713
G1 X71.370 Y113.640 E11.70829
G1 X70.900 Y113.380 E11.74221
G1 X70.450 Y113.080 E11.77636
G1 X69.820 Y112.560 E11.82794
G1 X69.260 Y111.980 E11.87885
G1 X68.920 Y111.550 E11.91347
G1 X68.770 Y111.330 E11.93028
G1 X68.620 Y111.100 E11.94762
G1 X68.360 Y110.630 E11.98154
G1 X68.030 Y109.890 E12.03270
G1 X67.940 Y109.630 E12.05007
G1 X67.800 Y109.110 E12.08408
G1 X67.690 Y108.580 E12.11826
G1 X67.610 Y107.770 E12.16966
G1 X67.610 Y70.230 E14.54014
G1 X67.690 Y69.420 E14.59154
G1 X67.740 Y69.160 E14.60825
G1 X67.940 Y68.370 E14.65971
G1 X68.130 Y67.860 E14.69408
G1 X68.360 Y67.370 E14.72826
G1 X68.620 Y66.900 E14.76218
G1 X68.920 Y66.450 E14.79633
G1 X69.350 Y65.920 E14.83946
G1 F1800.000 E13.83946
G1 Z1.000
G92 E0
G1 X76.732 Y72.732 F7800.000
G1 Z0.500
G1 F1800.000 E1.00000
G1 X123.268 Y72.732 F540.000 E3.93857
G1 X123.268 Y105.268 E5.99311
G1 X76.732 Y105.268 E8.93168
G1 X76.732 Y72.866 E10.97776
G1 X75.839 Y71.839 F7800.000
G1 X124.161 Y71.839 F540.000 E14.02907
G1 X124.161 Y106.161 E16.19635
G1 X75.839 Y106.161 E19.24766
G1 X75.839 Y71.973 E21.40648
G1 X74.946 Y70.946 F7800.000
G1 X125.054 Y70.946 F378.000 E24.57053
G1 X125.054 Y107.054 E26.85055
G1 X74.946 Y107.054 E30.01460
G1 X74.946 Y71.080 E32.28616
G1 X75.719 Y71.393 F7800.000
G1 X77.379 Y104.621
G1 X77.379 Y103.346 F1080.000 E32.36745
G1 X78.654 Y104.621 E32.48241
G1 X79.929 Y104.621 E32.56369
G1 X77.379 Y102.071 E32.79359
G1 X77.379 Y100.797 E32.87486
G1 X81.203 Y104.621 E33.21971
G1 X82.478 Y104.621 E33.30099
G1 X77.379 Y99.522 E33.76077
G1 X77.379 Y98.247 E33.84205
G1 X83.753 Y104.621 E34.41678
G1 X85.027 Y104.621 E34.49805
G1 X77.379 Y96.973 E35.18772
G1 X77.379 Y95.698 E35.26900
G1 X86.302 Y104.621 E36.07361
G1 X87.577 Y104.621 E36.15489
G1 X77.379 Y94.423 E37.07445
G1 X77.379 Y93.148 E37.15572
G1 X88.852 Y104.621 E38.19022
G1 X90.126 Y104.621 E38.27150
G1 X77.379 Y91.874 E39.42094
G1 X77.379 Y90.599 E39.50221
G1 X91.401 Y104.621 E40.76659
G1 X92.676 Y104.621 E40.84787
G1 X77.379 Y89.324 E42.22719
G1 X77.379 Y88.049 E42.30847
G1 X93.951 Y104.621 E43.80274
G1 X95.225 Y104.621 E43.88401
G1 X77.379 Y86.775 E45.49322
G1 X77.379 Y85.500 E45.57450
G1 X96.500 Y104.621 E47.29865
G1 X97.775 Y104.621 E47.37992
G1 X77.379 Y84.225 E49.21902
G1 X77.379 Y82.950 E49.30029
G1 X99.050 Y104.621 E51.25433
G1 X100.324 Y104.621 E51.33560
G1 X77.379 Y81.676 E53.40458
G1 X77.379 Y80.401 E53.48586
G1 X101.599 Y104.621 E55.66978
G1 X102.874 Y104.621 E55.75105
G1 X77.379 Y79.126 E58.04991
G1 X77.379 Y77.851 E58.13119
G1 X104.149 Y104.621 E60.54499
G1 X105.423 Y104.621 E60.62627
G1 X77.379 Y76.577 E63.15501
G1 X77.379 Y75.302 E63.23629
G1 X106.698 Y104.621 E65.87998
G1 X107.973 Y104.621 E65.96125
G1 X77.379 Y74.027 E68.71988
G1 X78.005 Y73.379 E68.77736
G1 X109.247 Y104.621 E71.59446
G1 X110.522 Y104.621 E71.67574
G1 X79.280 Y73.379 E74.49283
G1 X80.555 Y73.379 E74.57411
G1 X111.797 Y104.621 E77.39121
G1 X113.072 Y104.621 E77.47249
G1 X81.829 Y73.379 E80.28958
G1 X83.104 Y73.379 E80.37086
G1 X114.346 Y104.621 E83.18796
G1 X115.621 Y104.621 E83.26923
G1 X84.379 Y73.379 E86.08633
G1 X85.654 Y73.379 E86.16761
G1 X116.896 Y104.621 E88.98470
G1 X118.171 Y104.621 E89.06598
G1 X86.928 Y73.379 E91.88308
G1 X88.203 Y73.379 E91.96435
G1 X119.445 Y104.621 E94.78145
G1 X120.720 Y104.621 E94.86273
G1 X89.478 Y73.379 E97.67983
G1 X90.753 Y73.379 E97.76110
G1 X121.995 Y104.621 E100.57820
G1 X122.621 Y103.973 E100.63568
G1 X92.027 Y73.379 E103.39431
G1 X93.302 Y73.379 E103.47558
G1 X122.621 Y102.698 E106.11927
G1 X122.621 Y101.423 E106.20055
G1 X94.577 Y73.379 E108.72929
G1 X95.851 Y73.379 E108.81057
G1 X122.621 Y100.149 E111.22437
G1 X122.621 Y98.874 E111.30565
G1 X97.126 Y73.379 E113.60451
G1 X98.401 Y73.379 E113.68578
G1 X122.621 Y97.599 E115.86970
G1 X122.621 Y96.324 E115.95098
G1 X99.676 Y73.379 E118.01996
G1 X100.950 Y73.379 E118.10123
G1 X122.621 Y95.050 E120.05527
G1 X122.621 Y93.775 E120.13654
G1 X102.225 Y73.379 E121.97563
G1 X103.500 Y73.379 E122.05691
G1 X122.621 Y92.500 E123.78106
G1 X122.621 Y91.225 E123.86234
G1 X104.775 Y73.379 E125.47154
G1 X106.049 Y73.379 E125.55282
G1 X122.621 Y89.951 E127.04709
G1 X122.621 Y88.676 E127.12836
G1 X107.324 Y73.379 E128.50769
G1 X108.599 Y73.379 E128.58896
G1 X122.621 Y87.401 E129.85334
G1 X122.621 Y86.126 E129.93462
G1 X109.874 Y73.379 E131.08406
G1 X111.148 Y73.379 E131.16534
G1 X122.621 Y84.852 E132.19983
G1 X122.621 Y83.577 E132.28111
G1 X112.423 Y73.379 E133.20066
G1 X113.698 Y73.379 E133.28194
G1 X122.621 Y82.302 E134.08655
G1 X122.621 Y81.027 E134.16783
G1 X114.973 Y73.379 E134.85750
G1 X116.247 Y73.379 E134.93878
G1 X122.621 Y79.753 E135.51350
G1 X122.621 Y78.478 E135.59478
G1 X117.522 Y73.379 E136.05457
G1 X118.797 Y73.379 E136.13584
G1 X122.621 Y77.203 E136.48069
G1 X122.621 Y75.929 E136.56196
G1 X120.071 Y73.379 E136.79186
G1 X121.346 Y73.379 E136.87314
G1 X122.621 Y74.654 E136.98810
G1 X122.621 Y73.379 E137.06939
G1 F1800.000 E136.06939
G1 Z1.400
G92 E0
G1 X124.201 Y71.799 F7800.000
G1 Z0.900
G1 F1800.000 E1.00000
G1 X124.201 Y106.201 F1800.000 E2.01160
G1 X75.799 Y106.201 E3.43487
G1 X75.799 Y71.799 E4.44647
G1 X124.123 Y71.799 E5.86744
G1 X124.721 Y71.279 F7800.000
G1 X124.721 Y106.721 F1800.000 E6.90960
G1 X75.279 Y106.721 E8.36343
G1 X75.279 Y71.279 E9.40559
G1 X124.643 Y71.279 E10.85713
G1 X125.240 Y70.760 F7800.000
G1 X125.240 Y107.240 F1260.000 E11.92985
G1 X74.760 Y107.240 E13.41424
G1 X74.760 Y70.760 E14.48695
G1 X125.162 Y70.760 E15.96905
G1 X124.980 Y71.210 F7800.000
G1 X123.824 Y105.824
G1 X123.085 Y105.824 F3600.000 E15.99092
G1 X123.824 Y105.085 E16.02183
G1 X123.824 Y104.346 E16.04369
G1 X122.346 Y105.824 E16.10552
G1 X121.607 Y105.824 E16.12737
G1 X123.824 Y103.607 E16.22011
G1 X123.824 Y102.868 E16.24197
G1 X120.868 Y105.824 E16.36561
G1 X120.129 Y105.824 E16.38747
G1 X123.824 Y102.129 E16.54202
G1 X123.824 Y101.390 E16.56388
G1 X119.390 Y105.824 E16.74934
G1 X118.651 Y105.824 E16.77120
G1 X123.824 Y100.651 E16.98758
G1 X123.824 Y99.912 E17.00943
G1 X117.912 Y105.824 E17.25672
G1 X117.173 Y105.824 E17.27857
G1 X123.824 Y99.173 E17.55676
G1 X123.824 Y98.433 E17.57862
G1 X116.433 Y105.824 E17.88772
G1 X115.694 Y105.824 E17.90958
G1 X123.824 Y97.694 E18.24959
G1 X123.824 Y96.955 E18.27145
G1 X114.955 Y105.824 E18.64237
G1 X114.216 Y105.824 E18.66422
G1 X123.824 Y96.216 E19.06606
G1 X123.824 Y95.477 E19.08791
G1 X113.477 Y105.824 E19.52065
G1 X112.738 Y105.824 E19.54251
G1 X123.824 Y94.738 E20.00616
G1 X123.824 Y93.999 E20.02801
G1 X111.999 Y105.824 E20.52257
G1 X111.260 Y105.824 E20.54443
G1 X123.824 Y93.260 E21.06990
G1 X123.824 Y92.521 E21.09175
G1 X110.521 Y105.824 E21.64813
G1 X109.782 Y105.824 E21.66999
G1 X123.824 Y91.782 E22.25727
G1 X123.824 Y91.043 E22.27913
G1 X109.043 Y105.824 E22.89733
G1 X108.304 Y105.824 E22.91918
G1 X123.824 Y90.304 E23.56829
G1 X123.824 Y89.565 E23.59015
G1 X107.565 Y105.824 E24.27016
G1 X106.826 Y105.824 E24.29202
G1 X123.824 Y88.826 E25.00294
G1 X123.824 Y88.087 E25.02480
G1 X106.087 Y105.824 E25.76663
G1 X105.348 Y105.824 E25.78849
G1 X123.824 Y87.348 E26.56123
G1 X123.824 Y86.608 E26.58309
G1 X104.608 Y105.824 E27.38674
G1 X103.869 Y105.824 E27.40860
G1 X123.824 Y85.869 E28.24316
G1 X123.824 Y85.130 E28.26502
G1 X103.130 Y105.824 E29.13049
G1 X102.391 Y105.824 E29.15234
G1 X123.824 Y84.391 E30.04872
G1 X123.824 Y83.652 E30.07058
G1 X101.652 Y105.824 E30.99787
G1 X100.913 Y105.824 E31.01973
G1 X123.824 Y82.913 E31.97793
G1 X123.824 Y82.174 E31.99978
G1 X100.174 Y105.824 E32.98889
G1 X99.435 Y105.824 E33.01075
G1 X123.824 Y81.435 E34.03077
G1 X123.824 Y80.696 E34.05262
G1 X98.696 Y105.824 E35.10355
G1 X97.957 Y105.824 E35.12541
G1 X123.824 Y79.957 E36.20725
G1 X123.824 Y79.218 E36.22910
G1 X97.218 Y105.824 E37.34185
G1 X96.479 Y105.824 E37.36371
G1 X123.824 Y78.479 E38.50736
G1 X123.824 Y77.740 E38.52922
G1 X95.740 Y105.824 E39.70378
G1 X95.001 Y105.824 E39.72564
G1 X123.824 Y77.001 E40.93112
G1 X123.824 Y76.262 E40.95297
G1 X94.262 Y105.824 E42.18936
G1 X93.523 Y105.824 E42.21121
G1 X123.824 Y75.523 E43.47851
G1 X123.824 Y74.783 E43.50036
G1 X92.783 Y105.824 E44.79857
G1 X92.044 Y105.824 E44.82042
G1 X123.824 Y74.044 E46.14953
G1 X123.824 Y73.305 E46.17139
G1 X91.305 Y105.824 E47.53141
G1 X90.566 Y105.824 E47.55327
G1 X123.824 Y72.566 E48.94420
G1 X123.476 Y72.176 E48.95968
G1 X89.827 Y105.824 E50.36695
G1 X89.088 Y105.824 E50.38880
G1 X122.737 Y72.176 E51.79607
G1 X121.998 Y72.176 E51.81792
G1 X88.349 Y105.824 E53.22519
G1 X87.610 Y105.824 E53.24705
G1 X121.259 Y72.176 E54.65431
G1 X120.520 Y72.176 E54.67617
G1 X86.871 Y105.824 E56.08343
G1 X86.132 Y105.824 E56.10529
G1 X119.780 Y72.176 E57.51256
G1 X119.041 Y72.176 E57.53441
G1 X85.393 Y105.824 E58.94168
G1 X84.654 Y105.824 E58.96353
G1 X118.302 Y72.176 E60.37080
G1 X117.563 Y72.176 E60.39266
G1 X83.915 Y105.824 E61.79992
G1 X83.176 Y105.824 E61.82178
G1 X116.824 Y72.176 E63.22904
G1 X116.085 Y72.176 E63.25090
G1 X82.437 Y105.824 E64.65817
G1 X81.697 Y105.824 E64.68002
G1 X115.346 Y72.176 E66.08729
G1 X114.607 Y72.176 E66.10914
G1 X80.958 Y105.824 E67.51641
G1 X80.219 Y105.824 E67.53827
G1 X113.868 Y72.176 E68.94553
G1 X113.129 Y72.176 E68.96739
G1 X79.480 Y105.824 E70.37465
G1 X78.741 Y105.824 E70.39651
G1 X112.390 Y72.176 E71.80378
G1 X111.651 Y72.176 E71.82563
G1 X78.002 Y105.824 E73.23290
G1 X77.263 Y105.824 E73.25475
G1 X110.912 Y72.176 E74.66202
G1 X110.173 Y72.176 E74.68388
G1 X76.524 Y105.824 E76.09114
G1 X76.176 Y105.434 E76.10662
G1 X109.434 Y72.176 E77.49755
G1 X108.695 Y72.176 E77.51940
G1 X76.176 Y104.695 E78.87942
G1 X76.176 Y103.955 E78.90127
G1 X107.955 Y72.176 E80.23038
G1 X107.216 Y72.176 E80.25224
G1 X76.176 Y103.216 E81.55043
G1 X76.176 Y102.477 E81.57229
G1 X106.477 Y72.176 E82.83958
G1 X105.738 Y72.176 E82.86144
G1 X76.176 Y101.738 E84.09781
G1 X76.176 Y100.999 E84.11967
G1 X104.999 Y72.176 E85.32514
G1 X104.260 Y72.176 E85.34699
G1 X76.176 Y100.260 E86.52155
G1 X76.176 Y99.521 E86.54341
G1 X103.521 Y72.176 E87.68706
G1 X102.782 Y72.176 E87.70892
G1 X76.176 Y98.782 E88.82166
G1 X76.176 Y98.043 E88.84351
G1 X102.043 Y72.176 E89.92535
G1 X101.304 Y72.176 E89.94720
G1 X76.176 Y97.304 E90.99812
G1 X76.176 Y96.565 E91.01998
G1 X100.565 Y72.176 E92.03999
G1 X99.826 Y72.176 E92.06185
G1 X76.176 Y95.826 E93.05095
G1 X76.176 Y95.087 E93.07281
G1 X99.087 Y72.176 E94.03100
G1 X98.348 Y72.176 E94.05286
G1 X76.176 Y94.348 E94.98014
G1 X76.176 Y93.609 E95.00200
G1 X97.609 Y72.176 E95.89837
G1 X96.870 Y72.176 E95.92023
G1 X76.176 Y92.870 E96.78570
G1 X76.176 Y92.130 E96.80755
G1 X96.130 Y72.176 E97.64211
G1 X95.391 Y72.176 E97.66396
G1 X76.176 Y91.391 E98.46761
G1 X76.176 Y90.652 E98.48947
G1 X94.652 Y72.176 E99.26220
G1 X93.913 Y72.176 E99.28406
G1 X76.176 Y89.913 E100.02589
G1 X76.176 Y89.174 E100.04774
G1 X93.174 Y72.176 E100.75866
G1 X92.435 Y72.176 E100.78052
G1 X76.176 Y88.435 E101.46053
G1 X76.176 Y87.696 E101.48238
G1 X91.696 Y72.176 E102.13148
G1 X90.957 Y72.176 E102.15334
G1 X76.176 Y86.957 E102.77153
G1 X76.176 Y86.218 E102.79339
G1 X90.218 Y72.176 E103.38067
G1 X89.479 Y72.176 E103.40252
G1 X76.176 Y85.479 E103.95890
G1 X76.176 Y84.740 E103.98075
G1 X88.740 Y72.176 E104.50621
G1 X88.001 Y72.176 E104.52807
G1 X76.176 Y84.001 E105.02262
G1 X76.176 Y83.262 E105.04448
G1 X87.262 Y72.176 E105.50812
G1 X86.523 Y72.176 E105.52998
G1 X76.176 Y82.523 E105.96271
G1 X76.176 Y81.784 E105.98457
G1 X85.784 Y72.176 E106.38639
G1 X85.045 Y72.176 E106.40825
G1 X76.176 Y81.045 E106.77916
G1 X76.176 Y80.305 E106.80102
G1 X84.305 Y72.176 E107.14103
G1 X83.566 Y72.176 E107.16288
G1 X76.176 Y79.566 E107.47198
G1 X76.176 Y78.827 E107.49384
G1 X82.827 Y72.176 E107.77202
G1 X82.088 Y72.176 E107.79388
G1 X76.176 Y78.088 E108.04116
G1 X76.176 Y77.349 E108.06301
G1 X81.349 Y72.176 E108.27938
G1 X80.610 Y72.176 E108.30124
G1 X76.176 Y76.610 E108.48669
G1 X76.176 Y75.871 E108.50855
G1 X79.871 Y72.176 E108.66310
G1 X79.132 Y72.176 E108.68496
G1 X76.176 Y75.132 E108.80860
G1 X76.176 Y74.393 E108.83045
G1 X78.393 Y72.176 E108.92318
G1 X77.654 Y72.176 E108.94504
G1 X76.176 Y73.654 E109.00686
G1 X76.176 Y72.915 E109.02872
G1 X76.915 Y72.176 E109.05963
G1 F1800.000 E108.05963
G1 Z1.800
G92 E0
G1 X75.799 Y71.799 F7800.000
G1 Z1.300
G1 F1800.000 E1.00000
G1 X124.201 Y71.799 F1800.000 E2.42327
G1 X124.201 Y106.201 E3.43487
G1 X75.799 Y106.201 E4.85814
G1 X75.799 Y71.877 E5.86744
G1 X75.279 Y71.279 F7800.000
G1 X124.721 Y71.279 F1800.000 E7.32128
G1 X124.721 Y106.721 E8.36343
G1 X75.279 Y106.721 E9.81726
G1 X75.279 Y71.357 E10.85713
G1 X74.760 Y70.760 F7800.000
G1 X125.240 Y70.760 F1260.000 E12.34152
G1 X125.240 Y107.240 E13.41424
G1 X74.760 Y107.240 E14.89863
G1 X74.760 Y70.838 E15.96905
G1 X75.210 Y71.020 F7800.000
G1 X76.176 Y105.824
G1 X76.176 Y105.085 F3600.000 E15.99092
G1 X76.915 Y105.824 E16.02183
G1 X77.654 Y105.824 E16.04369
G1 X76.176 Y104.346 E16.10552
G1 X76.176 Y103.607 E16.12737
G1 X78.393 Y105.824 E16.22011
G1 X79.132 Y105.824 E16.24197
G1 X76.176 Y102.868 E16.36561
G1 X76.176 Y102.129 E16.38747
G1 X79.871 Y105.824 E16.54202
G1 X80.610 Y105.824 E16.56388
G1 X76.176 Y101.390 E16.74934
G1 X76.176 Y100.651 E16.77120
G1 X81.349 Y105.824 E16.98758
G1 X82.088 Y105.824 E17.00943
G1 X76.176 Y99.912 E17.25672
G1 X76.176 Y99.173 E17.27857
G1 X82.827 Y105.824 E17.55676
G1 X83.567 Y105.824 E17.57862
G1 X76.176 Y98.433 E17.88772
G1 X76.176 Y97.694 E17.90958
G1 X84.306 Y105.824 E18.24959
G1 X85.045 Y105.824 E18.27145
G1 X76.176 Y96.955 E18.64237
G1 X76.176 Y96.216 E18.66422
G1 X85.784 Y105.824 E19.06606
G1 X86.523 Y105.824 E19.08791
G1 X76.176 Y95.477 E19.52065
G1 X76.176 Y94.738 E19.54251
G1 X87.262 Y105.824 E20.00616
G1 X88.001 Y105.824 E20.02801
G1 X76.176 Y93.999 E20.52257
