; generated by Slic3r 0.9.10b on 2014-02-14 at 16:20:54

; layer_height = 0.4
; perimeters = 3
; top_solid_layers = 3
; bottom_solid_layers = 3
; fill_density = 0.4
; perimeter_speed = 30
; infill_speed = 60
; travel_speed = 130
; nozzle_diameter = 0.5
; filament_diameter = 3
; extrusion_multiplier = 1
; perimeters extrusion width = 0.53mm
; infill extrusion width = 0.53mm
; solid infill extrusion width = 0.53mm
; top infill extrusion width = 0.53mm
; first layer extrusion width = 0.80mm

G21 ; set units to millimeters
M190 S60 ; wait for bed temperature to be reached
M104 S185 ; set temperature
G28 ; home all axes
G1 Z5 F5000 ; lift nozzle
G92 E0 ;reset extruder
M109 S185 ; wait for temperature to be reached
G90 ; use absolute coordinates
G92 E0 ; reset extrusion distance
M82 ; use absolute distances for extrusion
G1 F1800.000 E-1.00000 ; retract
G1 Z0.900 F7800.000 ; move to next layer (0) and lift
G92 E0 ; reset extrusion distance
G1 X72.263 Y61.515 ; move to first skirt point
G1 Z0.400 ; restore layer Z
G1 F1800.000 E1.00000 ; compensate retraction
G1 X73.283 Y60.675 F1440.000 E1.05501 ; skirt
G1 X74.443 Y60.055 E1.10976 ; skirt
G1 X75.713 Y59.665 E1.16506 ; skirt
G1 X77.023 Y59.535 E1.21986 ; skirt
G1 X122.973 Y59.535 E3.13265 ; skirt
G1 X124.283 Y59.665 E3.18745 ; skirt
G1 X125.553 Y60.055 E3.24275 ; skirt
G1 X126.713 Y60.675 E3.29750 ; skirt
G1 X127.733 Y61.515 E3.35251 ; skirt
G1 X128.572 Y62.535 E3.40751 ; skirt
G1 X129.193 Y63.695 E3.46227 ; skirt
G1 X129.583 Y64.965 E3.51757 ; skirt
G1 X129.713 Y66.275 E3.57237 ; skirt
G1 X129.713 Y111.725 E5.46434 ; skirt
G1 X129.583 Y113.035 E5.51914 ; skirt
G1 X129.193 Y114.305 E5.57444 ; skirt
G1 X128.572 Y115.465 E5.62920 ; skirt
G1 X127.733 Y116.485 E5.68420 ; skirt
G1 X126.713 Y117.325 E5.73921 ; skirt
G1 X125.553 Y117.945 E5.79396 ; skirt
G1 X124.283 Y118.335 E5.84926 ; skirt
G1 X122.973 Y118.465 E5.90406 ; skirt
G1 X77.023 Y118.465 E7.81685 ; skirt
G1 X75.713 Y118.335 E7.87165 ; skirt
G1 X74.443 Y117.945 E7.92695 ; skirt
G1 X73.283 Y117.325 E7.98170 ; skirt
G1 X72.263 Y116.485 E8.03671 ; skirt
G1 X71.423 Y115.465 E8.09171 ; skirt
G1 X70.803 Y114.305 E8.14647 ; skirt
G1 X70.413 Y113.035 E8.20177 ; skirt
G1 X70.283 Y111.725 E8.25657 ; skirt
G1 X70.283 Y66.275 E10.14854 ; skirt
G1 X70.413 Y64.965 E10.20334 ; skirt
G1 X70.803 Y63.695 E10.25865 ; skirt
G1 X71.423 Y62.535 E10.31340 ; skirt
G1 X72.192 Y61.600 E10.36381 ; skirt
G1 F1800.000 E9.36381 ; retract
G1 Z0.900 F7800.000 ; lift plate during travel
G92 E0 ; reset extrusion distance
G1 X83.817 Y93.449 ; move to first perimeter point
G1 Z0.400 ; restore layer Z
G1 F1800.000 E1.00000 ; compensate retraction
G1 X85.283 Y93.054 F1440.000 E1.06320 ; perimeter
G1 X86.793 Y92.923 E1.12631 ; perimeter
G1 X88.306 Y93.054 E1.18951 ; perimeter
G1 X89.770 Y93.449 E1.25263 ; perimeter
G1 X91.145 Y94.088 E1.31575 ; perimeter
G1 X92.388 Y94.959 E1.37892 ; perimeter
G1 X93.459 Y96.031 E1.44201 ; perimeter
G1 X94.330 Y97.273 E1.50518 ; perimeter
G1 X94.972 Y98.649 E1.56836 ; perimeter
G1 X95.364 Y100.115 E1.63154 ; perimeter
G1 X95.495 Y101.625 E1.69465 ; perimeter
G1 X95.364 Y103.135 E1.75775 ; perimeter
G1 X94.972 Y104.602 E1.82094 ; perimeter
G1 X94.330 Y105.975 E1.88404 ; perimeter
G1 X93.459 Y107.217 E1.94719 ; perimeter
G1 X92.388 Y108.291 E2.01033 ; perimeter
G1 X91.145 Y109.160 E2.07347 ; perimeter
G1 X89.770 Y109.801 E2.13664 ; perimeter
G1 X88.306 Y110.194 E2.19973 ; perimeter
G1 X86.793 Y110.327 E2.26294 ; perimeter
G1 X85.283 Y110.194 E2.32606 ; perimeter
G1 X83.817 Y109.801 E2.38923 ; perimeter
G1 X82.443 Y109.160 E2.45233 ; perimeter
G1 X81.201 Y108.291 E2.51544 ; perimeter
G1 X81.110 Y108.200 E2.52078 ; perimeter
G1 X80.127 Y107.217 E2.57866 ; perimeter
G1 X79.258 Y105.975 E2.64177 ; perimeter
G1 X78.617 Y104.602 E2.70487 ; perimeter
G1 X78.224 Y103.135 E2.76804 ; perimeter
G1 X78.092 Y101.625 E2.83116 ; perimeter
G1 X78.224 Y100.115 E2.89428 ; perimeter
G1 X78.617 Y98.649 E2.95746 ; perimeter
G1 X79.258 Y97.273 E3.02063 ; perimeter
G1 X80.127 Y96.031 E3.08375 ; perimeter
G1 X81.201 Y94.959 E3.14690 ; perimeter
G1 X82.443 Y94.088 E3.21007 ; perimeter
G1 X83.717 Y93.495 E3.26853 ; perimeter
G1 X84.366 Y93.937 F7800.000 ; move inwards before travel
G1 X83.900 Y92.398 ; move to first perimeter point
G1 X83.900 Y73.467 F1440.000 E4.05657 ; perimeter
G1 X85.646 Y75.213 E4.15934 ; perimeter
G1 X85.646 Y90.652 E4.80205 ; perimeter
G1 X87.940 Y90.652 E4.89756 ; perimeter
G1 X87.940 Y75.213 E5.54027 ; perimeter
G1 X89.686 Y73.467 E5.64303 ; perimeter
G1 X89.686 Y92.398 E6.43108 ; perimeter
G1 X84.011 Y92.398 E6.66732 ; perimeter
G1 X84.268 Y91.761 F7800.000 ; move inwards before travel
G1 F1800.000 E5.66732 ; retract
G1 Z0.900 F7800.000 ; lift plate during travel
G92 E0 ; reset extrusion distance
G1 X110.312 Y92.398 ; move to first perimeter point
G1 Z0.400 ; restore layer Z
G1 F1800.000 E1.00000 ; compensate retraction
G1 X110.312 Y73.467 F1440.000 E1.78804 ; perimeter
G1 X112.058 Y75.213 E1.89081 ; perimeter
G1 X112.058 Y90.652 E2.53352 ; perimeter
G1 X114.352 Y90.652 E2.62903 ; perimeter
G1 X114.352 Y75.213 E3.27174 ; perimeter
G1 X116.098 Y73.467 E3.37450 ; perimeter
G1 X116.098 Y92.398 E4.16254 ; perimeter
G1 X110.422 Y92.398 E4.39879 ; perimeter
G1 X110.680 Y91.761 F7800.000 ; move inwards before travel
G1 X111.694 Y93.054 ; move to first perimeter point
G1 X113.205 Y92.923 F1440.000 E4.46190 ; perimeter
G1 X114.717 Y93.054 E4.52510 ; perimeter
G1 X116.181 Y93.449 E4.58822 ; perimeter
G1 X117.557 Y94.088 E4.65135 ; perimeter
G1 X118.799 Y94.959 E4.71453 ; perimeter
G1 X119.871 Y96.031 E4.77760 ; perimeter
G1 X120.742 Y97.273 E4.84077 ; perimeter
G1 X121.383 Y98.649 E4.90395 ; perimeter
G1 X121.776 Y100.115 E4.96714 ; perimeter
G1 X121.906 Y101.625 E5.03024 ; perimeter
G1 X121.776 Y103.135 E5.09334 ; perimeter
G1 X121.383 Y104.602 E5.15653 ; perimeter
G1 X120.742 Y105.975 E5.21963 ; perimeter
G1 X119.871 Y107.217 E5.28279 ; perimeter
G1 X118.799 Y108.291 E5.34593 ; perimeter
G1 X117.557 Y109.160 E5.40906 ; perimeter
G1 X116.181 Y109.801 E5.47223 ; perimeter
G1 X114.717 Y110.194 E5.53532 ; perimeter
G1 X113.205 Y110.327 E5.59853 ; perimeter
G1 X111.694 Y110.194 E5.66165 ; perimeter
G1 X110.228 Y109.801 E5.72482 ; perimeter
G1 X108.855 Y109.160 E5.78792 ; perimeter
G1 X107.612 Y108.291 E5.85103 ; perimeter
G1 X106.539 Y107.217 E5.91425 ; perimeter
G1 X105.670 Y105.975 E5.97737 ; perimeter
G1 X105.028 Y104.602 E6.04046 ; perimeter
G1 X104.636 Y103.135 E6.10364 ; perimeter
G1 X104.503 Y101.625 E6.16676 ; perimeter
G1 X104.636 Y100.115 E6.22988 ; perimeter
G1 X105.028 Y98.649 E6.29305 ; perimeter
G1 X105.670 Y97.273 E6.35622 ; perimeter
G1 X106.539 Y96.031 E6.41935 ; perimeter
G1 X107.612 Y94.959 E6.48249 ; perimeter
G1 X108.855 Y94.088 E6.54566 ; perimeter
G1 X110.228 Y93.449 E6.60872 ; perimeter
G1 X111.588 Y93.083 E6.66732 ; perimeter
G1 X112.150 Y93.631 F7800.000 ; move inwards before travel
G1 F1800.000 E5.66732 ; retract
G1 Z0.900 F7800.000 ; lift plate during travel
G92 E0 ; reset extrusion distance
G1 X80.715 Y109.886 ; move to first perimeter point
G1 Z0.400 ; restore layer Z
G1 F1800.000 E1.00000 ; compensate retraction
G1 X78.862 Y109.886 F864.000 E1.07716 ; perimeter
G1 X78.862 Y108.032 E1.15432 ; perimeter
G1 X80.637 Y109.808 E1.25885 ; perimeter
G1 F1800.000 E0.25885 ; retract
G1 Z0.900 F7800.000 ; lift plate during travel
G92 E0 ; reset extrusion distance
G1 X78.126 Y105.998 ; move to first perimeter point
G1 Z0.400 ; restore layer Z
G1 F1800.000 E1.00000 ; compensate retraction
G1 X78.331 Y105.933 F864.000 E1.00896 ; perimeter
G1 X79.561 Y107.692 E1.09830 ; perimeter
G1 X80.726 Y108.857 E1.16689 ; perimeter
G1 X82.074 Y109.800 E1.23535 ; perimeter
G1 X83.135 Y110.295 E1.28410 ; perimeter
G1 X83.063 Y110.622 E1.29802 ; perimeter
G1 X78.126 Y110.622 E1.50353 ; perimeter
G1 X78.126 Y106.108 E1.69140 ; perimeter
G1 F1800.000 E0.69140 ; retract
G1 Z0.900 F7800.000 ; lift plate during travel
G92 E0 ; reset extrusion distance
G1 X93.064 Y108.715 ; move to first perimeter point
G1 Z0.400 ; restore layer Z
G1 F1800.000 E1.00000 ; compensate retraction
G1 X93.144 Y109.623 F864.000 E1.03793 ; perimeter
G1 X93.412 Y110.622 E1.08097 ; perimeter
G1 X90.525 Y110.622 E1.20115 ; perimeter
G1 X90.453 Y110.295 E1.21509 ; perimeter
G1 X91.514 Y109.800 E1.26385 ; perimeter
G1 X92.974 Y108.779 E1.33800 ; perimeter
G1 F1800.000 E0.33800 ; retract
G1 Z0.900 F7800.000 ; lift plate during travel
G92 E0 ; reset extrusion distance
G1 X109.474 Y110.622 ; move to first perimeter point
G1 Z0.400 ; restore layer Z
G1 F1800.000 E1.00000 ; compensate retraction
G1 X106.588 Y110.622 F864.000 E1.12015 ; perimeter
G1 X106.856 Y109.623 E1.16319 ; perimeter
G1 X106.936 Y108.715 E1.20112 ; perimeter
G1 X108.486 Y109.800 E1.27987 ; perimeter
G1 X109.547 Y110.295 E1.32861 ; perimeter
G1 X109.498 Y110.514 E1.33794 ; perimeter
G1 F1800.000 E0.33794 ; retract
G1 Z0.900 F7800.000 ; lift plate during travel
G92 E0 ; reset extrusion distance
G1 X119.286 Y109.886 ; move to first perimeter point
G1 Z0.400 ; restore layer Z
G1 F1800.000 E1.00000 ; compensate retraction
G1 X121.138 Y108.030 F864.000 E1.10916 ; perimeter
G1 X121.138 Y109.886 E1.18643 ; perimeter
G1 X119.396 Y109.886 E1.25895 ; perimeter
G1 F1800.000 E0.25895 ; retract
G1 Z0.900 F7800.000 ; lift plate during travel
G92 E0 ; reset extrusion distance
G1 X116.864 Y110.295 ; move to first perimeter point
G1 Z0.400 ; restore layer Z
G1 F1800.000 E1.00000 ; compensate retraction
G1 X117.926 Y109.800 F864.000 E1.04875 ; perimeter
G1 X119.274 Y108.857 E1.11725 ; perimeter
G1 X120.436 Y107.692 E1.18575 ; perimeter
G1 X121.669 Y105.933 E1.27515 ; perimeter
G1 X121.874 Y105.998 E1.28408 ; perimeter
G1 X121.874 Y110.622 E1.47655 ; perimeter
G1 X116.937 Y110.622 E1.68208 ; perimeter
G1 X116.888 Y110.402 E1.69142 ; perimeter
G1 F1800.000 E0.69142 ; retract
G1 Z0.900 F7800.000 ; lift plate during travel
G92 E0 ; reset extrusion distance
G1 X103.433 Y104.331 ; move to first perimeter point
G1 Z0.400 ; restore layer Z
G1 F1800.000 E1.00000 ; compensate retraction
G1 X96.567 Y104.331 F1440.000 E1.28580 ; perimeter
G1 X96.819 Y103.391 E1.32631 ; perimeter
G1 X96.972 Y101.625 E1.40010 ; perimeter
G1 X96.819 Y99.859 E1.47388 ; perimeter
G1 X96.360 Y98.144 E1.54780 ; perimeter
G1 X95.609 Y96.534 E1.62173 ; perimeter
G1 X94.590 Y95.081 E1.69561 ; perimeter
G1 X93.337 Y93.828 E1.76938 ; perimeter
G1 X91.883 Y92.808 E1.84332 ; perimeter
G1 X91.157 Y92.471 E1.87662 ; perimeter
G1 X91.157 Y71.144 E2.76441 ; perimeter
G1 X108.841 Y71.144 E3.50053 ; perimeter
G1 X108.841 Y92.472 E4.38834 ; perimeter
G1 X108.116 Y92.809 E4.42160 ; perimeter
G1 X106.663 Y93.828 E4.49547 ; perimeter
G1 X105.408 Y95.081 E4.56933 ; perimeter
G1 X104.390 Y96.535 E4.64321 ; perimeter
G1 X103.640 Y98.144 E4.71709 ; perimeter
G1 X103.182 Y99.858 E4.79096 ; perimeter
G1 X103.026 Y101.625 E4.86480 ; perimeter
G1 X103.182 Y103.392 E4.93864 ; perimeter
G1 X103.404 Y104.224 E4.97451 ; perimeter
G1 F1800.000 E3.97451 ; retract
G1 Z0.900 F7800.000 ; lift plate during travel
G92 E0 ; reset extrusion distance
G1 X117.569 Y92.471 ; move to first perimeter point
G1 Z0.400 ; restore layer Z
G1 F1800.000 E1.00000 ; compensate retraction
G1 X117.569 Y69.915 F1440.000 E1.93895 ; perimeter
G1 X113.205 Y74.279 E2.19586 ; perimeter
G1 X109.414 Y70.488 E2.41902 ; perimeter
G1 X109.414 Y68.114 E2.51786 ; perimeter
G1 X121.138 Y68.114 E3.00592 ; perimeter
G1 X121.138 Y95.218 E4.13418 ; perimeter
G1 X119.749 Y93.828 E4.21598 ; perimeter
G1 X118.295 Y92.808 E4.28992 ; perimeter
G1 X117.669 Y92.518 E4.31864 ; perimeter
G1 F1800.000 E3.31864 ; retract
G1 Z0.900 F7800.000 ; lift plate during travel
G92 E0 ; reset extrusion distance
G1 X90.586 Y70.486 ; move to first perimeter point
G1 Z0.400 ; restore layer Z
G1 F1800.000 E1.00000 ; compensate retraction
G1 X86.793 Y74.279 F1440.000 E1.22328 ; perimeter
G1 X82.429 Y69.915 E1.48019 ; perimeter
G1 X82.429 Y92.472 E2.41916 ; perimeter
G1 X81.705 Y92.809 E2.45241 ; perimeter
G1 X80.252 Y93.828 E2.52629 ; perimeter
G1 X78.862 Y95.215 E2.60806 ; perimeter
G1 X78.862 Y68.114 E3.73621 ; perimeter
G1 X90.586 Y68.114 E4.22427 ; perimeter
G1 X90.586 Y70.376 E4.31843 ; perimeter
G1 F1800.000 E3.31843 ; retract
G1 Z0.900 F7800.000 ; lift plate during travel
G92 E0 ; reset extrusion distance
G1 X121.874 Y97.250 ; move to first perimeter point
G1 Z0.400 ; restore layer Z
G1 F1800.000 E1.00000 ; compensate retraction
G1 X121.669 Y97.315 F1440.000 E1.00893 ; perimeter
G1 X120.436 Y95.556 E1.09835 ; perimeter
G1 X119.274 Y94.394 E1.16677 ; perimeter
G1 X117.926 Y93.448 E1.23533 ; perimeter
G1 X116.833 Y92.940 E1.28547 ; perimeter
G1 X116.833 Y71.691 E2.17003 ; perimeter
G1 X113.616 Y74.908 E2.35940 ; perimeter
G1 X113.616 Y89.917 E2.98418 ; perimeter
G1 X112.793 Y89.917 E3.01844 ; perimeter
G1 X112.793 Y74.908 E3.64321 ; perimeter
G1 X109.576 Y71.691 E3.83259 ; perimeter
G1 X109.576 Y92.941 E4.71716 ; perimeter
G1 X108.486 Y93.448 E4.76723 ; perimeter
G1 X107.138 Y94.393 E4.83576 ; perimeter
G1 X105.973 Y95.556 E4.90426 ; perimeter
G1 X105.030 Y96.904 E4.97276 ; perimeter
G1 X104.334 Y98.396 E5.04128 ; perimeter
G1 X103.909 Y99.986 E5.10981 ; perimeter
G1 X103.765 Y101.625 E5.17829 ; perimeter
G1 X103.909 Y103.264 E5.24677 ; perimeter
G1 X104.460 Y105.324 E5.33556 ; perimeter
G1 X103.706 Y105.122 E5.36808 ; perimeter
G1 X103.078 Y105.067 E5.39429 ; perimeter
G1 X96.922 Y105.067 E5.65058 ; perimeter
G1 X96.294 Y105.122 E5.67679 ; perimeter
G1 X95.540 Y105.324 E5.70932 ; perimeter
G1 X96.091 Y103.263 E5.79814 ; perimeter
G1 X96.233 Y101.625 E5.86658 ; perimeter
G1 X96.091 Y99.987 E5.93502 ; perimeter
G1 X95.666 Y98.396 E6.00358 ; perimeter
G1 X94.970 Y96.904 E6.07213 ; perimeter
G1 X94.025 Y95.556 E6.14066 ; perimeter
G1 X92.862 Y94.393 E6.20908 ; perimeter
G1 X91.514 Y93.448 E6.27764 ; perimeter
G1 X90.422 Y92.940 E6.32777 ; perimeter
G1 X90.422 Y71.691 E7.21233 ; perimeter
G1 X87.205 Y74.908 E7.40171 ; perimeter
G1 X87.205 Y89.917 E8.02648 ; perimeter
G1 X86.382 Y89.917 E8.06075 ; perimeter
G1 X86.382 Y74.908 E8.68552 ; perimeter
G1 X83.165 Y71.691 E8.87489 ; perimeter
G1 X83.165 Y92.941 E9.75946 ; perimeter
G1 X82.074 Y93.448 E9.80954 ; perimeter
G1 X80.726 Y94.393 E9.87806 ; perimeter
G1 X79.562 Y95.556 E9.94656 ; perimeter
G1 X78.331 Y97.315 E10.03592 ; perimeter
G1 X78.126 Y97.250 E10.04488 ; perimeter
G1 X78.126 Y67.378 E11.28836 ; perimeter
G1 X91.322 Y67.378 E11.83766 ; perimeter
G1 X91.322 Y70.408 E11.96379 ; perimeter
G1 X108.678 Y70.408 E12.68632 ; perimeter
G1 X108.678 Y67.378 E12.81245 ; perimeter
G1 X121.874 Y67.378 E13.36175 ; perimeter
G1 X121.874 Y97.140 E14.60064 ; perimeter
G1 F1800.000 E13.60064 ; retract
G1 Z0.900 F7800.000 ; lift plate during travel
G92 E0 ; reset extrusion distance
G1 X122.610 Y111.357 ; move to first perimeter point
G1 Z0.400 ; restore layer Z
G1 F1800.000 E1.00000 ; compensate retraction
G1 X105.053 Y111.357 F1440.000 E1.73083 ; perimeter
G1 X105.440 Y110.971 E1.75360 ; perimeter
G1 X105.756 Y110.520 E1.77651 ; perimeter
G1 X105.987 Y110.023 E1.79931 ; perimeter
G1 X106.129 Y109.495 E1.82209 ; perimeter
G1 X106.177 Y108.947 E1.84495 ; perimeter
G1 X106.129 Y108.400 E1.86781 ; perimeter
G1 X105.987 Y107.872 E1.89058 ; perimeter
G1 X105.756 Y107.373 E1.91348 ; perimeter
G1 X105.440 Y106.925 E1.93631 ; perimeter
G1 X105.053 Y106.535 E1.95915 ; perimeter
G1 X104.602 Y106.222 E1.98204 ; perimeter
G1 X104.106 Y105.991 E2.00481 ; perimeter
G1 X103.577 Y105.849 E2.02760 ; perimeter
G1 X103.046 Y105.802 E2.04978 ; perimeter
G1 X96.954 Y105.802 E2.30339 ; perimeter
G1 X96.423 Y105.849 E2.32557 ; perimeter
G1 X95.895 Y105.991 E2.34834 ; perimeter
G1 X95.396 Y106.222 E2.37121 ; perimeter
G1 X94.947 Y106.535 E2.39402 ; perimeter
G1 X94.558 Y106.925 E2.41693 ; perimeter
G1 X94.244 Y107.374 E2.43974 ; perimeter
G1 X94.013 Y107.872 E2.46261 ; perimeter
G1 X93.871 Y108.400 E2.48538 ; perimeter
G1 X93.823 Y108.947 E2.50824 ; perimeter
G1 X93.871 Y109.495 E2.53110 ; perimeter
