; generated by Slic3r 0.9.10b on 2014-02-14 at 13:05:09

; layer_height = 0.4
; perimeters = 3
; top_solid_layers = 3
; bottom_solid_layers = 3
; fill_density = 0.4
; perimeter_speed = 30
; infill_speed = 60
; travel_speed = 130
; nozzle_diameter = 0.5
; filament_diameter = 3
; extrusion_multiplier = 1
; perimeters extrusion width = 0.53mm
; infill extrusion width = 0.53mm
; solid infill extrusion width = 0.53mm
; top infill extrusion width = 0.53mm
; first layer extrusion width = 0.80mm

G21 ; set units to millimeters
M190 S60 ; wait for bed temperature to be reached
M104 S185 ; set temperature
G28 ; home all axes
G1 Z5 F5000 ; lift nozzle
G92 E0 ;reset extruder
M109 S185 ; wait for temperature to be reached
G90 ; use absolute coordinates
G92 E0 ; reset extrusion distance
M82 ; use absolute distances for extrusion
G1 F1800.000 E-1.00000 ; retract
G1 Z0.900 F7800.000 ; move to next layer (0) and lift
G92 E0 ; reset extrusion distance
G1 X72.490 Y61.740 ; move to first skirt point
G1 Z0.400 ; restore layer Z
G1 F1800.000 E1.00000 ; compensate retraction
G1 X73.510 Y60.900 F1440.000 E1.05501 ; skirt
G1 X74.670 Y60.280 E1.10976 ; skirt
G1 X75.940 Y59.890 E1.16506 ; skirt
G1 X77.250 Y59.760 E1.21986 ; skirt
G1 X122.750 Y59.760 E3.11391 ; skirt
G1 X124.060 Y59.890 E3.16871 ; skirt
G1 X125.330 Y60.280 E3.22402 ; skirt
G1 X126.490 Y60.900 E3.27877 ; skirt
G1 X127.510 Y61.740 E3.33378 ; skirt
G1 X128.350 Y62.760 E3.38878 ; skirt
G1 X128.970 Y63.920 E3.44353 ; skirt
G1 X129.360 Y65.190 E3.49884 ; skirt
G1 X129.490 Y66.500 E3.55364 ; skirt
G1 X129.490 Y111.500 E5.42688 ; skirt
G1 X129.360 Y112.810 E5.48168 ; skirt
G1 X128.970 Y114.080 E5.53698 ; skirt
G1 X128.350 Y115.240 E5.59173 ; skirt
G1 X127.510 Y116.260 E5.64674 ; skirt
G1 X126.490 Y117.100 E5.70174 ; skirt
G1 X125.330 Y117.720 E5.75649 ; skirt
G1 X124.060 Y118.110 E5.81180 ; skirt
G1 X122.750 Y118.240 E5.86660 ; skirt
G1 X77.250 Y118.240 E7.76065 ; skirt
G1 X75.940 Y118.110 E7.81545 ; skirt
G1 X74.670 Y117.720 E7.87075 ; skirt
G1 X73.510 Y117.100 E7.92551 ; skirt
G1 X72.490 Y116.260 E7.98051 ; skirt
G1 X71.650 Y115.240 E8.03552 ; skirt
G1 X71.030 Y114.080 E8.09027 ; skirt
G1 X70.640 Y112.810 E8.14557 ; skirt
G1 X70.510 Y111.500 E8.20037 ; skirt
G1 X70.510 Y66.500 E10.07361 ; skirt
G1 X70.640 Y65.190 E10.12841 ; skirt
G1 X71.030 Y63.920 E10.18372 ; skirt
G1 X71.650 Y62.760 E10.23847 ; skirt
G1 X72.420 Y61.825 E10.28888 ; skirt
G1 F1800.000 E9.28888 ; retract
G1 Z0.900 F7800.000 ; lift plate during travel
G92 E0 ; reset extrusion distance
G1 X83.976 Y93.401 ; move to first perimeter point
G1 Z0.400 ; restore layer Z
G1 F1800.000 E1.00000 ; compensate retraction
G1 X85.428 Y93.010 F1440.000 E1.06260 ; perimeter
G1 X86.924 Y92.881 E1.12511 ; perimeter
G1 X88.422 Y93.010 E1.18771 ; perimeter
G1 X89.872 Y93.401 E1.25023 ; perimeter
G1 X91.234 Y94.034 E1.31276 ; perimeter
G1 X92.465 Y94.897 E1.37533 ; perimeter
G1 X93.527 Y95.959 E1.43782 ; perimeter
G1 X94.390 Y97.189 E1.50039 ; perimeter
G1 X95.025 Y98.552 E1.56297 ; perimeter
G1 X95.414 Y100.004 E1.62556 ; perimeter
G1 X95.543 Y101.500 E1.68806 ; perimeter
G1 X95.414 Y102.996 E1.75056 ; perimeter
G1 X95.025 Y104.448 E1.81315 ; perimeter
G1 X94.390 Y105.809 E1.87566 ; perimeter
G1 X93.527 Y107.039 E1.93821 ; perimeter
G1 X92.466 Y108.103 E2.00075 ; perimeter
G1 X91.235 Y108.964 E2.06329 ; perimeter
G1 X89.872 Y109.599 E2.12586 ; perimeter
G1 X88.422 Y109.988 E2.18835 ; perimeter
G1 X86.924 Y110.119 E2.25096 ; perimeter
G1 X85.428 Y109.988 E2.31348 ; perimeter
G1 X83.976 Y109.599 E2.37606 ; perimeter
G1 X82.615 Y108.964 E2.43856 ; perimeter
G1 X81.385 Y108.103 E2.50107 ; perimeter
G1 X81.294 Y108.012 E2.50641 ; perimeter
G1 X80.321 Y107.039 E2.56369 ; perimeter
G1 X79.460 Y105.809 E2.62621 ; perimeter
G1 X78.825 Y104.448 E2.68870 ; perimeter
G1 X78.436 Y102.996 E2.75128 ; perimeter
G1 X78.305 Y101.500 E2.81380 ; perimeter
G1 X78.436 Y100.004 E2.87632 ; perimeter
G1 X78.825 Y98.552 E2.93890 ; perimeter
G1 X79.460 Y97.189 E3.00147 ; perimeter
G1 X80.321 Y95.959 E3.06400 ; perimeter
G1 X81.385 Y94.897 E3.12655 ; perimeter
G1 X82.615 Y94.034 E3.18912 ; perimeter
G1 X83.876 Y93.448 E3.24698 ; perimeter
G1 X84.525 Y93.890 F7800.000 ; move inwards before travel
G1 X84.056 Y92.368 ; move to first perimeter point
G1 X84.056 Y73.612 F1440.000 E4.02774 ; perimeter
G1 X85.792 Y75.348 E4.12991 ; perimeter
G1 X85.792 Y90.632 E4.76617 ; perimeter
G1 X88.056 Y90.632 E4.86043 ; perimeter
G1 X88.056 Y75.348 E5.49669 ; perimeter
G1 X89.792 Y73.612 E5.59887 ; perimeter
G1 X89.792 Y92.368 E6.37962 ; perimeter
G1 X84.167 Y92.368 E6.61379 ; perimeter
G1 X84.424 Y91.731 F7800.000 ; move inwards before travel
G1 F1800.000 E5.61379 ; retract
G1 Z0.900 F7800.000 ; lift plate during travel
G92 E0 ; reset extrusion distance
G1 X110.206 Y92.368 ; move to first perimeter point
G1 Z0.400 ; restore layer Z
G1 F1800.000 E1.00000 ; compensate retraction
G1 X110.206 Y73.612 F1440.000 E1.78076 ; perimeter
G1 X111.942 Y75.348 E1.88293 ; perimeter
G1 X111.942 Y90.632 E2.51919 ; perimeter
G1 X114.206 Y90.632 E2.61345 ; perimeter
G1 X114.206 Y75.348 E3.24971 ; perimeter
G1 X115.942 Y73.612 E3.35189 ; perimeter
G1 X115.942 Y92.368 E4.13264 ; perimeter
G1 X110.317 Y92.368 E4.36681 ; perimeter
G1 X110.574 Y91.731 F7800.000 ; move inwards before travel
G1 X111.578 Y93.010 ; move to first perimeter point
G1 X113.074 Y92.881 F1440.000 E4.42932 ; perimeter
G1 X114.572 Y93.010 E4.49192 ; perimeter
G1 X116.022 Y93.401 E4.55444 ; perimeter
G1 X117.385 Y94.034 E4.61697 ; perimeter
G1 X118.615 Y94.897 E4.67955 ; perimeter
G1 X119.677 Y95.959 E4.74203 ; perimeter
G1 X120.540 Y97.189 E4.80460 ; perimeter
G1 X121.175 Y98.552 E4.86718 ; perimeter
G1 X121.564 Y100.004 E4.92977 ; perimeter
G1 X121.693 Y101.500 E4.99227 ; perimeter
G1 X121.564 Y102.996 E5.05477 ; perimeter
G1 X121.175 Y104.448 E5.11736 ; perimeter
G1 X120.540 Y105.809 E5.17987 ; perimeter
G1 X119.677 Y107.039 E5.24242 ; perimeter
G1 X118.615 Y108.103 E5.30497 ; perimeter
G1 X117.385 Y108.964 E5.36750 ; perimeter
G1 X116.022 Y109.599 E5.43007 ; perimeter
G1 X114.572 Y109.988 E5.49256 ; perimeter
G1 X113.074 Y110.119 E5.55517 ; perimeter
G1 X111.578 Y109.988 E5.61769 ; perimeter
G1 X110.126 Y109.599 E5.68027 ; perimeter
G1 X108.765 Y108.964 E5.74277 ; perimeter
G1 X107.535 Y108.103 E5.80528 ; perimeter
G1 X106.471 Y107.039 E5.86790 ; perimeter
G1 X105.610 Y105.809 E5.93042 ; perimeter
G1 X104.975 Y104.448 E5.99291 ; perimeter
G1 X104.586 Y102.996 E6.05549 ; perimeter
G1 X104.455 Y101.500 E6.11801 ; perimeter
G1 X104.586 Y100.004 E6.18053 ; perimeter
G1 X104.975 Y98.552 E6.24311 ; perimeter
G1 X105.610 Y97.189 E6.30568 ; perimeter
G1 X106.471 Y95.959 E6.36821 ; perimeter
G1 X107.535 Y94.897 E6.43076 ; perimeter
G1 X108.765 Y94.034 E6.49333 ; perimeter
G1 X110.126 Y93.401 E6.55578 ; perimeter
G1 X111.471 Y93.039 E6.61379 ; perimeter
G1 X112.034 Y93.588 F7800.000 ; move inwards before travel
G1 F1800.000 E5.61379 ; retract
G1 Z0.900 F7800.000 ; lift plate during travel
G92 E0 ; reset extrusion distance
G1 X80.862 Y109.661 ; move to first perimeter point
G1 Z0.400 ; restore layer Z
G1 F1800.000 E1.00000 ; compensate retraction
G1 X79.089 Y109.661 F864.000 E1.07381 ; perimeter
G1 X79.089 Y107.888 E1.14762 ; perimeter
G1 X80.784 Y109.583 E1.24741 ; perimeter
G1 F1800.000 E0.24741 ; retract
G1 Z0.900 F7800.000 ; lift plate during travel
G92 E0 ; reset extrusion distance
G1 X83.174 Y110.397 ; move to first perimeter point
G1 Z0.400 ; restore layer Z
G1 F1800.000 E1.00000 ; compensate retraction
G1 X78.353 Y110.397 F864.000 E1.20065 ; perimeter
G1 X78.353 Y105.868 E1.38917 ; perimeter
G1 X78.559 Y105.803 E1.39813 ; perimeter
G1 X79.755 Y107.514 E1.48503 ; perimeter
G1 X80.910 Y108.669 E1.55302 ; perimeter
G1 X82.246 Y109.603 E1.62089 ; perimeter
G1 X83.246 Y110.070 E1.66682 ; perimeter
G1 X83.197 Y110.289 E1.67615 ; perimeter
G1 F1800.000 E0.67615 ; retract
G1 Z0.900 F7800.000 ; lift plate during travel
G92 E0 ; reset extrusion distance
G1 X90.676 Y110.397 ; move to first perimeter point
G1 Z0.400 ; restore layer Z
G1 F1800.000 E1.00000 ; compensate retraction
G1 X90.604 Y110.070 F864.000 E1.01394 ; perimeter
G1 X91.604 Y109.603 E1.05989 ; perimeter
G1 X93.124 Y108.540 E1.13711 ; perimeter
G1 X93.201 Y109.421 E1.17392 ; perimeter
G1 X93.463 Y110.397 E1.21598 ; perimeter
G1 X90.786 Y110.397 E1.32741 ; perimeter
G1 F1800.000 E0.32741 ; retract
G1 Z0.900 F7800.000 ; lift plate during travel
G92 E0 ; reset extrusion distance
G1 X109.324 Y110.397 ; move to first perimeter point
G1 Z0.400 ; restore layer Z
G1 F1800.000 E1.00000 ; compensate retraction
G1 X106.537 Y110.397 F864.000 E1.11600 ; perimeter
G1 X106.799 Y109.421 E1.15806 ; perimeter
G1 X106.876 Y108.540 E1.19487 ; perimeter
G1 X108.396 Y109.603 E1.27209 ; perimeter
G1 X109.396 Y110.070 E1.31803 ; perimeter
G1 X109.347 Y110.289 E1.32735 ; perimeter
G1 F1800.000 E0.32735 ; retract
G1 Z0.900 F7800.000 ; lift plate during travel
G92 E0 ; reset extrusion distance
G1 X119.139 Y109.661 ; move to first perimeter point
G1 Z0.400 ; restore layer Z
G1 F1800.000 E1.00000 ; compensate retraction
G1 X120.911 Y107.885 F864.000 E1.10442 ; perimeter
G1 X120.911 Y109.661 E1.17833 ; perimeter
G1 X119.249 Y109.661 E1.24751 ; perimeter
G1 F1800.000 E0.24751 ; retract
G1 Z0.900 F7800.000 ; lift plate during travel
G92 E0 ; reset extrusion distance
G1 X121.647 Y110.397 ; move to first perimeter point
G1 Z0.400 ; restore layer Z
G1 F1800.000 E1.00000 ; compensate retraction
G1 X116.826 Y110.397 F864.000 E1.20067 ; perimeter
G1 X116.754 Y110.070 E1.21461 ; perimeter
G1 X117.754 Y109.603 E1.26054 ; perimeter
G1 X119.090 Y108.668 E1.32845 ; perimeter
G1 X120.243 Y107.514 E1.39635 ; perimeter
G1 X121.442 Y105.803 E1.48331 ; perimeter
G1 X121.647 Y105.868 E1.49225 ; perimeter
G1 X121.647 Y110.286 E1.67617 ; perimeter
G1 F1800.000 E0.67617 ; retract
G1 Z0.900 F7800.000 ; lift plate during travel
G92 E0 ; reset extrusion distance
G1 X103.375 Y104.161 ; move to first perimeter point
G1 Z0.400 ; restore layer Z
G1 F1800.000 E1.00000 ; compensate retraction
G1 X96.625 Y104.161 F1440.000 E1.28100 ; perimeter
G1 X96.868 Y103.251 E1.32019 ; perimeter
G1 X97.020 Y101.500 E1.39337 ; perimeter
G1 X96.868 Y99.749 E1.46655 ; perimeter
G1 X96.413 Y98.047 E1.53988 ; perimeter
G1 X95.669 Y96.450 E1.61321 ; perimeter
G1 X94.658 Y95.009 E1.68649 ; perimeter
G1 X93.415 Y93.766 E1.75966 ; perimeter
G1 X91.972 Y92.755 E1.83301 ; perimeter
G1 X91.263 Y92.425 E1.86556 ; perimeter
G1 X91.263 Y71.339 E2.74332 ; perimeter
G1 X108.735 Y71.339 E3.47063 ; perimeter
G1 X108.735 Y92.426 E4.34841 ; perimeter
G1 X108.027 Y92.755 E4.38092 ; perimeter
G1 X106.586 Y93.766 E4.45420 ; perimeter
G1 X105.340 Y95.009 E4.52746 ; perimeter
G1 X104.331 Y96.451 E4.60073 ; perimeter
G1 X103.587 Y98.047 E4.67401 ; perimeter
G1 X103.132 Y99.747 E4.74729 ; perimeter
G1 X102.978 Y101.500 E4.82053 ; perimeter
G1 X103.132 Y103.253 E4.89378 ; perimeter
G1 X103.347 Y104.054 E4.92832 ; perimeter
G1 F1800.000 E3.92832 ; retract
G1 Z0.900 F7800.000 ; lift plate during travel
G92 E0 ; reset extrusion distance
G1 X117.413 Y92.425 ; move to first perimeter point
G1 Z0.400 ; restore layer Z
G1 F1800.000 E1.00000 ; compensate retraction
G1 X117.413 Y70.060 F1440.000 E1.93100 ; perimeter
G1 X113.074 Y74.399 E2.18644 ; perimeter
G1 X109.339 Y70.664 E2.40632 ; perimeter
G1 X109.339 Y68.339 E2.50311 ; perimeter
G1 X120.911 Y68.339 E2.98482 ; perimeter
G1 X120.911 Y95.112 E4.09932 ; perimeter
G1 X119.565 Y93.766 E4.17855 ; perimeter
G1 X118.123 Y92.755 E4.25189 ; perimeter
G1 X117.513 Y92.472 E4.27986 ; perimeter
G1 F1800.000 E3.27986 ; retract
G1 Z0.900 F7800.000 ; lift plate during travel
G92 E0 ; reset extrusion distance
G1 X90.661 Y70.662 ; move to first perimeter point
G1 Z0.400 ; restore layer Z
G1 F1800.000 E1.00000 ; compensate retraction
G1 X86.924 Y74.399 F1440.000 E1.22000 ; perimeter
G1 X82.585 Y70.060 E1.47544 ; perimeter
G1 X82.585 Y92.426 E2.40646 ; perimeter
G1 X81.877 Y92.755 E2.43896 ; perimeter
G1 X80.436 Y93.766 E2.51224 ; perimeter
G1 X79.089 Y95.110 E2.59144 ; perimeter
G1 X79.089 Y68.339 E3.70584 ; perimeter
G1 X90.661 Y68.339 E4.18755 ; perimeter
G1 X90.661 Y70.552 E4.27966 ; perimeter
G1 F1800.000 E3.27966 ; retract
G1 Z0.900 F7800.000 ; lift plate during travel
G92 E0 ; reset extrusion distance
G1 X78.353 Y67.603 ; move to first perimeter point
G1 Z0.400 ; restore layer Z
G1 F1800.000 E1.00000 ; compensate retraction
G1 X91.397 Y67.603 F1440.000 E1.54295 ; perimeter
G1 X91.397 Y70.603 E1.66784 ; perimeter
G1 X108.603 Y70.603 E2.38412 ; perimeter
G1 X108.603 Y67.603 E2.50900 ; perimeter
G1 X121.647 Y67.603 E3.05195 ; perimeter
G1 X121.647 Y97.130 E4.28108 ; perimeter
G1 X121.442 Y97.195 E4.29001 ; perimeter
G1 X120.242 Y95.484 E4.37700 ; perimeter
G1 X119.090 Y94.332 E4.44481 ; perimeter
G1 X117.754 Y93.394 E4.51277 ; perimeter
G1 X116.677 Y92.894 E4.56217 ; perimeter
G1 X116.677 Y71.836 E5.43878 ; perimeter
G1 X113.471 Y75.043 E5.62757 ; perimeter
G1 X113.471 Y89.897 E6.24589 ; perimeter
G1 X112.677 Y89.897 E6.27890 ; perimeter
G1 X112.677 Y75.043 E6.89722 ; perimeter
G1 X109.471 Y71.836 E7.08601 ; perimeter
G1 X109.471 Y92.895 E7.96263 ; perimeter
G1 X108.396 Y93.395 E8.01196 ; perimeter
G1 X107.060 Y94.331 E8.07988 ; perimeter
G1 X105.906 Y95.484 E8.14779 ; perimeter
G1 X104.971 Y96.820 E8.21569 ; perimeter
G1 X104.281 Y98.299 E8.28361 ; perimeter
G1 X103.859 Y99.876 E8.35154 ; perimeter
G1 X103.716 Y101.500 E8.41942 ; perimeter
G1 X103.859 Y103.124 E8.48730 ; perimeter
G1 X104.401 Y105.147 E8.57447 ; perimeter
G1 X103.671 Y104.951 E8.60592 ; perimeter
G1 X103.048 Y104.897 E8.63193 ; perimeter
G1 X96.952 Y104.897 E8.88572 ; perimeter
G1 X96.329 Y104.951 E8.91173 ; perimeter
G1 X95.599 Y105.147 E8.94319 ; perimeter
G1 X96.141 Y103.124 E9.03038 ; perimeter
G1 X96.282 Y101.500 E9.09823 ; perimeter
G1 X96.141 Y99.876 E9.16607 ; perimeter
G1 X95.719 Y98.299 E9.23402 ; perimeter
G1 X95.029 Y96.820 E9.30198 ; perimeter
G1 X94.092 Y95.484 E9.36991 ; perimeter
G1 X92.940 Y94.332 E9.43773 ; perimeter
G1 X91.603 Y93.394 E9.50569 ; perimeter
G1 X90.527 Y92.894 E9.55508 ; perimeter
G1 X90.527 Y71.836 E10.43169 ; perimeter
G1 X87.321 Y75.043 E10.62047 ; perimeter
G1 X87.321 Y89.897 E11.23879 ; perimeter
G1 X86.527 Y89.897 E11.27181 ; perimeter
G1 X86.527 Y75.043 E11.89013 ; perimeter
G1 X83.321 Y71.836 E12.07892 ; perimeter
G1 X83.321 Y92.895 E12.95553 ; perimeter
G1 X82.246 Y93.395 E13.00487 ; perimeter
G1 X80.910 Y94.331 E13.07279 ; perimeter
G1 X79.756 Y95.484 E13.14069 ; perimeter
G1 X78.559 Y97.195 E13.22761 ; perimeter
G1 X78.353 Y97.130 E13.23658 ; perimeter
G1 X78.353 Y67.714 E14.46111 ; perimeter
G1 X77.618 Y66.868 F7800.000 ; move to first perimeter point
G1 X92.132 Y66.868 F1440.000 E15.06530 ; perimeter
G1 X92.132 Y69.868 E15.19019 ; perimeter
G1 X107.868 Y69.868 E15.84522 ; perimeter
G1 X107.868 Y66.868 E15.97010 ; perimeter
G1 X122.382 Y66.868 E16.57430 ; perimeter
G1 X122.382 Y111.132 E18.41692 ; perimeter
G1 X105.012 Y111.132 E19.14000 ; perimeter
G1 X105.389 Y110.755 E19.16218 ; perimeter
G1 X105.702 Y110.309 E19.18489 ; perimeter
G1 X105.931 Y109.816 E19.20750 ; perimeter
G1 X106.072 Y109.292 E19.23008 ; perimeter
G1 X106.119 Y108.750 E19.25274 ; perimeter
G1 X106.072 Y108.208 E19.27540 ; perimeter
G1 X105.931 Y107.684 E19.29797 ; perimeter
G1 X105.702 Y107.189 E19.32067 ; perimeter
G1 X105.389 Y106.745 E19.34330 ; perimeter
G1 X105.005 Y106.359 E19.36594 ; perimeter
G1 X104.558 Y106.048 E19.38863 ; perimeter
G1 X104.066 Y105.819 E19.41121 ; perimeter
G1 X103.542 Y105.678 E19.43379 ; perimeter
G1 X103.016 Y105.632 E19.45578 ; perimeter
G1 X96.984 Y105.632 E19.70688 ; perimeter
G1 X96.458 Y105.678 E19.72887 ; perimeter
G1 X95.934 Y105.819 E19.75144 ; perimeter
G1 X95.440 Y106.048 E19.77411 ; perimeter
G1 X94.995 Y106.359 E19.79672 ; perimeter
G1 X94.609 Y106.745 E19.81943 ; perimeter
G1 X94.298 Y107.190 E19.84203 ; perimeter
G1 X94.069 Y107.684 E19.86471 ; perimeter
G1 X93.928 Y108.208 E19.88728 ; perimeter
