; generated by Slic3r 0.9.8-dev on 2012-12-30 at 14:17:46

; layer_height = 0.4
; perimeters = 3
; top_solid_layers = 3
; bottom_solid_layers = 3
; fill_density = 0.4
; perimeter_speed = 30
; infill_speed = 60
; travel_speed = 130
; scale = 1
; nozzle_diameter = 0.5
; filament_diameter = 3
; extrusion_multiplier = 1
; perimeters extrusion width = 0.53mm
; infill extrusion width = 0.53mm
; first layer extrusion width = 0.80mm

M190 S60 ; wait for bed temperature to be reached
M104 S185 ; set temperature
M104 S185 ; set extruder temperature
G28 ; home all axes
M109 S185 ; wait for temperature to be reached
G90 ; use absolute coordinates
G21 ; set units to millimeters
G92 E0 ; reset extrusion distance
M82 ; use absolute distances for extrusion
G1 F1800.000 E-1.00000 ; retract
G92 E0 ; reset extrusion distance
G1 Z0.400 F7800.000 ; move to next layer (0)
G1 X124.980 Y112.650 ; move to first skirt point
G1 F1800.000 E1.00000 ; compensate retraction
G1 X124.460 Y113.270 F540.000 E1.03368 ; skirt
G1 X123.860 Y113.820 E1.06757 ; skirt
G1 X123.200 Y114.290 E1.10130 ; skirt
G1 X122.490 Y114.690 E1.13522 ; skirt
G1 X121.730 Y114.990 E1.16923 ; skirt
G1 X120.950 Y115.200 E1.20286 ; skirt
G1 X120.410 Y115.290 E1.22565 ; skirt
G1 X119.600 Y115.340 E1.25943 ; skirt
G1 X80.130 Y115.330 E2.90247 ; skirt
G1 X79.590 Y115.290 E2.92501 ; skirt
G1 X79.050 Y115.200 E2.94780 ; skirt
G1 X78.270 Y114.990 E2.98142 ; skirt
G1 X77.760 Y114.800 E3.00408 ; skirt
G1 X77.510 Y114.690 E3.01545 ; skirt
G1 X77.030 Y114.430 E3.03817 ; skirt
G1 X76.570 Y114.140 E3.06081 ; skirt
G1 X76.140 Y113.820 E3.08312 ; skirt
G1 X75.730 Y113.460 E3.10583 ; skirt
G1 X75.180 Y112.860 E3.13972 ; skirt
G1 X74.860 Y112.430 E3.16203 ; skirt
G1 X74.570 Y111.970 E3.18467 ; skirt
G1 X74.310 Y111.490 E3.20739 ; skirt
G1 X74.200 Y111.240 E3.21876 ; skirt
G1 X74.010 Y110.730 E3.24141 ; skirt
G1 X73.800 Y109.950 E3.27504 ; skirt
G1 X73.710 Y109.410 E3.29783 ; skirt
G1 X73.660 Y108.600 E3.33161 ; skirt
G1 X73.660 Y69.400 E4.96341 ; skirt
G1 X73.710 Y68.590 E4.99719 ; skirt
G1 X73.750 Y68.320 E5.00856 ; skirt
G1 X73.860 Y67.790 E5.03109 ; skirt
G1 X74.010 Y67.270 E5.05362 ; skirt
G1 X74.310 Y66.510 E5.08763 ; skirt
G1 X74.570 Y66.030 E5.11035 ; skirt
G1 X74.860 Y65.570 E5.13299 ; skirt
G1 X75.180 Y65.140 E5.15530 ; skirt
G1 X75.730 Y64.540 E5.18919 ; skirt
G1 X76.350 Y64.020 E5.22287 ; skirt
G1 X77.030 Y63.570 E5.25681 ; skirt
G1 X77.510 Y63.310 E5.27954 ; skirt
G1 X77.760 Y63.200 E5.29091 ; skirt
G1 X78.530 Y62.930 E5.32488 ; skirt
G1 X79.320 Y62.750 E5.35860 ; skirt
G1 X79.590 Y62.710 E5.36997 ; skirt
G1 X80.130 Y62.670 E5.39251 ; skirt
G1 X89.600 Y62.660 E5.78672 ; skirt
G1 X90.430 Y62.720 E5.82136 ; skirt
G1 X90.980 Y62.810 E5.84456 ; skirt
G1 X91.520 Y62.940 E5.86768 ; skirt
G1 X92.310 Y63.230 E5.90271 ; skirt
G1 X93.050 Y63.610 E5.93734 ; skirt
G1 X93.280 Y63.760 E5.94877 ; skirt
G1 X93.740 Y64.080 E5.97210 ; skirt
G1 X94.160 Y64.440 E5.99513 ; skirt
G1 X124.560 Y94.840 E7.78478 ; skirt
G1 X124.920 Y95.260 E7.80781 ; skirt
G1 X125.390 Y95.950 E7.84256 ; skirt
G1 X125.770 Y96.690 E7.87719 ; skirt
G1 X126.060 Y97.480 E7.91222 ; skirt
G1 X126.240 Y98.290 E7.94676 ; skirt
G1 X126.310 Y98.840 E7.96984 ; skirt
G1 X126.340 Y99.400 E7.99319 ; skirt
G1 X126.340 Y108.600 E8.37616 ; skirt
G1 X126.290 Y109.410 E8.40994 ; skirt
G1 X126.250 Y109.680 E8.42130 ; skirt
G1 X126.140 Y110.210 E8.44384 ; skirt
G1 X125.990 Y110.730 E8.46637 ; skirt
G1 X125.690 Y111.490 E8.50038 ; skirt
G1 X125.430 Y111.970 E8.52310 ; skirt
G1 X125.045 Y112.561 E8.55246 ; skirt
G1 X124.980 Y112.650 E8.55705 ; skirt
G1 F1800.000 E7.55705 ; retract
G92 E0 ; reset extrusion distance
G1 X118.129 Y107.129 F7800.000 ; move to first perimeter point
G1 F1800.000 E1.00000 ; compensate retraction
G1 X81.871 Y107.129 F540.000 E2.50931 ; perimeter
G1 X81.871 Y70.871 E4.01862 ; perimeter
G1 X88.129 Y70.871 E4.27911 ; perimeter
G1 X88.129 Y90.871 E5.11166 ; perimeter
G1 X98.129 Y90.871 E5.52793 ; perimeter
G1 X98.129 Y100.871 E5.94421 ; perimeter
G1 X118.129 Y100.871 E6.77676 ; perimeter
G1 X118.129 Y107.018 E7.03265 ; perimeter
G1 X118.129 Y107.129 E7.03725 ; perimeter
G1 X118.864 Y107.864 F7800.000 ; move to first perimeter point
G1 X81.136 Y107.864 F540.000 E8.60780 ; perimeter
G1 X81.136 Y70.136 E10.17836 ; perimeter
G1 X88.864 Y70.136 E10.50009 ; perimeter
G1 X88.864 Y90.136 E11.33264 ; perimeter
G1 X98.864 Y90.136 E11.74891 ; perimeter
G1 X98.864 Y100.136 E12.16519 ; perimeter
G1 X118.864 Y100.136 E12.99774 ; perimeter
G1 X118.864 Y107.754 E13.31488 ; perimeter
G1 X118.864 Y107.864 E13.31947 ; perimeter
G1 X119.600 Y108.600 F7800.000 ; move to first perimeter point
G1 X80.400 Y108.600 F540.000 E14.95127 ; perimeter
G1 X80.400 Y69.400 E16.58307 ; perimeter
G1 X89.600 Y69.400 E16.96604 ; perimeter
G1 X89.600 Y89.400 E17.79859 ; perimeter
G1 X99.600 Y89.400 E18.21487 ; perimeter
G1 X99.600 Y99.400 E18.63114 ; perimeter
G1 X119.600 Y99.400 E19.46369 ; perimeter
G1 X119.600 Y108.490 E19.84207 ; perimeter
G1 X119.600 Y108.600 E19.84667 ; perimeter
G1 X118.963 Y108.232 F7800.000 ; move inwards before travel
G1 F1800.000 E18.84667 ; retract
G92 E0 ; reset extrusion distance
G1 X97.373 Y101.373 F7800.000 ; move to first fill point
G1 F1800.000 E1.00000 ; compensate retraction
G1 X102.627 Y106.627 F1080.000 E1.30966 ; fill
G1 X103.669 Y106.627 E1.35305 ; fill
G1 X98.414 Y101.373 E1.66271 ; fill
G1 X99.455 Y101.373 E1.70610 ; fill
G1 X104.710 Y106.627 E2.01576 ; fill
G1 X105.751 Y106.627 E2.05916 ; fill
G1 X100.497 Y101.373 E2.36882 ; fill
G1 X101.538 Y101.373 E2.41221 ; fill
G1 X106.793 Y106.627 E2.72188 ; fill
G1 X107.834 Y106.627 E2.76527 ; fill
G1 X102.580 Y101.373 E3.07493 ; fill
G1 X103.621 Y101.373 E3.11832 ; fill
G1 X108.876 Y106.627 E3.42798 ; fill
G1 X109.917 Y106.627 E3.47137 ; fill
G1 X104.662 Y101.373 E3.78103 ; fill
G1 X105.704 Y101.373 E3.82443 ; fill
G1 X110.958 Y106.627 E4.13409 ; fill
G1 X112.000 Y106.627 E4.17748 ; fill
G1 X106.745 Y101.373 E4.48714 ; fill
G1 X107.787 Y101.373 E4.53053 ; fill
G1 X113.041 Y106.627 E4.84019 ; fill
G1 X114.083 Y106.627 E4.88358 ; fill
G1 X108.828 Y101.373 E5.19324 ; fill
G1 X109.869 Y101.373 E5.23663 ; fill
G1 X115.124 Y106.627 E5.54629 ; fill
G1 X116.165 Y106.627 E5.58969 ; fill
G1 X110.911 Y101.373 E5.89934 ; fill
G1 X111.952 Y101.373 E5.94274 ; fill
G1 X117.207 Y106.627 E6.25240 ; fill
G1 X117.627 Y106.007 E6.28364 ; fill
G1 X112.993 Y101.373 E6.55672 ; fill
G1 X114.035 Y101.373 E6.60011 ; fill
G1 X117.627 Y104.965 E6.81182 ; fill
G1 X117.627 Y103.924 E6.85521 ; fill
G1 X115.076 Y101.373 E7.00555 ; fill
G1 X116.118 Y101.373 E7.04894 ; fill
G1 X117.627 Y102.882 E7.13791 ; fill
G1 X117.627 Y101.841 E7.18131 ; fill
G1 X117.159 Y101.373 E7.20890 ; fill
G1 F1800.000 E6.20890 ; retract
G92 E0 ; reset extrusion distance
G1 X87.373 Y91.373 F7800.000 ; move to first fill point
G1 F1800.000 E1.00000 ; compensate retraction
G1 X97.627 Y101.627 F1080.000 E1.60431 ; fill
G1 F1800.000 E0.60431 ; retract
G92 E0 ; reset extrusion distance
G1 X82.841 Y106.627 F7800.000 ; move to first fill point
G1 F1800.000 E1.00000 ; compensate retraction
G1 X82.373 Y106.159 F1080.000 E1.02760 ; fill
G1 X82.373 Y105.118 E1.07099 ; fill
G1 X83.882 Y106.627 E1.15996 ; fill
G1 X84.924 Y106.627 E1.20335 ; fill
G1 X82.373 Y104.076 E1.35369 ; fill
G1 X82.373 Y103.035 E1.39709 ; fill
G1 X85.965 Y106.627 E1.60880 ; fill
G1 X87.007 Y106.627 E1.65219 ; fill
G1 X82.373 Y101.993 E1.92526 ; fill
G1 X82.373 Y100.952 E1.96866 ; fill
G1 X88.048 Y106.627 E2.30311 ; fill
G1 X89.089 Y106.627 E2.34650 ; fill
G1 X82.373 Y99.911 E2.74232 ; fill
G1 X82.373 Y98.869 E2.78571 ; fill
G1 X90.131 Y106.627 E3.24290 ; fill
G1 X91.172 Y106.627 E3.28629 ; fill
G1 X82.373 Y97.828 E3.80484 ; fill
G1 X82.373 Y96.786 E3.84824 ; fill
G1 X92.214 Y106.627 E4.42816 ; fill
G1 X93.255 Y106.627 E4.47156 ; fill
G1 X82.373 Y95.745 E5.11285 ; fill
G1 X82.373 Y94.704 E5.15624 ; fill
G1 X94.296 Y106.627 E5.85890 ; fill
G1 X95.338 Y106.627 E5.90229 ; fill
G1 X82.373 Y93.662 E6.66632 ; fill
G1 X82.373 Y92.621 E6.70972 ; fill
G1 X96.379 Y106.627 E7.53512 ; fill
G1 X97.420 Y106.627 E7.57851 ; fill
G1 X82.373 Y91.580 E8.46528 ; fill
G1 X82.373 Y90.538 E8.50868 ; fill
G1 X98.462 Y106.627 E9.45681 ; fill
G1 X99.503 Y106.627 E9.50021 ; fill
G1 X82.373 Y89.497 E10.50972 ; fill
G1 X82.373 Y88.455 E10.55311 ; fill
G1 X100.545 Y106.627 E11.62398 ; fill
G1 X101.586 Y106.627 E11.66738 ; fill
G1 X82.373 Y87.414 E12.79962 ; fill
G1 X82.373 Y86.373 E12.84302 ; fill
G1 X87.627 Y91.627 E13.15268 ; fill
G1 F1800.000 E12.15268 ; retract
G92 E0 ; reset extrusion distance
G1 X97.627 Y100.586 F7800.000 ; move to first fill point
G1 F1800.000 E1.00000 ; compensate retraction
G1 X88.414 Y91.373 F1080.000 E1.54294 ; fill
G1 X89.455 Y91.373 E1.58633 ; fill
G1 X97.627 Y99.545 E2.06790 ; fill
G1 X97.627 Y98.503 E2.11129 ; fill
G1 X90.497 Y91.373 E2.53150 ; fill
G1 X91.538 Y91.373 E2.57489 ; fill
G1 X97.627 Y97.462 E2.93372 ; fill
G1 X97.627 Y96.420 E2.97712 ; fill
G1 X92.580 Y91.373 E3.27458 ; fill
G1 X93.621 Y91.373 E3.31797 ; fill
G1 X97.627 Y95.379 E3.55407 ; fill
G1 X97.627 Y94.338 E3.59746 ; fill
G1 X94.662 Y91.373 E3.77219 ; fill
G1 X95.704 Y91.373 E3.81558 ; fill
G1 X97.627 Y93.296 E3.92894 ; fill
G1 X97.627 Y92.255 E3.97233 ; fill
G1 X96.745 Y91.373 E4.02432 ; fill
G1 F1800.000 E3.02432 ; retract
G92 E0 ; reset extrusion distance
G1 X87.627 Y90.586 F7800.000 ; move to first fill point
G1 F1800.000 E1.00000 ; compensate retraction
G1 X82.373 Y85.331 F1080.000 E1.30966 ; fill
G1 X82.373 Y84.290 E1.35305 ; fill
G1 X87.627 Y89.545 E1.66271 ; fill
G1 X87.627 Y88.503 E1.70610 ; fill
G1 X82.373 Y83.249 E2.01576 ; fill
G1 X82.373 Y82.207 E2.05916 ; fill
G1 X87.627 Y87.462 E2.36882 ; fill
G1 X87.627 Y86.420 E2.41221 ; fill
G1 X82.373 Y81.166 E2.72187 ; fill
G1 X82.373 Y80.124 E2.76526 ; fill
G1 X87.627 Y85.379 E3.07492 ; fill
G1 X87.627 Y84.338 E3.11831 ; fill
G1 X82.373 Y79.083 E3.42798 ; fill
G1 X82.373 Y78.042 E3.47137 ; fill
G1 X87.627 Y83.296 E3.78102 ; fill
G1 X87.627 Y82.255 E3.82442 ; fill
G1 X82.373 Y77.000 E4.13407 ; fill
G1 X82.373 Y75.959 E4.17747 ; fill
G1 X87.627 Y81.213 E4.48713 ; fill
G1 X87.627 Y80.172 E4.53052 ; fill
G1 X82.373 Y74.917 E4.84018 ; fill
G1 X82.373 Y73.876 E4.88357 ; fill
G1 X87.627 Y79.131 E5.19323 ; fill
G1 X87.627 Y78.089 E5.23663 ; fill
G1 X82.373 Y72.835 E5.54628 ; fill
G1 X82.373 Y71.793 E5.58968 ; fill
G1 X87.627 Y77.048 E5.89934 ; fill
G1 X87.627 Y76.007 E5.94274 ; fill
G1 X82.993 Y71.373 E6.21581 ; fill
G1 X84.035 Y71.373 E6.25920 ; fill
G1 X87.627 Y74.965 E6.47091 ; fill
G1 X87.627 Y73.924 E6.51430 ; fill
G1 X85.076 Y71.373 E6.66464 ; fill
G1 X86.118 Y71.373 E6.70804 ; fill
G1 X87.627 Y72.882 E6.79700 ; fill
G1 X87.627 Y71.841 E6.84040 ; fill
G1 X87.159 Y71.373 E6.86799 ; fill
G1 F1800.000 E5.86799 ; retract
G92 E0 ; reset extrusion distance
G1 Z0.800 F7800.000 ; move to next layer (1)
G1 X81.302 Y107.698 ; move to first perimeter point
G1 F1800.000 E1.00000 ; compensate retraction
G1 X81.302 Y70.302 F1800.000 E2.09966 ; perimeter
G1 X88.698 Y70.302 E2.31715 ; perimeter
G1 X88.698 Y90.302 E2.90526 ; perimeter
G1 X98.698 Y90.302 E3.19931 ; perimeter
G1 X98.698 Y100.302 E3.49336 ; perimeter
G1 X118.698 Y100.302 E4.08147 ; perimeter
G1 X118.698 Y107.698 E4.29897 ; perimeter
G1 X81.380 Y107.698 E5.39633 ; perimeter
G1 X81.302 Y107.698 E5.39862 ; perimeter
G1 X80.782 Y108.218 F7800.000 ; move to first perimeter point
G1 X80.782 Y69.782 F1800.000 E6.52884 ; perimeter
G1 X89.218 Y69.782 E6.77689 ; perimeter
G1 X89.218 Y89.782 E7.36500 ; perimeter
G1 X99.218 Y89.782 E7.65905 ; perimeter
G1 X99.218 Y99.782 E7.95310 ; perimeter
G1 X119.218 Y99.782 E8.54121 ; perimeter
G1 X119.218 Y108.218 E8.78927 ; perimeter
G1 X80.860 Y108.218 E9.91719 ; perimeter
G1 X80.782 Y108.218 E9.91948 ; perimeter
G1 X80.263 Y108.737 F7800.000 ; move to first perimeter point
G1 X80.263 Y69.263 F1800.000 E11.08026 ; perimeter
G1 X89.737 Y69.263 E11.35887 ; perimeter
G1 X89.737 Y89.263 E11.94698 ; perimeter
G1 X99.737 Y89.263 E12.24103 ; perimeter
G1 X99.737 Y99.263 E12.53508 ; perimeter
G1 X119.737 Y99.263 E13.12319 ; perimeter
G1 X119.737 Y108.737 E13.40181 ; perimeter
G1 X80.340 Y108.737 E14.56029 ; perimeter
G1 X80.263 Y108.737 E14.56258 ; perimeter
G1 X80.522 Y108.287 F7800.000 ; move inwards before travel
G1 F1800.000 E13.56258 ; retract
G92 E0 ; reset extrusion distance
G1 X98.344 Y100.302 F7800.000 ; move to first fill point
G1 F1800.000 E1.00000 ; compensate retraction
G1 X91.302 Y107.344 F3600.000 E1.29569 ; fill
G1 X90.560 Y107.344 E1.31772 ; fill
G1 X98.344 Y99.560 E1.64457 ; fill
G1 X98.344 Y98.818 E1.66660 ; fill
G1 X89.818 Y107.344 E2.02460 ; fill
G1 X89.076 Y107.344 E2.04663 ; fill
G1 X98.344 Y98.076 E2.43579 ; fill
G1 X98.344 Y97.334 E2.45782 ; fill
G1 X88.334 Y107.344 E2.87813 ; fill
G1 X87.592 Y107.344 E2.90016 ; fill
G1 X98.344 Y96.592 E3.35163 ; fill
G1 X98.344 Y95.850 E3.37366 ; fill
G1 X86.850 Y107.344 E3.85628 ; fill
G1 X86.108 Y107.344 E3.87831 ; fill
G1 X98.344 Y95.108 E4.39208 ; fill
G1 X98.344 Y94.366 E4.41411 ; fill
G1 X85.366 Y107.344 E4.95904 ; fill
G1 X84.624 Y107.344 E4.98107 ; fill
G1 X98.344 Y93.624 E5.55715 ; fill
G1 X98.344 Y92.882 E5.57918 ; fill
G1 X83.882 Y107.344 E6.18642 ; fill
G1 X83.140 Y107.344 E6.20845 ; fill
G1 X98.344 Y92.140 E6.84684 ; fill
G1 X98.344 Y91.398 E6.86887 ; fill
G1 X82.398 Y107.344 E7.53842 ; fill
G1 X81.656 Y107.344 E7.56044 ; fill
G1 X98.344 Y90.656 E8.26113 ; fill
G1 X97.602 Y90.656 E8.28316 ; fill
G1 X81.656 Y106.602 E8.95270 ; fill
G1 X81.656 Y105.860 E8.97473 ; fill
G1 X96.860 Y90.656 E9.61312 ; fill
G1 X96.118 Y90.656 E9.63514 ; fill
G1 X81.656 Y105.118 E10.24238 ; fill
G1 X81.656 Y104.376 E10.26441 ; fill
G1 X95.376 Y90.656 E10.84049 ; fill
G1 X94.634 Y90.656 E10.86252 ; fill
G1 X81.656 Y103.634 E11.40744 ; fill
G1 X81.656 Y102.892 E11.42947 ; fill
G1 X93.892 Y90.656 E11.94324 ; fill
G1 X93.150 Y90.656 E11.96527 ; fill
G1 X81.656 Y102.150 E12.44788 ; fill
G1 X81.656 Y101.408 E12.46991 ; fill
G1 X92.408 Y90.656 E12.92137 ; fill
G1 X91.666 Y90.656 E12.94340 ; fill
G1 X81.656 Y100.666 E13.36371 ; fill
G1 X81.656 Y99.924 E13.38574 ; fill
G1 X90.924 Y90.656 E13.77489 ; fill
G1 X90.182 Y90.656 E13.79692 ; fill
G1 X81.656 Y99.182 E14.15491 ; fill
G1 X81.656 Y98.440 E14.17695 ; fill
G1 X89.440 Y90.656 E14.50379 ; fill
G1 X88.698 Y90.656 E14.52582 ; fill
G1 X81.656 Y97.698 E14.82151 ; fill
G1 X81.656 Y96.956 E14.84353 ; fill
G1 X88.344 Y90.268 E15.12435 ; fill
G1 X88.344 Y89.526 E15.14638 ; fill
G1 X81.656 Y96.214 E15.42721 ; fill
G1 X81.656 Y95.472 E15.44924 ; fill
G1 X88.344 Y88.784 E15.73005 ; fill
G1 X88.344 Y88.042 E15.75208 ; fill
G1 X81.656 Y94.730 E16.03290 ; fill
G1 X81.656 Y93.988 E16.05493 ; fill
G1 X88.344 Y87.300 E16.33576 ; fill
G1 X88.344 Y86.558 E16.35778 ; fill
G1 X81.656 Y93.246 E16.63860 ; fill
G1 X81.656 Y92.504 E16.66063 ; fill
G1 X88.344 Y85.816 E16.94145 ; fill
G1 X88.344 Y85.074 E16.96348 ; fill
G1 X81.656 Y91.762 E17.24430 ; fill
G1 X81.656 Y91.020 E17.26632 ; fill
G1 X88.344 Y84.332 E17.54714 ; fill
G1 X88.344 Y83.590 E17.56917 ; fill
G1 X81.656 Y90.278 E17.84999 ; fill
G1 X81.656 Y89.536 E17.87203 ; fill
G1 X88.344 Y82.848 E18.15284 ; fill
G1 X88.344 Y82.106 E18.17487 ; fill
G1 X81.656 Y88.794 E18.45569 ; fill
G1 X81.656 Y88.052 E18.47772 ; fill
G1 X88.344 Y81.364 E18.75854 ; fill
G1 X88.344 Y80.622 E18.78057 ; fill
G1 X81.656 Y87.310 E19.06139 ; fill
G1 X81.656 Y86.568 E19.08342 ; fill
G1 X88.344 Y79.880 E19.36424 ; fill
G1 X88.344 Y79.138 E19.38627 ; fill
G1 X81.656 Y85.826 E19.66709 ; fill
G1 X81.656 Y85.084 E19.68912 ; fill
G1 X88.344 Y78.396 E19.96994 ; fill
G1 X88.344 Y77.654 E19.99197 ; fill
G1 X81.656 Y84.342 E20.27279 ; fill
G1 X81.656 Y83.600 E20.29482 ; fill
G1 X88.344 Y76.912 E20.57564 ; fill
G1 X88.344 Y76.170 E20.59767 ; fill
G1 X81.656 Y82.859 E20.87849 ; fill
G1 X81.656 Y82.116 E20.90052 ; fill
G1 X88.344 Y75.428 E21.18134 ; fill
G1 X88.344 Y74.686 E21.20337 ; fill
G1 X81.656 Y81.374 E21.48419 ; fill
G1 X81.656 Y80.633 E21.50621 ; fill
