; generated by Slic3r 0.9.8-dev on 2013-01-10 at 19:06:24

; layer_height = 0.4
; perimeters = 3
; top_solid_layers = 3
; bottom_solid_layers = 3
; fill_density = 0.40
; perimeter_speed = 30
; infill_speed = 60
; travel_speed = 130
; scale = 1
; nozzle_diameter = 0.5
; filament_diameter = 3
; extrusion_multiplier = 1
; perimeters extrusion width = 0.53mm
; infill extrusion width = 0.53mm
; first layer extrusion width = 0.80mm

M190 S60 ; wait for bed temperature to be reached
M104 S180 ; set temperature
G28 ; home all axes
G92 E0 ;reset extruder
M109 S180 ; wait for temperature to be reached
G90 ; use absolute coordinates
G21 ; set units to millimeters
G92 E0 ; reset extrusion distance
M82 ; use absolute distances for extrusion
G1 F1800.000 E-1.00000 ; retract
G1 Z0.900 ; move to next layer (0) and lift
G92 E0 ; reset extrusion distance
G1 X129.860 Y109.880 F7800.000 ; move to first skirt point
G1 Z0.400 ; restore layer Z
G1 F1800.000 E1.00000 ; compensate retraction
G1 X128.840 Y110.140 F540.000 E1.04382 ; skirt
G1 X128.500 Y110.200 E1.05819 ; skirt
G1 X127.910 Y110.280 E1.08297 ; skirt
G1 X126.980 Y110.340 E1.12177 ; skirt
G1 X73.010 Y110.340 E3.36841 ; skirt
G1 X72.080 Y110.280 E3.40720 ; skirt
G1 X71.490 Y110.200 E3.43199 ; skirt
G1 X71.150 Y110.140 E3.44636 ; skirt
G1 X70.130 Y109.880 E3.49018 ; skirt
G1 X69.810 Y109.770 E3.50426 ; skirt
G1 X68.990 Y109.420 E3.54138 ; skirt
G1 X68.690 Y109.270 E3.55534 ; skirt
G1 X68.010 Y108.880 E3.58797 ; skirt
G1 X67.720 Y108.690 E3.60240 ; skirt
G1 X66.850 Y108.020 E3.64811 ; skirt
G1 X66.200 Y107.390 E3.68579 ; skirt
G1 X65.970 Y107.140 E3.69994 ; skirt
G1 X65.300 Y106.270 E3.74565 ; skirt
G1 X65.110 Y105.980 E3.76008 ; skirt
G1 X64.720 Y105.300 E3.79271 ; skirt
G1 X64.570 Y105.000 E3.80667 ; skirt
G1 X64.220 Y104.180 E3.84379 ; skirt
G1 X64.110 Y103.860 E3.85787 ; skirt
G1 X63.850 Y102.840 E3.90169 ; skirt
G1 X63.790 Y102.500 E3.91606 ; skirt
G1 X63.700 Y101.710 E3.94916 ; skirt
G1 X63.660 Y100.980 E3.97960 ; skirt
G1 X63.660 Y77.010 E4.97741 ; skirt
G1 X63.700 Y76.280 E5.00784 ; skirt
G1 X63.790 Y75.490 E5.04094 ; skirt
G1 X63.850 Y75.150 E5.05531 ; skirt
G1 X64.110 Y74.130 E5.09913 ; skirt
G1 X64.220 Y73.810 E5.11322 ; skirt
G1 X64.570 Y72.990 E5.15033 ; skirt
G1 X64.720 Y72.690 E5.16429 ; skirt
G1 X65.110 Y72.010 E5.19692 ; skirt
G1 X65.300 Y71.720 E5.21136 ; skirt
G1 X65.970 Y70.850 E5.25707 ; skirt
G1 X66.200 Y70.600 E5.27121 ; skirt
G1 X66.850 Y69.970 E5.30889 ; skirt
G1 X67.720 Y69.300 E5.35460 ; skirt
G1 X68.010 Y69.110 E5.36903 ; skirt
G1 X68.690 Y68.720 E5.40166 ; skirt
G1 X68.990 Y68.570 E5.41563 ; skirt
G1 X69.810 Y68.220 E5.45274 ; skirt
G1 X70.130 Y68.110 E5.46683 ; skirt
G1 X71.150 Y67.850 E5.51064 ; skirt
G1 X71.490 Y67.790 E5.52502 ; skirt
G1 X72.280 Y67.700 E5.55811 ; skirt
G1 X73.010 Y67.660 E5.58855 ; skirt
G1 X126.980 Y67.660 E7.83519 ; skirt
G1 X127.710 Y67.700 E7.86562 ; skirt
G1 X128.500 Y67.790 E7.89872 ; skirt
G1 X128.840 Y67.850 E7.91309 ; skirt
G1 X129.860 Y68.110 E7.95691 ; skirt
G1 X130.180 Y68.220 E7.97099 ; skirt
G1 X131.000 Y68.570 E8.00811 ; skirt
G1 X131.300 Y68.720 E8.02207 ; skirt
G1 X131.980 Y69.110 E8.05470 ; skirt
G1 X132.270 Y69.300 E8.06913 ; skirt
G1 X133.140 Y69.970 E8.11485 ; skirt
G1 X133.790 Y70.600 E8.15253 ; skirt
G1 X134.020 Y70.850 E8.16667 ; skirt
G1 X134.690 Y71.720 E8.21238 ; skirt
G1 X134.880 Y72.010 E8.22681 ; skirt
G1 X135.270 Y72.690 E8.25944 ; skirt
G1 X135.420 Y72.990 E8.27341 ; skirt
G1 X135.770 Y73.810 E8.31052 ; skirt
G1 X135.880 Y74.130 E8.32461 ; skirt
G1 X136.140 Y75.150 E8.36842 ; skirt
G1 X136.280 Y76.080 E8.40757 ; skirt
G1 X136.340 Y77.010 E8.44637 ; skirt
G1 X136.340 Y100.980 E9.44418 ; skirt
G1 X136.310 Y101.560 E9.46836 ; skirt
G1 X136.280 Y101.910 E9.48298 ; skirt
G1 X136.140 Y102.840 E9.52213 ; skirt
G1 X135.880 Y103.860 E9.56595 ; skirt
G1 X135.770 Y104.180 E9.58003 ; skirt
G1 X135.420 Y105.000 E9.61715 ; skirt
G1 X135.270 Y105.300 E9.63111 ; skirt
G1 X134.880 Y105.980 E9.66374 ; skirt
G1 X134.690 Y106.270 E9.67817 ; skirt
G1 X134.020 Y107.140 E9.72388 ; skirt
G1 X133.790 Y107.390 E9.73802 ; skirt
G1 X133.140 Y108.020 E9.77571 ; skirt
G1 X132.270 Y108.690 E9.82142 ; skirt
G1 X131.980 Y108.880 E9.83585 ; skirt
G1 X131.300 Y109.270 E9.86848 ; skirt
G1 X131.000 Y109.420 E9.88244 ; skirt
G1 X130.180 Y109.770 E9.91956 ; skirt
G1 X129.964 Y109.844 E9.92905 ; skirt
G1 X129.860 Y109.880 E9.93364 ; skirt
G1 F1800.000 E8.93364 ; retract
G1 Z0.900 ; lift plate during travel
G92 E0 ; reset extrusion distance
G1 X117.289 Y80.366 F7800.000 ; move to first perimeter point
G1 Z0.400 ; restore layer Z
G1 F1800.000 E1.00000 ; compensate retraction
G1 X81.889 Y80.366 F540.000 E2.47362 ; perimeter
G1 X81.889 Y76.366 E2.64013 ; perimeter
G1 X117.289 Y76.366 E4.11374 ; perimeter
G1 X117.289 Y80.256 E4.27566 ; perimeter
G1 X117.289 Y80.366 E4.28025 ; perimeter
G1 X117.289 Y81.102 F7800.000 ; move inwards before travel
G1 F1800.000 E3.28025 ; retract
G1 Z0.900 ; lift plate during travel
G92 E0 ; reset extrusion distance
G1 X128.086 Y101.291 F7800.000 ; move to first perimeter point
G1 Z0.400 ; restore layer Z
G1 F1800.000 E1.00000 ; compensate retraction
G1 X127.974 Y101.562 F540.000 E1.01222 ; perimeter
G1 X127.892 Y101.685 E1.01835 ; perimeter
G1 X127.685 Y101.892 E1.03057 ; perimeter
G1 X127.430 Y102.039 E1.04279 ; perimeter
G1 X127.291 Y102.086 E1.04892 ; perimeter
G1 X126.939 Y102.129 E1.06369 ; perimeter
G1 X73.061 Y102.129 E3.30648 ; perimeter
G1 X72.853 Y102.115 E3.31516 ; perimeter
G1 X72.570 Y102.039 E3.32738 ; perimeter
G1 X72.315 Y101.892 E3.33960 ; perimeter
G1 X72.108 Y101.685 E3.35183 ; perimeter
G1 X72.026 Y101.562 E3.35795 ; perimeter
G1 X71.914 Y101.291 E3.37017 ; perimeter
G1 X71.871 Y100.939 E3.38495 ; perimeter
G1 X71.871 Y77.061 E4.37891 ; perimeter
G1 X71.914 Y76.709 E4.39368 ; perimeter
G1 X72.026 Y76.438 E4.40590 ; perimeter
G1 X72.205 Y76.205 E4.41813 ; perimeter
G1 X72.438 Y76.026 E4.43035 ; perimeter
G1 X72.570 Y75.961 E4.43647 ; perimeter
G1 X72.853 Y75.885 E4.44870 ; perimeter
G1 X73.061 Y75.871 E4.45738 ; perimeter
G1 X80.418 Y75.871 E4.76362 ; perimeter
G1 X80.418 Y81.837 E5.01197 ; perimeter
G1 X118.761 Y81.837 E6.60808 ; perimeter
G1 X118.761 Y75.871 E6.85643 ; perimeter
G1 X126.939 Y75.871 E7.19686 ; perimeter
G1 X127.147 Y75.885 E7.20554 ; perimeter
G1 X127.430 Y75.961 E7.21777 ; perimeter
G1 X127.562 Y76.026 E7.22389 ; perimeter
G1 X127.795 Y76.205 E7.23611 ; perimeter
G1 X127.974 Y76.438 E7.24833 ; perimeter
G1 X128.086 Y76.709 E7.26056 ; perimeter
G1 X128.129 Y77.061 E7.27533 ; perimeter
G1 X128.129 Y100.939 E8.26929 ; perimeter
G1 X128.108 Y101.183 E8.27949 ; perimeter
G1 X128.086 Y101.291 E8.28408 ; perimeter
G1 X128.798 Y101.482 F7800.000 ; move to first perimeter point
G1 X128.720 Y101.713 F540.000 E8.29422 ; perimeter
G1 X128.612 Y101.931 E8.30436 ; perimeter
G1 X128.477 Y102.133 E8.31450 ; perimeter
G1 X128.317 Y102.317 E8.32464 ; perimeter
G1 X128.133 Y102.477 E8.33478 ; perimeter
G1 X127.931 Y102.612 E8.34492 ; perimeter
G1 X127.713 Y102.720 E8.35505 ; perimeter
G1 X127.482 Y102.798 E8.36519 ; perimeter
G1 X127.243 Y102.846 E8.37533 ; perimeter
G1 X126.963 Y102.864 E8.38702 ; perimeter
G1 X73.037 Y102.864 E10.63181 ; perimeter
G1 X72.757 Y102.846 E10.64350 ; perimeter
G1 X72.518 Y102.798 E10.65364 ; perimeter
G1 X72.287 Y102.720 E10.66378 ; perimeter
G1 X72.069 Y102.612 E10.67392 ; perimeter
G1 X71.867 Y102.477 E10.68406 ; perimeter
G1 X71.683 Y102.317 E10.69420 ; perimeter
G1 X71.523 Y102.133 E10.70433 ; perimeter
G1 X71.388 Y101.931 E10.71447 ; perimeter
G1 X71.280 Y101.713 E10.72461 ; perimeter
G1 X71.201 Y101.482 E10.73475 ; perimeter
G1 X71.154 Y101.243 E10.74489 ; perimeter
G1 X71.136 Y100.963 E10.75658 ; perimeter
G1 X71.136 Y77.037 E11.75254 ; perimeter
G1 X71.154 Y76.757 E11.76423 ; perimeter
G1 X71.201 Y76.518 E11.77437 ; perimeter
G1 X71.280 Y76.287 E11.78451 ; perimeter
G1 X71.388 Y76.069 E11.79465 ; perimeter
G1 X71.523 Y75.867 E11.80479 ; perimeter
G1 X71.683 Y75.683 E11.81493 ; perimeter
G1 X71.867 Y75.523 E11.82506 ; perimeter
G1 X72.069 Y75.388 E11.83520 ; perimeter
G1 X72.287 Y75.280 E11.84534 ; perimeter
G1 X72.518 Y75.201 E11.85548 ; perimeter
G1 X72.757 Y75.154 E11.86562 ; perimeter
G1 X73.037 Y75.136 E11.87731 ; perimeter
G1 X81.154 Y75.136 E12.21518 ; perimeter
G1 X81.154 Y81.102 E12.46353 ; perimeter
G1 X118.025 Y81.102 E13.99839 ; perimeter
G1 X118.025 Y75.136 E14.24674 ; perimeter
G1 X126.963 Y75.136 E14.61880 ; perimeter
G1 X127.243 Y75.154 E14.63049 ; perimeter
G1 X127.482 Y75.201 E14.64063 ; perimeter
G1 X127.713 Y75.280 E14.65077 ; perimeter
G1 X127.931 Y75.388 E14.66091 ; perimeter
G1 X128.133 Y75.523 E14.67104 ; perimeter
G1 X128.317 Y75.683 E14.68118 ; perimeter
G1 X128.477 Y75.867 E14.69132 ; perimeter
G1 X128.612 Y76.069 E14.70146 ; perimeter
G1 X128.720 Y76.287 E14.71160 ; perimeter
G1 X128.798 Y76.518 E14.72174 ; perimeter
G1 X128.846 Y76.757 E14.73188 ; perimeter
G1 X128.864 Y77.037 E14.74357 ; perimeter
G1 X128.864 Y100.963 E15.73953 ; perimeter
G1 X128.820 Y101.374 E15.75673 ; perimeter
G1 X128.798 Y101.482 E15.76133 ; perimeter
G1 X129.511 Y101.673 F7800.000 ; move to first perimeter point
G1 X129.401 Y101.995 F540.000 E15.77548 ; perimeter
G1 X129.251 Y102.300 E15.78963 ; perimeter
G1 X129.062 Y102.582 E15.80378 ; perimeter
G1 X128.838 Y102.838 E15.81794 ; perimeter
G1 X128.582 Y103.062 E15.83209 ; perimeter
G1 X128.300 Y103.251 E15.84624 ; perimeter
G1 X127.995 Y103.401 E15.86039 ; perimeter
G1 X127.673 Y103.511 E15.87455 ; perimeter
G1 X127.339 Y103.577 E15.88870 ; perimeter
G1 X126.987 Y103.600 E15.90340 ; perimeter
G1 X73.013 Y103.600 E18.15020 ; perimeter
G1 X72.661 Y103.577 E18.16490 ; perimeter
G1 X72.327 Y103.511 E18.17905 ; perimeter
G1 X72.005 Y103.401 E18.19320 ; perimeter
G1 X71.700 Y103.251 E18.20735 ; perimeter
G1 X71.418 Y103.062 E18.22151 ; perimeter
G1 X71.162 Y102.838 E18.23566 ; perimeter
G1 X70.938 Y102.582 E18.24981 ; perimeter
G1 X70.749 Y102.300 E18.26396 ; perimeter
G1 X70.599 Y101.995 E18.27812 ; perimeter
G1 X70.489 Y101.673 E18.29227 ; perimeter
G1 X70.423 Y101.339 E18.30642 ; perimeter
G1 X70.400 Y100.987 E18.32112 ; perimeter
G1 X70.400 Y77.013 E19.31909 ; perimeter
G1 X70.423 Y76.661 E19.33379 ; perimeter
G1 X70.489 Y76.327 E19.34794 ; perimeter
G1 X70.599 Y76.005 E19.36210 ; perimeter
G1 X70.749 Y75.700 E19.37625 ; perimeter
G1 X70.938 Y75.418 E19.39040 ; perimeter
G1 X71.162 Y75.162 E19.40455 ; perimeter
G1 X71.418 Y74.938 E19.41871 ; perimeter
G1 X71.700 Y74.749 E19.43286 ; perimeter
G1 X72.005 Y74.599 E19.44701 ; perimeter
G1 X72.327 Y74.489 E19.46117 ; perimeter
G1 X72.661 Y74.423 E19.47532 ; perimeter
G1 X73.013 Y74.400 E19.49002 ; perimeter
G1 X126.987 Y74.400 E21.73681 ; perimeter
G1 X127.339 Y74.423 E21.75151 ; perimeter
G1 X127.673 Y74.489 E21.76567 ; perimeter
G1 X127.995 Y74.599 E21.77982 ; perimeter
G1 X128.300 Y74.749 E21.79397 ; perimeter
G1 X128.582 Y74.938 E21.80812 ; perimeter
G1 X128.838 Y75.162 E21.82228 ; perimeter
G1 X129.062 Y75.418 E21.83643 ; perimeter
G1 X129.251 Y75.700 E21.85058 ; perimeter
G1 X129.401 Y76.005 E21.86474 ; perimeter
G1 X129.511 Y76.327 E21.87889 ; perimeter
G1 X129.577 Y76.661 E21.89304 ; perimeter
G1 X129.600 Y77.013 E21.90774 ; perimeter
G1 X129.600 Y100.987 E22.90571 ; perimeter
G1 X129.577 Y101.339 E22.92041 ; perimeter
G1 X129.532 Y101.564 E22.92997 ; perimeter
G1 X129.511 Y101.673 E22.93456 ; perimeter
G1 X128.796 Y101.848 F7800.000 ; move inwards before travel
G1 F1800.000 E21.93456 ; retract
G1 Z0.900 ; lift plate during travel
G92 E0 ; reset extrusion distance
G1 X79.819 Y82.339 F7800.000 ; move to first fill point
G1 Z0.400 ; restore layer Z
G1 F1800.000 E1.00000 ; compensate retraction
G1 X99.107 Y101.627 F1080.000 E2.13640 ; fill
G1 X100.149 Y101.627 E2.17978 ; fill
G1 X80.860 Y82.339 E3.31619 ; fill
G1 X81.901 Y82.339 E3.35956 ; fill
G1 X101.190 Y101.627 E4.49596 ; fill
G1 X102.231 Y101.627 E4.53934 ; fill
G1 X82.942 Y82.339 E5.67574 ; fill
G1 X83.983 Y82.339 E5.71911 ; fill
G1 X103.272 Y101.627 E6.85552 ; fill
G1 X104.313 Y101.627 E6.89889 ; fill
G1 X85.024 Y82.339 E8.03530 ; fill
G1 X86.066 Y82.339 E8.07867 ; fill
G1 X105.354 Y101.627 E9.21507 ; fill
G1 X106.395 Y101.627 E9.25845 ; fill
G1 X87.107 Y82.339 E10.39485 ; fill
G1 X88.148 Y82.339 E10.43823 ; fill
G1 X107.436 Y101.627 E11.57463 ; fill
G1 X108.478 Y101.627 E11.61800 ; fill
G1 X89.189 Y82.339 E12.75441 ; fill
G1 X90.230 Y82.339 E12.79778 ; fill
G1 X109.519 Y101.627 E13.93418 ; fill
G1 X110.560 Y101.627 E13.97755 ; fill
G1 X91.271 Y82.339 E15.11396 ; fill
G1 X92.312 Y82.339 E15.15733 ; fill
G1 X111.601 Y101.627 E16.29374 ; fill
G1 X112.642 Y101.627 E16.33711 ; fill
G1 X93.353 Y82.339 E17.47351 ; fill
G1 X94.395 Y82.339 E17.51689 ; fill
G1 X113.683 Y101.627 E18.65329 ; fill
G1 X114.724 Y101.627 E18.69667 ; fill
G1 X95.436 Y82.339 E19.83307 ; fill
G1 X96.477 Y82.339 E19.87644 ; fill
G1 X115.765 Y101.627 E21.01285 ; fill
G1 X116.807 Y101.627 E21.05622 ; fill
G1 X97.518 Y82.339 E22.19263 ; fill
G1 X98.559 Y82.339 E22.23599 ; fill
G1 X117.848 Y101.627 E23.37240 ; fill
G1 X118.889 Y101.627 E23.41577 ; fill
G1 X99.600 Y82.339 E24.55218 ; fill
G1 X100.641 Y82.339 E24.59555 ; fill
G1 X119.930 Y101.627 E25.73196 ; fill
G1 X120.971 Y101.627 E25.77533 ; fill
G1 X101.682 Y82.339 E26.91173 ; fill
G1 X102.724 Y82.339 E26.95511 ; fill
G1 X122.012 Y101.627 E28.09151 ; fill
G1 X123.053 Y101.627 E28.13489 ; fill
G1 X103.765 Y82.339 E29.27129 ; fill
G1 X104.806 Y82.339 E29.31466 ; fill
G1 X124.094 Y101.627 E30.45107 ; fill
G1 X125.136 Y101.627 E30.49444 ; fill
G1 X105.847 Y82.339 E31.63085 ; fill
G1 X106.888 Y82.339 E31.67421 ; fill
G1 X126.177 Y101.627 E32.81062 ; fill
G1 X127.211 Y101.621 E32.85373 ; fill
G1 X107.929 Y82.339 E33.98977 ; fill
G1 X108.970 Y82.339 E34.03314 ; fill
G1 X127.627 Y100.996 E35.13233 ; fill
G1 X127.627 Y99.955 E35.17571 ; fill
G1 X110.011 Y82.339 E36.21356 ; fill
G1 X111.053 Y82.339 E36.25693 ; fill
G1 X127.627 Y98.913 E37.23345 ; fill
G1 X127.627 Y97.872 E37.27682 ; fill
G1 X112.094 Y82.339 E38.19200 ; fill
G1 X113.135 Y82.339 E38.23537 ; fill
G1 X127.627 Y96.831 E39.08921 ; fill
G1 X127.627 Y95.790 E39.13258 ; fill
G1 X114.176 Y82.339 E39.92507 ; fill
G1 X115.217 Y82.339 E39.96844 ; fill
G1 X127.627 Y94.749 E40.69960 ; fill
G1 X127.627 Y93.708 E40.74297 ; fill
G1 X116.258 Y82.339 E41.41280 ; fill
G1 X117.299 Y82.339 E41.45617 ; fill
G1 X127.627 Y92.667 E42.06465 ; fill
G1 X127.627 Y91.626 E42.10803 ; fill
G1 X118.340 Y82.339 E42.65517 ; fill
G1 X119.262 Y82.219 E42.69389 ; fill
G1 X127.627 Y90.584 E43.18674 ; fill
G1 X127.627 Y89.543 E43.23011 ; fill
G1 X119.262 Y81.178 E43.72296 ; fill
G1 X119.262 Y80.137 E43.76633 ; fill
G1 X127.627 Y88.502 E44.25918 ; fill
G1 X127.627 Y87.461 E44.30256 ; fill
G1 X119.262 Y79.096 E44.79540 ; fill
G1 X119.262 Y78.055 E44.83877 ; fill
G1 X127.627 Y86.420 E45.33162 ; fill
G1 X127.627 Y85.379 E45.37499 ; fill
G1 X119.262 Y77.014 E45.86784 ; fill
G1 X119.662 Y76.373 E45.89931 ; fill
G1 X127.627 Y84.338 E46.36858 ; fill
G1 X127.627 Y83.297 E46.41195 ; fill
G1 X120.703 Y76.373 E46.81988 ; fill
G1 X121.745 Y76.373 E46.86325 ; fill
G1 X127.627 Y82.255 E47.20984 ; fill
G1 X127.627 Y81.214 E47.25321 ; fill
G1 X122.786 Y76.373 E47.53846 ; fill
G1 X123.827 Y76.373 E47.58183 ; fill
G1 X127.627 Y80.173 E47.80574 ; fill
G1 X127.627 Y79.132 E47.84911 ; fill
G1 X124.868 Y76.373 E48.01168 ; fill
G1 X125.909 Y76.373 E48.05505 ; fill
G1 X127.627 Y78.091 E48.15628 ; fill
G1 X127.597 Y77.019 E48.20093 ; fill
G1 X127.128 Y76.551 E48.22854 ; fill
G1 F1800.000 E47.22854 ; retract
G1 Z0.900 ; lift plate during travel
G92 E0 ; reset extrusion distance
G1 X72.961 Y101.509 F7800.000 ; move to first fill point
G1 Z0.400 ; restore layer Z
G1 F1800.000 E1.00000 ; compensate retraction
G1 X72.491 Y101.039 F1080.000 E1.02764 ; fill
G1 X72.373 Y99.880 E1.07622 ; fill
G1 X74.120 Y101.627 E1.17918 ; fill
G1 X75.161 Y101.627 E1.22255 ; fill
G1 X72.373 Y98.839 E1.38686 ; fill
G1 X72.373 Y97.797 E1.43023 ; fill
G1 X76.203 Y101.627 E1.65587 ; fill
