; generated by Slic3r 0.9.8-dev on 2013-01-15 at 17:50:05

; layer_height = 0.4
; perimeters = 3
; top_solid_layers = 3
; bottom_solid_layers = 3
; fill_density = 0.40
; perimeter_speed = 30
; infill_speed = 60
; travel_speed = 130
; scale = 1
; nozzle_diameter = 0.5
; filament_diameter = 3
; extrusion_multiplier = 1
; perimeters extrusion width = 0.53mm
; infill extrusion width = 0.53mm
; first layer extrusion width = 0.80mm

M190 S60 ; wait for bed temperature to be reached
M104 S175 ; set temperature
G28 ; home all axes
G92 E0 ;reset extruder
M109 S175 ; wait for temperature to be reached
G90 ; use absolute coordinates
G21 ; set units to millimeters
G92 E0 ; reset extrusion distance
M82 ; use absolute distances for extrusion
G1 F1800.000 E-1.00000 ; retract
G1 Z1.400 ; move to next layer (0) and lift
G92 E0 ; reset extrusion distance
G1 X141.007 Y105.313 F7800.000 ; move to first skirt point
G1 Z0.400 ; restore layer Z
G1 F1800.000 E1.00000 ; compensate retraction
G1 X140.937 Y106.353 F900.000 E1.04339 ; skirt
G1 X140.847 Y107.063 E1.07318 ; skirt
G1 X140.757 Y107.533 E1.09310 ; skirt
G1 X140.517 Y108.433 E1.13188 ; skirt
G1 X140.367 Y108.873 E1.15123 ; skirt
G1 X140.007 Y109.713 E1.18927 ; skirt
G1 X139.797 Y110.133 E1.20882 ; skirt
G1 X139.427 Y110.793 E1.24032 ; skirt
G1 X139.167 Y111.193 E1.26018 ; skirt
G1 X138.557 Y111.993 E1.30205 ; skirt
G1 X138.247 Y112.343 E1.32152 ; skirt
G1 X137.677 Y112.913 E1.35507 ; skirt
G1 X137.327 Y113.223 E1.37454 ; skirt
G1 X114.567 Y132.113 E2.60579 ; skirt
G1 X114.107 Y132.473 E2.63010 ; skirt
G1 X113.357 Y132.923 E2.66651 ; skirt
G1 X112.557 Y133.273 E2.70286 ; skirt
G1 X111.717 Y133.513 E2.73923 ; skirt
G1 X111.137 Y133.613 E2.76373 ; skirt
G1 X110.267 Y133.673 E2.80003 ; skirt
G1 X107.067 Y133.673 E2.93324 ; skirt
G1 X65.467 Y131.993 E4.66636 ; skirt
G1 X64.927 Y131.953 E4.68890 ; skirt
G1 X64.657 Y131.913 E4.70026 ; skirt
G1 X64.127 Y131.803 E4.72279 ; skirt
G1 X63.347 Y131.563 E4.75676 ; skirt
G1 X62.847 Y131.353 E4.77934 ; skirt
G1 X62.367 Y131.093 E4.80206 ; skirt
G1 X61.907 Y130.803 E4.82470 ; skirt
G1 X61.477 Y130.483 E4.84701 ; skirt
G1 X61.067 Y130.123 E4.86973 ; skirt
G1 X60.517 Y129.523 E4.90361 ; skirt
G1 X60.197 Y129.093 E4.92592 ; skirt
G1 X59.907 Y128.633 E4.94856 ; skirt
G1 X59.647 Y128.153 E4.97128 ; skirt
G1 X59.437 Y127.653 E4.99386 ; skirt
G1 X59.197 Y126.873 E5.02783 ; skirt
G1 X59.087 Y126.343 E5.05036 ; skirt
G1 X59.047 Y126.073 E5.06172 ; skirt
G1 X58.997 Y125.263 E5.09551 ; skirt
G1 X59.007 Y50.803 E8.19509 ; skirt
G1 X59.047 Y50.263 E8.21763 ; skirt
G1 X59.137 Y49.723 E8.24042 ; skirt
G1 X59.267 Y49.203 E8.26273 ; skirt
G1 X59.437 Y48.683 E8.28551 ; skirt
G1 X59.647 Y48.183 E8.30808 ; skirt
G1 X59.907 Y47.703 E8.33081 ; skirt
G1 X60.197 Y47.243 E8.35344 ; skirt
G1 X60.517 Y46.813 E8.37576 ; skirt
G1 X60.877 Y46.403 E8.39847 ; skirt
G1 X61.267 Y46.033 E8.42085 ; skirt
G1 X61.687 Y45.693 E8.44334 ; skirt
G1 X62.137 Y45.383 E8.46609 ; skirt
G1 X62.847 Y44.983 E8.50001 ; skirt
G1 X63.097 Y44.873 E8.51138 ; skirt
G1 X63.607 Y44.683 E8.53404 ; skirt
G1 X64.127 Y44.533 E8.55657 ; skirt
G1 X64.927 Y44.383 E8.59045 ; skirt
G1 X65.467 Y44.343 E8.61299 ; skirt
G1 X68.937 Y44.333 E8.75744 ; skirt
G1 X110.537 Y46.003 E10.49054 ; skirt
G1 X111.407 Y46.093 E10.52695 ; skirt
G1 X111.987 Y46.223 E10.55169 ; skirt
G1 X112.547 Y46.393 E10.57605 ; skirt
G1 X113.087 Y46.613 E10.60032 ; skirt
G1 X113.607 Y46.883 E10.62471 ; skirt
G1 X114.337 Y47.363 E10.66108 ; skirt
G1 X137.327 Y66.433 E11.90449 ; skirt
G1 X137.677 Y66.743 E11.92395 ; skirt
G1 X138.247 Y67.313 E11.95751 ; skirt
G1 X138.557 Y67.663 E11.97697 ; skirt
G1 X139.167 Y68.463 E12.01885 ; skirt
G1 X139.427 Y68.863 E12.03871 ; skirt
G1 X139.797 Y69.523 E12.07021 ; skirt
G1 X140.007 Y69.943 E12.08975 ; skirt
G1 X140.367 Y70.783 E12.12780 ; skirt
G1 X140.517 Y71.223 E12.14715 ; skirt
G1 X140.757 Y72.123 E12.18592 ; skirt
G1 X140.847 Y72.593 E12.20584 ; skirt
G1 X140.937 Y73.303 E12.23563 ; skirt
G1 X141.007 Y74.343 E12.27903 ; skirt
G1 X141.007 Y105.203 E13.56364 ; skirt
G1 X141.007 Y105.313 E13.56823 ; skirt
G1 F1800.000 E12.56823 ; retract
G1 Z1.400 ; move to next layer (0) and lift
G92 E0 ; reset extrusion distance
G1 X91.462 Y101.266 F7800.000 ; move to first perimeter point
G1 Z0.400 ; restore layer Z
G1 F1800.000 E1.00000 ; compensate retraction
G1 X91.462 Y103.605 F720.000 E1.09739 ; perimeter
G1 X91.440 Y103.944 E1.11152 ; perimeter
G1 X91.386 Y104.217 E1.12309 ; perimeter
G1 X91.296 Y104.480 E1.13466 ; perimeter
G1 X91.173 Y104.729 E1.14623 ; perimeter
G1 X91.019 Y104.960 E1.15780 ; perimeter
G1 X90.836 Y105.169 E1.16937 ; perimeter
G1 X90.627 Y105.352 E1.18094 ; perimeter
G1 X90.396 Y105.507 E1.19251 ; perimeter
G1 X90.146 Y105.630 E1.20408 ; perimeter
G1 X89.883 Y105.719 E1.21565 ; perimeter
G1 X89.611 Y105.773 E1.22721 ; perimeter
G1 X89.272 Y105.795 E1.24134 ; perimeter
G1 X86.932 Y105.795 E1.33873 ; perimeter
G1 X88.771 Y104.889 E1.42407 ; perimeter
G1 X89.301 Y104.534 E1.45061 ; perimeter
G1 X89.781 Y104.114 E1.47716 ; perimeter
G1 X90.201 Y103.635 E1.50371 ; perimeter
G1 X90.555 Y103.104 E1.53025 ; perimeter
G1 X91.413 Y101.365 E1.61099 ; perimeter
G1 X91.462 Y101.266 E1.61559 ; perimeter
G1 F1800.000 E0.61559 ; retract
G1 Z1.400 ; lift plate during travel
G92 E0 ; reset extrusion distance
G1 X89.611 Y70.560 F7800.000 ; move to first perimeter point
G1 Z0.400 ; restore layer Z
G1 F1800.000 E1.00000 ; compensate retraction
G1 X89.883 Y70.614 F720.000 E1.01157 ; perimeter
G1 X90.146 Y70.704 E1.02314 ; perimeter
G1 X90.396 Y70.827 E1.03471 ; perimeter
G1 X90.627 Y70.981 E1.04628 ; perimeter
G1 X90.836 Y71.164 E1.05785 ; perimeter
G1 X91.019 Y71.373 E1.06942 ; perimeter
G1 X91.173 Y71.604 E1.08099 ; perimeter
G1 X91.296 Y71.854 E1.09256 ; perimeter
G1 X91.386 Y72.117 E1.10413 ; perimeter
G1 X91.440 Y72.389 E1.11570 ; perimeter
G1 X91.462 Y72.728 E1.12982 ; perimeter
G1 X91.462 Y75.068 E1.22721 ; perimeter
G1 X90.555 Y73.229 E1.31255 ; perimeter
G1 X90.201 Y72.699 E1.33910 ; perimeter
G1 X89.781 Y72.219 E1.36564 ; perimeter
G1 X89.301 Y71.799 E1.39219 ; perimeter
G1 X88.771 Y71.445 E1.41873 ; perimeter
G1 X86.932 Y70.538 E1.50407 ; perimeter
G1 X89.272 Y70.538 E1.60146 ; perimeter
G1 X89.501 Y70.553 E1.61099 ; perimeter
G1 X89.611 Y70.560 E1.61559 ; perimeter
G1 X89.707 Y69.829 F7800.000 ; move to first perimeter point
G1 X90.074 Y69.902 F900.000 E1.63117 ; perimeter
G1 X90.429 Y70.023 E1.64676 ; perimeter
G1 X90.764 Y70.188 E1.66234 ; perimeter
G1 X91.076 Y70.396 E1.67792 ; perimeter
G1 X91.357 Y70.643 E1.69351 ; perimeter
G1 X91.604 Y70.924 E1.70909 ; perimeter
G1 X91.812 Y71.236 E1.72467 ; perimeter
G1 X91.977 Y71.571 E1.74026 ; perimeter
G1 X92.098 Y71.926 E1.75584 ; perimeter
G1 X92.171 Y72.293 E1.77143 ; perimeter
G1 X92.198 Y72.704 E1.78856 ; perimeter
G1 X92.198 Y103.629 E3.07592 ; perimeter
G1 X92.171 Y104.040 E3.09305 ; perimeter
G1 X92.098 Y104.407 E3.10864 ; perimeter
G1 X91.977 Y104.762 E3.12422 ; perimeter
G1 X91.812 Y105.098 E3.13980 ; perimeter
G1 X91.604 Y105.409 E3.15539 ; perimeter
G1 X91.357 Y105.690 E3.17097 ; perimeter
G1 X91.076 Y105.937 E3.18655 ; perimeter
G1 X90.764 Y106.145 E3.20214 ; perimeter
G1 X90.429 Y106.311 E3.21772 ; perimeter
G1 X90.074 Y106.431 E3.23331 ; perimeter
G1 X89.707 Y106.504 E3.24889 ; perimeter
G1 X89.296 Y106.531 E3.26603 ; perimeter
G1 X68.198 Y106.531 E4.14430 ; perimeter
G1 X68.198 Y124.531 E4.89360 ; perimeter
G1 X66.469 Y124.531 E4.96556 ; perimeter
G1 X66.469 Y104.802 E5.78682 ; perimeter
G1 X86.371 Y104.802 E6.61527 ; perimeter
G1 X86.873 Y104.769 E6.63626 ; perimeter
G1 X87.404 Y104.664 E6.65879 ; perimeter
G1 X87.917 Y104.490 E6.68132 ; perimeter
G1 X88.402 Y104.250 E6.70385 ; perimeter
G1 X88.852 Y103.950 E6.72638 ; perimeter
G1 X89.259 Y103.593 E6.74892 ; perimeter
G1 X89.616 Y103.186 E6.77145 ; perimeter
G1 X89.917 Y102.736 E6.79398 ; perimeter
G1 X90.156 Y102.250 E6.81651 ; perimeter
G1 X90.330 Y101.738 E6.83905 ; perimeter
G1 X90.436 Y101.207 E6.86158 ; perimeter
G1 X90.469 Y100.704 E6.88256 ; perimeter
G1 X90.469 Y75.629 E7.92634 ; perimeter
G1 X90.436 Y75.127 E7.94733 ; perimeter
G1 X90.330 Y74.596 E7.96986 ; perimeter
G1 X90.156 Y74.083 E7.99239 ; perimeter
G1 X89.917 Y73.598 E8.01492 ; perimeter
G1 X89.616 Y73.148 E8.03745 ; perimeter
G1 X89.259 Y72.741 E8.05999 ; perimeter
G1 X88.852 Y72.384 E8.08252 ; perimeter
G1 X88.402 Y72.083 E8.10505 ; perimeter
G1 X87.917 Y71.844 E8.12758 ; perimeter
G1 X87.404 Y71.670 E8.15012 ; perimeter
G1 X86.873 Y71.564 E8.17265 ; perimeter
G1 X86.371 Y71.531 E8.19363 ; perimeter
G1 X66.469 Y71.531 E9.02208 ; perimeter
G1 X66.469 Y51.802 E9.84334 ; perimeter
G1 X68.198 Y51.802 E9.91531 ; perimeter
G1 X68.198 Y69.802 E10.66460 ; perimeter
G1 X89.296 Y69.802 E11.54288 ; perimeter
G1 X89.597 Y69.822 E11.55542 ; perimeter
G1 X89.707 Y69.829 E11.56001 ; perimeter
G1 X89.803 Y69.098 F7800.000 ; move to first perimeter point
G1 X90.265 Y69.190 F900.000 E11.57961 ; perimeter
G1 X90.711 Y69.341 E11.59921 ; perimeter
G1 X91.133 Y69.550 E11.61881 ; perimeter
G1 X91.524 Y69.811 E11.63840 ; perimeter
G1 X91.878 Y70.122 E11.65800 ; perimeter
G1 X92.189 Y70.476 E11.67760 ; perimeter
G1 X92.450 Y70.867 E11.69720 ; perimeter
G1 X92.659 Y71.289 E11.71680 ; perimeter
G1 X92.810 Y71.735 E11.73639 ; perimeter
G1 X92.902 Y72.197 E11.75599 ; perimeter
G1 X92.933 Y72.680 E11.77614 ; perimeter
G1 X92.933 Y103.654 E13.06550 ; perimeter
G1 X92.902 Y104.136 E13.08564 ; perimeter
G1 X92.810 Y104.598 E13.10524 ; perimeter
G1 X92.659 Y105.044 E13.12484 ; perimeter
G1 X92.450 Y105.466 E13.14444 ; perimeter
G1 X92.189 Y105.858 E13.16403 ; perimeter
G1 X91.878 Y106.212 E13.18363 ; perimeter
G1 X91.524 Y106.522 E13.20323 ; perimeter
G1 X91.133 Y106.784 E13.22283 ; perimeter
G1 X90.711 Y106.992 E13.24243 ; perimeter
G1 X90.265 Y107.143 E13.26202 ; perimeter
G1 X89.803 Y107.235 E13.28162 ; perimeter
G1 X89.320 Y107.267 E13.30177 ; perimeter
G1 X68.933 Y107.267 E14.15042 ; perimeter
G1 X68.933 Y125.267 E14.89972 ; perimeter
G1 X65.733 Y125.267 E15.03293 ; perimeter
G1 X65.733 Y104.067 E15.91543 ; perimeter
G1 X86.346 Y104.067 E16.77350 ; perimeter
G1 X86.777 Y104.038 E16.79148 ; perimeter
G1 X87.214 Y103.952 E16.80999 ; perimeter
G1 X87.635 Y103.809 E16.82851 ; perimeter
G1 X88.034 Y103.612 E16.84703 ; perimeter
G1 X88.404 Y103.365 E16.86555 ; perimeter
G1 X88.738 Y103.071 E16.88407 ; perimeter
G1 X89.031 Y102.737 E16.90258 ; perimeter
G1 X89.279 Y102.367 E16.92110 ; perimeter
G1 X89.475 Y101.968 E16.93962 ; perimeter
G1 X89.618 Y101.547 E16.95814 ; perimeter
G1 X89.705 Y101.111 E16.97666 ; perimeter
G1 X89.733 Y100.680 E16.99463 ; perimeter
G1 X89.733 Y75.654 E18.03641 ; perimeter
G1 X89.705 Y75.223 E18.05438 ; perimeter
G1 X89.618 Y74.786 E18.07290 ; perimeter
G1 X89.475 Y74.365 E18.09142 ; perimeter
G1 X89.279 Y73.966 E18.10993 ; perimeter
G1 X89.031 Y73.596 E18.12845 ; perimeter
G1 X88.738 Y73.262 E18.14697 ; perimeter
G1 X88.404 Y72.969 E18.16549 ; perimeter
G1 X88.034 Y72.721 E18.18401 ; perimeter
G1 X87.635 Y72.525 E18.20252 ; perimeter
G1 X87.214 Y72.382 E18.22104 ; perimeter
G1 X86.777 Y72.295 E18.23956 ; perimeter
G1 X86.346 Y72.267 E18.25753 ; perimeter
G1 X65.733 Y72.267 E19.11560 ; perimeter
G1 X65.733 Y51.067 E19.99811 ; perimeter
G1 X68.933 Y51.067 E20.13132 ; perimeter
G1 X68.933 Y69.067 E20.88061 ; perimeter
G1 X89.320 Y69.067 E21.72927 ; perimeter
G1 X89.693 Y69.091 E21.74482 ; perimeter
G1 X89.803 Y69.098 E21.74941 ; perimeter
G1 X90.070 Y69.784 F7800.000 ; move inwards before travel
G1 F1800.000 E20.74941 ; retract
G1 Z1.400 ; lift plate during travel
G92 E0 ; reset extrusion distance
G1 X67.471 Y123.997 F7800.000 ; move to first fill point
G1 Z0.400 ; restore layer Z
G1 F1800.000 E1.00000 ; compensate retraction
G1 X67.003 Y123.529 F600.000 E1.02771 ; fill
G1 X67.664 Y123.145 E1.05974 ; fill
G1 X67.002 Y122.483 E1.09891 ; fill
G1 X67.664 Y122.099 E1.13094 ; fill
G1 X67.003 Y121.437 E1.17008 ; fill
G1 X67.664 Y121.052 E1.20209 ; fill
G1 X67.003 Y120.391 E1.24123 ; fill
G1 X67.664 Y120.007 E1.27325 ; fill
G1 X67.002 Y119.345 E1.31243 ; fill
G1 X67.664 Y118.961 E1.34446 ; fill
G1 X67.003 Y118.299 E1.38359 ; fill
G1 X67.664 Y117.914 E1.41561 ; fill
G1 X67.003 Y117.253 E1.45474 ; fill
G1 X67.664 Y116.869 E1.48677 ; fill
G1 X67.002 Y116.207 E1.52595 ; fill
G1 X67.664 Y115.822 E1.55798 ; fill
G1 X67.003 Y115.161 E1.59711 ; fill
G1 X67.664 Y114.777 E1.62914 ; fill
G1 X67.002 Y114.115 E1.66832 ; fill
G1 X67.664 Y113.731 E1.70034 ; fill
G1 X67.003 Y113.069 E1.73948 ; fill
G1 X67.664 Y112.684 E1.77149 ; fill
G1 X67.003 Y112.023 E1.81063 ; fill
G1 X67.664 Y111.639 E1.84266 ; fill
G1 X67.002 Y110.977 E1.88183 ; fill
G1 X67.664 Y110.593 E1.91386 ; fill
G1 X67.003 Y109.931 E1.95299 ; fill
G1 X67.664 Y109.546 E1.98501 ; fill
G1 X67.003 Y108.885 E2.02415 ; fill
G1 X67.664 Y108.501 E2.05617 ; fill
G1 X67.002 Y107.839 E2.09535 ; fill
G1 X67.664 Y107.455 E2.12738 ; fill
G1 X67.003 Y106.793 E2.16651 ; fill
G1 X67.664 Y106.409 E2.19854 ; fill
G1 X67.003 Y105.747 E2.23772 ; fill
G1 X67.637 Y105.336 E2.26937 ; fill
G1 X68.299 Y105.998 E2.30855 ; fill
G1 X68.683 Y105.336 E2.34058 ; fill
G1 X69.345 Y105.997 E2.37971 ; fill
G1 X69.729 Y105.336 E2.41174 ; fill
G1 X70.391 Y105.998 E2.45092 ; fill
G1 X70.775 Y105.336 E2.48294 ; fill
G1 X71.436 Y105.997 E2.52208 ; fill
G1 X71.822 Y105.336 E2.55410 ; fill
G1 X72.483 Y105.997 E2.59323 ; fill
G1 X72.867 Y105.336 E2.62526 ; fill
G1 X73.529 Y105.998 E2.66443 ; fill
G1 X73.913 Y105.336 E2.69646 ; fill
G1 X74.575 Y105.997 E2.73560 ; fill
G1 X74.960 Y105.336 E2.76761 ; fill
G1 X75.621 Y105.997 E2.80675 ; fill
G1 X76.005 Y105.336 E2.83877 ; fill
G1 X76.667 Y105.998 E2.87795 ; fill
G1 X77.051 Y105.336 E2.90998 ; fill
G1 X77.713 Y105.997 E2.94912 ; fill
G1 X78.097 Y105.336 E2.98114 ; fill
G1 X78.759 Y105.997 E3.02032 ; fill
G1 X79.143 Y105.336 E3.05235 ; fill
G1 X79.805 Y105.998 E3.09152 ; fill
G1 X80.189 Y105.336 E3.12355 ; fill
G1 X80.851 Y105.997 E3.16268 ; fill
G1 X81.235 Y105.336 E3.19471 ; fill
G1 X81.897 Y105.998 E3.23389 ; fill
G1 X82.281 Y105.336 E3.26592 ; fill
G1 X82.942 Y105.997 E3.30505 ; fill
G1 X83.327 Y105.336 E3.33707 ; fill
G1 X83.989 Y105.997 E3.37620 ; fill
G1 X84.373 Y105.336 E3.40823 ; fill
G1 X85.035 Y105.998 E3.44741 ; fill
G1 X85.419 Y105.336 E3.47943 ; fill
G1 X85.887 Y105.804 E3.50714 ; fill
G1 F1800.000 E2.50714 ; retract
G1 Z1.400 ; lift plate during travel
G92 E0 ; reset extrusion distance
G1 X89.424 Y105.360 F7800.000 ; move to first fill point
G1 Z0.400 ; restore layer Z
G1 F1800.000 E1.00000 ; compensate retraction
G1 X89.156 Y105.091 F600.000 E1.00973 ; fill
G1 X89.537 Y104.832 E1.02156 ; fill
G1 X89.973 Y105.268 E1.03740 ; fill
G1 X90.394 Y105.048 E1.04958 ; fill
G1 X89.878 Y104.532 E1.06831 ; fill
G1 X90.198 Y104.211 E1.07994 ; fill
G1 X90.715 Y104.728 E1.09867 ; fill
G1 X90.935 Y104.307 E1.11085 ; fill
G1 X90.498 Y103.870 E1.12669 ; fill
G1 X90.758 Y103.489 E1.13852 ; fill
G1 X91.026 Y103.757 E1.14825 ; fill
G1 F1800.000 E0.14825 ; retract
G1 Z1.400 ; lift plate during travel
G92 E0 ; reset extrusion distance
G1 X91.471 Y100.221 F7800.000 ; move to first fill point
G1 Z0.400 ; restore layer Z
G1 F1800.000 E1.00000 ; compensate retraction
G1 X91.003 Y99.753 F600.000 E1.02847 ; fill
G1 X91.664 Y99.339 E1.06200 ; fill
G1 X91.003 Y98.678 E1.10222 ; fill
G1 X91.664 Y98.265 E1.13575 ; fill
G1 X91.003 Y97.603 E1.17598 ; fill
G1 X91.664 Y97.190 E1.20952 ; fill
G1 X91.003 Y96.529 E1.24974 ; fill
G1 X91.664 Y96.116 E1.28327 ; fill
G1 X91.003 Y95.454 E1.32350 ; fill
G1 X91.664 Y95.041 E1.35703 ; fill
G1 X91.003 Y94.380 E1.39725 ; fill
G1 X91.664 Y93.967 E1.43078 ; fill
G1 X91.003 Y93.305 E1.47100 ; fill
G1 X91.664 Y92.892 E1.50453 ; fill
G1 X91.003 Y92.231 E1.54476 ; fill
G1 X91.664 Y91.818 E1.57829 ; fill
G1 X91.003 Y91.156 E1.61852 ; fill
G1 X91.664 Y90.743 E1.65205 ; fill
G1 X91.003 Y90.082 E1.69227 ; fill
G1 X91.664 Y89.669 E1.72580 ; fill
G1 X91.003 Y89.007 E1.76603 ; fill
G1 X91.664 Y88.594 E1.79956 ; fill
G1 X91.003 Y87.933 E1.83978 ; fill
