; generated by Slic3r 0.9.8-dev on 2013-01-08 at 17:56:12

; layer_height = 0.4
; perimeters = 3
; top_solid_layers = 3
; bottom_solid_layers = 3
; fill_density = 0.40
; perimeter_speed = 30
; infill_speed = 60
; travel_speed = 130
; scale = 1
; nozzle_diameter = 0.5
; filament_diameter = 3
; extrusion_multiplier = 1
; perimeters extrusion width = 0.53mm
; infill extrusion width = 0.53mm
; first layer extrusion width = 0.80mm

M190 S60 ; wait for bed temperature to be reached
M104 S180 ; set temperature
G28                 ; home all axes
G92 E0 ;reset extruder
G1 E3 F1200 ;Prime extruder 3mm
G1 E2 F1200 ;retract extruder 1mm
G92 E0 ;reset extruder
M109 S180 ; wait for temperature to be reached
G90 ; use absolute coordinates
G21 ; set units to millimeters
G92 E0 ; reset extrusion distance
M82 ; use absolute distances for extrusion
G1 F1800.000 E-1.00000 ; retract
G1 Z0.900 ; move to next layer (0) and lift
G92 E0 ; reset extrusion distance
G1 X126.635 Y110.405 F7800.000 ; move to first skirt point
G1 Z0.400 ; restore layer Z
G1 F1800.000 E1.00000 ; compensate retraction
G1 X125.345 Y110.985 F540.000 E1.05888 ; skirt
G1 X124.495 Y111.235 E1.09576 ; skirt
G1 X123.915 Y111.335 E1.12026 ; skirt
G1 X123.325 Y111.385 E1.14491 ; skirt
G1 X121.515 Y111.395 E1.22026 ; skirt
G1 X78.205 Y110.275 E3.02375 ; skirt
G1 X77.335 Y110.155 E3.06031 ; skirt
G1 X76.765 Y110.015 E3.08474 ; skirt
G1 X76.215 Y109.835 E3.10883 ; skirt
G1 X75.425 Y109.465 E3.14514 ; skirt
G1 X74.925 Y109.155 E3.16963 ; skirt
G1 X73.995 Y108.535 E3.21616 ; skirt
G1 X73.285 Y108.025 E3.25255 ; skirt
G1 X72.325 Y107.245 E3.30404 ; skirt
G1 X71.705 Y106.685 E3.33882 ; skirt
G1 X70.995 Y105.995 E3.38003 ; skirt
G1 X70.375 Y105.325 E3.41803 ; skirt
G1 X69.995 Y104.875 E3.44255 ; skirt
G1 X69.275 Y103.945 E3.49151 ; skirt
G1 X68.715 Y103.125 E3.53285 ; skirt
G1 X67.995 Y101.925 E3.59110 ; skirt
G1 X67.445 Y100.865 E3.64081 ; skirt
G1 X67.195 Y100.325 E3.66558 ; skirt
G1 X66.835 Y99.445 E3.70516 ; skirt
G1 X66.445 Y98.345 E3.75374 ; skirt
G1 X66.175 Y97.405 E3.79446 ; skirt
G1 X65.985 Y96.605 E3.82868 ; skirt
G1 X65.805 Y95.695 E3.86730 ; skirt
G1 X65.715 Y95.115 E3.89173 ; skirt
G1 X65.615 Y94.175 E3.93108 ; skirt
G1 X65.535 Y92.905 E3.98406 ; skirt
G1 X65.555 Y91.615 E4.03776 ; skirt
G1 X65.625 Y90.565 E4.08157 ; skirt
G1 X65.775 Y89.405 E4.13026 ; skirt
G1 X66.035 Y88.025 E4.18871 ; skirt
G1 X66.385 Y86.755 E4.24355 ; skirt
G1 X66.665 Y85.885 E4.28160 ; skirt
G1 X66.875 Y85.325 E4.30649 ; skirt
G1 X67.215 Y84.515 E4.34306 ; skirt
G1 X67.575 Y83.755 E4.37807 ; skirt
G1 X68.145 Y82.685 E4.42854 ; skirt
G1 X68.445 Y82.175 E4.45317 ; skirt
G1 X68.995 Y81.345 E4.49461 ; skirt
G1 X69.685 Y80.405 E4.54316 ; skirt
G1 X70.265 Y79.695 E4.58132 ; skirt
G1 X70.755 Y79.145 E4.61198 ; skirt
G1 X79.685 Y69.505 E5.15899 ; skirt
G1 X80.415 Y68.825 E5.20052 ; skirt
G1 X80.815 Y68.505 E5.22185 ; skirt
G1 X81.685 Y67.905 E5.26584 ; skirt
G1 X82.715 Y67.395 E5.31368 ; skirt
G1 X83.185 Y67.205 E5.33479 ; skirt
G1 X83.885 Y66.955 E5.36573 ; skirt
G1 X84.135 Y66.885 E5.37654 ; skirt
G1 X85.155 Y66.685 E5.41980 ; skirt
G1 X85.945 Y66.615 E5.45282 ; skirt
G1 X86.465 Y66.595 E5.47448 ; skirt
G1 X127.165 Y66.595 E7.16872 ; skirt
G1 X127.975 Y66.645 E7.20250 ; skirt
G1 X128.515 Y66.735 E7.22529 ; skirt
G1 X129.295 Y66.945 E7.25892 ; skirt
G1 X129.805 Y67.135 E7.28157 ; skirt
G1 X130.295 Y67.365 E7.30411 ; skirt
G1 X130.765 Y67.645 E7.32688 ; skirt
G1 X131.425 Y68.115 E7.36061 ; skirt
G1 X131.825 Y68.475 E7.38301 ; skirt
G1 X132.205 Y68.865 E7.40568 ; skirt
G1 X132.545 Y69.285 E7.42817 ; skirt
G1 X132.855 Y69.735 E7.45092 ; skirt
G1 X133.125 Y70.205 E7.47348 ; skirt
G1 X133.465 Y70.945 E7.50738 ; skirt
G1 X133.555 Y71.195 E7.51844 ; skirt
G1 X133.705 Y71.715 E7.54097 ; skirt
G1 X133.855 Y72.515 E7.57486 ; skirt
G1 X133.895 Y73.055 E7.59740 ; skirt
G1 X134.455 Y86.675 E8.16484 ; skirt
G1 X134.455 Y97.635 E8.62108 ; skirt
G1 X134.415 Y98.695 E8.66524 ; skirt
G1 X134.375 Y99.145 E8.68404 ; skirt
G1 X134.195 Y100.335 E8.73414 ; skirt
G1 X134.005 Y101.195 E8.77081 ; skirt
G1 X133.785 Y101.955 E8.80374 ; skirt
G1 X133.465 Y102.875 E8.84429 ; skirt
G1 X133.125 Y103.655 E8.87971 ; skirt
G1 X132.625 Y104.645 E8.92588 ; skirt
G1 X132.355 Y105.115 E8.94844 ; skirt
G1 X131.815 Y105.935 E8.98931 ; skirt
G1 X131.135 Y106.815 E9.03561 ; skirt
G1 X130.785 Y107.215 E9.05773 ; skirt
G1 X130.005 Y108.015 E9.10424 ; skirt
G1 X129.615 Y108.375 E9.12634 ; skirt
G1 X129.045 Y108.865 E9.15763 ; skirt
G1 X128.315 Y109.405 E9.19543 ; skirt
G1 X127.595 Y109.875 E9.23122 ; skirt
G1 X126.733 Y110.354 E9.27228 ; skirt
G1 X126.635 Y110.405 E9.27687 ; skirt
G1 F1800.000 E8.27687 ; retract
G1 Z0.900 ; lift plate during travel
G92 E0 ; reset extrusion distance
G1 X83.300 Y80.483 F7800.000 ; move to first perimeter point
G1 Z0.400 ; restore layer Z
G1 F1800.000 E1.00000 ; compensate retraction
G1 X84.256 Y78.236 F324.000 E1.10167 ; perimeter
G1 X84.809 Y79.358 E1.15376 ; perimeter
G1 X85.066 Y79.742 E1.17299 ; perimeter
G1 X85.610 Y80.362 E1.20734 ; perimeter
G1 X84.442 Y80.393 E1.25597 ; perimeter
G1 X83.410 Y80.474 E1.29910 ; perimeter
G1 X83.300 Y80.483 E1.30369 ; perimeter
G1 X83.335 Y81.247 F7800.000 ; move to first perimeter point
G1 X82.719 Y81.360 F540.000 E1.32975 ; perimeter
G1 X78.762 Y82.309 E1.49913 ; perimeter
G1 X78.622 Y81.788 E1.52162 ; perimeter
G1 X82.428 Y80.651 E1.68699 ; perimeter
G1 X84.826 Y75.043 E1.94091 ; perimeter
G1 X84.921 Y74.888 E1.94846 ; perimeter
G1 X85.153 Y74.610 E1.96354 ; perimeter
G1 X85.434 Y74.381 E1.97862 ; perimeter
G1 X85.590 Y74.289 E1.98616 ; perimeter
G1 X85.925 Y74.151 E2.00124 ; perimeter
G1 X86.280 Y74.081 E2.01632 ; perimeter
G1 X91.274 Y74.071 E2.22419 ; perimeter
G1 X91.290 Y74.573 E2.24510 ; perimeter
G1 X87.503 Y74.821 E2.40308 ; perimeter
G1 X87.145 Y74.893 E2.41829 ; perimeter
G1 X86.798 Y75.010 E2.43351 ; perimeter
G1 X86.471 Y75.172 E2.44873 ; perimeter
G1 X86.167 Y75.375 E2.46394 ; perimeter
G1 X85.892 Y75.616 E2.47916 ; perimeter
G1 X85.651 Y75.891 E2.49438 ; perimeter
G1 X85.448 Y76.195 E2.50959 ; perimeter
G1 X85.286 Y76.523 E2.52481 ; perimeter
G1 X85.169 Y76.869 E2.54003 ; perimeter
G1 X85.097 Y77.227 E2.55524 ; perimeter
G1 X85.073 Y77.592 E2.57046 ; perimeter
G1 X85.097 Y77.957 E2.58567 ; perimeter
G1 X85.169 Y78.315 E2.60089 ; perimeter
G1 X85.286 Y78.661 E2.61611 ; perimeter
G1 X85.448 Y78.989 E2.63132 ; perimeter
G1 X85.651 Y79.293 E2.64654 ; perimeter
G1 X85.892 Y79.568 E2.66175 ; perimeter
G1 X86.167 Y79.809 E2.67697 ; perimeter
G1 X86.471 Y80.012 E2.69219 ; perimeter
G1 X86.798 Y80.174 E2.70740 ; perimeter
G1 X87.145 Y80.291 E2.72262 ; perimeter
G1 X87.503 Y80.362 E2.73784 ; perimeter
G1 X91.290 Y80.611 E2.89582 ; perimeter
G1 X91.274 Y81.113 E2.91673 ; perimeter
G1 X85.060 Y81.113 E3.17540 ; perimeter
G1 X84.481 Y81.128 E3.19949 ; perimeter
G1 X83.891 Y81.174 E3.22415 ; perimeter
G1 X83.444 Y81.233 E3.24290 ; perimeter
G1 X83.335 Y81.247 E3.24750 ; perimeter
G1 F1800.000 E2.24750 ; retract
G1 Z0.900 ; lift plate during travel
G92 E0 ; reset extrusion distance
G1 X108.881 Y81.113 F7800.000 ; move to first perimeter point
G1 Z0.400 ; restore layer Z
G1 F1800.000 E1.00000 ; compensate retraction
G1 X113.564 Y78.598 F324.000 E1.22127 ; perimeter
G1 X113.882 Y79.177 E1.24876 ; perimeter
G1 X110.472 Y81.113 E1.41198 ; perimeter
G1 X108.991 Y81.113 E1.47365 ; perimeter
G1 X108.881 Y81.113 E1.47824 ; perimeter
G1 X110.053 Y79.648 F7800.000 ; move to first perimeter point
G1 X110.656 Y79.325 F540.000 E1.50673 ; perimeter
G1 X111.174 Y79.077 E1.53063 ; perimeter
G1 X111.704 Y78.855 E1.55453 ; perimeter
G1 X112.243 Y78.658 E1.57843 ; perimeter
G1 X112.791 Y78.487 E1.60233 ; perimeter
G1 X113.347 Y78.342 E1.62624 ; perimeter
G1 X113.908 Y78.223 E1.65014 ; perimeter
G1 X114.475 Y78.131 E1.67404 ; perimeter
G1 X115.046 Y78.067 E1.69794 ; perimeter
G1 X115.619 Y78.029 E1.72184 ; perimeter
G1 X116.193 Y78.019 E1.74574 ; perimeter
G1 X116.767 Y78.035 E1.76965 ; perimeter
G1 X117.339 Y78.080 E1.79355 ; perimeter
G1 X117.909 Y78.151 E1.81745 ; perimeter
G1 X118.475 Y78.249 E1.84135 ; perimeter
G1 X119.035 Y78.374 E1.86525 ; perimeter
G1 X119.589 Y78.525 E1.88915 ; perimeter
G1 X120.135 Y78.702 E1.91306 ; perimeter
G1 X120.672 Y78.906 E1.93696 ; perimeter
G1 X121.199 Y79.134 E1.96086 ; perimeter
G1 X121.714 Y79.387 E1.98476 ; perimeter
G1 X122.217 Y79.664 E2.00867 ; perimeter
G1 X122.706 Y79.965 E2.03257 ; perimeter
G1 X123.181 Y80.289 E2.05647 ; perimeter
G1 X123.639 Y80.635 E2.08037 ; perimeter
G1 X124.080 Y81.002 E2.10427 ; perimeter
G1 X124.504 Y81.389 E2.12817 ; perimeter
G1 X124.909 Y81.797 E2.15208 ; perimeter
G1 X125.294 Y82.223 E2.17598 ; perimeter
G1 X125.658 Y82.667 E2.19988 ; perimeter
G1 X126.001 Y83.127 E2.22378 ; perimeter
G1 X126.321 Y83.604 E2.24768 ; perimeter
G1 X126.619 Y84.095 E2.27159 ; perimeter
G1 X126.893 Y84.599 E2.29549 ; perimeter
G1 X127.142 Y85.116 E2.31939 ; perimeter
G1 X127.367 Y85.645 E2.34329 ; perimeter
G1 X127.567 Y86.183 E2.36719 ; perimeter
G1 X127.725 Y86.680 E2.38891 ; perimeter
G1 X127.725 Y97.642 E2.84523 ; perimeter
G1 X127.711 Y98.099 E2.86425 ; perimeter
G1 X127.671 Y98.548 E2.88301 ; perimeter
G1 X127.604 Y98.994 E2.90177 ; perimeter
G1 X127.512 Y99.435 E2.92054 ; perimeter
G1 X127.393 Y99.870 E2.93930 ; perimeter
G1 X127.248 Y100.297 E2.95806 ; perimeter
G1 X127.079 Y100.714 E2.97683 ; perimeter
G1 X126.885 Y101.121 E2.99559 ; perimeter
G1 X126.667 Y101.516 E3.01435 ; perimeter
G1 X126.426 Y101.897 E3.03312 ; perimeter
G1 X126.163 Y102.263 E3.05188 ; perimeter
G1 X125.879 Y102.613 E3.07064 ; perimeter
G1 X125.574 Y102.945 E3.08941 ; perimeter
G1 X125.251 Y103.259 E3.10817 ; perimeter
G1 X124.909 Y103.553 E3.12694 ; perimeter
G1 X124.551 Y103.826 E3.14570 ; perimeter
G1 X124.177 Y104.078 E3.16446 ; perimeter
G1 X123.788 Y104.307 E3.18323 ; perimeter
G1 X123.041 Y104.665 E3.21774 ; perimeter
G1 X121.517 Y104.665 E3.28114 ; perimeter
G1 X121.304 Y104.630 E3.29015 ; perimeter
G1 X121.129 Y104.534 E3.29847 ; perimeter
G1 X120.995 Y104.385 E3.30677 ; perimeter
G1 X120.918 Y104.201 E3.31509 ; perimeter
G1 X120.905 Y104.002 E3.32340 ; perimeter
G1 X120.959 Y103.810 E3.33171 ; perimeter
G1 X121.009 Y103.723 E3.33588 ; perimeter
G1 X121.162 Y103.569 E3.34489 ; perimeter
G1 X123.368 Y101.966 E3.45843 ; perimeter
G1 X123.664 Y101.727 E3.47428 ; perimeter
G1 X123.946 Y101.464 E3.49032 ; perimeter
G1 X124.208 Y101.182 E3.50635 ; perimeter
G1 X124.450 Y100.882 E3.52238 ; perimeter
G1 X124.669 Y100.565 E3.53841 ; perimeter
G1 X124.866 Y100.234 E3.55444 ; perimeter
G1 X125.038 Y99.890 E3.57048 ; perimeter
G1 X125.185 Y99.534 E3.58651 ; perimeter
G1 X125.307 Y99.168 E3.60254 ; perimeter
G1 X125.402 Y98.795 E3.61857 ; perimeter
G1 X125.470 Y98.416 E3.63460 ; perimeter
G1 X125.511 Y98.033 E3.65063 ; perimeter
G1 X125.525 Y97.655 E3.66637 ; perimeter
G1 X125.525 Y87.006 E4.10969 ; perimeter
G1 X125.319 Y86.446 E4.13451 ; perimeter
G1 X125.107 Y85.954 E4.15681 ; perimeter
G1 X124.868 Y85.475 E4.17909 ; perimeter
G1 X124.604 Y85.009 E4.20138 ; perimeter
G1 X124.316 Y84.558 E4.22368 ; perimeter
G1 X124.003 Y84.123 E4.24597 ; perimeter
G1 X123.667 Y83.706 E4.26828 ; perimeter
G1 X123.319 Y83.318 E4.28997 ; perimeter
G1 X122.931 Y82.929 E4.31284 ; perimeter
G1 X122.532 Y82.571 E4.33514 ; perimeter
G1 X122.114 Y82.236 E4.35744 ; perimeter
G1 X121.680 Y81.923 E4.37973 ; perimeter
G1 X121.228 Y81.635 E4.40202 ; perimeter
G1 X120.762 Y81.372 E4.42431 ; perimeter
G1 X120.282 Y81.133 E4.44662 ; perimeter
G1 X119.790 Y80.922 E4.46891 ; perimeter
G1 X119.288 Y80.737 E4.49120 ; perimeter
G1 X118.776 Y80.580 E4.51349 ; perimeter
G1 X118.256 Y80.450 E4.53579 ; perimeter
G1 X117.730 Y80.349 E4.55808 ; perimeter
G1 X117.200 Y80.277 E4.58037 ; perimeter
G1 X116.666 Y80.233 E4.60266 ; perimeter
G1 X116.144 Y80.219 E4.62438 ; perimeter
G1 X115.595 Y80.232 E4.64725 ; perimeter
G1 X115.061 Y80.275 E4.66955 ; perimeter
G1 X114.531 Y80.347 E4.69184 ; perimeter
G1 X114.005 Y80.448 E4.71413 ; perimeter
G1 X113.485 Y80.577 E4.73642 ; perimeter
G1 X112.986 Y80.729 E4.75813 ; perimeter
G1 X112.470 Y80.918 E4.78101 ; perimeter
G1 X111.978 Y81.129 E4.80330 ; perimeter
G1 X111.497 Y81.366 E4.82560 ; perimeter
G1 X111.031 Y81.629 E4.84789 ; perimeter
G1 X110.687 Y81.848 E4.86488 ; perimeter
G1 X85.069 Y81.848 E5.93127 ; perimeter
G1 X84.520 Y81.863 E5.95416 ; perimeter
G1 X83.967 Y81.906 E5.97724 ; perimeter
G1 X83.417 Y81.979 E6.00035 ; perimeter
G1 X82.871 Y82.080 E6.02343 ; perimeter
G1 X82.332 Y82.209 E6.04653 ; perimeter
G1 X81.800 Y82.367 E6.06963 ; perimeter
G1 X81.290 Y82.547 E6.09215 ; perimeter
G1 X80.764 Y82.764 E6.11582 ; perimeter
G1 X80.263 Y83.003 E6.13893 ; perimeter
G1 X79.776 Y83.268 E6.16202 ; perimeter
G1 X79.303 Y83.558 E6.18512 ; perimeter
G1 X78.845 Y83.872 E6.20821 ; perimeter
G1 X78.405 Y84.209 E6.23130 ; perimeter
G1 X77.983 Y84.570 E6.25441 ; perimeter
G1 X77.580 Y84.952 E6.27751 ; perimeter
G1 X77.208 Y85.344 E6.30001 ; perimeter
G1 X76.838 Y85.776 E6.32369 ; perimeter
G1 X76.500 Y86.216 E6.34679 ; perimeter
G1 X76.186 Y86.673 E6.36988 ; perimeter
G1 X75.896 Y87.146 E6.39298 ; perimeter
G1 X75.631 Y87.634 E6.41608 ; perimeter
G1 X75.392 Y88.134 E6.43917 ; perimeter
G1 X75.180 Y88.647 E6.46227 ; perimeter
G1 X74.994 Y89.170 E6.48537 ; perimeter
G1 X74.837 Y89.702 E6.50846 ; perimeter
G1 X74.707 Y90.241 E6.53155 ; perimeter
G1 X74.606 Y90.787 E6.55465 ; perimeter
G1 X74.533 Y91.337 E6.57776 ; perimeter
G1 X74.489 Y91.890 E6.60085 ; perimeter
G1 X74.475 Y92.445 E6.62394 ; perimeter
G1 X74.489 Y92.999 E6.64704 ; perimeter
G1 X74.532 Y93.553 E6.67014 ; perimeter
G1 X74.604 Y94.103 E6.69324 ; perimeter
G1 X74.705 Y94.648 E6.71633 ; perimeter
G1 X74.835 Y95.188 E6.73942 ; perimeter
G1 X74.992 Y95.720 E6.76253 ; perimeter
G1 X75.177 Y96.243 E6.78562 ; perimeter
G1 X75.389 Y96.756 E6.80872 ; perimeter
G1 X75.628 Y97.257 E6.83182 ; perimeter
G1 X75.892 Y97.744 E6.85492 ; perimeter
G1 X76.182 Y98.217 E6.87800 ; perimeter
G1 X76.496 Y98.675 E6.90110 ; perimeter
G1 X76.833 Y99.115 E6.92420 ; perimeter
G1 X77.194 Y99.537 E6.94730 ; perimeter
G1 X77.575 Y99.940 E6.97039 ; perimeter
G1 X77.978 Y100.322 E6.99349 ; perimeter
G1 X78.675 Y100.894 E7.03103 ; perimeter
G1 X78.675 Y103.560 E7.14202 ; perimeter
G1 X77.737 Y102.936 E7.18892 ; perimeter
G1 X77.260 Y102.586 E7.21354 ; perimeter
G1 X76.800 Y102.214 E7.23815 ; perimeter
G1 X76.358 Y101.822 E7.26277 ; perimeter
G1 X75.934 Y101.409 E7.28739 ; perimeter
G1 X75.530 Y100.977 E7.31201 ; perimeter
G1 X75.147 Y100.527 E7.33663 ; perimeter
G1 X74.784 Y100.060 E7.36125 ; perimeter
G1 X74.443 Y99.577 E7.38586 ; perimeter
G1 X74.125 Y99.078 E7.41048 ; perimeter
G1 X73.831 Y98.565 E7.43510 ; perimeter
G1 X73.560 Y98.039 E7.45972 ; perimeter
G1 X73.314 Y97.501 E7.48434 ; perimeter
G1 X73.094 Y96.953 E7.50896 ; perimeter
G1 X72.898 Y96.395 E7.53357 ; perimeter
G1 X72.729 Y95.828 E7.55819 ; perimeter
G1 X72.586 Y95.254 E7.58281 ; perimeter
G1 X72.470 Y94.674 E7.60743 ; perimeter
G1 X72.380 Y94.090 E7.63205 ; perimeter
G1 X72.318 Y93.502 E7.65666 ; perimeter
G1 X72.283 Y92.911 E7.68128 ; perimeter
G1 X72.275 Y92.320 E7.70590 ; perimeter
G1 X72.295 Y91.729 E7.73052 ; perimeter
G1 X72.342 Y91.139 E7.75514 ; perimeter
G1 X72.416 Y90.553 E7.77976 ; perimeter
G1 X72.517 Y89.970 E7.80437 ; perimeter
G1 X72.645 Y89.392 E7.82899 ; perimeter
G1 X72.799 Y88.822 E7.85361 ; perimeter
G1 X72.980 Y88.258 E7.87823 ; perimeter
G1 X73.186 Y87.704 E7.90285 ; perimeter
G1 X73.418 Y87.160 E7.92746 ; perimeter
G1 X73.675 Y86.627 E7.95208 ; perimeter
G1 X73.956 Y86.107 E7.97670 ; perimeter
G1 X74.261 Y85.600 E8.00132 ; perimeter
G1 X74.589 Y85.108 E8.02594 ; perimeter
G1 X74.939 Y84.632 E8.05056 ; perimeter
G1 X75.311 Y84.172 E8.07517 ; perimeter
G1 X75.703 Y83.730 E8.09979 ; perimeter
G1 X76.116 Y83.306 E8.12441 ; perimeter
G1 X76.548 Y82.902 E8.14903 ; perimeter
G1 X76.998 Y82.518 E8.17365 ; perimeter
G1 X77.465 Y82.156 E8.19826 ; perimeter
G1 X77.949 Y81.815 E8.22288 ; perimeter
G1 X78.448 Y81.498 E8.24750 ; perimeter
