; generated by Slic3r 0.9.8-dev on 2013-01-08 at 19:41:39

; layer_height = 0.4
; perimeters = 3
; top_solid_layers = 3
; bottom_solid_layers = 3
; fill_density = 0.40
; perimeter_speed = 30
; infill_speed = 60
; travel_speed = 130
; scale = 1
; nozzle_diameter = 0.5
; filament_diameter = 3
; extrusion_multiplier = 1
; perimeters extrusion width = 0.53mm
; infill extrusion width = 0.53mm
; first layer extrusion width = 0.80mm

M190 S60 ; wait for bed temperature to be reached
M104 S180 ; set temperature
G28 ; home all axes
G92 E0 ;reset extruder
M109 S180 ; wait for temperature to be reached
G90 ; use absolute coordinates
G21 ; set units to millimeters
G92 E0 ; reset extrusion distance
M82 ; use absolute distances for extrusion
G1 F1800.000 E-1.00000 ; retract
G1 Z0.900 ; move to next layer (0) and lift
G92 E0 ; reset extrusion distance
G1 X120.280 Y113.780 F7800.000 ; move to first skirt point
G1 Z0.400 ; restore layer Z
G1 F1800.000 E1.00000 ; compensate retraction
G1 X120.200 Y114.300 F540.000 E1.02190 ; skirt
G1 X119.850 Y116.060 E1.09660 ; skirt
G1 X119.710 Y116.640 E1.12144 ; skirt
G1 X119.520 Y117.200 E1.14605 ; skirt
G1 X119.280 Y117.740 E1.17065 ; skirt
G1 X118.830 Y118.500 E1.20742 ; skirt
G1 X117.670 Y120.230 E1.29413 ; skirt
G1 X117.100 Y120.900 E1.33074 ; skirt
G1 X116.680 Y121.300 E1.35489 ; skirt
G1 X116.230 Y121.670 E1.37914 ; skirt
G1 X114.260 Y122.990 E1.47785 ; skirt
G1 X113.480 Y123.400 E1.51454 ; skirt
G1 X112.930 Y123.610 E1.53904 ; skirt
G1 X112.360 Y123.780 E1.56380 ; skirt
G1 X110.020 Y124.250 E1.66316 ; skirt
G1 X109.760 Y124.290 E1.67411 ; skirt
G1 X108.960 Y124.340 E1.70747 ; skirt
G1 X91.030 Y124.340 E2.45386 ; skirt
G1 X90.230 Y124.290 E2.48722 ; skirt
G1 X89.700 Y124.200 E2.50960 ; skirt
G1 X87.630 Y123.780 E2.59753 ; skirt
G1 X87.060 Y123.610 E2.62229 ; skirt
G1 X86.510 Y123.400 E2.64679 ; skirt
G1 X85.730 Y122.990 E2.68348 ; skirt
G1 X83.760 Y121.670 E2.78219 ; skirt
G1 X83.090 Y121.100 E2.81881 ; skirt
G1 X82.500 Y120.460 E2.85504 ; skirt
G1 X82.320 Y120.230 E2.86720 ; skirt
G1 X81.000 Y118.250 E2.96626 ; skirt
G1 X80.710 Y117.740 E2.99068 ; skirt
G1 X80.470 Y117.200 E3.01528 ; skirt
G1 X80.280 Y116.640 E3.03990 ; skirt
G1 X80.140 Y116.060 E3.06474 ; skirt
G1 X79.790 Y114.300 E3.13943 ; skirt
G1 X79.710 Y113.780 E3.16134 ; skirt
G1 X79.670 Y113.250 E3.18346 ; skirt
G1 X79.660 Y64.990 E5.19241 ; skirt
G1 X79.710 Y64.190 E5.22577 ; skirt
G1 X80.210 Y61.630 E5.33435 ; skirt
G1 X80.370 Y61.070 E5.35860 ; skirt
G1 X80.710 Y60.250 E5.39555 ; skirt
G1 X81.000 Y59.730 E5.42033 ; skirt
G1 X82.320 Y57.760 E5.51905 ; skirt
G1 X82.890 Y57.090 E5.55567 ; skirt
G1 X83.310 Y56.690 E5.57981 ; skirt
G1 X83.760 Y56.320 E5.60406 ; skirt
G1 X85.740 Y55.000 E5.70312 ; skirt
G1 X86.530 Y54.580 E5.74037 ; skirt
G1 X87.080 Y54.370 E5.76487 ; skirt
G1 X87.660 Y54.200 E5.79003 ; skirt
G1 X89.990 Y53.740 E5.88890 ; skirt
G1 X90.510 Y53.680 E5.91069 ; skirt
G1 X91.030 Y53.660 E5.93235 ; skirt
G1 X108.960 Y53.660 E6.67873 ; skirt
G1 X109.480 Y53.680 E6.70039 ; skirt
G1 X110.000 Y53.740 E6.72218 ; skirt
G1 X112.330 Y54.200 E6.82105 ; skirt
G1 X113.190 Y54.470 E6.85857 ; skirt
G1 X113.730 Y54.710 E6.88317 ; skirt
G1 X114.500 Y55.160 E6.92030 ; skirt
G1 X116.230 Y56.320 E7.00700 ; skirt
G1 X116.900 Y56.890 E7.04362 ; skirt
G1 X117.490 Y57.530 E7.07985 ; skirt
G1 X117.670 Y57.760 E7.09201 ; skirt
G1 X118.990 Y59.730 E7.19073 ; skirt
G1 X119.280 Y60.250 E7.21551 ; skirt
G1 X119.510 Y60.790 E7.23994 ; skirt
G1 X119.620 Y61.070 E7.25247 ; skirt
G1 X119.780 Y61.630 E7.27671 ; skirt
G1 X119.840 Y61.920 E7.28904 ; skirt
G1 X120.240 Y63.930 E7.37435 ; skirt
G1 X120.280 Y64.190 E7.38530 ; skirt
G1 X120.320 Y64.720 E7.40743 ; skirt
G1 X120.330 Y112.990 E9.41679 ; skirt
G1 X120.288 Y113.670 E9.44515 ; skirt
G1 X120.280 Y113.780 E9.44974 ; skirt
G1 F1800.000 E8.44974 ; retract
G1 Z0.900 ; lift plate during travel
G92 E0 ; reset extrusion distance
G1 X109.725 Y100.176 F7800.000 ; move to first perimeter point
G1 Z0.400 ; restore layer Z
G1 F1800.000 E1.00000 ; compensate retraction
G1 X106.969 Y99.548 F324.000 E1.11769 ; perimeter
G1 X105.742 Y97.000 E1.23540 ; perimeter
G1 X106.969 Y94.452 E1.35311 ; perimeter
G1 X109.725 Y93.823 E1.47078 ; perimeter
G1 X111.936 Y95.586 E1.58849 ; perimeter
G1 X111.936 Y98.414 E1.70620 ; perimeter
G1 X109.811 Y100.108 E1.81930 ; perimeter
G1 X109.725 Y100.176 E1.82389 ; perimeter
G1 X109.543 Y99.381 F7800.000 ; move to first perimeter point
G1 X107.478 Y98.909 F324.000 E1.91209 ; perimeter
G1 X106.558 Y97.000 E2.00030 ; perimeter
G1 X107.478 Y95.091 E2.08851 ; perimeter
G1 X109.543 Y94.619 E2.17671 ; perimeter
G1 X111.200 Y95.940 E2.26492 ; perimeter
G1 X111.200 Y98.060 E2.35313 ; perimeter
G1 X109.630 Y99.312 E2.43674 ; perimeter
G1 X109.543 Y99.381 E2.44133 ; perimeter
G1 X109.224 Y100.043 F7800.000 ; move inwards before travel
G1 F1800.000 E1.44133 ; retract
G1 Z0.900 ; lift plate during travel
G92 E0 ; reset extrusion distance
G1 X93.936 Y98.414 F7800.000 ; move to first perimeter point
G1 Z0.400 ; restore layer Z
G1 F1800.000 E1.00000 ; compensate retraction
G1 X91.725 Y100.177 F324.000 E1.11770 ; perimeter
G1 X88.968 Y99.547 E1.23540 ; perimeter
G1 X87.742 Y97.000 E1.35310 ; perimeter
G1 X88.968 Y94.453 E1.47079 ; perimeter
G1 X91.725 Y93.823 E1.58849 ; perimeter
G1 X93.936 Y95.586 E1.70620 ; perimeter
G1 X93.936 Y98.303 E1.81931 ; perimeter
G1 X93.936 Y98.414 E1.82390 ; perimeter
G1 X93.200 Y98.059 F7800.000 ; move to first perimeter point
G1 X91.543 Y99.381 F324.000 E1.91211 ; perimeter
G1 X89.478 Y98.909 E2.00032 ; perimeter
G1 X88.558 Y97.000 E2.08852 ; perimeter
G1 X89.478 Y95.091 E2.17673 ; perimeter
G1 X91.543 Y94.619 E2.26493 ; perimeter
G1 X93.200 Y95.941 E2.35314 ; perimeter
G1 X93.200 Y97.949 E2.43676 ; perimeter
G1 X93.200 Y98.059 E2.44135 ; perimeter
G1 X93.519 Y98.722 F7800.000 ; move inwards before travel
G1 F1800.000 E1.44135 ; retract
G1 Z0.900 ; lift plate during travel
G92 E0 ; reset extrusion distance
G1 X106.432 Y93.871 F7800.000 ; move to first perimeter point
G1 Z0.400 ; restore layer Z
G1 F1800.000 E1.00000 ; compensate retraction
G1 X104.925 Y97.000 F540.000 E1.14457 ; perimeter
G1 X106.432 Y100.129 E1.28914 ; perimeter
G1 X92.965 Y100.129 E1.84976 ; perimeter
G1 X94.671 Y98.768 E1.94061 ; perimeter
G1 X94.671 Y95.232 E2.08781 ; perimeter
G1 X92.965 Y93.871 E2.17866 ; perimeter
G1 X106.322 Y93.871 E2.73469 ; perimeter
G1 X106.432 Y93.871 E2.73929 ; perimeter
G1 F1800.000 E1.73929 ; retract
G1 Z0.900 ; lift plate during travel
G92 E0 ; reset extrusion distance
G1 X108.854 Y93.129 F7800.000 ; move to first perimeter point
G1 Z0.400 ; restore layer Z
G1 F1800.000 E1.00000 ; compensate retraction
G1 X110.943 Y93.544 F540.000 E1.08867 ; perimeter
G1 X110.696 Y93.601 E1.09924 ; perimeter
G1 X111.717 Y94.283 E1.15035 ; perimeter
G1 X111.936 Y94.611 E1.16675 ; perimeter
G1 X111.936 Y92.843 E1.24032 ; perimeter
G1 X112.014 Y92.836 E1.24359 ; perimeter
G1 X112.550 Y95.530 E1.35793 ; perimeter
G1 X113.330 Y96.698 E1.41642 ; perimeter
G1 X112.679 Y96.179 E1.45111 ; perimeter
G1 X112.842 Y97.000 E1.48597 ; perimeter
G1 X112.679 Y97.821 E1.52083 ; perimeter
G1 X113.330 Y97.302 E1.55552 ; perimeter
G1 X112.550 Y98.470 E1.61401 ; perimeter
G1 X112.014 Y101.164 E1.72835 ; perimeter
G1 X111.936 Y101.157 E1.73162 ; perimeter
G1 X111.936 Y99.389 E1.80519 ; perimeter
G1 X111.717 Y99.717 E1.82158 ; perimeter
G1 X110.697 Y100.398 E1.87263 ; perimeter
G1 X110.946 Y100.455 E1.88328 ; perimeter
G1 X108.854 Y100.871 E1.97208 ; perimeter
G1 X90.863 Y100.864 E2.72103 ; perimeter
G1 X90.912 Y100.825 E2.72368 ; perimeter
G1 X89.530 Y100.550 E2.78236 ; perimeter
G1 X89.414 Y100.472 E2.78817 ; perimeter
G1 X90.244 Y102.198 E2.86789 ; perimeter
G1 X90.025 Y102.323 E2.87842 ; perimeter
G1 X88.283 Y99.717 E3.00891 ; perimeter
G1 X87.543 Y99.222 E3.04598 ; perimeter
G1 X88.026 Y99.332 E3.06663 ; perimeter
G1 X87.450 Y98.470 E3.10979 ; perimeter
G1 X87.329 Y97.858 E3.13578 ; perimeter
G1 X86.747 Y99.066 E3.19157 ; perimeter
G1 X87.158 Y97.000 E3.27924 ; perimeter
G1 X86.747 Y94.935 E3.36690 ; perimeter
G1 X87.329 Y96.142 E3.42270 ; perimeter
G1 X87.450 Y95.530 E3.44869 ; perimeter
G1 X88.026 Y94.668 E3.49185 ; perimeter
G1 X87.543 Y94.778 E3.51250 ; perimeter
G1 X88.283 Y94.283 E3.54957 ; perimeter
G1 X90.025 Y91.677 E3.68005 ; perimeter
G1 X90.244 Y91.802 E3.69058 ; perimeter
G1 X89.414 Y93.528 E3.77030 ; perimeter
G1 X89.530 Y93.450 E3.77611 ; perimeter
G1 X90.912 Y93.175 E3.83480 ; perimeter
G1 X90.863 Y93.136 E3.83745 ; perimeter
G1 X108.763 Y93.136 E4.58260 ; perimeter
G1 X108.854 Y93.129 E4.58640 ; perimeter
G1 X108.961 Y92.400 F7800.000 ; move to first perimeter point
G1 X110.757 Y92.757 F540.000 E4.66266 ; perimeter
G1 X112.247 Y93.753 E4.73725 ; perimeter
G1 X113.243 Y95.243 E4.81183 ; perimeter
G1 X113.592 Y97.000 E4.88642 ; perimeter
G1 X113.243 Y98.757 E4.96101 ; perimeter
G1 X112.247 Y100.247 E5.03560 ; perimeter
G1 X110.757 Y101.243 E5.11018 ; perimeter
G1 X108.961 Y101.600 E5.18644 ; perimeter
G1 X91.039 Y101.600 E5.93246 ; perimeter
G1 X89.243 Y101.243 E6.00872 ; perimeter
G1 X87.753 Y100.247 E6.08330 ; perimeter
G1 X86.757 Y98.757 E6.15789 ; perimeter
G1 X86.408 Y97.000 E6.23248 ; perimeter
G1 X86.757 Y95.243 E6.30707 ; perimeter
G1 X87.753 Y93.753 E6.38165 ; perimeter
G1 X89.243 Y92.757 E6.45624 ; perimeter
G1 X91.039 Y92.400 E6.53250 ; perimeter
G1 X108.850 Y92.400 E7.27392 ; perimeter
G1 X108.961 Y92.400 E7.27852 ; perimeter
G1 X109.242 Y93.080 F7800.000 ; move inwards before travel
G1 F1800.000 E6.27852 ; retract
G1 Z0.900 ; lift plate during travel
G92 E0 ; reset extrusion distance
G1 X95.641 Y99.627 F7800.000 ; move to first fill point
G1 Z0.400 ; restore layer Z
G1 F1800.000 E1.00000 ; compensate retraction
G1 X95.173 Y99.159 F1080.000 E1.02772 ; fill
G1 X95.173 Y98.113 E1.07148 ; fill
G1 X96.687 Y99.627 E1.16108 ; fill
G1 X97.733 Y99.627 E1.20484 ; fill
G1 X95.173 Y97.067 E1.35633 ; fill
G1 X95.173 Y96.022 E1.40009 ; fill
G1 X98.778 Y99.627 E1.61346 ; fill
G1 X99.824 Y99.627 E1.65723 ; fill
G1 X95.173 Y94.976 E1.93249 ; fill
G1 X95.615 Y94.373 E1.96380 ; fill
G1 X100.870 Y99.627 E2.27476 ; fill
G1 X101.916 Y99.627 E2.31852 ; fill
G1 X96.661 Y94.373 E2.62948 ; fill
G1 X97.707 Y94.373 E2.67324 ; fill
G1 X102.961 Y99.627 E2.98420 ; fill
G1 X104.007 Y99.627 E3.02796 ; fill
G1 X98.753 Y94.373 E3.33892 ; fill
G1 X99.798 Y94.373 E3.38268 ; fill
G1 X105.053 Y99.627 E3.69364 ; fill
G1 X104.935 Y98.464 E3.74257 ; fill
G1 X100.844 Y94.373 E3.98468 ; fill
G1 X101.890 Y94.373 E4.02844 ; fill
G1 X104.476 Y96.959 E4.18147 ; fill
G1 X104.816 Y96.253 E4.21425 ; fill
G1 X102.936 Y94.373 E4.32550 ; fill
G1 X103.981 Y94.373 E4.36926 ; fill
G1 X105.155 Y95.547 E4.43875 ; fill
G1 X105.495 Y94.841 E4.47153 ; fill
G1 X105.027 Y94.373 E4.49924 ; fill
G1 F1800.000 E3.49924 ; retract
G1 Z0.900 ; lift plate during travel
G92 E0 ; reset extrusion distance
G1 X107.278 Y100.431 F7800.000 ; move to first fill point
G1 Z0.400 ; restore layer Z
G1 F1800.000 E1.00000 ; compensate retraction
G1 X107.009 Y100.162 F360.000 E1.00906 ; fill
G1 F1800.000 E0.00906 ; retract
G1 Z0.900 ; lift plate during travel
G92 E0 ; reset extrusion distance
G1 X107.209 Y93.980 F7800.000 ; move to first fill point
G1 Z0.400 ; restore layer Z
G1 F1800.000 E1.00000 ; compensate retraction
G1 X106.941 Y93.712 F360.000 E1.01164 ; fill
G1 X107.565 Y93.569 E1.03125 ; fill
G1 X107.833 Y93.838 E1.04289 ; fill
G1 F1800.000 E0.04289 ; retract
G1 Z0.900 ; lift plate during travel
G92 E0 ; reset extrusion distance
G1 X109.725 Y77.823 F7800.000 ; move to first perimeter point
G1 Z0.400 ; restore layer Z
G1 F1800.000 E1.00000 ; compensate retraction
G1 X111.936 Y79.586 F324.000 E1.11771 ; perimeter
G1 X111.936 Y82.414 E1.23542 ; perimeter
G1 X109.725 Y84.176 E1.35311 ; perimeter
G1 X106.969 Y83.548 E1.47080 ; perimeter
G1 X105.742 Y81.000 E1.58851 ; perimeter
G1 X106.969 Y78.452 E1.70622 ; perimeter
G1 X109.617 Y77.848 E1.81930 ; perimeter
G1 X109.725 Y77.823 E1.82389 ; perimeter
G1 X109.543 Y78.619 F7800.000 ; move to first perimeter point
G1 X111.200 Y79.940 F324.000 E1.91210 ; perimeter
G1 X111.200 Y82.060 E2.00031 ; perimeter
G1 X109.543 Y83.381 E2.08851 ; perimeter
G1 X107.478 Y82.909 E2.17671 ; perimeter
G1 X106.558 Y81.000 E2.26492 ; perimeter
G1 X107.478 Y79.091 E2.35313 ; perimeter
G1 X109.436 Y78.644 E2.43674 ; perimeter
G1 X109.543 Y78.619 E2.44133 ; perimeter
G1 X110.118 Y78.161 F7800.000 ; move inwards before travel
G1 F1800.000 E1.44133 ; retract
G1 Z0.900 ; lift plate during travel
G92 E0 ; reset extrusion distance
G1 X93.936 Y79.586 F7800.000 ; move to first perimeter point
G1 Z0.400 ; restore layer Z
G1 F1800.000 E1.00000 ; compensate retraction
G1 X93.936 Y82.414 F324.000 E1.11770 ; perimeter
G1 X91.725 Y84.177 E1.23540 ; perimeter
G1 X88.968 Y83.547 E1.35310 ; perimeter
G1 X87.742 Y81.000 E1.47080 ; perimeter
G1 X88.968 Y78.453 E1.58850 ; perimeter
G1 X91.725 Y77.823 E1.70619 ; perimeter
G1 X93.849 Y79.517 E1.81931 ; perimeter
G1 X93.936 Y79.586 E1.82390 ; perimeter
G1 X93.200 Y79.941 F7800.000 ; move to first perimeter point
G1 X93.200 Y82.059 F324.000 E1.91211 ; perimeter
G1 X91.543 Y83.381 E2.00032 ; perimeter
G1 X89.478 Y82.909 E2.08852 ; perimeter
G1 X88.558 Y81.000 E2.17673 ; perimeter
G1 X89.478 Y79.091 E2.26493 ; perimeter
G1 X91.543 Y78.619 E2.35314 ; perimeter
G1 X93.114 Y79.872 E2.43676 ; perimeter
G1 X93.200 Y79.941 E2.44135 ; perimeter
G1 X93.917 Y80.104 F7800.000 ; move inwards before travel
G1 F1800.000 E1.44135 ; retract
G1 Z0.900 ; lift plate during travel
G92 E0 ; reset extrusion distance
G1 X92.965 Y84.129 F7800.000 ; move to first perimeter point
G1 Z0.400 ; restore layer Z
G1 F1800.000 E1.00000 ; compensate retraction
G1 X94.671 Y82.768 F540.000 E1.09085 ; perimeter
G1 X94.671 Y79.232 E1.23805 ; perimeter
G1 X92.965 Y77.871 E1.32890 ; perimeter
G1 X106.432 Y77.871 E1.88953 ; perimeter
G1 X104.925 Y81.000 E2.03409 ; perimeter
G1 X106.432 Y84.129 E2.17866 ; perimeter
G1 X93.075 Y84.129 E2.73469 ; perimeter
G1 X92.965 Y84.129 E2.73929 ; perimeter
G1 F1800.000 E1.73929 ; retract
G1 Z0.900 ; lift plate during travel
G92 E0 ; reset extrusion distance
G1 X90.912 Y84.825 F7800.000 ; move to first perimeter point
G1 Z0.400 ; restore layer Z
G1 F1800.000 E1.00000 ; compensate retraction
G1 X89.530 Y84.550 F540.000 E1.05868 ; perimeter
G1 X89.414 Y84.472 E1.06450 ; perimeter
G1 X90.244 Y86.198 E1.14422 ; perimeter
G1 X90.025 Y86.323 E1.15475 ; perimeter
G1 X88.283 Y83.717 E1.28523 ; perimeter
G1 X87.543 Y83.222 E1.32230 ; perimeter
G1 X88.026 Y83.332 E1.34295 ; perimeter
G1 X87.450 Y82.470 E1.38611 ; perimeter
G1 X87.329 Y81.858 E1.41210 ; perimeter
G1 X86.747 Y83.066 E1.46790 ; perimeter
G1 X87.158 Y81.000 E1.55556 ; perimeter
G1 X86.747 Y78.935 E1.64323 ; perimeter
G1 X87.329 Y80.142 E1.69902 ; perimeter
G1 X87.450 Y79.530 E1.72501 ; perimeter
G1 X88.026 Y78.668 E1.76817 ; perimeter
G1 X87.543 Y78.778 E1.78882 ; perimeter
G1 X88.283 Y78.283 E1.82589 ; perimeter
G1 X90.025 Y75.677 E1.95638 ; perimeter
G1 X90.244 Y75.802 E1.96691 ; perimeter
G1 X89.414 Y77.528 E2.04663 ; perimeter
G1 X89.530 Y77.450 E2.05244 ; perimeter
G1 X90.912 Y77.175 E2.11112 ; perimeter
G1 X90.863 Y77.136 E2.11377 ; perimeter
G1 X108.854 Y77.129 E2.86271 ; perimeter
G1 X110.943 Y77.544 E2.95139 ; perimeter
G1 X110.696 Y77.601 E2.96196 ; perimeter
G1 X111.717 Y78.283 E3.01307 ; perimeter
G1 X111.936 Y78.611 E3.02947 ; perimeter
G1 X111.936 Y76.843 E3.10303 ; perimeter
G1 X112.014 Y76.836 E3.10630 ; perimeter
G1 X112.550 Y79.530 E3.22064 ; perimeter
G1 X113.330 Y80.698 E3.27913 ; perimeter
G1 X112.679 Y80.179 E3.31382 ; perimeter
G1 X112.842 Y81.000 E3.34868 ; perimeter
G1 X112.679 Y81.821 E3.38355 ; perimeter
G1 X113.330 Y81.302 E3.41824 ; perimeter
G1 X112.550 Y82.470 E3.47673 ; perimeter
G1 X112.014 Y85.164 E3.59107 ; perimeter
G1 X111.936 Y85.157 E3.59434 ; perimeter
G1 X111.936 Y83.389 E3.66790 ; perimeter
G1 X111.717 Y83.717 E3.68430 ; perimeter
G1 X110.697 Y84.398 E3.73535 ; perimeter
