; generated by Slic3r 0.9.2 on 2012-09-27 at 17:03:14

; layer_height = 0.4
; perimeters = 3
; solid_layers = 3
; fill_density = 0.4
; perimeter_speed = 30
; infill_speed = 60
; travel_speed = 130
; scale = 1
; nozzle_diameter = 0.5
; filament_diameter = 3
; extrusion_multiplier = 1
; single wall width = 0.53mm
; first layer single wall width = 0.80mm

M104 S200 ; set temperature
G28 ; home all axes
M109 S200 ; wait for temperature to be reached
G90 ; use absolute coordinates
G21 ; set units to millimeters
G92 E0
M82 ; use absolute distances for extrusion
G1 Z0.400 F7800.000
G1 X95.110 Y95.300
G1 F1800.000 E1.00000
G1 X95.500 Y94.920 F540.000 E1.02267
G1 X95.920 Y94.580 E1.04516
G1 X96.370 Y94.270 E1.06791
G1 X96.840 Y94.000 E1.09047
G1 X97.340 Y93.760 E1.11356
G1 X97.850 Y93.570 E1.13621
G1 X98.370 Y93.420 E1.15874
G1 X98.900 Y93.310 E1.18128
G1 X99.450 Y93.240 E1.20436
G1 X99.990 Y93.220 E1.22685
G1 X100.540 Y93.240 E1.24976
G1 X101.090 Y93.310 E1.27284
G1 X101.620 Y93.420 E1.29537
G1 X102.140 Y93.570 E1.31790
G1 X102.650 Y93.760 E1.34056
G1 X103.150 Y94.000 E1.36365
G1 X103.620 Y94.270 E1.38621
G1 X104.070 Y94.580 E1.40896
G1 X104.490 Y94.920 E1.43145
G1 X105.070 Y95.500 E1.46559
G1 X105.410 Y95.920 E1.48809
G1 X105.720 Y96.370 E1.51084
G1 X105.990 Y96.840 E1.53340
G1 X106.230 Y97.340 E1.55649
G1 X106.420 Y97.850 E1.57914
G1 X106.570 Y98.370 E1.60167
G1 X106.680 Y98.900 E1.62420
G1 X106.750 Y99.450 E1.64728
G1 X106.770 Y99.990 E1.66978
G1 X106.720 Y100.830 E1.70481
G1 X106.680 Y101.100 E1.71617
G1 X106.490 Y101.920 E1.75121
G1 X106.200 Y102.710 E1.78624
G1 X105.950 Y103.210 E1.80951
G1 X105.670 Y103.690 E1.83264
G1 X105.340 Y104.150 E1.85621
G1 X104.790 Y104.780 E1.89102
G1 X104.780 Y104.790 E1.89161
G1 X104.390 Y105.150 E1.91371
G1 X103.970 Y105.480 E1.93594
G1 X103.530 Y105.770 E1.95788
G1 X102.820 Y106.150 E1.99140
G1 X102.080 Y106.440 E2.02448
G1 X101.310 Y106.640 E2.05760
G1 X100.520 Y106.750 E2.09080
G1 X99.990 Y106.770 E2.11288
G1 X99.460 Y106.750 E2.13496
G1 X98.670 Y106.640 E2.16816
G1 X97.900 Y106.440 E2.20128
G1 X97.160 Y106.150 E2.23437
G1 X96.450 Y105.770 E2.26789
G1 X96.010 Y105.480 E2.28982
G1 X95.590 Y105.150 E2.31206
G1 X95.200 Y104.790 E2.33415
G1 X94.840 Y104.400 E2.35625
G1 X94.510 Y103.980 E2.37848
G1 X94.220 Y103.540 E2.40042
G1 X93.840 Y102.830 E2.43394
G1 X93.550 Y102.090 E2.46703
G1 X93.350 Y101.320 E2.50014
G1 X93.240 Y100.530 E2.53335
G1 X93.220 Y99.990 E2.55584
G1 X93.240 Y99.450 E2.57834
G1 X93.310 Y98.900 E2.60141
G1 X93.420 Y98.370 E2.62395
G1 X93.570 Y97.850 E2.64648
G1 X93.760 Y97.340 E2.66913
G1 X94.000 Y96.840 E2.69222
G1 X94.270 Y96.370 E2.71478
G1 X94.580 Y95.920 E2.73753
G1 X94.920 Y95.500 E2.76002
G1 X95.027 Y95.387 E2.76651
G1 F1800.000 E1.76651
G92 E0
G1 X100.000 Y100.000 F7800.000
G1 F1800.000 E1.00000
G1 X100.000 Y100.000 F7800.000
G1 X100.000 Y100.000 F540.000 E1.00000
G1 X100.000 Y100.000 E1.00000
G1 X100.000 Y100.000 E1.00000
G1 F1800.000 E0.00000
G92 E0
G1 Z0.800 F7800.000
G1 X99.875 Y100.125
G1 F1800.000 E1.00000
G1 X100.000 Y100.000 F1800.000 E1.00520
G1 X99.875 Y99.875 E1.01040
G1 X100.000 Y100.000 F7800.000
G1 X100.125 Y99.875 F1800.000 E1.01559
G1 X100.000 Y100.000 F7800.000
G1 X100.125 Y100.125 F1800.000 E1.02079
G1 F1800.000 E0.02079
G92 E0
G1 Z1.200 F7800.000
G1 X99.875 Y100.125
G1 F1800.000 E1.00000
G1 X100.000 Y100.000 F1800.000 E1.00520
G1 X99.875 Y99.875 E1.01040
G1 X100.000 Y100.000 F7800.000
G1 X100.125 Y99.875 F1800.000 E1.01559
G1 X100.000 Y100.000 F7800.000
G1 X100.125 Y100.125 F1800.000 E1.02079
G1 F1800.000 E0.02079
G92 E0
M104 S0 ; turn off temperature
G28 X0  ; home X axis
M84     ; disable motors

; filament used = 1.8mm (0.0cm3)
