; generated by Slic3r 0.9.10b on 2013-09-01 at 11:15:28

; layer_height = 0.4
; perimeters = 3
; top_solid_layers = 3
; bottom_solid_layers = 3
; fill_density = 0.4
; perimeter_speed = 30
; infill_speed = 60
; travel_speed = 130
; nozzle_diameter = 0.5
; filament_diameter = 3
; extrusion_multiplier = 1
; perimeters extrusion width = 0.53mm
; infill extrusion width = 0.53mm
; solid infill extrusion width = 0.53mm
; top infill extrusion width = 0.53mm
; first layer extrusion width = 1.00mm

G21 ; set units to millimeters
M107
M190 S60 ; wait for bed temperature to be reached
M104 S180 ; set temperature
G28 ; home all axes
G1 Z5 F5000 ; lift nozzle
M109 S180 ; wait for temperature to be reached
G90 ; use absolute coordinates
G92 E0
M82 ; use absolute distances for extrusion
G1 F1800.000 E-1.00000
G1 Z1.000 F7800.000
G92 E0
G1 X82.360 Y82.360
G1 Z0.500
G1 F1800.000 E1.00000
G1 X93.360 Y71.360 F600.000 E1.98231
G1 X93.980 Y70.810 E2.03465
G1 X94.490 Y70.410 E2.07558
G1 X95.290 Y69.860 E2.13688
G1 X96.160 Y69.440 E2.19788
G1 X96.780 Y69.190 E2.24010
G1 X97.630 Y68.910 E2.29661
G1 X98.510 Y68.740 E2.35320
G1 X99.150 Y68.660 E2.39393
G1 X100.000 Y68.610 E2.44770
G1 X100.850 Y68.660 E2.50146
G1 X101.490 Y68.740 E2.54219
G1 X102.390 Y68.910 E2.60003
G1 X103.250 Y69.200 E2.65734
G1 X103.860 Y69.450 E2.69896
G1 X104.720 Y69.870 E2.75940
G1 X105.500 Y70.410 E2.81930
G1 X106.010 Y70.810 E2.86023
G1 X106.630 Y71.360 E2.91257
G1 X117.630 Y82.360 E3.89488
G1 X118.180 Y82.980 E3.94722
G1 X118.580 Y83.490 E3.98814
G1 X119.120 Y84.280 E4.04857
G1 X119.540 Y85.140 E4.10900
G1 X119.780 Y85.730 E4.14923
G1 X120.060 Y86.550 E4.20394
G1 X120.230 Y87.400 E4.25868
G1 X120.320 Y88.060 E4.30074
G1 X120.380 Y88.940 E4.35644
G1 X120.330 Y89.830 E4.41272
G1 X120.250 Y90.480 E4.45408
G1 X120.080 Y91.370 E4.51129
G1 X119.790 Y92.240 E4.56920
G1 X119.550 Y92.830 E4.60942
G1 X119.140 Y93.670 E4.66845
G1 X118.620 Y94.450 E4.72764
G1 X118.210 Y94.980 E4.76995
G1 X117.630 Y95.630 E4.82496
G1 X106.630 Y106.630 E5.80728
G1 X105.980 Y107.210 E5.86229
G1 X105.450 Y107.620 E5.90460
G1 X104.670 Y108.140 E5.96379
G1 X103.830 Y108.550 E6.02282
G1 X103.240 Y108.790 E6.06304
G1 X102.370 Y109.080 E6.12094
G1 X101.480 Y109.250 E6.17816
G1 X100.830 Y109.330 E6.21951
G1 X99.940 Y109.380 E6.27580
G1 X99.060 Y109.320 E6.33150
G1 X98.400 Y109.230 E6.37356
G1 X97.550 Y109.060 E6.42830
G1 X96.730 Y108.780 E6.48301
G1 X96.140 Y108.540 E6.52323
G1 X95.280 Y108.120 E6.58367
G1 X94.490 Y107.580 E6.64409
G1 X93.980 Y107.180 E6.68502
G1 X93.360 Y106.630 E6.73736
G1 X82.360 Y95.630 E7.71967
G1 X81.810 Y95.010 E7.77201
G1 X81.410 Y94.500 E7.81293
G1 X80.870 Y93.720 E7.87284
G1 X80.450 Y92.860 E7.93327
G1 X80.200 Y92.250 E7.97490
G1 X79.910 Y91.390 E8.03221
G1 X79.740 Y90.490 E8.09005
G1 X79.660 Y89.850 E8.13077
G1 X79.610 Y89.010 E8.18391
G1 X79.660 Y88.160 E8.23768
G1 X79.740 Y87.510 E8.27903
G1 X79.910 Y86.610 E8.33687
G1 X80.200 Y85.740 E8.39478
G1 X80.450 Y85.130 E8.43640
G1 X80.870 Y84.270 E8.49684
G1 X81.410 Y83.490 E8.55674
G1 X81.810 Y82.980 E8.59767
G1 X82.271 Y82.460 E8.64155
G1 F1800.000 E7.64155
G1 Z1.000 F7800.000
G92 E0
G1 X101.926 Y88.697
G1 Z0.500
G1 F1800.000 E1.00000
G1 X101.674 Y87.907 F600.000 E1.05232
G1 X101.086 Y87.317 E1.10493
G1 X99.905 Y87.000 E1.18212
G1 X98.914 Y87.318 E1.24785
G1 X98.311 Y87.924 E1.30185
G1 X98.004 Y89.110 E1.37920
G1 X98.224 Y89.925 E1.43248
G1 X98.914 Y90.683 E1.49722
G1 X100.099 Y91.000 E1.57464
G1 X101.086 Y90.682 E1.64015
G1 X101.689 Y90.076 E1.69414
G1 X101.926 Y88.697 E1.78250
G1 F1800.000 E0.78250
G1 Z1.000 F7800.000
G92 E0
G1 X105.667 Y89.058
G1 X104.043 Y85.032
G1 X105.667 Y78.058
G1 X101.926 Y77.697
G1 Z0.500
G1 F1800.000 E1.00000
G1 X101.674 Y76.907 F600.000 E1.05232
G1 X101.086 Y76.317 E1.10493
G1 X99.905 Y76.000 E1.18212
G1 X98.914 Y76.318 E1.24785
G1 X98.311 Y76.924 E1.30185
G1 X98.004 Y78.110 E1.37920
G1 X98.224 Y78.925 E1.43248
G1 X98.914 Y79.683 E1.49722
G1 X100.099 Y80.000 E1.57464
G1 X101.086 Y79.682 E1.64015
G1 X101.689 Y79.076 E1.69414
G1 X101.926 Y77.697 E1.78250
G1 F1800.000 E0.78250
G1 Z1.000 F7800.000
G92 E0
G1 X105.667 Y78.058
G1 X103.938 Y82.073
G1 X100.440 Y83.500
G1 X99.574 Y83.500
G1 X96.058 Y84.937
G1 X93.043 Y85.032
G1 X94.667 Y89.058
G1 X90.926 Y88.697
G1 Z0.500
G1 F1800.000 E1.00000
G1 X90.674 Y87.907 F600.000 E1.05232
G1 X90.086 Y87.317 E1.10493
G1 X88.905 Y87.000 E1.18212
G1 X87.914 Y87.318 E1.24785
G1 X87.311 Y87.924 E1.30185
G1 X87.004 Y89.110 E1.37920
G1 X87.224 Y89.925 E1.43248
G1 X87.914 Y90.683 E1.49722
G1 X89.099 Y91.000 E1.57464
G1 X90.086 Y90.682 E1.64015
G1 X90.689 Y90.076 E1.69414
G1 X90.926 Y88.697 E1.78250
G1 F1800.000 E0.78250
G1 Z1.000 F7800.000
G92 E0
G1 X94.667 Y89.058
G1 X92.938 Y93.073
G1 X96.058 Y95.937
G1 X99.574 Y94.500
G1 X100.440 Y94.500
G1 X104.043 Y96.032
G1 X105.667 Y100.058
G1 X101.926 Y99.697
G1 Z0.500
G1 F1800.000 E1.00000
G1 X101.674 Y98.907 F600.000 E1.05232
G1 X101.086 Y98.317 E1.10493
G1 X99.905 Y98.000 E1.18212
G1 X98.914 Y98.318 E1.24785
G1 X98.311 Y98.924 E1.30185
G1 X98.004 Y100.110 E1.37920
G1 X98.224 Y100.925 E1.43248
G1 X98.914 Y101.683 E1.49722
G1 X100.099 Y102.000 E1.57464
G1 X101.086 Y101.682 E1.64015
G1 X101.689 Y101.076 E1.69414
G1 X101.926 Y99.697 E1.78250
G1 F1800.000 E0.78250
G1 Z1.000 F7800.000
G92 E0
G1 X105.667 Y100.058
G1 X114.938 Y93.073
G1 X116.667 Y89.058
G1 X112.926 Y88.697
G1 Z0.500
G1 F1800.000 E1.00000
G1 X112.674 Y87.907 F600.000 E1.05232
G1 X112.086 Y87.317 E1.10493
G1 X110.905 Y87.000 E1.18212
G1 X109.914 Y87.318 E1.24785
G1 X109.311 Y87.924 E1.30185
G1 X109.004 Y89.110 E1.37920
G1 X109.224 Y89.925 E1.43248
G1 X109.914 Y90.683 E1.49722
G1 X111.099 Y91.000 E1.57464
G1 X112.086 Y90.682 E1.64015
G1 X112.689 Y90.076 E1.69414
G1 X112.926 Y88.697 E1.78250
M106 S255
G1 F1800.000 E0.78250
G1 Z1.400 F7800.000
G92 E0
G1 X116.667 Y89.058
G1 X115.043 Y85.032
G1 X111.440 Y83.500
G1 X110.574 Y83.500
G1 X104.043 Y85.032
G1 X105.667 Y89.058
G1 X101.762 Y89.000
G1 Z0.900
G1 F1800.000 E1.00000
G1 X101.702 Y89.456 F600.000 E1.01353
G1 X101.526 Y89.881 E1.02705
G1 X101.246 Y90.246 E1.04058
G1 X100.881 Y90.526 E1.05410
G1 X100.456 Y90.702 E1.06763
G1 X100.000 Y90.762 E1.08116
G1 X99.544 Y90.702 E1.09468
G1 X99.119 Y90.526 E1.10821
G1 X98.754 Y90.246 E1.12174
G1 X98.474 Y89.881 E1.13526
G1 X98.298 Y89.456 E1.14879
G1 X98.238 Y89.000 E1.16231
G1 X98.298 Y88.544 E1.17584
G1 X98.321 Y88.489 E1.17758
G1 X98.474 Y88.119 E1.18937
G1 X98.754 Y87.754 E1.20289
G1 X99.119 Y87.474 E1.21642
G1 X99.489 Y87.321 E1.22821
G1 X99.544 Y87.298 E1.22994
G1 X100.000 Y87.238 E1.24347
G1 X100.456 Y87.298 E1.25700
G1 X100.881 Y87.474 E1.27052
G1 X101.246 Y87.754 E1.28405
G1 X101.526 Y88.119 E1.29758
G1 X101.702 Y88.544 E1.31110
G1 X101.752 Y88.923 E1.32234
G1 X101.354 Y89.212 F7800.000
G1 X102.162 Y89.579
G1 X101.938 Y90.119 F600.000 E1.33951
G1 X101.582 Y90.582 E1.35669
G1 X101.119 Y90.938 E1.37387
G1 X100.579 Y91.162 E1.39105
G1 X100.000 Y91.238 E1.40823
G1 X99.421 Y91.162 E1.42541
G1 X98.881 Y90.938 E1.44259
G1 X98.418 Y90.582 E1.45977
G1 X98.062 Y90.119 E1.47695
G1 X97.838 Y89.579 E1.49413
G1 X97.762 Y89.000 E1.51131
G1 X97.838 Y88.421 E1.52849
G1 X98.062 Y87.881 E1.54566
G1 X98.418 Y87.418 E1.56284
G1 X98.881 Y87.062 E1.58002
G1 X99.421 Y86.838 E1.59720
G1 X100.000 Y86.762 E1.61438
G1 X100.579 Y86.838 E1.63156
G1 X101.119 Y87.062 E1.64874
G1 X101.582 Y87.418 E1.66592
G1 X101.938 Y87.881 E1.68310
G1 X102.162 Y88.421 E1.70028
G1 X102.238 Y89.000 E1.71746
G1 X102.172 Y89.502 E1.73234
G1 X101.654 Y89.692 F7800.000
G1 X101.439 Y87.613
G1 X101.904 Y88.411 F600.000 E1.75950
G1 X101.997 Y89.011 E1.77735
G1 X101.762 Y89.930 E1.80524
G1 X101.401 Y90.426 E1.82329
G1 X100.560 Y90.920 E1.85198
G1 X99.956 Y91.000 E1.86989
G1 X99.038 Y90.754 E1.89784
G1 X98.561 Y90.387 E1.91554
G1 X98.096 Y89.589 E1.94270
G1 X98.003 Y88.989 E1.96055
G1 X98.238 Y88.070 E1.98843
G1 X98.599 Y87.574 E2.00648
G1 X99.440 Y87.080 E2.03517
G1 X100.044 Y87.000 E2.05308
G1 X100.962 Y87.246 E2.08103
G1 X101.439 Y87.613 E2.09873
G1 F1800.000 E1.09873
G1 Z1.400 F7800.000
G92 E0
G1 X104.043 Y85.032
G1 X103.938 Y82.073
G1 X99.942 Y83.662
G1 X100.456 Y79.702
G1 Z0.900
G1 F1800.000 E1.00000
G1 X100.000 Y79.762 F600.000 E1.01353
G1 X99.544 Y79.702 E1.02705
G1 X99.119 Y79.526 E1.04058
G1 X98.754 Y79.246 E1.05410
G1 X98.474 Y78.881 E1.06763
G1 X98.298 Y78.456 E1.08116
G1 X98.238 Y78.000 E1.09468
G1 X98.246 Y77.941 E1.09642
G1 X98.298 Y77.544 E1.10821
G1 X98.474 Y77.119 E1.12174
G1 X98.754 Y76.754 E1.13526
G1 X99.119 Y76.474 E1.14879
G1 X99.544 Y76.298 E1.16231
G1 X100.000 Y76.238 E1.17584
G1 X100.397 Y76.290 E1.18763
G1 X100.456 Y76.298 E1.18937
G1 X100.881 Y76.474 E1.20289
G1 X101.246 Y76.754 E1.21642
G1 X101.526 Y77.119 E1.22994
G1 X101.702 Y77.544 E1.24347
G1 X101.762 Y78.000 E1.25700
G1 X101.702 Y78.456 E1.27052
G1 X101.526 Y78.881 E1.28405
G1 X101.246 Y79.246 E1.29758
G1 X100.881 Y79.526 E1.31110
G1 X100.528 Y79.672 E1.32234
G1 X100.145 Y79.363 F7800.000
G1 X100.000 Y80.238
G1 X99.421 Y80.162 F600.000 E1.33951
G1 X98.881 Y79.938 E1.35669
G1 X98.418 Y79.582 E1.37387
G1 X98.062 Y79.119 E1.39105
G1 X97.838 Y78.579 E1.40823
G1 X97.762 Y78.000 E1.42541
G1 X97.838 Y77.421 E1.44259
G1 X98.062 Y76.881 E1.45977
G1 X98.418 Y76.418 E1.47695
G1 X98.881 Y76.062 E1.49413
G1 X99.421 Y75.838 E1.51131
G1 X100.000 Y75.762 E1.52849
G1 X100.579 Y75.838 E1.54566
G1 X101.119 Y76.062 E1.56284
G1 X101.582 Y76.418 E1.58002
G1 X101.938 Y76.881 E1.59720
G1 X102.162 Y77.421 E1.61438
G1 X102.238 Y78.000 E1.63156
G1 X102.162 Y78.579 E1.64874
G1 X101.938 Y79.119 E1.66592
G1 X101.582 Y79.582 E1.68310
G1 X101.119 Y79.938 E1.70028
G1 X100.579 Y80.162 E1.71746
G1 X100.077 Y80.228 E1.73234
G1 X99.760 Y79.777 F7800.000
G1 X99.576 Y79.783
G1 X100.424 Y79.783
G1 X101.783 Y78.424
G1 X101.761 Y77.522
G1 X101.385 Y76.615
G1 X101.439 Y76.613
G1 X101.904 Y77.411 F600.000 E1.75950
G1 X101.997 Y78.011 E1.77735
G1 X101.762 Y78.930 E1.80524
G1 X101.401 Y79.426 E1.82329
G1 X100.560 Y79.920 E1.85198
G1 X99.956 Y80.000 E1.86989
G1 X99.038 Y79.754 E1.89784
G1 X98.561 Y79.387 E1.91554
G1 X98.096 Y78.589 E1.94270
G1 X98.003 Y77.989 E1.96055
G1 X98.238 Y77.070 E1.98843
G1 X98.599 Y76.574 E2.00648
G1 X99.440 Y76.080 E2.03517
G1 X100.044 Y76.000 E2.05308
G1 X100.962 Y76.246 E2.08103
G1 X101.439 Y76.613 E2.09873
G1 F1800.000 E1.09873
G1 Z1.400 F7800.000
G92 E0
G1 X104.043 Y74.032
G1 X100.440 Y72.500
G1 X99.574 Y72.500
G1 X96.058 Y73.937
G1 X94.333 Y77.942
G1 X93.043 Y85.032
G1 X90.246 Y87.754
G1 Z0.900
G1 F1800.000 E1.00000
G1 X90.526 Y88.119 F600.000 E1.01353
G1 X90.702 Y88.544 E1.02705
G1 X90.762 Y89.000 E1.04058
G1 X90.702 Y89.456 E1.05410
G1 X90.526 Y89.881 E1.06763
G1 X90.246 Y90.246 E1.08116
G1 X89.881 Y90.526 E1.09468
G1 X89.456 Y90.702 E1.10821
G1 X89.000 Y90.762 E1.12174
G1 X88.544 Y90.702 E1.13526
G1 X88.119 Y90.526 E1.14879
G1 X87.754 Y90.246 E1.16231
G1 X87.474 Y89.881 E1.17584
G1 X87.298 Y89.456 E1.18937
G1 X87.238 Y89.000 E1.20289
G1 X87.298 Y88.544 E1.21642
G1 X87.321 Y88.489 E1.21816
G1 X87.474 Y88.119 E1.22994
G1 X87.754 Y87.754 E1.24347
G1 X88.119 Y87.474 E1.25700
G1 X88.489 Y87.321 E1.26878
G1 X88.544 Y87.298 E1.27052
G1 X89.000 Y87.238 E1.28405
G1 X89.456 Y87.298 E1.29758
G1 X89.881 Y87.474 E1.31110
G1 X90.184 Y87.707 E1.32234
G1 X90.108 Y88.193 F7800.000
G1 X90.938 Y87.881
G1 X91.162 Y88.421 F600.000 E1.33951
G1 X91.238 Y89.000 E1.35669
G1 X91.162 Y89.579 E1.37387
G1 X90.938 Y90.119 E1.39105
G1 X90.582 Y90.582 E1.40823
G1 X90.119 Y90.938 E1.42541
G1 X89.579 Y91.162 E1.44259
G1 X89.000 Y91.238 E1.45977
G1 X88.421 Y91.162 E1.47695
G1 X87.881 Y90.938 E1.49413
G1 X87.418 Y90.582 E1.51131
G1 X87.062 Y90.119 E1.52849
G1 X86.838 Y89.579 E1.54566
G1 X86.762 Y89.000 E1.56284
G1 X86.838 Y88.421 E1.58002
G1 X87.062 Y87.881 E1.59720
G1 X87.418 Y87.418 E1.61438
G1 X87.881 Y87.062 E1.63156
G1 X88.421 Y86.838 E1.64874
G1 X89.000 Y86.762 E1.66592
G1 X89.579 Y86.838 E1.68310
G1 X90.119 Y87.062 E1.70028
G1 X90.582 Y87.418 E1.71746
G1 X90.891 Y87.819 E1.73234
G1 X90.659 Y88.319 F7800.000
G1 X90.439 Y87.613
G1 X90.904 Y88.411 F600.000 E1.75950
G1 X90.997 Y89.011 E1.77735
G1 X90.762 Y89.930 E1.80524
G1 X90.401 Y90.426 E1.82329
G1 X89.560 Y90.920 E1.85198
G1 X88.956 Y91.000 E1.86989
G1 X88.038 Y90.754 E1.89784
G1 X87.561 Y90.387 E1.91554
G1 X87.096 Y89.589 E1.94270
G1 X87.003 Y88.989 E1.96055
G1 X87.238 Y88.070 E1.98843
G1 X87.599 Y87.574 E2.00648
G1 X88.440 Y87.080 E2.03517
G1 X89.044 Y87.000 E2.05308
G1 X89.962 Y87.246 E2.08103
G1 X90.439 Y87.613 E2.09873
G1 F1800.000 E1.09873
G1 Z1.400 F7800.000
G92 E0
G1 X93.043 Y85.032
G1 X94.667 Y89.058
G1 X92.938 Y93.073
G1 X96.058 Y95.937
G1 X98.754 Y98.754
G1 Z0.900
G1 F1800.000 E1.00000
G1 X99.119 Y98.474 F600.000 E1.01353
G1 X99.489 Y98.321 E1.02531
G1 X99.544 Y98.298 E1.02705
G1 X100.000 Y98.238 E1.04058
G1 X100.456 Y98.298 E1.05410
G1 X100.881 Y98.474 E1.06763
G1 X101.246 Y98.754 E1.08116
G1 X101.526 Y99.119 E1.09468
G1 X101.702 Y99.544 E1.10821
G1 X101.762 Y100.000 E1.12174
G1 X101.702 Y100.456 E1.13526
G1 X101.526 Y100.881 E1.14879
G1 X101.246 Y101.246 E1.16231
G1 X100.881 Y101.526 E1.17584
G1 X100.456 Y101.702 E1.18937
G1 X100.000 Y101.762 E1.20289
G1 X99.544 Y101.702 E1.21642
G1 X99.119 Y101.526 E1.22994
G1 X98.754 Y101.246 E1.24347
G1 X98.474 Y100.881 E1.25700
G1 X98.298 Y100.456 E1.27052
G1 X98.238 Y100.000 E1.28405
G1 X98.298 Y99.544 E1.29758
G1 X98.474 Y99.119 E1.31110
G1 X98.707 Y98.816 E1.32234
G1 X99.193 Y98.892 F7800.000
G1 X98.881 Y98.062
G1 X99.421 Y97.838 F600.000 E1.33951
G1 X100.000 Y97.762 E1.35669
G1 X100.579 Y97.838 E1.37387
G1 X101.119 Y98.062 E1.39105
G1 X101.582 Y98.418 E1.40823
G1 X101.938 Y98.881 E1.42541
G1 X102.162 Y99.421 E1.44259
G1 X102.238 Y100.000 E1.45977
G1 X102.162 Y100.579 E1.47695
G1 X101.938 Y101.119 E1.49413
G1 X101.582 Y101.582 E1.51131
G1 X101.119 Y101.938 E1.52849
G1 X100.579 Y102.162 E1.54566
G1 X100.000 Y102.238 E1.56284
G1 X99.421 Y102.162 E1.58002
G1 X98.881 Y101.938 E1.59720
G1 X98.418 Y101.582 E1.61438
G1 X98.062 Y101.119 E1.63156
G1 X97.838 Y100.579 E1.64874
G1 X97.762 Y100.000 E1.66592
G1 X97.838 Y99.421 E1.68310
G1 X98.062 Y98.881 E1.70028
G1 X98.418 Y98.418 E1.71746
G1 X98.819 Y98.109 E1.73234
G1 X99.319 Y98.341 F7800.000
G1 X101.439 Y98.613
G1 X101.904 Y99.411 F600.000 E1.75950
G1 X101.997 Y100.011 E1.77735
G1 X101.762 Y100.930 E1.80524
G1 X101.401 Y101.426 E1.82329
G1 X100.560 Y101.920 E1.85198
G1 X99.956 Y102.000 E1.86989
G1 X99.038 Y101.754 E1.89784
G1 X98.561 Y101.387 E1.91554
G1 X98.096 Y100.589 E1.94270
G1 X98.003 Y99.989 E1.96055
G1 X98.238 Y99.070 E1.98843
G1 X98.599 Y98.574 E2.00648
G1 X99.440 Y98.080 E2.03517
G1 X100.044 Y98.000 E2.05308
G1 X100.962 Y98.246 E2.08103
G1 X101.439 Y98.613 E2.09873
G1 F1800.000 E1.09873
G1 Z1.400 F7800.000
G92 E0
G1 X104.043 Y96.032
G1 X106.957 Y92.968
G1 X109.754 Y90.246
G1 Z0.900
G1 F1800.000 E1.00000
G1 X109.474 Y89.881 F600.000 E1.01353
G1 X109.298 Y89.456 E1.02705
G1 X109.238 Y89.000 E1.04058
G1 X109.298 Y88.544 E1.05410
G1 X109.321 Y88.489 E1.05584
G1 X109.474 Y88.119 E1.06763
G1 X109.754 Y87.754 E1.08116
G1 X110.119 Y87.474 E1.09468
G1 X110.489 Y87.321 E1.10647
G1 X110.544 Y87.298 E1.10821
G1 X111.000 Y87.238 E1.12174
G1 X111.456 Y87.298 E1.13526
G1 X111.881 Y87.474 E1.14879
G1 X112.246 Y87.754 E1.16231
G1 X112.526 Y88.119 E1.17584
G1 X112.702 Y88.544 E1.18937
G1 X112.762 Y89.000 E1.20289
G1 X112.702 Y89.456 E1.21642
G1 X112.526 Y89.881 E1.22994
G1 X112.246 Y90.246 E1.24347
G1 X111.881 Y90.526 E1.25700
G1 X111.456 Y90.702 E1.27052
G1 X111.000 Y90.762 E1.28405
G1 X110.544 Y90.702 E1.29758
G1 X110.119 Y90.526 E1.31110
G1 X109.816 Y90.293 E1.32234
G1 X109.892 Y89.807 F7800.000
G1 X109.062 Y90.119
G1 X108.838 Y89.579 F600.000 E1.33951
G1 X108.762 Y89.000 E1.35669
G1 X108.838 Y88.421 E1.37387
G1 X109.062 Y87.881 E1.39105
G1 X109.418 Y87.418 E1.40823
G1 X109.881 Y87.062 E1.42541
G1 X110.421 Y86.838 E1.44259
G1 X111.000 Y86.762 E1.45977
G1 X111.579 Y86.838 E1.47695
G1 X112.119 Y87.062 E1.49413
G1 X112.582 Y87.418 E1.51131
G1 X112.938 Y87.881 E1.52849
G1 X113.162 Y88.421 E1.54566
G1 X113.238 Y89.000 E1.56284
