; generated by Slic3r 1.1.7 on 2015-02-12 at 19:55:33

; perimeters extrusion width = 0.50mm
; infill extrusion width = 0.52mm
; solid infill extrusion width = 0.52mm
; top infill extrusion width = 0.52mm

G21 ; set units to millimeters
M107
M190 S65 ; wait for bed temperature to be reached
M104 S180 ; set temperature
G28 ; home all axes
G1 Z5 F5000 ; lift nozzle

M109 S180 ; wait for temperature to be reached
G90 ; use absolute coordinates
G92 E0
M82 ; use absolute distances for extrusion
G1 F1800.000 E-1.00000
G1 Z0.850 F7800.000
G92 E0
G1 X63.384 Y63.966 F7800.000
G1 Z0.350 F7800.000
G1 E1.00000 F1800.000
G1 X65.137 Y62.480 E1.07480 F1080.000
G1 X67.292 Y61.678 E1.14960
G1 X68.500 Y61.568 E1.18906
G1 X131.500 Y61.568 E3.23877
G1 X133.765 Y61.965 E3.31357
G1 X135.759 Y63.109 E3.38837 F1080.000
G1 X137.245 Y64.862 E3.46317
G1 X138.047 Y67.017 E3.53797
G1 X138.157 Y68.225 E3.57743
G1 X138.157 Y109.775 E4.92927
G1 X137.760 Y112.040 E5.00407
G1 X136.616 Y114.034 E5.07887
G1 X134.863 Y115.520 E5.15367
G1 X132.708 Y116.322 E5.22847
G1 X131.500 Y116.432 E5.26792
G1 X68.500 Y116.432 E7.31764
G1 X66.235 Y116.035 E7.39244
G1 X64.241 Y114.891 E7.46724
G1 X62.755 Y113.138 E7.54204
G1 X61.953 Y110.983 E7.61684
G1 X61.843 Y109.775 E7.65630
G1 X61.843 Y68.225 E9.00814
G1 X62.240 Y65.960 E9.08294
G1 X63.346 Y64.031 E9.15530
G1 F1800.000 E8.15530
G1 Z0.850 F7800.000
G92 E0
G1 X129.850 Y108.125 F7800.000
G1 Z0.350 F7800.000
G1 E1.00000 F1800.000
G1 X75.150 Y108.125 E2.77968 F378.000
G1 X75.150 Y69.875 E4.02415
G1 X129.850 Y69.875 E5.80382
G1 X129.850 Y108.050 E7.04586
G1 X129.850 Y108.625 F7800.000
G1 X73.836 Y108.111 F7800.000
G1 X70.164 Y108.111 E7.16531 F540.000
G1 X70.164 Y69.889 E8.40887
G1 X73.836 Y69.889 E8.52832
G1 X73.836 Y108.036 E9.76944
G1 X74.493 Y108.768 F7800.000
G1 X69.507 Y108.768 E9.93165 F540.000
G1 X69.507 Y69.232 E11.21796
G1 X74.493 Y69.232 E11.38017
G1 X74.493 Y108.693 E12.66404
G1 X68.850 Y109.425 F7800.000
G1 X68.850 Y68.575 E13.99310 F378.000
G1 X131.150 Y68.575 E16.02005
G1 X131.150 Y109.425 E17.34911
G1 X68.925 Y109.425 E19.37361
G1 X69.100 Y108.992 F7800.000
G1 X70.621 Y107.614 F7800.000
G1 X70.661 Y107.654 E19.37546 F1080.000
G1 X71.590 Y107.654 E19.40571
G1 X70.621 Y106.685 E19.45034
G1 X70.621 Y105.755 E19.48060
G1 X72.520 Y107.654 E19.56801
G1 X73.379 Y107.584 E19.59606
G1 X70.621 Y104.825 E19.72300
G1 X70.621 Y103.895 E19.75326
G1 X73.379 Y106.654 E19.88020
G1 X73.379 Y105.724 E19.91046
G1 X70.621 Y102.965 E20.03740
G1 X70.621 Y102.035 E20.06766
G1 X73.379 Y104.794 E20.19461
G1 X73.379 Y103.864 E20.22486
G1 X70.621 Y101.105 E20.35181
G1 X70.621 Y100.175 E20.38206
G1 X73.379 Y102.934 E20.50901
G1 X73.379 Y102.004 E20.53926
G1 X70.621 Y99.245 E20.66621
G1 X70.621 Y98.315 E20.69646
G1 X73.379 Y101.074 E20.82341
G1 X73.379 Y100.144 E20.85366
G1 X70.621 Y97.385 E20.98061
G1 X70.621 Y96.455 E21.01087
G1 X73.379 Y99.214 E21.13781
G1 X73.379 Y98.284 E21.16807
G1 X70.621 Y95.525 E21.29501
G1 X70.621 Y94.595 E21.32527
G1 X73.379 Y97.354 E21.45221
G1 X73.379 Y96.424 E21.48247
G1 X70.621 Y93.665 E21.60941
G1 X70.621 Y92.735 E21.63967
G1 X73.379 Y95.494 E21.76661
G1 X73.379 Y94.564 E21.79687
G1 X70.621 Y91.805 E21.92381
G1 X70.621 Y90.875 E21.95407
G1 X73.379 Y93.634 E22.08101
G1 X73.379 Y92.704 E22.11127
G1 X70.621 Y89.945 E22.23821
G1 X70.621 Y89.015 E22.26847
G1 X73.379 Y91.774 E22.39542
G1 X73.379 Y90.844 E22.42567
G1 X70.621 Y88.085 E22.55262
G1 X70.621 Y87.156 E22.58287
G1 X73.379 Y89.915 E22.70982
G1 X73.379 Y88.985 E22.74007
G1 X70.621 Y86.226 E22.86702
G1 X70.621 Y85.296 E22.89727
G1 X73.379 Y88.055 E23.02422
G1 X73.379 Y87.125 E23.05447
G1 X70.621 Y84.366 E23.18142
G1 X70.621 Y83.436 E23.21167
G1 X73.379 Y86.195 E23.33862
G1 X73.379 Y85.265 E23.36888
G1 X70.621 Y82.506 E23.49582
G1 X70.621 Y81.576 E23.52608
G1 X73.379 Y84.335 E23.65302
G1 X73.379 Y83.405 E23.68328
G1 X70.621 Y80.646 E23.81022
G1 X70.621 Y79.716 E23.84048
G1 X73.379 Y82.475 E23.96742
G1 X73.379 Y81.545 E23.99768
G1 X70.621 Y78.786 E24.12462
G1 X70.621 Y77.856 E24.15488
G1 X73.379 Y80.615 E24.28182
G1 X73.379 Y79.685 E24.31208
G1 X70.621 Y76.926 E24.43902
G1 X70.621 Y75.996 E24.46928
G1 X73.379 Y78.755 E24.59622
G1 X73.379 Y77.825 E24.62648
G1 X70.621 Y75.066 E24.75343
G1 X70.621 Y74.136 E24.78368
G1 X73.379 Y76.895 E24.91063
G1 X73.379 Y75.965 E24.94088
G1 X70.621 Y73.206 E25.06783
G1 X70.621 Y72.276 E25.09808
G1 X73.379 Y75.035 E25.22503
G1 X73.379 Y74.105 E25.25528
G1 X70.621 Y71.346 E25.38223
G1 X70.621 Y70.416 E25.41248
G1 X73.379 Y73.175 E25.53943
G1 X73.379 Y72.245 E25.56969
G1 X71.480 Y70.346 E25.65710
G1 X72.410 Y70.346 E25.68736
G1 X73.379 Y71.315 E25.73199
G1 X73.379 Y70.386 E25.76224
G1 X73.339 Y70.346 E25.76409
G1 X74.821 Y69.225 F7800.000
G1 X130.179 Y69.225 E26.81167 F360.000
G1 X130.445 Y69.280 E26.81681
G1 X130.500 Y69.546 E26.82196
G1 X130.500 Y108.454 E27.55824
G1 X130.445 Y108.720 E27.56339
G1 X130.179 Y108.775 E27.56853
G1 X74.821 Y108.775 E28.61612
M106 S199
M140 S60 ; set bed temperature
G1 F1800.000 E27.61612
G1 Z1.250 F7800.000
G92 E0
G1 X74.750 Y108.525 F7800.000
G1 Z0.750 F7800.000
G1 E1.00000 F1800.000
G1 X74.750 Y69.475 E2.10489 F1800.000
G1 X130.250 Y69.475 E3.67522
G1 X130.250 Y108.525 E4.78011
G1 X74.825 Y108.525 E6.34831
G1 X75.250 Y108.025 F7800.000
G1 X75.250 Y69.975 E7.42491 F1260.000
G1 X129.750 Y69.975 E8.96694
G1 X129.750 Y108.025 E10.04354
G1 X75.325 Y108.025 E11.58345
G1 X74.750 Y108.025 F7800.000
G1 X74.250 Y108.525 F7800.000
G1 X69.750 Y108.525 E11.71077 F1800.000
G1 X69.750 Y69.475 E12.81566
G1 X74.250 Y69.475 E12.94299
G1 X74.250 Y108.450 E14.04575
G1 X69.250 Y109.025 F7800.000
G1 X69.250 Y68.975 E15.17894 F1800.000
G1 X130.750 Y68.975 E16.91903
G1 X130.750 Y109.025 E18.05222
G1 X69.325 Y109.025 E19.79019
G1 X68.750 Y109.525 F7800.000
G1 X68.750 Y68.475 E20.95166 F1260.000
G1 X131.250 Y68.475 E22.72005
G1 X131.250 Y109.525 E23.88153
G1 X68.825 Y109.525 E25.64780
G1 X69.000 Y109.092 F7800.000
G1 X73.903 Y108.138 F7800.000
G1 X73.863 Y108.178 E25.64946 F3600.000
G1 X73.125 Y108.178 E25.67117
G1 X73.903 Y107.400 E25.70354
G1 X73.903 Y106.662 E25.72525
G1 X72.387 Y108.178 E25.78831
G1 X71.648 Y108.178 E25.81002
G1 X73.903 Y105.923 E25.90379
G1 X73.903 Y105.185 E25.92550
G1 X70.910 Y108.178 E26.04997
G1 X70.172 Y108.178 E26.07168
G1 X73.903 Y104.447 E26.22686
G1 X73.903 Y103.708 E26.24857
G1 X70.097 Y107.515 E26.40685
G1 X70.097 Y106.776 E26.42856
G1 X73.903 Y102.970 E26.58684
G1 X73.903 Y102.232 E26.60855
G1 X70.097 Y106.038 E26.76683
G1 X70.097 Y105.300 E26.78854
G1 X73.903 Y101.494 E26.94682
G1 X73.903 Y100.755 E26.96853
G1 X70.097 Y104.561 E27.12682
G1 X70.097 Y103.823 E27.14853
G1 X73.903 Y100.017 E27.30681
G1 X73.903 Y99.279 E27.32852
G1 X70.097 Y103.085 E27.48680
G1 X70.097 Y102.347 E27.50851
G1 X73.903 Y98.540 E27.66679
G1 X73.903 Y97.802 E27.68850
G1 X70.097 Y101.608 E27.84679
G1 X70.097 Y100.870 E27.86850
G1 X73.903 Y97.064 E28.02678
G1 X73.903 Y96.325 E28.04849
G1 X70.097 Y100.132 E28.20677
G1 X70.097 Y99.393 E28.22848
G1 X73.903 Y95.587 E28.38676
G1 X73.903 Y94.849 E28.40847
G1 X70.097 Y98.655 E28.56675
G1 X70.097 Y97.917 E28.58846
G1 X73.903 Y94.111 E28.74675
G1 X73.903 Y93.372 E28.76846
G1 X70.097 Y97.179 E28.92674
G1 X70.097 Y96.440 E28.94845
G1 X73.903 Y92.634 E29.10673
G1 X73.903 Y91.896 E29.12844
G1 X70.097 Y95.702 E29.28672
G1 X70.097 Y94.964 E29.30843
G1 X73.903 Y91.157 E29.46672
G1 X73.903 Y90.419 E29.48842
G1 X70.097 Y94.225 E29.64671
G1 X70.097 Y93.487 E29.66842
G1 X73.903 Y89.681 E29.82670
G1 X73.903 Y88.943 E29.84841
G1 X70.097 Y92.749 E30.00669
G1 X70.097 Y92.011 E30.02840
G1 X73.903 Y88.204 E30.18668
G1 X73.903 Y87.466 E30.20839
G1 X70.097 Y91.272 E30.36668
G1 X70.097 Y90.534 E30.38839
G1 X73.903 Y86.728 E30.54667
G1 X73.903 Y85.989 E30.56838
G1 X70.097 Y89.796 E30.72666
G1 X70.097 Y89.057 E30.74837
G1 X73.903 Y85.251 E30.90665
G1 X73.903 Y84.513 E30.92836
G1 X70.097 Y88.319 E31.08664
G1 X70.097 Y87.581 E31.10835
G1 X73.903 Y83.775 E31.26664
G1 X73.903 Y83.036 E31.28835
G1 X70.097 Y86.843 E31.44663
G1 X70.097 Y86.104 E31.46834
G1 X73.903 Y82.298 E31.62662
G1 X73.903 Y81.560 E31.64833
G1 X70.097 Y85.366 E31.80661
G1 X70.097 Y84.628 E31.82832
G1 X73.903 Y80.821 E31.98661
G1 X73.903 Y80.083 E32.00832
G1 X70.097 Y83.889 E32.16660
G1 X70.097 Y83.151 E32.18831
G1 X73.903 Y79.345 E32.34659
G1 X73.903 Y78.607 E32.36830
G1 X70.097 Y82.413 E32.52658
G1 X70.097 Y81.675 E32.54829
G1 X73.903 Y77.868 E32.70657
G1 X73.903 Y77.130 E32.72828
G1 X70.097 Y80.936 E32.88657
G1 X70.097 Y80.198 E32.90828
G1 X73.903 Y76.392 E33.06656
G1 X73.903 Y75.653 E33.08827
G1 X70.097 Y79.460 E33.24655
G1 X70.097 Y78.721 E33.26826
G1 X73.903 Y74.915 E33.42654
G1 X73.903 Y74.177 E33.44825
G1 X70.097 Y77.983 E33.60654
G1 X70.097 Y77.245 E33.62824
G1 X73.903 Y73.439 E33.78653
G1 X73.903 Y72.700 E33.80824
G1 X70.097 Y76.506 E33.96652
G1 X70.097 Y75.768 E33.98823
G1 X73.903 Y71.962 E34.14651
G1 X73.903 Y71.224 E34.16822
G1 X70.097 Y75.030 E34.32650
G1 X70.097 Y74.292 E34.34821
G1 X73.903 Y70.485 E34.50650
G1 X73.828 Y69.822 E34.52613
G1 X70.097 Y73.553 E34.68130
G1 X70.097 Y72.815 E34.70301
G1 X73.090 Y69.822 E34.82749
G1 X72.352 Y69.822 E34.84919
G1 X70.097 Y72.077 E34.94296
G1 X70.097 Y71.338 E34.96467
G1 X71.613 Y69.822 E35.02774
G1 X70.875 Y69.822 E35.04945
G1 X70.097 Y70.600 E35.08182
G1 X70.097 Y69.862 E35.10353
G1 X70.137 Y69.822 E35.10519
M106 S199
G1 F1800.000 E34.10519
G1 Z1.650 F7800.000
G92 E0
G1 X74.750 Y108.525 F7800.000
G1 Z1.150 F7800.000
G1 E1.00000 F1800.000
G1 X74.750 Y69.475 E2.10489 F1800.000
G1 X130.250 Y69.475 E3.67522
G1 X130.250 Y108.525 E4.78011
G1 X74.825 Y108.525 E6.34831
G1 X75.250 Y108.025 F7800.000
G1 X75.250 Y69.975 E7.42491 F1260.000
G1 X129.750 Y69.975 E8.96694
G1 X129.750 Y108.025 E10.04354
G1 X75.325 Y108.025 E11.58345
G1 X74.750 Y108.025 F7800.000
G1 X74.250 Y108.525 F7800.000
G1 X69.750 Y108.525 E11.71077 F1800.000
G1 X69.750 Y69.475 E12.81566
G1 X74.250 Y69.475 E12.94299
G1 X74.250 Y108.450 E14.04575
G1 X69.250 Y109.025 F7800.000
G1 X69.250 Y68.975 E15.17894 F1800.000
G1 X130.750 Y68.975 E16.91903
G1 X130.750 Y109.025 E18.05222
G1 X69.325 Y109.025 E19.79019
G1 X68.750 Y109.525 F7800.000
G1 X68.750 Y68.475 E20.95166 F1260.000
G1 X131.250 Y68.475 E22.72005
G1 X131.250 Y109.525 E23.88153
G1 X68.825 Y109.525 E25.64780
G1 X69.000 Y109.092 F7800.000
G1 X70.097 Y108.138 F7800.000
G1 X70.137 Y108.178 E25.64946 F3600.000
G1 X70.875 Y108.178 E25.67117
G1 X70.097 Y107.400 E25.70354
G1 X70.097 Y106.662 E25.72525
G1 X71.613 Y108.178 E25.78831
G1 X72.352 Y108.178 E25.81002
G1 X70.097 Y105.923 E25.90379
G1 X70.097 Y105.185 E25.92550
G1 X73.090 Y108.178 E26.04997
G1 X73.828 Y108.178 E26.07168
G1 X70.097 Y104.447 E26.22686
G1 X70.097 Y103.708 E26.24857
G1 X73.903 Y107.515 E26.40685
G1 X73.903 Y106.776 E26.42856
G1 X70.097 Y102.970 E26.58684
G1 X70.097 Y102.232 E26.60855
G1 X73.903 Y106.038 E26.76683
G1 X73.903 Y105.300 E26.78854
G1 X70.097 Y101.494 E26.94682
G1 X70.097 Y100.755 E26.96853
G1 X73.903 Y104.561 E27.12682
G1 X73.903 Y103.823 E27.14853
G1 X70.097 Y100.017 E27.30681
G1 X70.097 Y99.279 E27.32852
G1 X73.903 Y103.085 E27.48680
G1 X73.903 Y102.347 E27.50851
G1 X70.097 Y98.540 E27.66679
G1 X70.097 Y97.802 E27.68850
G1 X73.903 Y101.608 E27.84679
G1 X73.903 Y100.870 E27.86849
G1 X70.097 Y97.064 E28.02678
G1 X70.097 Y96.325 E28.04849
G1 X73.903 Y100.132 E28.20677
G1 X73.903 Y99.393 E28.22848
G1 X70.097 Y95.587 E28.38676
G1 X70.097 Y94.849 E28.40847
G1 X73.903 Y98.655 E28.56675
G1 X73.903 Y97.917 E28.58846
G1 X70.097 Y94.111 E28.74675
G1 X70.097 Y93.372 E28.76846
G1 X73.903 Y97.179 E28.92674
G1 X73.903 Y96.440 E28.94845
G1 X70.097 Y92.634 E29.10673
G1 X70.097 Y91.896 E29.12844
G1 X73.903 Y95.702 E29.28672
G1 X73.903 Y94.964 E29.30843
G1 X70.097 Y91.157 E29.46672
G1 X70.097 Y90.419 E29.48842
G1 X73.903 Y94.225 E29.64671
G1 X73.903 Y93.487 E29.66842
G1 X70.097 Y89.681 E29.82670
G1 X70.097 Y88.943 E29.84841
G1 X73.903 Y92.749 E30.00669
G1 X73.903 Y92.011 E30.02840
G1 X70.097 Y88.204 E30.18668
G1 X70.097 Y87.466 E30.20839
G1 X73.903 Y91.272 E30.36668
G1 X73.903 Y90.534 E30.38839
G1 X70.097 Y86.728 E30.54667
G1 X70.097 Y85.989 E30.56838
G1 X73.903 Y89.796 E30.72666
G1 X73.903 Y89.057 E30.74837
G1 X70.097 Y85.251 E30.90665
G1 X70.097 Y84.513 E30.92836
G1 X73.903 Y88.319 E31.08664
G1 X73.903 Y87.581 E31.10835
G1 X70.097 Y83.775 E31.26664
G1 X70.097 Y83.036 E31.28835
G1 X73.903 Y86.843 E31.44663
G1 X73.903 Y86.104 E31.46834
G1 X70.097 Y82.298 E31.62662
G1 X70.097 Y81.560 E31.64833
G1 X73.903 Y85.366 E31.80661
G1 X73.903 Y84.628 E31.82832
G1 X70.097 Y80.821 E31.98661
G1 X70.097 Y80.083 E32.00832
G1 X73.903 Y83.889 E32.16660
G1 X73.903 Y83.151 E32.18831
G1 X70.097 Y79.345 E32.34659
G1 X70.097 Y78.607 E32.36830
G1 X73.903 Y82.413 E32.52658
G1 X73.903 Y81.675 E32.54829
G1 X70.097 Y77.868 E32.70657
G1 X70.097 Y77.130 E32.72828
G1 X73.903 Y80.936 E32.88657
G1 X73.903 Y80.198 E32.90828
G1 X70.097 Y76.392 E33.06656
G1 X70.097 Y75.653 E33.08827
G1 X73.903 Y79.460 E33.24655
G1 X73.903 Y78.721 E33.26826
G1 X70.097 Y74.915 E33.42654
G1 X70.097 Y74.177 E33.44825
G1 X73.903 Y77.983 E33.60654
G1 X73.903 Y77.245 E33.62825
G1 X70.097 Y73.439 E33.78653
G1 X70.097 Y72.700 E33.80824
G1 X73.903 Y76.506 E33.96652
G1 X73.903 Y75.768 E33.98823
G1 X70.097 Y71.962 E34.14651
G1 X70.097 Y71.224 E34.16822
G1 X73.903 Y75.030 E34.32650
G1 X73.903 Y74.292 E34.34821
G1 X70.097 Y70.485 E34.50650
G1 X70.172 Y69.822 E34.52613
G1 X73.903 Y73.553 E34.68130
G1 X73.903 Y72.815 E34.70301
G1 X70.910 Y69.822 E34.82749
G1 X71.648 Y69.822 E34.84920
G1 X73.903 Y72.077 E34.94297
G1 X73.903 Y71.338 E34.96467
G1 X72.387 Y69.822 E35.02774
G1 X73.125 Y69.822 E35.04945
G1 X73.903 Y70.600 E35.08182
G1 X73.903 Y69.862 E35.10353
G1 X73.863 Y69.822 E35.10519
M106 S214
G1 F1800.000 E34.10519
G1 Z2.050 F7800.000
G92 E0
G1 X74.750 Y108.525 F7800.000
G1 Z1.550 F7800.000
G1 E1.00000 F1800.000
G1 X74.750 Y69.475 E2.10489 F1800.000
G1 X130.250 Y69.475 E3.67522
G1 X130.250 Y108.525 E4.78011
G1 X74.825 Y108.525 E6.34831
G1 X75.250 Y108.025 F7800.000
G1 X75.250 Y69.975 E7.42491 F1260.000
G1 X129.750 Y69.975 E8.96694
G1 X129.750 Y108.025 E10.04354
G1 X75.325 Y108.025 E11.58345
G1 X74.750 Y108.025 F7800.000
G1 X74.250 Y108.525 F7800.000
G1 X69.750 Y108.525 E11.71077 F1800.000
G1 X69.750 Y69.475 E12.81566
G1 X74.250 Y69.475 E12.94299
G1 X74.250 Y108.450 E14.04575
G1 X69.250 Y109.025 F7800.000
G1 X69.250 Y68.975 E15.17894 F1800.000
G1 X130.750 Y68.975 E16.91903
G1 X130.750 Y109.025 E18.05222
G1 X69.325 Y109.025 E19.79019
G1 X68.750 Y109.525 F7800.000
G1 X68.750 Y68.475 E20.95166 F1260.000
G1 X131.250 Y68.475 E22.72005
G1 X131.250 Y109.525 E23.88153
G1 X68.825 Y109.525 E25.64780
G1 X69.000 Y109.092 F7800.000
G1 X70.175 Y108.158 F7800.000
G1 X70.156 Y108.086 E25.64998 F3600.000
G1 X71.429 Y106.814 E25.70291
G1 X72.298 Y107.046 E25.72938
G1 X73.571 Y105.774 E25.78231
G1 X73.338 Y104.904 E25.80877
G1 X73.883 Y104.359 E25.83143
G1 X73.883 Y103.625 E25.85304
G1 X72.971 Y104.537 E25.89098
G1 X72.101 Y104.304 E25.91745
G1 X70.829 Y105.577 E25.97038
G1 X71.062 Y106.446 E25.99684
G1 X70.117 Y107.391 E26.03613
G1 X70.117 Y105.117 F7800.000
G1 X70.461 Y105.209 E26.04661 F3600.000
G1 X71.734 Y103.936 E26.09954
G1 X71.501 Y103.067 E26.12600
G1 X72.774 Y101.794 E26.17893
G1 X73.643 Y102.027 E26.20540
G1 X73.883 Y101.787 E26.21537
G1 X73.883 Y99.402 E26.28553
G1 X73.446 Y99.285 E26.29882
G1 X72.174 Y100.557 E26.35175
G1 X72.406 Y101.427 E26.37822
G1 X71.134 Y102.700 E26.43115
G1 X70.264 Y102.467 E26.45762
G1 X70.117 Y102.614 E26.46374
G1 X70.117 Y100.777 E26.51777
G1 X70.937 Y99.957 E26.55186
G1 X71.806 Y100.190 E26.57833
G1 X73.079 Y98.917 E26.63126
G1 X72.846 Y98.048 E26.65772
G1 X73.883 Y97.011 E26.70085
G1 X73.883 Y95.174 E26.75487
G1 X73.518 Y95.538 E26.77004
G1 X73.751 Y96.408 E26.79651
G1 X72.479 Y97.680 E26.84944
G1 X71.609 Y97.447 E26.87590
G1 X70.336 Y98.720 E26.92883
G1 X70.569 Y99.590 E26.95530
G1 X70.117 Y100.042 E26.97411
G1 X70.117 Y98.205 E27.02813
G1 X71.242 Y97.080 E27.07491
G1 X71.009 Y96.211 E27.10138
G1 X72.282 Y94.938 E27.15431
