; generated by Slic3r 0.9.10b on 2013-10-02 at 19:43:26

; layer_height = 0.4
; perimeters = 3
; top_solid_layers = 3
; bottom_solid_layers = 3
; fill_density = 0.4
; perimeter_speed = 30
; infill_speed = 60
; travel_speed = 130
; nozzle_diameter = 0.5
; filament_diameter = 3
; extrusion_multiplier = 1
; perimeters extrusion width = 0.53mm
; infill extrusion width = 0.53mm
; solid infill extrusion width = 0.53mm
; top infill extrusion width = 0.53mm
; first layer extrusion width = 0.80mm

G21 ; set units to millimeters
M190 S60 ; wait for bed temperature to be reached
M104 S185 ; set temperature
G28 ; home all axes
G1 Z5 F5000 ; lift nozzle
G92 E0 ;reset extruder
M109 S185 ; wait for temperature to be reached
G90 ; use absolute coordinates
G92 E0 ; reset extrusion distance
M82 ; use absolute distances for extrusion
G1 F1800.000 E-1.00000 ; retract
G92 E0 ; reset extrusion distance
G1 Z0.400 F7800.000 ; move to next layer (0)
G1 X72.160 Y-1.356 ; move to first skirt point
G1 F1800.000 E1.00000 ; compensate retraction
G1 X72.290 Y-2.666 F1440.000 E1.05480 ; skirt
G1 X72.680 Y-3.936 E1.11010 ; skirt
G1 X73.300 Y-5.096 E1.16486 ; skirt
G1 X74.140 Y-6.116 E1.21986 ; skirt
G1 X75.160 Y-6.956 E1.27487 ; skirt
G1 X76.320 Y-7.576 E1.32962 ; skirt
G1 X77.590 Y-7.966 E1.38492 ; skirt
G1 X78.900 Y-8.096 E1.43972 ; skirt
G1 X88.900 Y-8.096 E1.85600 ; skirt
G1 X90.160 Y-7.976 E1.90869 ; skirt
G1 X91.380 Y-7.616 E1.96164 ; skirt
G1 X92.520 Y-7.036 E2.01488 ; skirt
G1 X93.520 Y-6.256 E2.06767 ; skirt
G1 X94.360 Y-5.306 E2.12046 ; skirt
G1 X95.000 Y-4.206 E2.17344 ; skirt
G1 X95.430 Y-3.016 E2.22611 ; skirt
G1 X127.630 Y123.984 E7.68009 ; skirt
G1 X127.780 Y124.814 E7.71520 ; skirt
G1 X127.840 Y125.644 E7.74984 ; skirt
G1 X127.840 Y151.634 E8.83174 ; skirt
G1 X127.610 Y153.374 E8.90480 ; skirt
G1 X126.930 Y155.004 E8.97832 ; skirt
G1 X110.920 Y182.724 E10.31087 ; skirt
G1 X110.150 Y183.794 E10.36575 ; skirt
G1 X109.190 Y184.694 E10.42052 ; skirt
G1 X108.070 Y185.394 E10.47550 ; skirt
G1 X106.830 Y185.864 E10.53071 ; skirt
G1 X105.530 Y186.074 E10.58552 ; skirt
G1 X104.210 Y186.034 E10.64050 ; skirt
G1 X102.920 Y185.734 E10.69563 ; skirt
G1 X101.720 Y185.184 E10.75058 ; skirt
G1 X93.060 Y180.184 E11.16684 ; skirt
G1 X91.940 Y179.374 E11.22438 ; skirt
G1 X91.010 Y178.344 E11.28215 ; skirt
G1 X90.300 Y177.154 E11.33983 ; skirt
G1 X72.770 Y138.744 E13.09740 ; skirt
G1 X72.320 Y137.374 E13.15743 ; skirt
G1 X72.160 Y135.944 E13.21733 ; skirt
G1 X72.160 Y-1.246 E18.92819 ; skirt
G1 F1800.000 E17.92819 ; retract
G92 E0 ; reset extrusion distance
G1 X80.739 Y0.483 F7800.000 ; move to first perimeter point
G1 F1800.000 E1.00000 ; compensate retraction
G1 X87.061 Y0.483 F1440.000 E1.26317 ; perimeter
G1 X87.061 Y127.483 E6.54986 ; perimeter
G1 X119.261 Y127.483 E7.89027 ; perimeter
G1 X119.261 Y151.151 E8.87552 ; perimeter
G1 X104.427 Y176.844 E10.11053 ; perimeter
G1 X98.952 Y173.683 E10.37370 ; perimeter
G1 X112.939 Y149.457 E11.53819 ; perimeter
G1 X112.939 Y134.109 E12.17709 ; perimeter
G1 X80.739 Y134.109 E13.51750 ; perimeter
G1 X80.739 Y0.593 E19.07544 ; perimeter
G1 F1800.000 E18.07544 ; retract
G92 E0 ; reset extrusion distance
G1 X87.797 Y-0.253 F7800.000 ; move to first perimeter point
G1 F1800.000 E1.00000 ; compensate retraction
G1 X87.797 Y126.747 F1440.000 E6.28670 ; perimeter
G1 X119.997 Y126.747 E7.62711 ; perimeter
G1 X119.997 Y151.348 E8.65118 ; perimeter
G1 X104.696 Y177.849 E9.92502 ; perimeter
G1 X97.947 Y173.953 E10.24943 ; perimeter
G1 X112.203 Y149.260 E11.43635 ; perimeter
G1 X112.203 Y134.845 E12.03641 ; perimeter
G1 X80.003 Y134.845 E13.37682 ; perimeter
G1 X80.003 Y-0.253 E19.00060 ; perimeter
G1 X87.686 Y-0.253 E19.32042 ; perimeter
G1 X88.532 Y-0.989 F7800.000 ; move to first perimeter point
G1 X88.532 Y126.011 F1440.000 E24.60712 ; perimeter
G1 X120.732 Y126.011 E25.94752 ; perimeter
G1 X120.732 Y151.545 E27.01043 ; perimeter
G1 X104.965 Y178.854 E28.32309 ; perimeter
G1 X96.942 Y174.222 E28.70875 ; perimeter
G1 X111.468 Y149.063 E29.91808 ; perimeter
G1 X111.468 Y135.580 E30.47932 ; perimeter
G1 X79.268 Y135.580 E31.81973 ; perimeter
G1 X79.268 Y-0.989 E37.50475 ; perimeter
G1 X88.422 Y-0.989 E37.88581 ; perimeter
G1 X88.164 Y-0.352 F7800.000 ; move inwards before travel
G1 F1800.000 E36.88581 ; retract
G92 E0 ; reset extrusion distance
G1 X85.810 Y1.016 F7800.000 ; move to first fill point
G1 F1800.000 E1.00000 ; compensate retraction
G1 X86.528 Y1.733 F2880.000 E1.04225 ; fill
G1 X86.528 Y2.774 E1.08556 ; fill
G1 X84.770 Y1.016 E1.18907 ; fill
G1 X83.729 Y1.016 E1.23238 ; fill
G1 X86.528 Y3.814 E1.39714 ; fill
G1 X86.528 Y4.855 E1.44046 ; fill
G1 X82.689 Y1.016 E1.66647 ; fill
G1 X81.648 Y1.016 E1.70979 ; fill
G1 X86.528 Y5.895 E1.99706 ; fill
G1 X86.528 Y6.936 E2.04037 ; fill
G1 X81.272 Y1.680 E2.34979 ; fill
G1 X81.272 Y2.720 E2.39311 ; fill
G1 X86.528 Y7.976 E2.70253 ; fill
G1 X86.528 Y9.016 E2.74584 ; fill
G1 X81.272 Y3.761 E3.05526 ; fill
G1 X81.272 Y4.801 E3.09858 ; fill
G1 X86.528 Y10.057 E3.40800 ; fill
G1 X86.528 Y11.097 E3.45131 ; fill
G1 X81.272 Y5.842 E3.76073 ; fill
G1 X81.272 Y6.882 E3.80405 ; fill
G1 X86.528 Y12.138 E4.11347 ; fill
G1 X86.528 Y13.178 E4.15678 ; fill
G1 X81.272 Y7.923 E4.46620 ; fill
G1 X81.272 Y8.963 E4.50951 ; fill
G1 X86.528 Y14.218 E4.81893 ; fill
G1 X86.528 Y15.259 E4.86225 ; fill
G1 X81.272 Y10.003 E5.17167 ; fill
G1 X81.272 Y11.044 E5.21498 ; fill
G1 X86.528 Y16.299 E5.52440 ; fill
G1 X86.528 Y17.340 E5.56772 ; fill
G1 X81.272 Y12.084 E5.87714 ; fill
G1 X81.272 Y13.125 E5.92045 ; fill
G1 X86.528 Y18.380 E6.22987 ; fill
G1 X86.528 Y19.421 E6.27319 ; fill
G1 X81.272 Y14.165 E6.58261 ; fill
G1 X81.272 Y15.205 E6.62592 ; fill
G1 X86.528 Y20.461 E6.93534 ; fill
G1 X86.528 Y21.501 E6.97865 ; fill
G1 X81.272 Y16.246 E7.28808 ; fill
G1 X81.272 Y17.286 E7.33139 ; fill
G1 X86.528 Y22.542 E7.64081 ; fill
G1 X86.528 Y23.582 E7.68412 ; fill
G1 X81.272 Y18.327 E7.99354 ; fill
G1 X81.272 Y19.367 E8.03686 ; fill
G1 X86.528 Y24.623 E8.34628 ; fill
G1 X86.528 Y25.663 E8.38959 ; fill
G1 X81.272 Y20.408 E8.69901 ; fill
G1 X81.272 Y21.448 E8.74233 ; fill
G1 X86.528 Y26.703 E9.05175 ; fill
G1 X86.528 Y27.744 E9.09506 ; fill
G1 X81.272 Y22.488 E9.40448 ; fill
G1 X81.272 Y23.529 E9.44780 ; fill
G1 X86.528 Y28.784 E9.75722 ; fill
G1 X86.528 Y29.825 E9.80053 ; fill
G1 X81.272 Y24.569 E10.10995 ; fill
G1 X81.272 Y25.610 E10.15326 ; fill
G1 X86.528 Y30.865 E10.46268 ; fill
G1 X86.528 Y31.906 E10.50600 ; fill
G1 X81.272 Y26.650 E10.81542 ; fill
G1 X81.272 Y27.690 E10.85873 ; fill
G1 X86.528 Y32.946 E11.16815 ; fill
G1 X86.528 Y33.986 E11.21147 ; fill
G1 X81.272 Y28.731 E11.52089 ; fill
G1 X81.272 Y29.771 E11.56420 ; fill
G1 X86.528 Y35.027 E11.87362 ; fill
G1 X86.528 Y36.067 E11.91694 ; fill
G1 X81.272 Y30.812 E12.22636 ; fill
G1 X81.272 Y31.852 E12.26967 ; fill
G1 X86.528 Y37.108 E12.57909 ; fill
G1 X86.528 Y38.148 E12.62240 ; fill
G1 X81.272 Y32.893 E12.93182 ; fill
G1 X81.272 Y33.933 E12.97514 ; fill
G1 X86.528 Y39.188 E13.28456 ; fill
G1 X86.528 Y40.229 E13.32787 ; fill
G1 X81.272 Y34.973 E13.63729 ; fill
G1 X81.272 Y36.014 E13.68061 ; fill
G1 X86.528 Y41.269 E13.99003 ; fill
G1 X86.528 Y42.310 E14.03334 ; fill
G1 X81.272 Y37.054 E14.34276 ; fill
G1 X81.272 Y38.095 E14.38608 ; fill
G1 X86.528 Y43.350 E14.69550 ; fill
G1 X86.528 Y44.391 E14.73881 ; fill
G1 X81.272 Y39.135 E15.04823 ; fill
G1 X81.272 Y40.176 E15.09154 ; fill
G1 X86.528 Y45.431 E15.40097 ; fill
G1 X86.528 Y46.471 E15.44428 ; fill
G1 X81.272 Y41.216 E15.75370 ; fill
G1 X81.272 Y42.256 E15.79701 ; fill
G1 X86.528 Y47.512 E16.10643 ; fill
G1 X86.528 Y48.552 E16.14975 ; fill
G1 X81.272 Y43.297 E16.45917 ; fill
G1 X81.272 Y44.337 E16.50248 ; fill
G1 X86.528 Y49.593 E16.81190 ; fill
G1 X86.528 Y50.633 E16.85522 ; fill
G1 X81.272 Y45.378 E17.16464 ; fill
G1 X81.272 Y46.418 E17.20795 ; fill
G1 X86.528 Y51.674 E17.51737 ; fill
G1 X86.528 Y52.714 E17.56069 ; fill
G1 X81.272 Y47.458 E17.87011 ; fill
G1 X81.272 Y48.499 E17.91342 ; fill
G1 X86.528 Y53.754 E18.22284 ; fill
G1 X86.528 Y54.795 E18.26615 ; fill
G1 X81.272 Y49.539 E18.57557 ; fill
G1 X81.272 Y50.580 E18.61889 ; fill
G1 X86.528 Y55.835 E18.92831 ; fill
G1 X86.528 Y56.876 E18.97162 ; fill
G1 X81.272 Y51.620 E19.28104 ; fill
G1 X81.272 Y52.661 E19.32436 ; fill
G1 X86.528 Y57.916 E19.63378 ; fill
G1 X86.528 Y58.956 E19.67709 ; fill
G1 X81.272 Y53.701 E19.98651 ; fill
G1 X81.272 Y54.741 E20.02983 ; fill
G1 X86.528 Y59.997 E20.33925 ; fill
G1 X86.528 Y61.037 E20.38256 ; fill
G1 X81.272 Y55.782 E20.69198 ; fill
G1 X81.272 Y56.822 E20.73529 ; fill
G1 X86.528 Y62.078 E21.04471 ; fill
G1 X86.528 Y63.118 E21.08803 ; fill
G1 X81.272 Y57.863 E21.39745 ; fill
G1 X81.272 Y58.903 E21.44076 ; fill
G1 X86.528 Y64.159 E21.75018 ; fill
G1 X86.528 Y65.199 E21.79350 ; fill
G1 X81.272 Y59.943 E22.10292 ; fill
G1 X81.272 Y60.984 E22.14623 ; fill
G1 X86.528 Y66.239 E22.45565 ; fill
G1 X86.528 Y67.280 E22.49897 ; fill
G1 X81.272 Y62.024 E22.80839 ; fill
G1 X81.272 Y63.065 E22.85170 ; fill
G1 X86.528 Y68.320 E23.16112 ; fill
G1 X86.528 Y69.361 E23.20443 ; fill
G1 X81.272 Y64.105 E23.51385 ; fill
G1 X81.272 Y65.146 E23.55717 ; fill
G1 X86.528 Y70.401 E23.86659 ; fill
G1 X86.528 Y71.441 E23.90990 ; fill
G1 X81.272 Y66.186 E24.21932 ; fill
G1 X81.272 Y67.226 E24.26264 ; fill
G1 X86.528 Y72.482 E24.57206 ; fill
G1 X86.528 Y73.522 E24.61537 ; fill
G1 X81.272 Y68.267 E24.92479 ; fill
G1 X81.272 Y69.307 E24.96811 ; fill
G1 X86.528 Y74.563 E25.27753 ; fill
G1 X86.528 Y75.603 E25.32084 ; fill
G1 X81.272 Y70.348 E25.63026 ; fill
G1 X81.272 Y71.388 E25.67357 ; fill
G1 X86.528 Y76.644 E25.98300 ; fill
G1 X86.528 Y77.684 E26.02631 ; fill
G1 X81.272 Y72.428 E26.33573 ; fill
G1 X81.272 Y73.469 E26.37904 ; fill
G1 X86.528 Y78.724 E26.68846 ; fill
G1 X86.528 Y79.765 E26.73178 ; fill
G1 X81.272 Y74.509 E27.04120 ; fill
G1 X81.272 Y75.550 E27.08451 ; fill
G1 X86.528 Y80.805 E27.39393 ; fill
G1 X86.528 Y81.846 E27.43725 ; fill
G1 X81.272 Y76.590 E27.74667 ; fill
G1 X81.272 Y77.631 E27.78998 ; fill
G1 X86.528 Y82.886 E28.09940 ; fill
G1 X86.528 Y83.926 E28.14271 ; fill
G1 X81.272 Y78.671 E28.45214 ; fill
G1 X81.272 Y79.711 E28.49545 ; fill
G1 X86.528 Y84.967 E28.80487 ; fill
G1 X86.528 Y86.007 E28.84818 ; fill
G1 X81.272 Y80.752 E29.15760 ; fill
G1 X81.272 Y81.792 E29.20092 ; fill
G1 X86.528 Y87.048 E29.51034 ; fill
G1 X86.528 Y88.088 E29.55365 ; fill
G1 X81.272 Y82.833 E29.86307 ; fill
G1 X81.272 Y83.873 E29.90639 ; fill
G1 X86.528 Y89.129 E30.21581 ; fill
G1 X86.528 Y90.169 E30.25912 ; fill
G1 X81.272 Y84.913 E30.56854 ; fill
G1 X81.272 Y85.954 E30.61186 ; fill
G1 X86.528 Y91.209 E30.92128 ; fill
G1 X86.528 Y92.250 E30.96459 ; fill
G1 X81.272 Y86.994 E31.27401 ; fill
G1 X81.272 Y88.035 E31.31732 ; fill
G1 X86.528 Y93.290 E31.62674 ; fill
G1 X86.528 Y94.331 E31.67006 ; fill
G1 X81.272 Y89.075 E31.97948 ; fill
G1 X81.272 Y90.116 E32.02279 ; fill
G1 X86.528 Y95.371 E32.33221 ; fill
G1 X86.528 Y96.411 E32.37553 ; fill
G1 X81.272 Y91.156 E32.68495 ; fill
G1 X81.272 Y92.196 E32.72826 ; fill
G1 X86.528 Y97.452 E33.03768 ; fill
G1 X86.528 Y98.492 E33.08100 ; fill
G1 X81.272 Y93.237 E33.39042 ; fill
G1 X81.272 Y94.277 E33.43373 ; fill
G1 X86.528 Y99.533 E33.74315 ; fill
G1 X86.528 Y100.573 E33.78646 ; fill
G1 X81.272 Y95.318 E34.09588 ; fill
G1 X81.272 Y96.358 E34.13920 ; fill
G1 X86.528 Y101.614 E34.44862 ; fill
G1 X86.528 Y102.654 E34.49193 ; fill
G1 X81.272 Y97.398 E34.80135 ; fill
G1 X81.272 Y98.439 E34.84467 ; fill
G1 X86.528 Y103.694 E35.15409 ; fill
G1 X86.528 Y104.735 E35.19740 ; fill
G1 X81.272 Y99.479 E35.50682 ; fill
G1 X81.272 Y100.520 E35.55014 ; fill
G1 X86.528 Y105.775 E35.85956 ; fill
G1 X86.528 Y106.816 E35.90287 ; fill
G1 X81.272 Y101.560 E36.21229 ; fill
G1 X81.272 Y102.601 E36.25560 ; fill
G1 X86.528 Y107.856 E36.56502 ; fill
G1 X86.528 Y108.896 E36.60834 ; fill
G1 X81.272 Y103.641 E36.91776 ; fill
G1 X81.272 Y104.681 E36.96107 ; fill
G1 X86.528 Y109.937 E37.27049 ; fill
G1 X86.528 Y110.977 E37.31381 ; fill
G1 X81.272 Y105.722 E37.62323 ; fill
G1 X81.272 Y106.762 E37.66654 ; fill
G1 X86.528 Y112.018 E37.97596 ; fill
G1 X86.528 Y113.058 E38.01928 ; fill
G1 X81.272 Y107.803 E38.32870 ; fill
G1 X81.272 Y108.843 E38.37201 ; fill
G1 X86.528 Y114.099 E38.68143 ; fill
G1 X86.528 Y115.139 E38.72474 ; fill
G1 X81.272 Y109.883 E39.03416 ; fill
G1 X81.272 Y110.924 E39.07748 ; fill
G1 X86.528 Y116.179 E39.38690 ; fill
G1 X86.528 Y117.220 E39.43021 ; fill
G1 X81.272 Y111.964 E39.73963 ; fill
G1 X81.272 Y113.005 E39.78295 ; fill
G1 X86.528 Y118.260 E40.09237 ; fill
G1 X86.528 Y119.301 E40.13568 ; fill
G1 X81.272 Y114.045 E40.44510 ; fill
G1 X81.272 Y115.086 E40.48842 ; fill
G1 X86.528 Y120.341 E40.79784 ; fill
G1 X86.528 Y121.381 E40.84115 ; fill
G1 X81.272 Y116.126 E41.15057 ; fill
G1 X81.272 Y117.166 E41.19388 ; fill
G1 X86.528 Y122.422 E41.50330 ; fill
G1 X86.528 Y123.462 E41.54662 ; fill
G1 X81.272 Y118.207 E41.85604 ; fill
G1 X81.272 Y119.247 E41.89935 ; fill
G1 X86.528 Y124.503 E42.20877 ; fill
G1 X86.528 Y125.543 E42.25209 ; fill
G1 X81.272 Y120.288 E42.56151 ; fill
G1 X81.272 Y121.328 E42.60482 ; fill
G1 X86.528 Y126.584 E42.91424 ; fill
G1 X86.528 Y127.624 E42.95756 ; fill
G1 X81.272 Y122.368 E43.26698 ; fill
G1 X81.272 Y123.409 E43.31029 ; fill
G1 X91.439 Y133.576 E43.90887 ; fill
G1 X92.480 Y133.576 E43.95219 ; fill
G1 X86.920 Y128.016 E44.27953 ; fill
G1 X87.960 Y128.016 E44.32284 ; fill
G1 X93.520 Y133.576 E44.65019 ; fill
G1 X94.560 Y133.576 E44.69350 ; fill
G1 X89.000 Y128.016 E45.02085 ; fill
G1 X90.041 Y128.016 E45.06416 ; fill
G1 X95.601 Y133.576 E45.39151 ; fill
G1 X96.641 Y133.576 E45.43482 ; fill
G1 X91.081 Y128.016 E45.76217 ; fill
G1 X92.122 Y128.016 E45.80548 ; fill
G1 X97.682 Y133.576 E46.13282 ; fill
G1 X98.722 Y133.576 E46.17614 ; fill
G1 X93.162 Y128.016 E46.50348 ; fill
G1 X94.203 Y128.016 E46.54680 ; fill
G1 X99.762 Y133.576 E46.87414 ; fill
G1 X100.803 Y133.576 E46.91746 ; fill
G1 X95.243 Y128.016 E47.24480 ; fill
G1 X96.283 Y128.016 E47.28812 ; fill
G1 X101.843 Y133.576 E47.61546 ; fill
G1 X102.884 Y133.576 E47.65877 ; fill
G1 X97.324 Y128.016 E47.98612 ; fill
G1 X98.364 Y128.016 E48.02943 ; fill
G1 X103.924 Y133.576 E48.35678 ; fill
G1 X104.965 Y133.576 E48.40009 ; fill
G1 X99.405 Y128.016 E48.72744 ; fill
G1 X100.445 Y128.016 E48.77075 ; fill
G1 X106.005 Y133.576 E49.09810 ; fill
G1 X107.045 Y133.576 E49.14141 ; fill
G1 X101.485 Y128.016 E49.46875 ; fill
G1 X102.526 Y128.016 E49.51207 ; fill
G1 X108.086 Y133.576 E49.83941 ; fill
G1 X109.126 Y133.576 E49.88273 ; fill
G1 X103.566 Y128.016 E50.21007 ; fill
G1 X104.607 Y128.016 E50.25339 ; fill
G1 X110.167 Y133.576 E50.58073 ; fill
G1 X111.207 Y133.576 E50.62405 ; fill
G1 X105.647 Y128.016 E50.95139 ; fill
G1 X106.688 Y128.016 E50.99470 ; fill
G1 X112.247 Y133.576 E51.32205 ; fill
G1 X113.288 Y133.576 E51.36536 ; fill
G1 X107.728 Y128.016 E51.69271 ; fill
G1 X108.768 Y128.016 E51.73602 ; fill
G1 X118.728 Y137.975 E52.32239 ; fill
G1 X118.728 Y139.016 E52.36570 ; fill
G1 X113.472 Y133.760 E52.67512 ; fill
G1 X113.472 Y134.801 E52.71843 ; fill
G1 X118.728 Y140.056 E53.02785 ; fill
G1 X118.728 Y141.096 E53.07117 ; fill
G1 X113.472 Y135.841 E53.38059 ; fill
G1 X113.472 Y136.881 E53.42390 ; fill
G1 X118.728 Y142.137 E53.73332 ; fill
G1 X118.728 Y143.177 E53.77664 ; fill
G1 X113.472 Y137.922 E54.08606 ; fill
G1 X113.472 Y138.962 E54.12937 ; fill
G1 X118.728 Y144.218 E54.43879 ; fill
G1 X118.728 Y145.258 E54.48211 ; fill
G1 X113.472 Y140.003 E54.79153 ; fill
G1 X113.472 Y141.043 E54.83484 ; fill
G1 X118.728 Y146.299 E55.14426 ; fill
G1 X118.728 Y147.339 E55.18757 ; fill
G1 X113.472 Y142.083 E55.49699 ; fill
G1 X113.472 Y143.124 E55.54031 ; fill
G1 X118.728 Y148.379 E55.84973 ; fill
G1 X118.728 Y149.420 E55.89304 ; fill
G1 X113.472 Y144.164 E56.20246 ; fill
G1 X113.472 Y145.205 E56.24578 ; fill
G1 X118.728 Y150.460 E56.55520 ; fill
G1 X118.547 Y151.320 E56.59178 ; fill
G1 X113.472 Y146.245 E56.89059 ; fill
G1 X113.472 Y147.286 E56.93390 ; fill
G1 X118.167 Y151.980 E57.21028 ; fill
G1 X117.786 Y152.639 E57.24199 ; fill
