; generated by Slic3r 0.9.8-dev on 2013-01-24 at 23:24:31

; layer_height = 0.4
; perimeters = 3
; top_solid_layers = 3
; bottom_solid_layers = 3
; fill_density = 0.40
; perimeter_speed = 30
; infill_speed = 60
; travel_speed = 130
; scale = 1
; nozzle_diameter = 0.5
; filament_diameter = 3
; extrusion_multiplier = 1
; perimeters extrusion width = 0.53mm
; infill extrusion width = 0.53mm
; first layer extrusion width = 0.80mm

M190 S60 ; wait for bed temperature to be reached
M104 S175 ; set temperature
G28 ; home all axes
G92 E0 ;reset extruder
M109 S175 ; wait for temperature to be reached
G90 ; use absolute coordinates
G21 ; set units to millimeters
G92 E0 ; reset extrusion distance
M82 ; use absolute distances for extrusion
G1 F1800.000 E-1.00000 ; retract
G1 Z1.400 ; move to next layer (0) and lift
G92 E0 ; reset extrusion distance
G1 X121.600 Y101.340 F7800.000 ; move to first skirt point
G1 Z0.400 ; restore layer Z
G1 F1800.000 E1.00000 ; compensate retraction
G1 X58.400 Y101.340 F900.000 E3.63086 ; skirt
G1 X57.590 Y101.290 E3.66464 ; skirt
G1 X57.050 Y101.200 E3.68743 ; skirt
G1 X56.270 Y100.990 E3.72106 ; skirt
G1 X55.510 Y100.690 E3.75507 ; skirt
G1 X54.800 Y100.290 E3.78899 ; skirt
G1 X54.140 Y99.820 E3.82272 ; skirt
G1 X53.540 Y99.270 E3.85660 ; skirt
G1 X53.180 Y98.860 E3.87932 ; skirt
G1 X52.860 Y98.430 E3.90163 ; skirt
G1 X52.570 Y97.970 E3.92427 ; skirt
G1 X52.310 Y97.490 E3.94699 ; skirt
G1 X52.100 Y96.990 E3.96957 ; skirt
G1 X51.860 Y96.210 E4.00354 ; skirt
G1 X51.710 Y95.410 E4.03742 ; skirt
G1 X51.660 Y94.600 E4.07120 ; skirt
G1 X51.660 Y75.400 E4.87045 ; skirt
G1 X51.710 Y74.590 E4.90423 ; skirt
G1 X51.800 Y74.050 E4.92702 ; skirt
G1 X51.930 Y73.530 E4.94933 ; skirt
G1 X52.100 Y73.010 E4.97211 ; skirt
G1 X52.310 Y72.510 E4.99468 ; skirt
G1 X52.570 Y72.030 E5.01741 ; skirt
G1 X52.860 Y71.570 E5.04004 ; skirt
G1 X53.180 Y71.140 E5.06236 ; skirt
G1 X53.730 Y70.540 E5.09624 ; skirt
G1 X54.140 Y70.180 E5.11895 ; skirt
G1 X54.570 Y69.860 E5.14126 ; skirt
G1 X55.030 Y69.570 E5.16390 ; skirt
G1 X55.510 Y69.310 E5.18663 ; skirt
G1 X55.760 Y69.200 E5.19799 ; skirt
G1 X56.270 Y69.010 E5.22065 ; skirt
G1 X57.050 Y68.800 E5.25428 ; skirt
G1 X57.590 Y68.710 E5.27706 ; skirt
G1 X58.130 Y68.670 E5.29961 ; skirt
G1 X121.600 Y68.660 E7.94171 ; skirt
G1 X122.410 Y68.710 E7.97549 ; skirt
G1 X122.950 Y68.800 E7.99828 ; skirt
G1 X123.730 Y69.010 E8.03190 ; skirt
G1 X124.490 Y69.310 E8.06592 ; skirt
G1 X125.200 Y69.710 E8.09984 ; skirt
G1 X125.860 Y70.180 E8.13357 ; skirt
G1 X126.460 Y70.730 E8.16745 ; skirt
G1 X126.820 Y71.140 E8.19016 ; skirt
G1 X127.140 Y71.570 E8.21247 ; skirt
G1 X127.430 Y72.030 E8.23511 ; skirt
G1 X127.690 Y72.510 E8.25784 ; skirt
G1 X127.900 Y73.010 E8.28041 ; skirt
G1 X128.140 Y73.790 E8.31438 ; skirt
G1 X128.290 Y74.590 E8.34826 ; skirt
G1 X128.340 Y75.400 E8.38205 ; skirt
G1 X128.340 Y94.600 E9.18130 ; skirt
G1 X128.290 Y95.410 E9.21508 ; skirt
G1 X128.200 Y95.950 E9.23787 ; skirt
G1 X128.070 Y96.470 E9.26018 ; skirt
G1 X127.900 Y96.990 E9.28295 ; skirt
G1 X127.690 Y97.490 E9.30553 ; skirt
G1 X127.430 Y97.970 E9.32825 ; skirt
G1 X127.140 Y98.430 E9.35089 ; skirt
G1 X126.820 Y98.860 E9.37320 ; skirt
G1 X126.270 Y99.460 E9.40708 ; skirt
G1 X125.860 Y99.820 E9.42980 ; skirt
G1 X125.430 Y100.140 E9.45211 ; skirt
G1 X124.970 Y100.430 E9.47475 ; skirt
G1 X124.490 Y100.690 E9.49747 ; skirt
G1 X124.240 Y100.800 E9.50884 ; skirt
G1 X123.730 Y100.990 E9.53149 ; skirt
G1 X122.950 Y101.200 E9.56512 ; skirt
G1 X122.410 Y101.290 E9.58791 ; skirt
G1 X121.710 Y101.336 E9.61710 ; skirt
G1 X121.600 Y101.340 E9.62169 ; skirt
G1 F1800.000 E8.62169 ; retract
G1 Z1.400 ; move to next layer (0) and lift
G92 E0 ; reset extrusion distance
G1 X116.865 Y89.409 F7800.000 ; move to first perimeter point
G1 Z0.400 ; restore layer Z
G1 F1800.000 E1.00000 ; compensate retraction
G1 X115.660 Y89.742 F720.000 E1.05202 ; perimeter
G1 X114.411 Y89.751 E1.10405 ; perimeter
G1 X113.201 Y89.437 E1.15607 ; perimeter
G1 X112.114 Y88.820 E1.20809 ; perimeter
G1 X111.224 Y87.943 E1.26012 ; perimeter
G1 X110.591 Y86.865 E1.31214 ; perimeter
G1 X110.258 Y85.660 E1.36417 ; perimeter
G1 X110.249 Y84.411 E1.41619 ; perimeter
G1 X110.563 Y83.201 E1.46822 ; perimeter
G1 X111.180 Y82.114 E1.52024 ; perimeter
G1 X112.057 Y81.224 E1.57227 ; perimeter
G1 X113.135 Y80.591 E1.62429 ; perimeter
G1 X114.340 Y80.258 E1.67631 ; perimeter
G1 X115.313 Y80.251 E1.71682 ; perimeter
G1 X115.589 Y80.249 E1.72834 ; perimeter
G1 X116.799 Y80.563 E1.78037 ; perimeter
G1 X117.886 Y81.180 E1.83239 ; perimeter
G1 X118.776 Y82.057 E1.88442 ; perimeter
G1 X119.409 Y83.135 E1.93644 ; perimeter
G1 X120.098 Y85.632 E2.04429 ; perimeter
G1 X118.820 Y87.886 E2.15214 ; perimeter
G1 X117.943 Y88.776 E2.20417 ; perimeter
G1 X116.960 Y89.353 E2.25160 ; perimeter
G1 X116.865 Y89.409 E2.25620 ; perimeter
G1 X116.576 Y88.726 F7800.000 ; move to first perimeter point
G1 X115.558 Y89.007 F720.000 E2.30015 ; perimeter
G1 X114.502 Y89.015 E2.34412 ; perimeter
G1 X113.480 Y88.749 E2.38808 ; perimeter
G1 X112.561 Y88.228 E2.43204 ; perimeter
G1 X111.809 Y87.487 E2.47600 ; perimeter
G1 X111.274 Y86.576 E2.51996 ; perimeter
G1 X110.993 Y85.558 E2.56393 ; perimeter
G1 X110.985 Y84.502 E2.60788 ; perimeter
G1 X111.251 Y83.480 E2.65185 ; perimeter
G1 X111.772 Y82.561 E2.69581 ; perimeter
G1 X112.513 Y81.809 E2.73977 ; perimeter
G1 X113.424 Y81.274 E2.78373 ; perimeter
G1 X114.442 Y80.993 E2.82769 ; perimeter
G1 X115.318 Y80.987 E2.86417 ; perimeter
G1 X115.498 Y80.985 E2.87166 ; perimeter
G1 X116.520 Y81.251 E2.91562 ; perimeter
G1 X117.439 Y81.772 E2.95958 ; perimeter
G1 X118.191 Y82.513 E3.00354 ; perimeter
G1 X118.726 Y83.424 E3.04750 ; perimeter
G1 X119.007 Y84.442 E3.09147 ; perimeter
G1 X119.015 Y85.498 E3.13542 ; perimeter
G1 X118.749 Y86.520 E3.17939 ; perimeter
G1 X118.228 Y87.439 E3.22335 ; perimeter
G1 X117.487 Y88.191 E3.26731 ; perimeter
G1 X116.671 Y88.670 E3.30668 ; perimeter
G1 X116.576 Y88.726 E3.31127 ; perimeter
G1 X116.287 Y88.042 F7800.000 ; move to first perimeter point
G1 X115.456 Y88.272 F720.000 E3.34717 ; perimeter
G1 X114.593 Y88.278 E3.38307 ; perimeter
G1 X113.759 Y88.061 E3.41897 ; perimeter
G1 X113.009 Y87.636 E3.45486 ; perimeter
G1 X112.394 Y87.031 E3.49076 ; perimeter
G1 X111.958 Y86.287 E3.52666 ; perimeter
G1 X111.728 Y85.456 E3.56256 ; perimeter
G1 X111.722 Y84.593 E3.59846 ; perimeter
G1 X111.939 Y83.759 E3.63436 ; perimeter
G1 X112.364 Y83.009 E3.67026 ; perimeter
G1 X112.969 Y82.394 E3.70615 ; perimeter
G1 X113.713 Y81.958 E3.74205 ; perimeter
G1 X114.544 Y81.728 E3.77795 ; perimeter
G1 X115.324 Y81.722 E3.81040 ; perimeter
G1 X115.407 Y81.722 E3.81385 ; perimeter
G1 X116.241 Y81.939 E3.84975 ; perimeter
G1 X116.991 Y82.364 E3.88565 ; perimeter
G1 X117.606 Y82.969 E3.92155 ; perimeter
G1 X118.042 Y83.713 E3.95744 ; perimeter
G1 X118.272 Y84.544 E3.99334 ; perimeter
G1 X118.278 Y85.407 E4.02924 ; perimeter
G1 X118.061 Y86.241 E4.06514 ; perimeter
G1 X117.636 Y86.991 E4.10104 ; perimeter
G1 X117.031 Y87.606 E4.13694 ; perimeter
G1 X116.382 Y87.987 E4.16824 ; perimeter
G1 X116.287 Y88.042 E4.17283 ; perimeter
G1 X116.165 Y88.768 F7800.000 ; move inwards before travel
G1 F1800.000 E3.17283 ; retract
G1 Z1.400 ; lift plate during travel
G92 E0 ; reset extrusion distance
G1 X104.961 Y85.000 F7800.000 ; move to first perimeter point
G1 Z0.400 ; restore layer Z
G1 F1800.000 E1.00000 ; compensate retraction
G1 X101.480 Y91.028 F900.000 E1.28976 ; perimeter
G1 X94.520 Y91.028 E1.57952 ; perimeter
G1 X91.039 Y85.000 E1.86927 ; perimeter
G1 X94.520 Y78.972 E2.15903 ; perimeter
G1 X101.480 Y78.972 E2.44879 ; perimeter
G1 X104.906 Y84.904 E2.73395 ; perimeter
G1 X104.961 Y85.000 E2.73855 ; perimeter
G1 X104.111 Y85.000 F7800.000 ; move to first perimeter point
G1 X101.056 Y90.293 F720.000 E2.99294 ; perimeter
G1 X94.944 Y90.293 E3.24734 ; perimeter
G1 X94.510 Y89.540 E3.28352 ; perimeter
G1 X91.889 Y85.000 E3.50174 ; perimeter
G1 X94.944 Y79.707 E3.75614 ; perimeter
G1 X101.056 Y79.707 E4.01054 ; perimeter
G1 X104.056 Y84.904 E4.26034 ; perimeter
G1 X104.111 Y85.000 E4.26494 ; perimeter
G1 X103.262 Y85.000 F7800.000 ; move to first perimeter point
G1 X100.631 Y89.557 F720.000 E4.48398 ; perimeter
G1 X95.369 Y89.557 E4.70302 ; perimeter
G1 X95.147 Y89.172 E4.72151 ; perimeter
G1 X92.738 Y85.000 E4.92205 ; perimeter
G1 X95.369 Y80.443 E5.14109 ; perimeter
G1 X100.631 Y80.443 E5.36013 ; perimeter
G1 X103.207 Y84.904 E5.57458 ; perimeter
G1 X103.262 Y85.000 E5.57917 ; perimeter
G1 X103.825 Y85.473 F7800.000 ; move inwards before travel
G1 F1800.000 E4.57917 ; retract
G1 Z1.400 ; lift plate during travel
G92 E0 ; reset extrusion distance
G1 X69.045 Y85.000 F7800.000 ; move to first perimeter point
G1 Z0.400 ; restore layer Z
G1 F1800.000 E1.00000 ; compensate retraction
G1 X68.908 Y86.047 F720.000 E1.04396 ; perimeter
G1 X68.503 Y87.023 E1.08792 ; perimeter
G1 X67.861 Y87.861 E1.13188 ; perimeter
G1 X67.023 Y88.503 E1.17584 ; perimeter
G1 X66.047 Y88.908 E1.21981 ; perimeter
G1 X65.000 Y89.045 E1.26377 ; perimeter
G1 X63.953 Y88.908 E1.30773 ; perimeter
G1 X62.977 Y88.503 E1.35169 ; perimeter
G1 X62.139 Y87.861 E1.39565 ; perimeter
G1 X61.497 Y87.023 E1.43961 ; perimeter
G1 X61.092 Y86.047 E1.48358 ; perimeter
G1 X60.955 Y85.000 E1.52754 ; perimeter
G1 X61.092 Y83.953 E1.57150 ; perimeter
G1 X61.497 Y82.977 E1.61546 ; perimeter
G1 X62.139 Y82.139 E1.65942 ; perimeter
G1 X62.977 Y81.497 E1.70338 ; perimeter
G1 X63.953 Y81.092 E1.74734 ; perimeter
G1 X65.000 Y80.955 E1.79130 ; perimeter
G1 X66.047 Y81.092 E1.83527 ; perimeter
G1 X67.023 Y81.497 E1.87923 ; perimeter
G1 X67.861 Y82.139 E1.92319 ; perimeter
G1 X68.503 Y82.977 E1.96715 ; perimeter
G1 X68.908 Y83.953 E2.01111 ; perimeter
G1 X69.031 Y84.891 E2.05048 ; perimeter
G1 X69.045 Y85.000 E2.05507 ; perimeter
G1 X68.303 Y85.000 F7800.000 ; move to first perimeter point
G1 X68.191 Y85.855 F720.000 E2.09097 ; perimeter
G1 X67.861 Y86.652 E2.12687 ; perimeter
G1 X67.336 Y87.336 E2.16277 ; perimeter
G1 X66.652 Y87.861 E2.19867 ; perimeter
G1 X65.855 Y88.191 E2.23457 ; perimeter
G1 X65.000 Y88.303 E2.27047 ; perimeter
G1 X64.145 Y88.191 E2.30636 ; perimeter
G1 X63.348 Y87.861 E2.34226 ; perimeter
G1 X62.664 Y87.336 E2.37816 ; perimeter
G1 X62.139 Y86.652 E2.41406 ; perimeter
G1 X61.809 Y85.855 E2.44996 ; perimeter
G1 X61.697 Y85.000 E2.48586 ; perimeter
G1 X61.809 Y84.145 E2.52175 ; perimeter
G1 X62.139 Y83.348 E2.55765 ; perimeter
G1 X62.664 Y82.664 E2.59355 ; perimeter
G1 X63.348 Y82.139 E2.62945 ; perimeter
G1 X64.145 Y81.809 E2.66535 ; perimeter
G1 X65.000 Y81.697 E2.70125 ; perimeter
G1 X65.855 Y81.809 E2.73715 ; perimeter
G1 X66.652 Y82.139 E2.77305 ; perimeter
G1 X67.336 Y82.664 E2.80894 ; perimeter
G1 X67.861 Y83.348 E2.84484 ; perimeter
G1 X68.191 Y84.145 E2.88074 ; perimeter
G1 X68.289 Y84.891 E2.91205 ; perimeter
G1 X68.303 Y85.000 E2.91664 ; perimeter
G1 X68.924 Y85.395 F7800.000 ; move inwards before travel
G1 F1800.000 E1.91664 ; retract
G1 Z1.400 ; lift plate during travel
G92 E0 ; reset extrusion distance
G1 X75.163 Y85.000 F7800.000 ; move to first perimeter point
G1 Z0.400 ; restore layer Z
G1 F1800.000 E1.00000 ; compensate retraction
G1 X78.643 Y78.972 F900.000 E1.28976 ; perimeter
G1 X85.604 Y78.972 E1.57951 ; perimeter
G1 X86.251 Y80.092 E1.63337 ; perimeter
G1 X89.084 Y85.000 E1.86927 ; perimeter
G1 X85.604 Y91.028 E2.15903 ; perimeter
G1 X78.643 Y91.028 E2.44879 ; perimeter
G1 X75.218 Y85.096 E2.73395 ; perimeter
G1 X75.163 Y85.000 E2.73855 ; perimeter
G1 X76.012 Y85.000 F7800.000 ; move to first perimeter point
G1 X79.068 Y79.707 F720.000 E2.99294 ; perimeter
G1 X85.179 Y79.707 E3.24734 ; perimeter
G1 X85.613 Y80.460 E3.28352 ; perimeter
G1 X88.235 Y85.000 E3.50174 ; perimeter
G1 X85.179 Y90.293 E3.75614 ; perimeter
G1 X79.068 Y90.293 E4.01054 ; perimeter
G1 X76.067 Y85.096 E4.26034 ; perimeter
G1 X76.012 Y85.000 E4.26494 ; perimeter
G1 X76.861 Y85.000 F7800.000 ; move to first perimeter point
G1 X79.492 Y80.443 F720.000 E4.48398 ; perimeter
G1 X84.754 Y80.443 E4.70301 ; perimeter
G1 X87.385 Y85.000 E4.92205 ; perimeter
G1 X84.754 Y89.557 E5.14109 ; perimeter
G1 X79.492 Y89.557 E5.36013 ; perimeter
G1 X76.917 Y85.096 E5.57458 ; perimeter
G1 X76.861 Y85.000 E5.57917 ; perimeter
G1 X76.298 Y84.527 F7800.000 ; move inwards before travel
G1 F1800.000 E4.57917 ; retract
G1 Z1.400 ; lift plate during travel
G92 E0 ; reset extrusion distance
G1 X120.129 Y93.129 F7800.000 ; move to first perimeter point
G1 Z0.400 ; restore layer Z
G1 F1800.000 E1.00000 ; compensate retraction
G1 X59.871 Y93.129 F900.000 E3.50837 ; perimeter
G1 X59.871 Y85.021 E3.84588 ; perimeter
G1 X60.854 Y87.394 E3.95278 ; perimeter
G1 X61.615 Y88.385 E4.00480 ; perimeter
G1 X62.606 Y89.146 E4.05683 ; perimeter
G1 X63.761 Y89.624 E4.10885 ; perimeter
G1 X65.000 Y89.787 E4.16088 ; perimeter
G1 X66.239 Y89.624 E4.21290 ; perimeter
G1 X67.394 Y89.146 E4.26492 ; perimeter
G1 X68.385 Y88.385 E4.31695 ; perimeter
G1 X69.146 Y87.394 E4.36897 ; perimeter
G1 X69.624 Y86.239 E4.42100 ; perimeter
G1 X69.787 Y85.000 E4.47302 ; perimeter
G1 X69.624 Y83.761 E4.52505 ; perimeter
G1 X69.146 Y82.606 E4.57707 ; perimeter
G1 X68.385 Y81.615 E4.62910 ; perimeter
G1 X67.394 Y80.854 E4.68112 ; perimeter
G1 X66.239 Y80.376 E4.73315 ; perimeter
G1 X65.000 Y80.213 E4.78517 ; perimeter
G1 X63.761 Y80.376 E4.83719 ; perimeter
G1 X62.606 Y80.854 E4.88922 ; perimeter
G1 X61.615 Y81.615 E4.94124 ; perimeter
G1 X60.854 Y82.606 E4.99326 ; perimeter
G1 X59.871 Y84.979 E5.10017 ; perimeter
G1 X59.871 Y76.871 E5.43767 ; perimeter
G1 X120.129 Y76.871 E7.94604 ; perimeter
G1 X120.129 Y93.018 E8.61821 ; perimeter
G1 X120.129 Y93.129 E8.62281 ; perimeter
G1 X120.864 Y93.864 F7800.000 ; move to first perimeter point
G1 X59.136 Y93.864 F900.000 E11.19242 ; perimeter
G1 X59.136 Y76.136 E11.93043 ; perimeter
G1 X120.864 Y76.136 E14.50004 ; perimeter
G1 X120.864 Y93.754 E15.23346 ; perimeter
G1 X120.864 Y93.864 E15.23805 ; perimeter
G1 X121.600 Y94.600 F7800.000 ; move to first perimeter point
G1 X58.400 Y94.600 F900.000 E17.86891 ; perimeter
G1 X58.400 Y75.400 E18.66816 ; perimeter
G1 X121.600 Y75.400 E21.29902 ; perimeter
G1 X121.600 Y94.490 E22.09367 ; perimeter
G1 X121.600 Y94.600 E22.09827 ; perimeter
G1 X120.963 Y94.232 F7800.000 ; move inwards before travel
G1 F1800.000 E21.09827 ; retract
G1 Z1.400 ; lift plate during travel
G92 E0 ; reset extrusion distance
G1 X118.744 Y88.539 F7800.000 ; move to first fill point
G1 Z0.400 ; restore layer Z
G1 F1800.000 E1.00000 ; compensate retraction
G1 X119.627 Y89.422 F1800.000 E1.05262 ; fill
G1 X119.627 Y90.475 E1.09699 ; fill
G1 X118.221 Y89.070 E1.18073 ; fill
G1 X117.574 Y89.474 E1.21290 ; fill
G1 X119.627 Y91.528 E1.33525 ; fill
G1 X119.628 Y92.580 E1.37958 ; fill
G1 X116.909 Y89.861 E1.54158 ; fill
G1 X116.083 Y90.089 E1.57766 ; fill
G1 X118.621 Y92.627 E1.72887 ; fill
G1 X117.569 Y92.627 E1.77321 ; fill
G1 X115.186 Y90.245 E1.91515 ; fill
G1 X114.141 Y90.253 E1.95920 ; fill
G1 X116.515 Y92.627 E2.10067 ; fill
G1 X115.463 Y92.627 E2.14501 ; fill
G1 X112.739 Y89.903 E2.30732 ; fill
G1 F1800.000 E1.30732 ; retract
G1 Z1.400 ; lift plate during travel
G92 E0 ; reset extrusion distance
G1 X101.776 Y92.627 F7800.000 ; move to first fill point
G1 Z0.400 ; restore layer Z
G1 F1800.000 E1.00000 ; compensate retraction
G1 X101.308 Y92.159 F1800.000 E1.02790 ; fill
G1 X101.693 Y91.492 E1.06037 ; fill
G1 X102.829 Y92.627 E1.12804 ; fill
G1 X103.882 Y92.627 E1.17240 ; fill
G1 X102.078 Y90.824 E1.27984 ; fill
G1 X102.464 Y90.157 E1.31230 ; fill
G1 X104.934 Y92.627 E1.45950 ; fill
G1 X105.987 Y92.627 E1.50386 ; fill
G1 X102.849 Y89.489 E1.69082 ; fill
G1 X103.234 Y88.822 E1.72329 ; fill
G1 X107.040 Y92.627 E1.95003 ; fill
G1 X108.093 Y92.627 E1.99438 ; fill
G1 X103.620 Y88.154 E2.26088 ; fill
G1 X104.005 Y87.487 E2.29335 ; fill
G1 X109.146 Y92.627 E2.59961 ; fill
G1 X110.199 Y92.627 E2.64397 ; fill
G1 X104.390 Y86.819 E2.99000 ; fill
G1 X104.776 Y86.152 E3.02248 ; fill
G1 X111.251 Y92.627 E3.40828 ; fill
