; generated by Slic3r 0.9.8-dev on 2013-01-11 at 23:21:52

; layer_height = 0.4
; perimeters = 3
; top_solid_layers = 3
; bottom_solid_layers = 3
; fill_density = 0.40
; perimeter_speed = 30
; infill_speed = 60
; travel_speed = 130
; scale = 1
; nozzle_diameter = 0.5
; filament_diameter = 3
; extrusion_multiplier = 1
; perimeters extrusion width = 0.53mm
; infill extrusion width = 0.53mm
; first layer extrusion width = 0.80mm

M190 S60 ; wait for bed temperature to be reached
M104 S180 ; set temperature
G28 ; home all axes
G92 E0 ;reset extruder
M109 S180 ; wait for temperature to be reached
G90 ; use absolute coordinates
G21 ; set units to millimeters
G92 E0 ; reset extrusion distance
M82 ; use absolute distances for extrusion
G1 F1800.000 E-1.00000 ; retract
G1 Z1.400 ; move to next layer (0) and lift
G92 E0 ; reset extrusion distance
G1 X151.555 Y65.427 F7800.000 ; move to first skirt point
G1 Z0.400 ; restore layer Z
G1 F1800.000 E1.00000 ; compensate retraction
G1 X151.405 Y112.757 F540.000 E2.97024 ; skirt
G1 X151.345 Y113.607 E3.00571 ; skirt
G1 X150.645 Y118.957 E3.23032 ; skirt
G1 X150.515 Y119.657 E3.25996 ; skirt
G1 X150.315 Y120.337 E3.28946 ; skirt
G1 X150.185 Y120.667 E3.30423 ; skirt
G1 X148.115 Y125.657 E3.52911 ; skirt
G1 X147.815 Y126.287 E3.55816 ; skirt
G1 X147.635 Y126.597 E3.57308 ; skirt
G1 X147.245 Y127.177 E3.60218 ; skirt
G1 X143.965 Y131.457 E3.82664 ; skirt
G1 X143.505 Y131.997 E3.85617 ; skirt
G1 X143.255 Y132.247 E3.87089 ; skirt
G1 X142.715 Y132.707 E3.90042 ; skirt
G1 X138.435 Y135.987 E4.12489 ; skirt
G1 X137.855 Y136.377 E4.15398 ; skirt
G1 X137.235 Y136.717 E4.18342 ; skirt
G1 X131.925 Y138.927 E4.42284 ; skirt
G1 X131.595 Y139.057 E4.43760 ; skirt
G1 X130.915 Y139.257 E4.46711 ; skirt
G1 X130.215 Y139.387 E4.49675 ; skirt
G1 X124.865 Y140.087 E4.72135 ; skirt
G1 X123.995 Y140.147 E4.75765 ; skirt
G1 X75.845 Y140.147 E6.76202 ; skirt
G1 X74.975 Y140.087 E6.79832 ; skirt
G1 X69.625 Y139.387 E7.02293 ; skirt
G1 X68.925 Y139.257 E7.05257 ; skirt
G1 X68.575 Y139.167 E7.06761 ; skirt
G1 X67.905 Y138.927 E7.09724 ; skirt
G1 X62.925 Y136.857 E7.32174 ; skirt
G1 X62.605 Y136.717 E7.33628 ; skirt
G1 X61.985 Y136.377 E7.36571 ; skirt
G1 X61.405 Y135.987 E7.39481 ; skirt
G1 X57.125 Y132.707 E7.61927 ; skirt
G1 X56.585 Y132.247 E7.64880 ; skirt
G1 X56.335 Y131.997 E7.66352 ; skirt
G1 X55.875 Y131.457 E7.69305 ; skirt
G1 X52.595 Y127.177 E7.91752 ; skirt
G1 X52.205 Y126.597 E7.94661 ; skirt
G1 X52.025 Y126.287 E7.96153 ; skirt
G1 X51.725 Y125.657 E7.99058 ; skirt
G1 X49.655 Y120.677 E8.21508 ; skirt
G1 X49.415 Y120.007 E8.24471 ; skirt
G1 X49.325 Y119.657 E8.25975 ; skirt
G1 X49.195 Y118.957 E8.28939 ; skirt
G1 X48.495 Y113.607 E8.51399 ; skirt
G1 X48.435 Y112.717 E8.55113 ; skirt
G1 X48.585 Y65.237 E10.52761 ; skirt
G1 X48.645 Y64.387 E10.56308 ; skirt
G1 X49.345 Y59.037 E10.78769 ; skirt
G1 X49.405 Y58.687 E10.80247 ; skirt
G1 X49.565 Y57.997 E10.83196 ; skirt
G1 X49.805 Y57.327 E10.86158 ; skirt
G1 X51.875 Y52.327 E11.08685 ; skirt
G1 X52.175 Y51.697 E11.11590 ; skirt
G1 X52.745 Y50.817 E11.15954 ; skirt
G1 X56.025 Y46.537 E11.38401 ; skirt
G1 X56.485 Y46.007 E11.41323 ; skirt
G1 X56.735 Y45.757 E11.42794 ; skirt
G1 X56.995 Y45.517 E11.44267 ; skirt
G1 X57.275 Y45.297 E11.45750 ; skirt
G1 X61.835 Y41.797 E11.69679 ; skirt
G1 X62.445 Y41.427 E11.72648 ; skirt
G1 X62.755 Y41.267 E11.74101 ; skirt
G1 X68.075 Y39.057 E11.98081 ; skirt
G1 X68.735 Y38.827 E12.00991 ; skirt
G1 X69.075 Y38.737 E12.02455 ; skirt
G1 X69.765 Y38.607 E12.05378 ; skirt
G1 X75.125 Y37.907 E12.27880 ; skirt
G1 X76.015 Y37.847 E12.31593 ; skirt
G1 X124.165 Y37.997 E14.32030 ; skirt
G1 X125.015 Y38.057 E14.35578 ; skirt
G1 X130.365 Y38.757 E14.58038 ; skirt
G1 X131.065 Y38.887 E14.61002 ; skirt
G1 X131.405 Y38.977 E14.62466 ; skirt
G1 X132.065 Y39.207 E14.65375 ; skirt
G1 X137.055 Y41.267 E14.87848 ; skirt
G1 X137.695 Y41.577 E14.90808 ; skirt
G1 X138.305 Y41.947 E14.93778 ; skirt
G1 X142.865 Y45.447 E15.17707 ; skirt
G1 X143.145 Y45.667 E15.19189 ; skirt
G1 X143.405 Y45.907 E15.20662 ; skirt
G1 X143.655 Y46.157 E15.22134 ; skirt
G1 X144.115 Y46.687 E15.25055 ; skirt
G1 X147.395 Y50.967 E15.47502 ; skirt
G1 X147.785 Y51.547 E15.50412 ; skirt
G1 X148.125 Y52.167 E15.53355 ; skirt
G1 X150.335 Y57.477 E15.77297 ; skirt
G1 X150.575 Y58.147 E15.80260 ; skirt
G1 X150.665 Y58.487 E15.81724 ; skirt
G1 X150.795 Y59.187 E15.84688 ; skirt
G1 X151.495 Y64.537 E16.07148 ; skirt
G1 X151.548 Y65.317 E16.10402 ; skirt
G1 X151.555 Y65.427 E16.10862 ; skirt
G1 F1800.000 E15.10862 ; retract
G1 Z1.400 ; move to next layer (0) and lift
G92 E0 ; reset extrusion distance
G1 X136.521 Y116.097 F7800.000 ; move to first perimeter point
G1 Z0.400 ; restore layer Z
G1 F1800.000 E1.00000 ; compensate retraction
G1 X135.226 Y119.223 F540.000 E1.14086 ; perimeter
G1 X133.166 Y121.907 E1.28172 ; perimeter
G1 X130.481 Y123.967 E1.42259 ; perimeter
G1 X127.355 Y125.262 E1.56345 ; perimeter
G1 X124.000 Y125.704 E1.70431 ; perimeter
G1 X120.645 Y125.262 E1.84517 ; perimeter
G1 X117.519 Y123.967 E1.98603 ; perimeter
G1 X114.834 Y121.907 E2.12690 ; perimeter
G1 X112.774 Y119.223 E2.26776 ; perimeter
G1 X111.479 Y116.097 E2.40862 ; perimeter
G1 X111.038 Y112.742 E2.54948 ; perimeter
G1 X111.077 Y112.440 E2.56214 ; perimeter
G1 X111.479 Y109.387 E2.69034 ; perimeter
G1 X112.774 Y106.260 E2.83120 ; perimeter
G1 X114.834 Y103.576 E2.97207 ; perimeter
G1 X117.519 Y101.516 E3.11293 ; perimeter
G1 X120.645 Y100.221 E3.25379 ; perimeter
G1 X123.698 Y99.819 E3.38199 ; perimeter
G1 X124.000 Y99.779 E3.39465 ; perimeter
G1 X127.355 Y100.221 E3.53551 ; perimeter
G1 X130.481 Y101.516 E3.67638 ; perimeter
G1 X132.924 Y103.391 E3.80458 ; perimeter
G1 X133.166 Y103.576 E3.81724 ; perimeter
G1 X135.226 Y106.260 E3.95810 ; perimeter
G1 X136.521 Y109.387 E4.09896 ; perimeter
G1 X136.962 Y112.742 E4.23982 ; perimeter
G1 X136.535 Y115.987 E4.37609 ; perimeter
G1 X136.521 Y116.097 E4.38068 ; perimeter
G1 X135.804 Y115.905 F7800.000 ; move to first perimeter point
G1 X134.583 Y118.852 F540.000 E4.51348 ; perimeter
G1 X132.641 Y121.383 E4.64628 ; perimeter
G1 X130.110 Y123.325 E4.77908 ; perimeter
G1 X127.163 Y124.546 E4.91188 ; perimeter
G1 X124.000 Y124.962 E5.04468 ; perimeter
G1 X120.837 Y124.546 E5.17748 ; perimeter
G1 X117.890 Y123.325 E5.31028 ; perimeter
G1 X115.359 Y121.383 E5.44308 ; perimeter
G1 X113.417 Y118.852 E5.57588 ; perimeter
G1 X112.196 Y115.905 E5.70867 ; perimeter
G1 X111.780 Y112.742 E5.84147 ; perimeter
G1 X111.807 Y112.536 E5.85010 ; perimeter
G1 X112.196 Y109.579 E5.97427 ; perimeter
G1 X113.417 Y106.631 E6.10707 ; perimeter
G1 X115.359 Y104.101 E6.23987 ; perimeter
G1 X117.890 Y102.158 E6.37267 ; perimeter
G1 X120.837 Y100.938 E6.50547 ; perimeter
G1 X123.794 Y100.548 E6.62964 ; perimeter
G1 X124.000 Y100.521 E6.63827 ; perimeter
G1 X127.163 Y100.938 E6.77107 ; perimeter
G1 X130.110 Y102.158 E6.90386 ; perimeter
G1 X132.477 Y103.974 E7.02803 ; perimeter
G1 X132.641 Y104.101 E7.03666 ; perimeter
G1 X134.583 Y106.631 E7.16946 ; perimeter
G1 X135.804 Y109.579 E7.30226 ; perimeter
G1 X136.220 Y112.742 E7.43506 ; perimeter
G1 X135.818 Y115.795 E7.56327 ; perimeter
G1 X135.804 Y115.905 E7.56786 ; perimeter
G1 X135.087 Y115.713 F7800.000 ; move to first perimeter point
G1 X133.941 Y118.481 F540.000 E7.69259 ; perimeter
G1 X132.116 Y120.858 E7.81733 ; perimeter
G1 X129.739 Y122.682 E7.94207 ; perimeter
G1 X126.971 Y123.829 E8.06680 ; perimeter
G1 X124.000 Y124.220 E8.19154 ; perimeter
G1 X121.029 Y123.829 E8.31627 ; perimeter
G1 X118.261 Y122.682 E8.44101 ; perimeter
G1 X115.884 Y120.858 E8.56575 ; perimeter
G1 X114.059 Y118.481 E8.69048 ; perimeter
G1 X112.913 Y115.713 E8.81522 ; perimeter
G1 X112.522 Y112.742 E8.93995 ; perimeter
G1 X112.913 Y109.771 E9.06469 ; perimeter
G1 X114.059 Y107.002 E9.18943 ; perimeter
G1 X115.884 Y104.625 E9.31416 ; perimeter
G1 X118.261 Y102.801 E9.43890 ; perimeter
G1 X121.029 Y101.654 E9.56363 ; perimeter
G1 X123.890 Y101.278 E9.68377 ; perimeter
G1 X124.000 Y101.263 E9.68837 ; perimeter
G1 X126.971 Y101.654 E9.81311 ; perimeter
G1 X129.739 Y102.801 E9.93784 ; perimeter
G1 X132.029 Y104.558 E10.05798 ; perimeter
G1 X132.116 Y104.625 E10.06258 ; perimeter
G1 X133.941 Y107.002 E10.18731 ; perimeter
G1 X135.087 Y109.771 E10.31205 ; perimeter
G1 X135.478 Y112.742 E10.43679 ; perimeter
G1 X135.102 Y115.603 E10.55693 ; perimeter
G1 X135.087 Y115.713 E10.56152 ; perimeter
G1 X135.584 Y116.255 F7800.000 ; move inwards before travel
G1 F1800.000 E9.56152 ; retract
G1 Z1.400 ; lift plate during travel
G92 E0 ; reset extrusion distance
G1 X140.617 Y103.148 F7800.000 ; move to first perimeter point
G1 Z0.400 ; restore layer Z
G1 F1800.000 E1.00000 ; compensate retraction
G1 X142.534 Y107.776 F540.000 E1.20851 ; perimeter
G1 X143.188 Y112.742 E1.41702 ; perimeter
G1 X142.534 Y117.708 E1.62553 ; perimeter
G1 X140.597 Y122.383 E1.83621 ; perimeter
G1 X140.580 Y122.383 E1.83691 ; perimeter
G1 X137.568 Y126.309 E2.04291 ; perimeter
G1 X133.594 Y129.359 E2.25142 ; perimeter
G1 X128.966 Y131.275 E2.45993 ; perimeter
G1 X124.000 Y131.929 E2.66844 ; perimeter
G1 X119.034 Y131.275 E2.87695 ; perimeter
G1 X114.406 Y129.359 E3.08546 ; perimeter
G1 X110.432 Y126.309 E3.29397 ; perimeter
G1 X107.383 Y122.335 E3.50248 ; perimeter
G1 X105.466 Y117.708 E3.71100 ; perimeter
G1 X104.812 Y112.742 E3.91951 ; perimeter
G1 X105.466 Y107.776 E4.12802 ; perimeter
G1 X107.383 Y103.148 E4.33653 ; perimeter
G1 X110.432 Y99.174 E4.54504 ; perimeter
G1 X114.406 Y96.125 E4.75355 ; perimeter
G1 X119.034 Y94.208 E4.96206 ; perimeter
G1 X119.226 Y94.183 E4.97013 ; perimeter
G1 X124.000 Y93.554 E5.17057 ; perimeter
G1 X128.966 Y94.208 E5.37909 ; perimeter
G1 X133.594 Y96.125 E5.58760 ; perimeter
G1 X137.568 Y99.174 E5.79611 ; perimeter
G1 X140.550 Y103.060 E6.00003 ; perimeter
G1 X140.617 Y103.148 E6.00462 ; perimeter
G1 X141.260 Y102.777 F7800.000 ; move to first perimeter point
G1 X143.250 Y107.584 F540.000 E6.22119 ; perimeter
G1 X143.930 Y112.742 E6.43777 ; perimeter
G1 X143.250 Y117.900 E6.65434 ; perimeter
G1 X141.260 Y122.706 E6.87092 ; perimeter
G1 X138.092 Y126.834 E7.08749 ; perimeter
G1 X133.965 Y130.001 E7.30406 ; perimeter
G1 X129.158 Y131.992 E7.52064 ; perimeter
G1 X124.000 Y132.671 E7.73721 ; perimeter
G1 X118.842 Y131.992 E7.95379 ; perimeter
G1 X114.035 Y130.001 E8.17036 ; perimeter
G1 X109.908 Y126.834 E8.38694 ; perimeter
G1 X106.740 Y122.706 E8.60351 ; perimeter
G1 X104.750 Y117.900 E8.82008 ; perimeter
G1 X104.070 Y112.742 E9.03666 ; perimeter
G1 X104.750 Y107.584 E9.25323 ; perimeter
G1 X106.740 Y102.777 E9.46981 ; perimeter
G1 X109.908 Y98.649 E9.68638 ; perimeter
G1 X114.035 Y95.482 E9.90295 ; perimeter
G1 X118.842 Y93.491 E10.11953 ; perimeter
G1 X119.130 Y93.453 E10.13163 ; perimeter
G1 X124.000 Y92.812 E10.33610 ; perimeter
G1 X129.158 Y93.491 E10.55268 ; perimeter
G1 X133.965 Y95.482 E10.76925 ; perimeter
G1 X138.092 Y98.649 E10.98582 ; perimeter
G1 X141.192 Y102.689 E11.19781 ; perimeter
G1 X141.260 Y102.777 E11.20240 ; perimeter
G1 X141.902 Y102.406 F7800.000 ; move to first perimeter point
G1 X143.967 Y107.391 F540.000 E11.42704 ; perimeter
G1 X144.672 Y112.742 E11.65167 ; perimeter
G1 X143.967 Y118.092 E11.87631 ; perimeter
G1 X141.902 Y123.077 E12.10095 ; perimeter
G1 X138.617 Y127.359 E12.32558 ; perimeter
G1 X134.336 Y130.644 E12.55022 ; perimeter
G1 X129.350 Y132.709 E12.77486 ; perimeter
G1 X124.000 Y133.413 E12.99950 ; perimeter
G1 X118.650 Y132.709 E13.22413 ; perimeter
G1 X113.664 Y130.644 E13.44877 ; perimeter
G1 X109.383 Y127.359 E13.67341 ; perimeter
G1 X106.098 Y123.077 E13.89804 ; perimeter
G1 X104.033 Y118.092 E14.12268 ; perimeter
G1 X103.379 Y113.126 E14.33119 ; perimeter
G1 X103.328 Y112.742 E14.34732 ; perimeter
G1 X104.033 Y107.391 E14.57196 ; perimeter
G1 X106.098 Y102.406 E14.79659 ; perimeter
G1 X109.383 Y98.125 E15.02123 ; perimeter
G1 X113.664 Y94.840 E15.24587 ; perimeter
G1 X118.650 Y92.774 E15.47050 ; perimeter
G1 X119.034 Y92.724 E15.48663 ; perimeter
G1 X124.000 Y92.070 E15.69514 ; perimeter
G1 X129.350 Y92.774 E15.91978 ; perimeter
G1 X134.336 Y94.840 E16.14441 ; perimeter
G1 X138.617 Y98.125 E16.36905 ; perimeter
G1 X141.835 Y102.318 E16.58910 ; perimeter
G1 X141.902 Y102.406 E16.59369 ; perimeter
G1 X141.507 Y103.026 F7800.000 ; move inwards before travel
G1 F1800.000 E15.59369 ; retract
G1 Z1.400 ; lift plate during travel
G92 E0 ; reset extrusion distance
G1 X136.809 Y99.464 F7800.000 ; move to first fill point
G1 Z0.400 ; restore layer Z
G1 F1800.000 E1.00000 ; compensate retraction
G1 X137.278 Y99.933 F1080.000 E1.02769 ; fill
G1 F1800.000 E0.02769 ; retract
G1 Z1.400 ; lift plate during travel
G92 E0 ; reset extrusion distance
G1 X132.725 Y96.424 F7800.000 ; move to first fill point
G1 Z0.400 ; restore layer Z
G1 F1800.000 E1.00000 ; compensate retraction
G1 X140.318 Y104.017 F1080.000 E1.44836 ; fill
G1 X141.056 Y105.798 E1.52885 ; fill
G1 X130.943 Y95.686 E2.12595 ; fill
G1 X129.162 Y94.948 E2.20645 ; fill
G1 X141.794 Y107.579 E2.95229 ; fill
G1 X142.154 Y108.984 E3.01282 ; fill
G1 X127.758 Y94.587 E3.86287 ; fill
G1 X126.556 Y94.429 E3.91348 ; fill
G1 X142.312 Y110.185 E4.84382 ; fill
G1 X142.471 Y111.387 E4.89442 ; fill
G1 X125.355 Y94.271 E5.90506 ; fill
G1 F1800.000 E4.90506 ; retract
G1 Z1.400 ; lift plate during travel
G92 E0 ; reset extrusion distance
G1 X107.682 Y121.466 F7800.000 ; move to first fill point
G1 Z0.400 ; restore layer Z
G1 F1800.000 E1.00000 ; compensate retraction
G1 X115.275 Y129.060 F1080.000 E1.44836 ; fill
G1 X117.057 Y129.797 E1.52886 ; fill
G1 X106.944 Y119.685 E2.12596 ; fill
G1 X106.206 Y117.904 E2.20646 ; fill
G1 X118.838 Y130.535 E2.95231 ; fill
G1 X120.242 Y130.896 E3.01284 ; fill
G1 X105.846 Y116.500 E3.86289 ; fill
G1 X105.688 Y115.298 E3.91350 ; fill
G1 X121.444 Y131.054 E4.84384 ; fill
G1 X122.645 Y131.212 E4.89445 ; fill
G1 X105.529 Y114.096 E5.90508 ; fill
G1 X105.371 Y112.895 E5.95569 ; fill
G1 X112.569 Y120.093 E6.38071 ; fill
G1 X111.672 Y118.152 E6.47000 ; fill
G1 X105.402 Y111.883 E6.84017 ; fill
G1 X105.524 Y110.961 E6.87900 ; fill
G1 X110.983 Y116.420 E7.20137 ; fill
G1 X110.825 Y115.218 E7.25197 ; fill
G1 X105.645 Y110.039 E7.55783 ; fill
G1 X105.767 Y109.117 E7.59666 ; fill
G1 X110.667 Y114.017 E7.88601 ; fill
G1 X110.546 Y112.852 E7.93488 ; fill
G1 X105.888 Y108.194 E8.20993 ; fill
G1 X106.102 Y107.365 E8.24570 ; fill
G1 X110.667 Y111.930 E8.51531 ; fill
G1 X110.789 Y111.008 E8.55414 ; fill
G1 X106.407 Y106.627 E8.81286 ; fill
G1 X106.713 Y105.889 E8.84620 ; fill
G1 X110.910 Y110.086 E9.09405 ; fill
G1 X111.085 Y109.217 E9.13107 ; fill
G1 X107.018 Y105.151 E9.37116 ; fill
G1 X107.324 Y104.413 E9.40450 ; fill
G1 X111.390 Y108.479 E9.64460 ; fill
G1 X111.696 Y107.742 E9.67794 ; fill
G1 X107.630 Y103.675 E9.91803 ; fill
G1 X108.005 Y103.007 E9.95003 ; fill
G1 X112.001 Y107.004 E10.18602 ; fill
G1 X112.307 Y106.266 E10.21937 ; fill
G1 X108.458 Y102.416 E10.44666 ; fill
G1 X108.911 Y101.826 E10.47773 ; fill
G1 X112.732 Y105.647 E10.70334 ; fill
G1 X113.185 Y105.057 E10.73441 ; fill
G1 X109.364 Y101.236 E10.96003 ; fill
G1 X109.817 Y100.645 E10.99110 ; fill
G1 X113.638 Y104.466 E11.21671 ; fill
G1 X114.091 Y103.876 E11.24778 ; fill
G1 X110.270 Y100.055 E11.47340 ; fill
G1 X110.723 Y99.465 E11.50447 ; fill
G1 X114.544 Y103.285 E11.73008 ; fill
G1 X115.134 Y102.832 E11.76115 ; fill
G1 X111.313 Y99.011 E11.98676 ; fill
G1 X111.904 Y98.558 E12.01784 ; fill
G1 X115.725 Y102.379 E12.24345 ; fill
G1 X116.315 Y101.926 E12.27452 ; fill
G1 X112.494 Y98.105 E12.50014 ; fill
G1 X113.084 Y97.652 E12.53121 ; fill
G1 X116.905 Y101.473 E12.75682 ; fill
G1 X117.524 Y101.049 E12.78815 ; fill
G1 X113.675 Y97.199 E13.01544 ; fill
G1 X114.265 Y96.746 E13.04652 ; fill
G1 X118.262 Y100.743 E13.28251 ; fill
G1 X119.000 Y100.437 E13.31585 ; fill
G1 X114.934 Y96.371 E13.55595 ; fill
G1 X115.672 Y96.066 E13.58929 ; fill
G1 X119.738 Y100.132 E13.82938 ; fill
G1 X120.475 Y99.826 E13.86272 ; fill
G1 X116.409 Y95.760 E14.10281 ; fill
G1 X117.147 Y95.454 E14.13616 ; fill
