; generated by Slic3r 1.0.1 on 2014-06-19 at 08:45:37

; layer_height = 0.4
; perimeters = 3
; top_solid_layers = 3
; bottom_solid_layers = 3
; fill_density = 0.4
; perimeter_speed = 30
; infill_speed = 60
; travel_speed = 130
; nozzle_diameter = 0.5
; filament_diameter = 3
; extrusion_multiplier = 1
; perimeters extrusion width = 0.50mm
; infill extrusion width = 0.53mm
; solid infill extrusion width = 0.53mm
; top infill extrusion width = 0.53mm
; first layer extrusion width = 0.70mm

G21 ; set units to millimeters
M107
M104 S200 ; set temperature
G28 ; home all axes
G1 Z5 F5000 ; lift nozzle

M109 S200 ; wait for temperature to be reached
G90 ; use absolute coordinates
G92 E0
M82 ; use absolute distances for extrusion
G1 F1800.000 E-1.00000
G92 E0
G1 Z0.350 F7800.000
G1 X52.800 Y64.960 F7800.000
G1 E1.00000 F1800.000
G1 X53.950 Y64.350 E1.04235 F540.000
G1 X55.200 Y63.970 E1.08486
G1 X56.500 Y63.840 E1.12737
G1 X143.500 Y63.840 E3.95793
G1 X144.800 Y63.970 E4.00044
G1 X146.050 Y64.350 E4.04294
G1 X147.200 Y64.960 E4.08530
G1 X148.210 Y65.790 E4.12783
G1 X149.040 Y66.800 E4.17036
G1 X149.650 Y67.950 E4.21272
G1 X150.030 Y69.200 E4.25522
G1 X150.160 Y70.500 E4.29773
G1 X150.160 Y129.500 E6.21731
G1 X150.030 Y130.800 E6.25981
G1 X149.650 Y132.050 E6.30232
G1 X149.040 Y133.200 E6.34467
G1 X148.210 Y134.210 E6.38721
G1 X147.200 Y135.040 E6.42974
G1 X146.050 Y135.650 E6.47209
G1 X144.800 Y136.030 E6.51460
G1 X143.500 Y136.160 E6.55711
G1 X56.500 Y136.160 E9.38767
G1 X55.200 Y136.030 E9.43018
G1 X53.950 Y135.650 E9.47268
G1 X52.800 Y135.040 E9.51504
G1 X51.790 Y134.210 E9.55757
G1 X50.960 Y133.200 E9.60010
G1 X50.350 Y132.050 E9.64246
G1 X49.970 Y130.800 E9.68496
G1 X49.840 Y129.500 E9.72747
G1 X49.840 Y70.500 E11.64705
G1 X49.970 Y69.200 E11.68955
G1 X50.350 Y67.950 E11.73206
G1 X50.960 Y66.800 E11.77441
G1 X51.790 Y65.790 E11.81695
G1 X52.724 Y65.023 E11.85627
G1 F1800.000 E10.85627
G92 E0
G1 X60.736 Y118.648 F7800.000
G1 E1.00000 F1800.000
G1 X61.867 Y118.499 E1.03713 F540.000
G1 X61.867 Y118.595 E1.04028
G1 X62.264 Y118.648 E1.05331
G1 X62.977 Y118.943 E1.07839
G1 X63.588 Y119.412 E1.10347
G1 X64.057 Y120.023 E1.12855
G1 X64.352 Y120.736 E1.15363
G1 X64.453 Y121.500 E1.17871
G1 X64.352 Y122.264 E1.20379
G1 X64.057 Y122.977 E1.22888
G1 X63.588 Y123.588 E1.25396
G1 X62.977 Y124.057 E1.27904
G1 X62.264 Y124.352 E1.30412
G1 X61.500 Y124.453 E1.32920
G1 X60.736 Y124.352 E1.35428
G1 X60.023 Y124.057 E1.37936
G1 X59.412 Y123.588 E1.40444
G1 X58.943 Y122.977 E1.42953
G1 X58.648 Y122.264 E1.45461
G1 X58.547 Y121.500 E1.47969
G1 X58.558 Y121.415 E1.48247
G1 X58.648 Y120.736 E1.50477
G1 X58.943 Y120.023 E1.52985
G1 X59.412 Y119.412 E1.55493
G1 X60.023 Y118.943 E1.58001
G1 X60.645 Y118.685 E1.60189
G1 X60.933 Y118.021 F7800.000
G1 F1800.000 E0.60189
G92 E0
G1 X61.500 Y81.453 F7800.000
G1 E1.00000 F1800.000
G1 X60.736 Y81.352 E1.02508 F540.000
G1 X60.023 Y81.057 E1.05016
G1 X59.412 Y80.588 E1.07524
G1 X58.943 Y79.977 E1.10032
G1 X58.910 Y79.897 E1.10311
G1 X58.648 Y79.264 E1.12541
G1 X58.547 Y78.500 E1.15049
G1 X58.648 Y77.736 E1.17557
G1 X58.680 Y77.657 E1.17836
G1 X58.943 Y77.023 E1.20065
G1 X59.412 Y76.412 E1.22573
G1 X60.023 Y75.943 E1.25081
G1 X60.736 Y75.648 E1.27589
G1 X61.500 Y75.547 E1.30097
G1 X62.264 Y75.648 E1.32606
G1 X62.977 Y75.943 E1.35114
G1 X63.588 Y76.412 E1.37622
G1 X64.057 Y77.023 E1.40130
G1 X64.352 Y77.736 E1.42638
G1 X64.453 Y78.500 E1.45146
G1 X64.352 Y79.264 E1.47654
G1 X64.057 Y79.977 E1.50162
G1 X63.588 Y80.588 E1.52670
G1 X62.977 Y81.057 E1.55179
G1 X62.264 Y81.352 E1.57687
G1 X61.598 Y81.440 E1.59874
G1 X61.147 Y82.007 F7800.000
G1 X87.836 Y83.836 F7800.000
G1 X120.164 Y83.836 E2.65055 F540.000
G1 X120.164 Y116.164 E3.70236
G1 X87.836 Y116.164 E4.75417
G1 X87.836 Y83.934 E5.80277
G1 X88.493 Y84.493 F7800.000
G1 X119.507 Y84.493 E6.81182 F540.000
G1 X119.507 Y115.507 E7.82087
G1 X88.493 Y115.507 E8.82993
G1 X88.493 Y84.591 E9.83577
G1 X89.150 Y85.150 F7800.000
G1 X118.850 Y85.150 E10.80207 F378.000
G1 X118.850 Y114.850 E11.76836
G1 X89.150 Y114.850 E12.73466
G1 X89.150 Y85.249 E13.69775
G1 X89.150 Y84.493 F7800.000
G1 X135.547 Y78.500 F7800.000
G1 X135.648 Y77.736 E13.72283 F540.000
G1 X135.680 Y77.657 E13.72562
G1 X135.943 Y77.023 E13.74791
G1 X136.412 Y76.412 E13.77299
G1 X137.023 Y75.943 E13.79807
G1 X137.657 Y75.680 E13.82037
G1 X137.736 Y75.648 E13.82315
G1 X138.500 Y75.547 E13.84824
G1 X139.264 Y75.648 E13.87332
G1 X139.977 Y75.943 E13.89840
G1 X140.588 Y76.412 E13.92348
G1 X141.057 Y77.023 E13.94856
G1 X141.352 Y77.736 E13.97364
G1 X141.453 Y78.500 E13.99872
G1 X141.352 Y79.264 E14.02380
G1 X141.057 Y79.977 E14.04889
G1 X140.588 Y80.588 E14.07397
G1 X139.977 Y81.057 E14.09905
G1 X139.264 Y81.352 E14.12413
G1 X138.500 Y81.453 E14.14921
G1 X137.736 Y81.352 E14.17429
G1 X137.023 Y81.057 E14.19937
G1 X136.412 Y80.588 E14.22445
G1 X135.943 Y79.977 E14.24953
G1 X135.648 Y79.264 E14.27462
G1 X135.560 Y78.598 E14.29649
G1 X134.993 Y78.147 F7800.000
G1 F1800.000 E13.29649
G92 E0
G1 X138.867 Y118.499 F7800.000
G1 E1.00000 F1800.000
G1 X138.867 Y118.595 E1.00315 F540.000
G1 X139.264 Y118.648 E1.01618
G1 X139.977 Y118.943 E1.04126
G1 X140.588 Y119.412 E1.06634
G1 X141.057 Y120.023 E1.09142
G1 X141.352 Y120.736 E1.11650
G1 X141.453 Y121.500 E1.14158
G1 X141.352 Y122.264 E1.16666
G1 X141.057 Y122.977 E1.19175
G1 X140.588 Y123.588 E1.21683
G1 X139.977 Y124.057 E1.24191
G1 X139.264 Y124.352 E1.26699
G1 X138.500 Y124.453 E1.29207
G1 X137.736 Y124.352 E1.31715
G1 X137.023 Y124.057 E1.34223
G1 X136.412 Y123.588 E1.36731
G1 X135.943 Y122.977 E1.39240
G1 X135.648 Y122.264 E1.41748
G1 X135.547 Y121.500 E1.44256
G1 X135.648 Y120.736 E1.46764
G1 X135.680 Y120.657 E1.47043
G1 X135.943 Y120.023 E1.49272
G1 X136.412 Y119.412 E1.51780
G1 X137.023 Y118.943 E1.54288
G1 X137.736 Y118.648 E1.56796
G1 X138.769 Y118.512 E1.60189
G1 X138.964 Y118.494 F7800.000
G1 X140.181 Y117.605 F7800.000
G1 X140.181 Y117.000 E1.62157 F540.000
G1 X137.393 Y117.367 E1.71308
G1 X136.361 Y117.795 E1.74942
G1 X135.475 Y118.475 E1.78576
G1 X134.795 Y119.361 E1.82210
G1 X134.367 Y120.393 E1.85844
G1 X134.221 Y121.500 E1.89478
G1 X134.367 Y122.607 E1.93112
G1 X134.795 Y123.639 E1.96745
G1 X135.475 Y124.525 E2.00379
G1 X136.361 Y125.205 E2.04013
G1 X137.393 Y125.633 E2.07647
G1 X138.500 Y125.779 E2.11281
G1 X139.607 Y125.633 E2.14915
G1 X140.639 Y125.205 E2.18549
G1 X141.836 Y124.287 E2.23456
G1 X141.836 Y127.836 E2.35002
G1 X58.164 Y127.836 E5.07229
G1 X58.164 Y124.287 E5.18775
G1 X59.361 Y125.205 E5.23682
G1 X60.393 Y125.633 E5.27316
G1 X61.500 Y125.779 E5.30950
G1 X62.607 Y125.633 E5.34584
G1 X63.639 Y125.205 E5.38218
G1 X64.525 Y124.525 E5.41852
G1 X65.205 Y123.639 E5.45486
G1 X65.633 Y122.607 E5.49120
G1 X65.779 Y121.500 E5.52754
G1 X65.633 Y120.393 E5.56387
G1 X65.205 Y119.361 E5.60021
G1 X64.525 Y118.475 E5.63655
G1 X63.639 Y117.795 E5.67289
G1 X63.181 Y117.605 E5.68902
G1 X63.181 Y117.000 E5.70870
G1 X60.393 Y117.367 E5.80021
G1 X59.361 Y117.795 E5.83655
G1 X58.164 Y118.713 E5.88562
G1 X58.164 Y115.164 E6.00108
G1 X68.164 Y115.164 E6.32643
G1 X68.164 Y84.836 E7.31317
G1 X58.164 Y84.836 E7.63852
G1 X58.164 Y81.287 E7.75398
G1 X59.361 Y82.205 E7.80305
G1 X60.393 Y82.633 E7.83939
G1 X61.500 Y82.779 E7.87573
G1 X62.607 Y82.633 E7.91207
G1 X63.639 Y82.205 E7.94841
G1 X64.525 Y81.525 E7.98475
G1 X65.205 Y80.639 E8.02109
G1 X65.633 Y79.607 E8.05743
G1 X65.779 Y78.500 E8.09377
G1 X65.633 Y77.393 E8.13011
G1 X65.205 Y76.361 E8.16644
G1 X64.525 Y75.475 E8.20278
G1 X63.639 Y74.795 E8.23912
G1 X63.208 Y74.616 E8.25432
G1 X63.208 Y74.446 E8.25984
G1 X61.500 Y74.221 E8.31588
G1 X60.393 Y74.367 E8.35222
G1 X59.361 Y74.795 E8.38856
G1 X58.164 Y75.713 E8.43763
G1 X58.164 Y72.164 E8.55309
G1 X141.836 Y72.164 E11.27537
G1 X141.836 Y75.713 E11.39082
G1 X140.639 Y74.795 E11.43989
G1 X140.208 Y74.616 E11.45509
G1 X140.208 Y74.446 E11.46061
G1 X138.500 Y74.221 E11.51665
G1 X137.393 Y74.367 E11.55299
G1 X136.361 Y74.795 E11.58933
G1 X135.475 Y75.475 E11.62567
G1 X134.795 Y76.361 E11.66201
G1 X134.466 Y77.154 E11.68993
G1 X134.367 Y77.393 E11.69835
G1 X134.221 Y78.500 E11.73469
G1 X134.367 Y79.607 E11.77103
G1 X134.795 Y80.639 E11.80737
G1 X135.475 Y81.525 E11.84370
G1 X136.361 Y82.205 E11.88004
G1 X137.393 Y82.633 E11.91638
G1 X138.500 Y82.779 E11.95272
G1 X139.607 Y82.633 E11.98906
G1 X140.639 Y82.205 E12.02540
G1 X141.836 Y81.287 E12.07447
G1 X141.836 Y84.836 E12.18993
G1 X131.836 Y84.836 E12.51528
G1 X131.836 Y115.164 E13.50202
G1 X141.836 Y115.164 E13.82737
G1 X141.836 Y118.713 E13.94283
G1 X140.639 Y117.795 E13.99190
G1 X140.272 Y117.643 E14.00482
G1 X140.149 Y118.303 F7800.000
G1 X139.524 Y118.044 E14.02682 F540.000
G1 X139.524 Y117.749 E14.03640
G1 X137.564 Y118.007 E14.10072
G1 X136.692 Y118.369 E14.13143
G1 X135.943 Y118.943 E14.16215
G1 X135.369 Y119.692 E14.19286
G1 X135.007 Y120.564 E14.22357
G1 X134.884 Y121.500 E14.25428
G1 X135.007 Y122.436 E14.28499
G1 X135.369 Y123.308 E14.31570
G1 X135.943 Y124.057 E14.34641
G1 X136.692 Y124.631 E14.37712
G1 X137.564 Y124.993 E14.40783
G1 X138.500 Y125.116 E14.43854
G1 X139.436 Y124.993 E14.46925
G1 X140.308 Y124.631 E14.49996
G1 X141.057 Y124.057 E14.53067
G1 X141.631 Y123.308 E14.56138
G1 X142.170 Y122.007 E14.60721
G1 X142.493 Y122.071 E14.61791
G1 X142.493 Y128.493 E14.82685
G1 X57.507 Y128.493 E17.59189
G1 X57.507 Y122.071 E17.80084
G1 X57.830 Y122.007 E17.81154
G1 X58.369 Y123.308 E17.85736
G1 X58.943 Y124.057 E17.88807
G1 X59.692 Y124.631 E17.91878
G1 X60.564 Y124.993 E17.94949
G1 X61.500 Y125.116 E17.98021
G1 X62.436 Y124.993 E18.01092
G1 X63.308 Y124.631 E18.04162
G1 X64.057 Y124.057 E18.07234
G1 X64.631 Y123.308 E18.10305
G1 X64.993 Y122.436 E18.13376
G1 X65.116 Y121.500 E18.16447
G1 X64.993 Y120.564 E18.19517
G1 X64.631 Y119.692 E18.22589
G1 X64.057 Y118.943 E18.25660
G1 X63.308 Y118.369 E18.28731
G1 X62.524 Y118.044 E18.31490
G1 X62.524 Y117.749 E18.32449
G1 X60.564 Y118.007 E18.38881
G1 X59.692 Y118.369 E18.41952
G1 X58.943 Y118.943 E18.45023
G1 X58.369 Y119.692 E18.48094
G1 X57.830 Y120.993 E18.52677
G1 X57.507 Y120.929 E18.53747
G1 X57.507 Y114.507 E18.74642
G1 X67.507 Y114.507 E19.07177
G1 X67.507 Y85.493 E20.01575
G1 X57.507 Y85.493 E20.34111
G1 X57.507 Y79.071 E20.55006
G1 X57.830 Y79.007 E20.56075
G1 X58.369 Y80.308 E20.60658
G1 X58.943 Y81.057 E20.63729
G1 X59.692 Y81.631 E20.66800
G1 X60.564 Y81.993 E20.69871
G1 X61.500 Y82.116 E20.72942
G1 X62.436 Y81.993 E20.76013
G1 X63.308 Y81.631 E20.79084
G1 X64.057 Y81.057 E20.82155
G1 X64.631 Y80.308 E20.85226
G1 X64.993 Y79.436 E20.88297
G1 X65.116 Y78.500 E20.91368
G1 X64.993 Y77.564 E20.94439
G1 X64.631 Y76.692 E20.97510
G1 X64.057 Y75.943 E21.00582
G1 X63.308 Y75.369 E21.03653
G1 X62.551 Y75.055 E21.06319
G1 X62.551 Y75.023 E21.06424
G1 X61.500 Y74.884 E21.09873
G1 X60.564 Y75.007 E21.12944
G1 X59.692 Y75.369 E21.16015
G1 X58.943 Y75.943 E21.19086
G1 X58.369 Y76.692 E21.22157
G1 X57.830 Y77.993 E21.26740
G1 X57.507 Y77.929 E21.27810
G1 X57.507 Y71.507 E21.48704
G1 X142.493 Y71.507 E24.25208
G1 X142.493 Y77.929 E24.46103
G1 X142.170 Y77.993 E24.47173
G1 X141.631 Y76.692 E24.51755
G1 X141.057 Y75.943 E24.54826
G1 X140.308 Y75.369 E24.57897
G1 X139.551 Y75.055 E24.60564
G1 X139.551 Y75.023 E24.60669
G1 X138.500 Y74.884 E24.64118
G1 X137.564 Y75.007 E24.67189
G1 X137.405 Y75.073 E24.67749
G1 X136.692 Y75.369 E24.70260
G1 X135.943 Y75.943 E24.73331
G1 X135.369 Y76.692 E24.76402
G1 X135.073 Y77.405 E24.78913
G1 X135.007 Y77.564 E24.79473
G1 X134.884 Y78.500 E24.82544
G1 X135.007 Y79.436 E24.85615
G1 X135.369 Y80.308 E24.88686
G1 X135.943 Y81.057 E24.91757
G1 X136.692 Y81.631 E24.94828
G1 X137.564 Y81.993 E24.97899
G1 X138.500 Y82.116 E25.00970
G1 X139.436 Y81.993 E25.04041
G1 X140.308 Y81.631 E25.07112
G1 X141.057 Y81.057 E25.10183
G1 X141.631 Y80.308 E25.13254
G1 X142.170 Y79.007 E25.17837
G1 X142.493 Y79.071 E25.18907
G1 X142.493 Y85.493 E25.39802
G1 X132.493 Y85.493 E25.72337
G1 X132.493 Y114.507 E26.66735
G1 X142.493 Y114.507 E26.99270
G1 X142.493 Y120.929 E27.20165
G1 X142.170 Y120.993 E27.21235
G1 X141.631 Y119.692 E27.25818
G1 X141.057 Y118.943 E27.28889
G1 X140.308 Y118.369 E27.31960
G1 X140.240 Y118.340 E27.32200
G1 X143.150 Y113.850 F7800.000
G1 X143.150 Y129.150 E27.81978 F378.000
G1 X56.850 Y129.150 E30.62757
G1 X56.850 Y113.850 E31.12536
G1 X66.850 Y113.850 E31.45071
G1 X66.850 Y86.150 E32.35194
G1 X56.850 Y86.150 E32.67729
G1 X56.850 Y70.850 E33.17508
G1 X143.150 Y70.850 E35.98287
G1 X143.150 Y86.150 E36.48066
G1 X133.150 Y86.150 E36.80601
G1 X133.150 Y113.850 E37.70724
G1 X143.051 Y113.850 E38.02938
G1 X142.821 Y114.419 F7800.000
G1 X139.889 Y116.048 F7800.000
G1 X139.472 Y115.631 E38.04869 F1080.000
G1 X138.537 Y115.631 E38.07930
G1 X139.523 Y116.616 E38.12494
G1 X138.697 Y116.725 E38.15222
G1 X137.602 Y115.631 E38.20290
G1 X136.667 Y115.631 E38.23350
G1 X137.870 Y116.834 E38.28921
G1 X137.090 Y116.988 E38.31527
G1 X135.732 Y115.631 E38.37811
G1 X134.797 Y115.631 E38.40872
G1 X136.428 Y117.262 E38.48424
G1 X135.839 Y117.607 E38.50661
G1 X133.862 Y115.631 E38.59812
G1 X132.927 Y115.631 E38.62873
G1 X135.310 Y118.013 E38.73903
G1 X134.865 Y118.503 E38.76070
G1 X120.631 Y104.269 E39.41966
G1 X120.631 Y103.334 E39.45027
G1 X131.369 Y114.073 E39.94742
G1 X131.369 Y113.138 E39.97802
G1 X120.631 Y102.399 E40.47517
G1 X120.631 Y101.464 E40.50578
G1 X131.369 Y112.203 E41.00293
G1 X131.369 Y111.268 E41.03354
G1 X120.631 Y100.529 E41.53069
G1 X120.631 Y99.594 E41.56129
G1 X131.369 Y110.333 E42.05844
G1 X131.369 Y109.398 E42.08905
G1 X120.631 Y98.659 E42.58620
G1 X120.631 Y97.724 E42.61680
G1 X131.369 Y108.463 E43.11395
G1 X131.369 Y107.528 E43.14456
G1 X120.631 Y96.789 E43.64171
G1 X120.631 Y95.854 E43.67231
G1 X131.369 Y106.593 E44.16946
G1 X131.369 Y105.658 E44.20007
G1 X120.631 Y94.919 E44.69722
G1 X120.631 Y93.984 E44.72782
G1 X131.369 Y104.723 E45.22497
G1 X131.369 Y103.788 E45.25558
G1 X120.631 Y93.049 E45.75273
G1 X120.631 Y92.114 E45.78334
G1 X131.369 Y102.853 E46.28049
G1 X131.369 Y101.918 E46.31109
G1 X120.631 Y91.179 E46.80824
G1 X120.631 Y90.244 E46.83885
G1 X131.369 Y100.983 E47.33600
G1 X131.369 Y100.048 E47.36660
G1 X120.631 Y89.310 E47.86375
G1 X120.631 Y88.375 E47.89436
G1 X131.369 Y99.114 E48.39151
G1 X131.369 Y98.179 E48.42211
G1 X120.631 Y87.440 E48.91926
G1 X120.631 Y86.505 E48.94987
G1 X131.369 Y97.244 E49.44702
G1 X131.369 Y96.309 E49.47762
G1 X120.631 Y85.570 E49.97477
G1 X120.631 Y84.635 E50.00538
G1 X131.369 Y95.374 E50.50253
G1 F1800.000 E49.50253
G92 E0
G1 X136.547 Y82.787 F7800.000
G1 E1.00000 F1800.000
G1 X138.129 Y84.369 E1.07324 F1080.000
G1 X139.064 Y84.369 E1.10385
G1 X137.859 Y83.165 E1.15963
G1 X138.835 Y83.205 E1.19158
G1 X139.999 Y84.369 E1.24550
G1 X140.934 Y84.369 E1.27610
G1 X139.661 Y83.096 E1.33505
G1 X140.336 Y82.836 E1.35873
G1 X141.369 Y83.870 E1.40659
G1 X141.369 Y82.935 E1.43720
G1 X140.972 Y82.538 E1.45559
G1 X141.369 Y72.650 F7800.000
G1 X141.350 Y72.631 E1.45651 F1080.000
G1 X140.415 Y72.631 E1.48711
G1 X141.369 Y73.585 E1.53131
G1 X141.369 Y74.520 E1.56192
G1 X139.480 Y72.631 E1.64941
G1 X138.545 Y72.631 E1.68001
G1 X139.842 Y73.928 E1.74007
G1 X138.765 Y73.786 E1.77562
G1 X137.610 Y72.631 E1.82911
G1 X136.675 Y72.631 E1.85971
G1 X137.877 Y73.833 E1.91538
G1 X137.095 Y73.986 E1.94148
G1 X135.740 Y72.631 E2.00421
G1 X134.805 Y72.631 E2.03482
G1 X136.434 Y74.260 E2.11023
G1 X135.843 Y74.604 E2.13261
G1 X133.870 Y72.631 E2.22397
G1 X132.935 Y72.631 E2.25457
G1 X135.314 Y75.010 E2.36472
G1 X134.868 Y75.499 E2.38639
G1 X132.000 Y72.631 E2.51917
G1 X131.065 Y72.631 E2.54977
G1 X134.462 Y76.028 E2.70704
G1 X134.164 Y76.664 E2.73006
G1 X130.130 Y72.631 E2.91681
G1 X129.195 Y72.631 E2.94741
G1 X133.904 Y77.339 E3.16540
G1 X133.795 Y78.165 E3.19268
G1 X128.260 Y72.631 E3.44891
G1 X127.325 Y72.631 E3.47951
G1 X133.835 Y79.141 E3.78089
G1 X134.213 Y80.453 E3.82559
G1 X126.390 Y72.631 E4.18771
G1 X125.455 Y72.631 E4.21832
G1 X137.194 Y84.369 E4.76176
G1 X136.259 Y84.369 E4.79237
G1 X124.520 Y72.631 E5.33581
G1 X123.586 Y72.631 E5.36642
G1 X135.324 Y84.369 E5.90986
