; generated by Slic3r 1.0.1 on 2014-06-19 at 19:55:37

; layer_height = 0.4
; perimeters = 3
; top_solid_layers = 3
; bottom_solid_layers = 3
; fill_density = 0.4
; perimeter_speed = 30
; infill_speed = 60
; travel_speed = 130
; nozzle_diameter = 0.5
; filament_diameter = 3
; extrusion_multiplier = 1
; perimeters extrusion width = 0.50mm
; infill extrusion width = 0.53mm
; solid infill extrusion width = 0.53mm
; top infill extrusion width = 0.53mm
; first layer extrusion width = 0.70mm

G21 ; set units to millimeters
M190 S60 ; wait for bed temperature to be reached
M104 S185 ; set temperature
G28 ; home all axes
G1 Z5 F5000 ; lift nozzle
G92 E0 ;reset extruder
M109 S185 ; wait for temperature to be reached
G90 ; use absolute coordinates
G92 E0 ; reset extrusion distance
M82 ; use absolute distances for extrusion
G1 F1800.000 E-1.00000 ; retract
G1 Z0.850 F7800.000 ; move to next layer (0) and lift
G92 E0 ; reset extrusion distance
G1 X44.800 Y53.960 F7800.000 ; move to first skirt point
G1 Z0.350 F7800.000 ; restore layer Z
G1 E1.00000 F1800.000 ; compensate retraction
G1 X45.950 Y53.350 E1.04235 F540.000 ; skirt
G1 X47.200 Y52.970 E1.08486 ; skirt
G1 X48.500 Y52.840 E1.12737 ; skirt
G1 X151.500 Y52.840 E4.47849 ; skirt
G1 X152.800 Y52.970 E4.52100 ; skirt
G1 X154.050 Y53.350 E4.56351 ; skirt
G1 X155.200 Y53.960 E4.60586 ; skirt
G1 X156.210 Y54.790 E4.64839 ; skirt
G1 X157.040 Y55.800 E4.69093 ; skirt
G1 X157.650 Y56.950 E4.73328 ; skirt
G1 X158.030 Y58.200 E4.77579 ; skirt
G1 X158.160 Y59.500 E4.81829 ; skirt
G1 X158.160 Y118.500 E6.73787 ; skirt
G1 X158.030 Y119.800 E6.78038 ; skirt
G1 X157.650 Y121.050 E6.82288 ; skirt
G1 X157.040 Y122.200 E6.86524 ; skirt
G1 X156.210 Y123.210 E6.90777 ; skirt
G1 X155.200 Y124.040 E6.95030 ; skirt
G1 X154.050 Y124.650 E6.99266 ; skirt
G1 X152.800 Y125.030 E7.03516 ; skirt
G1 X151.500 Y125.160 E7.07767 ; skirt
G1 X48.500 Y125.160 E10.42880 ; skirt
G1 X47.200 Y125.030 E10.47130 ; skirt
G1 X45.950 Y124.650 E10.51381 ; skirt
G1 X44.800 Y124.040 E10.55616 ; skirt
G1 X43.790 Y123.210 E10.59870 ; skirt
G1 X42.960 Y122.200 E10.64123 ; skirt
G1 X42.350 Y121.050 E10.68358 ; skirt
G1 X41.970 Y119.800 E10.72609 ; skirt
G1 X41.840 Y118.500 E10.76860 ; skirt
G1 X41.840 Y59.500 E12.68817 ; skirt
G1 X41.970 Y58.200 E12.73068 ; skirt
G1 X42.350 Y56.950 E12.77319 ; skirt
G1 X42.960 Y55.800 E12.81554 ; skirt
G1 X43.790 Y54.790 E12.85807 ; skirt
G1 X44.724 Y54.023 E12.89740 ; skirt
G1 F1800.000 E11.89740 ; retract
G1 Z0.850 F7800.000 ; lift plate during travel
G92 E0 ; reset extrusion distance
G1 X52.736 Y107.648 F7800.000 ; move to first perimeter point
G1 Z0.350 F7800.000 ; restore layer Z
G1 E1.00000 F1800.000 ; compensate retraction
G1 X53.867 Y107.499 E1.03713 F324.000 ; perimeter
G1 X53.867 Y107.595 E1.04028 ; perimeter
G1 X54.264 Y107.648 E1.05331 ; perimeter
G1 X54.977 Y107.943 E1.07839 ; perimeter
G1 X55.588 Y108.412 E1.10347 ; perimeter
G1 X56.057 Y109.023 E1.12855 ; perimeter
G1 X56.352 Y109.736 E1.15363 ; perimeter
G1 X56.453 Y110.500 E1.17871 ; perimeter
G1 X56.352 Y111.264 E1.20379 ; perimeter
G1 X56.057 Y111.977 E1.22888 ; perimeter
G1 X55.588 Y112.588 E1.25396 ; perimeter
G1 X54.977 Y113.057 E1.27904 ; perimeter
G1 X54.264 Y113.352 E1.30412 ; perimeter
G1 X53.500 Y113.453 E1.32920 ; perimeter
G1 X52.736 Y113.352 E1.35428 ; perimeter
G1 X52.023 Y113.057 E1.37936 ; perimeter
G1 X51.412 Y112.588 E1.40444 ; perimeter
G1 X51.360 Y112.520 E1.40723 ; perimeter
G1 X50.943 Y111.977 E1.42953 ; perimeter
G1 X50.648 Y111.264 E1.45461 ; perimeter
G1 X50.547 Y110.500 E1.47969 ; perimeter
G1 X50.558 Y110.415 E1.48247 ; perimeter
G1 X50.648 Y109.736 E1.50477 ; perimeter
G1 X50.943 Y109.023 E1.52985 ; perimeter
G1 X51.412 Y108.412 E1.55493 ; perimeter
G1 X52.023 Y107.943 E1.58001 ; perimeter
G1 X52.645 Y107.685 E1.60189 ; perimeter
G1 X52.933 Y107.021 F7800.000 ; move inwards before travel
G1 F1800.000 E0.60189 ; retract
G1 Z0.850 F7800.000 ; lift plate during travel
G92 E0 ; reset extrusion distance
G1 X53.500 Y70.453 F7800.000 ; move to first perimeter point
G1 Z0.350 F7800.000 ; restore layer Z
G1 E1.00000 F1800.000 ; compensate retraction
G1 X52.736 Y70.352 E1.02508 F324.000 ; perimeter
G1 X52.023 Y70.057 E1.05016 ; perimeter
G1 X51.412 Y69.588 E1.07524 ; perimeter
G1 X50.943 Y68.977 E1.10032 ; perimeter
G1 X50.648 Y68.264 E1.12541 ; perimeter
G1 X50.547 Y67.500 E1.15049 ; perimeter
G1 X50.648 Y66.736 E1.17557 ; perimeter
G1 X50.680 Y66.657 E1.17836 ; perimeter
G1 X50.943 Y66.023 E1.20065 ; perimeter
G1 X51.412 Y65.412 E1.22573 ; perimeter
G1 X52.023 Y64.943 E1.25081 ; perimeter
G1 X52.657 Y64.680 E1.27311 ; perimeter
G1 X52.736 Y64.648 E1.27589 ; perimeter
G1 X53.500 Y64.547 E1.30097 ; perimeter
G1 X54.264 Y64.648 E1.32606 ; perimeter
G1 X54.977 Y64.943 E1.35114 ; perimeter
G1 X55.588 Y65.412 E1.37622 ; perimeter
G1 X56.057 Y66.023 E1.40130 ; perimeter
G1 X56.352 Y66.736 E1.42638 ; perimeter
G1 X56.453 Y67.500 E1.45146 ; perimeter
G1 X56.352 Y68.264 E1.47654 ; perimeter
G1 X56.057 Y68.977 E1.50162 ; perimeter
G1 X55.588 Y69.588 E1.52670 ; perimeter
G1 X54.977 Y70.057 E1.55179 ; perimeter
G1 X54.264 Y70.352 E1.57687 ; perimeter
G1 X53.598 Y70.440 E1.59874 ; perimeter
G1 X53.147 Y71.007 F7800.000 ; move inwards before travel
G1 X95.836 Y72.836 F7800.000 ; move to first perimeter point
G1 X128.164 Y72.836 E2.65055 F540.000 ; perimeter
G1 X128.164 Y105.164 E3.70236 ; perimeter
G1 X95.836 Y105.164 E4.75417 ; perimeter
G1 X95.836 Y72.934 E5.80277 ; perimeter
G1 X96.493 Y73.493 F7800.000 ; move to first perimeter point
G1 X127.507 Y73.493 E6.81182 F540.000 ; perimeter
G1 X127.507 Y104.507 E7.82087 ; perimeter
G1 X96.493 Y104.507 E8.82993 ; perimeter
G1 X96.493 Y73.591 E9.83577 ; perimeter
G1 X97.150 Y74.150 F7800.000 ; move to first perimeter point
G1 X126.850 Y74.150 E10.80207 F378.000 ; perimeter
G1 X126.850 Y103.850 E11.76836 ; perimeter
G1 X97.150 Y103.850 E12.73466 ; perimeter
G1 X97.150 Y74.249 E13.69775 ; perimeter
G1 X97.150 Y73.493 F7800.000 ; move inwards before travel
G1 X143.547 Y67.500 F7800.000 ; move to first perimeter point
G1 X143.648 Y66.736 E13.72283 F324.000 ; perimeter
G1 X143.680 Y66.657 E13.72562 ; perimeter
G1 X143.943 Y66.023 E13.74791 ; perimeter
G1 X144.412 Y65.412 E13.77299 ; perimeter
G1 X145.023 Y64.943 E13.79807 ; perimeter
G1 X145.657 Y64.680 E13.82037 ; perimeter
G1 X145.736 Y64.648 E13.82315 ; perimeter
G1 X146.500 Y64.547 E13.84824 ; perimeter
G1 X147.264 Y64.648 E13.87332 ; perimeter
G1 X147.977 Y64.943 E13.89840 ; perimeter
G1 X148.588 Y65.412 E13.92348 ; perimeter
G1 X149.057 Y66.023 E13.94856 ; perimeter
G1 X149.352 Y66.736 E13.97364 ; perimeter
G1 X149.453 Y67.500 E13.99872 ; perimeter
G1 X149.352 Y68.264 E14.02380 ; perimeter
G1 X149.057 Y68.977 E14.04889 ; perimeter
G1 X148.588 Y69.588 E14.07397 ; perimeter
G1 X147.977 Y70.057 E14.09905 ; perimeter
G1 X147.264 Y70.352 E14.12413 ; perimeter
G1 X146.500 Y70.453 E14.14921 ; perimeter
G1 X145.736 Y70.352 E14.17429 ; perimeter
G1 X145.023 Y70.057 E14.19937 ; perimeter
G1 X144.412 Y69.588 E14.22445 ; perimeter
G1 X143.943 Y68.977 E14.24953 ; perimeter
G1 X143.648 Y68.264 E14.27462 ; perimeter
G1 X143.560 Y67.598 E14.29649 ; perimeter
G1 X142.993 Y67.147 F7800.000 ; move inwards before travel
G1 F1800.000 E13.29649 ; retract
G1 Z0.850 F7800.000 ; lift plate during travel
G92 E0 ; reset extrusion distance
G1 X146.867 Y107.499 F7800.000 ; move to first perimeter point
G1 Z0.350 F7800.000 ; restore layer Z
G1 E1.00000 F1800.000 ; compensate retraction
G1 X146.867 Y107.595 E1.00315 F324.000 ; perimeter
G1 X147.264 Y107.648 E1.01618 ; perimeter
G1 X147.977 Y107.943 E1.04126 ; perimeter
G1 X148.588 Y108.412 E1.06634 ; perimeter
G1 X149.057 Y109.023 E1.09142 ; perimeter
G1 X149.352 Y109.736 E1.11650 ; perimeter
G1 X149.453 Y110.500 E1.14158 ; perimeter
G1 X149.352 Y111.264 E1.16666 ; perimeter
G1 X149.057 Y111.977 E1.19175 ; perimeter
G1 X148.588 Y112.588 E1.21683 ; perimeter
G1 X147.977 Y113.057 E1.24191 ; perimeter
G1 X147.264 Y113.352 E1.26699 ; perimeter
G1 X146.500 Y113.453 E1.29207 ; perimeter
G1 X145.736 Y113.352 E1.31715 ; perimeter
G1 X145.023 Y113.057 E1.34223 ; perimeter
G1 X144.412 Y112.588 E1.36731 ; perimeter
G1 X143.943 Y111.977 E1.39240 ; perimeter
G1 X143.648 Y111.264 E1.41748 ; perimeter
G1 X143.547 Y110.500 E1.44256 ; perimeter
G1 X143.648 Y109.736 E1.46764 ; perimeter
G1 X143.680 Y109.657 E1.47043 ; perimeter
G1 X143.943 Y109.023 E1.49272 ; perimeter
G1 X144.412 Y108.412 E1.51780 ; perimeter
G1 X145.023 Y107.943 E1.54288 ; perimeter
G1 X145.736 Y107.648 E1.56796 ; perimeter
G1 X146.769 Y107.512 E1.60189 ; perimeter
G1 X146.964 Y107.494 F7800.000 ; move inwards before travel
G1 X148.181 Y106.605 F7800.000 ; move to first perimeter point
G1 X148.181 Y106.000 E1.62157 F540.000 ; perimeter
G1 X145.393 Y106.367 E1.71308 ; perimeter
G1 X144.361 Y106.795 E1.74942 ; perimeter
G1 X143.475 Y107.475 E1.78576 ; perimeter
G1 X142.795 Y108.361 E1.82210 ; perimeter
G1 X142.367 Y109.393 E1.85844 ; perimeter
G1 X142.221 Y110.500 E1.89478 ; perimeter
G1 X142.367 Y111.607 E1.93112 ; perimeter
G1 X142.795 Y112.639 E1.96745 ; perimeter
G1 X143.475 Y113.525 E2.00379 ; perimeter
G1 X144.361 Y114.205 E2.04013 ; perimeter
G1 X145.393 Y114.633 E2.07647 ; perimeter
G1 X146.500 Y114.779 E2.11281 ; perimeter
G1 X147.607 Y114.633 E2.14915 ; perimeter
G1 X148.639 Y114.205 E2.18549 ; perimeter
G1 X149.836 Y113.287 E2.23456 ; perimeter
G1 X149.836 Y116.836 E2.35002 ; perimeter
G1 X50.164 Y116.836 E5.59286 ; perimeter
G1 X50.164 Y113.287 E5.70832 ; perimeter
G1 X51.361 Y114.205 E5.75739 ; perimeter
G1 X52.393 Y114.633 E5.79373 ; perimeter
G1 X53.500 Y114.779 E5.83007 ; perimeter
G1 X54.607 Y114.633 E5.86641 ; perimeter
G1 X55.639 Y114.205 E5.90274 ; perimeter
G1 X56.525 Y113.525 E5.93908 ; perimeter
G1 X57.205 Y112.639 E5.97542 ; perimeter
G1 X57.633 Y111.607 E6.01176 ; perimeter
G1 X57.779 Y110.500 E6.04810 ; perimeter
G1 X57.633 Y109.393 E6.08444 ; perimeter
G1 X57.205 Y108.361 E6.12078 ; perimeter
G1 X56.525 Y107.475 E6.15712 ; perimeter
G1 X55.639 Y106.795 E6.19346 ; perimeter
G1 X55.181 Y106.605 E6.20958 ; perimeter
G1 X55.181 Y106.000 E6.22926 ; perimeter
G1 X52.393 Y106.367 E6.32078 ; perimeter
G1 X51.361 Y106.795 E6.35712 ; perimeter
G1 X50.164 Y107.713 E6.40619 ; perimeter
G1 X50.164 Y104.164 E6.52165 ; perimeter
G1 X60.164 Y104.164 E6.84700 ; perimeter
G1 X60.164 Y73.836 E7.83374 ; perimeter
G1 X50.164 Y73.836 E8.15909 ; perimeter
G1 X50.164 Y70.287 E8.27455 ; perimeter
G1 X51.361 Y71.205 E8.32362 ; perimeter
G1 X52.393 Y71.633 E8.35996 ; perimeter
G1 X53.500 Y71.779 E8.39630 ; perimeter
G1 X54.607 Y71.633 E8.43263 ; perimeter
G1 X55.639 Y71.205 E8.46897 ; perimeter
G1 X56.525 Y70.525 E8.50531 ; perimeter
G1 X57.205 Y69.639 E8.54165 ; perimeter
G1 X57.633 Y68.607 E8.57799 ; perimeter
G1 X57.779 Y67.500 E8.61433 ; perimeter
G1 X57.633 Y66.393 E8.65067 ; perimeter
G1 X57.205 Y65.361 E8.68701 ; perimeter
G1 X56.525 Y64.475 E8.72335 ; perimeter
G1 X55.639 Y63.795 E8.75969 ; perimeter
G1 X55.208 Y63.616 E8.77488 ; perimeter
G1 X55.208 Y63.446 E8.78040 ; perimeter
G1 X53.500 Y63.221 E8.83644 ; perimeter
G1 X52.393 Y63.367 E8.87278 ; perimeter
G1 X51.361 Y63.795 E8.90912 ; perimeter
G1 X50.164 Y64.713 E8.95819 ; perimeter
G1 X50.164 Y61.164 E9.07365 ; perimeter
G1 X149.836 Y61.164 E12.31649 ; perimeter
G1 X149.836 Y64.713 E12.43195 ; perimeter
G1 X148.639 Y63.795 E12.48102 ; perimeter
G1 X148.208 Y63.616 E12.49621 ; perimeter
G1 X148.208 Y63.446 E12.50173 ; perimeter
G1 X146.500 Y63.221 E12.55778 ; perimeter
G1 X145.393 Y63.367 E12.59412 ; perimeter
G1 X144.361 Y63.795 E12.63046 ; perimeter
G1 X143.475 Y64.475 E12.66680 ; perimeter
G1 X142.795 Y65.361 E12.70314 ; perimeter
G1 X142.466 Y66.154 E12.73106 ; perimeter
G1 X142.367 Y66.393 E12.73948 ; perimeter
G1 X142.221 Y67.500 E12.77582 ; perimeter
G1 X142.367 Y68.607 E12.81215 ; perimeter
G1 X142.795 Y69.639 E12.84849 ; perimeter
G1 X143.475 Y70.525 E12.88483 ; perimeter
G1 X144.361 Y71.205 E12.92117 ; perimeter
G1 X145.393 Y71.633 E12.95751 ; perimeter
G1 X146.500 Y71.779 E12.99385 ; perimeter
G1 X147.607 Y71.633 E13.03019 ; perimeter
G1 X148.639 Y71.205 E13.06653 ; perimeter
G1 X149.836 Y70.287 E13.11560 ; perimeter
G1 X149.836 Y73.836 E13.23106 ; perimeter
G1 X139.836 Y73.836 E13.55641 ; perimeter
G1 X139.836 Y104.164 E14.54315 ; perimeter
G1 X149.836 Y104.164 E14.86850 ; perimeter
G1 X149.836 Y107.713 E14.98396 ; perimeter
G1 X148.639 Y106.795 E15.03303 ; perimeter
G1 X148.272 Y106.643 E15.04595 ; perimeter
G1 F1800.000 E14.04595 ; retract
G1 Z0.850 F7800.000 ; lift plate during travel
G92 E0 ; reset extrusion distance
G1 X49.507 Y68.071 F7800.000 ; move to first perimeter point
G1 Z0.350 F7800.000 ; restore layer Z
G1 E1.00000 F1800.000 ; compensate retraction
G1 X49.830 Y68.007 E1.01070 F540.000 ; perimeter
G1 X50.369 Y69.308 E1.05653 ; perimeter
G1 X50.943 Y70.057 E1.08724 ; perimeter
G1 X51.692 Y70.631 E1.11795 ; perimeter
G1 X52.564 Y70.993 E1.14866 ; perimeter
G1 X53.500 Y71.116 E1.17937 ; perimeter
G1 X54.436 Y70.993 E1.21008 ; perimeter
G1 X55.308 Y70.631 E1.24079 ; perimeter
G1 X56.057 Y70.057 E1.27150 ; perimeter
G1 X56.631 Y69.308 E1.30221 ; perimeter
G1 X56.993 Y68.436 E1.33292 ; perimeter
G1 X57.116 Y67.500 E1.36363 ; perimeter
G1 X56.993 Y66.564 E1.39434 ; perimeter
G1 X56.631 Y65.692 E1.42505 ; perimeter
G1 X56.057 Y64.943 E1.45576 ; perimeter
G1 X55.308 Y64.369 E1.48647 ; perimeter
G1 X54.551 Y64.055 E1.51313 ; perimeter
G1 X54.551 Y64.023 E1.51419 ; perimeter
G1 X53.500 Y63.884 E1.54867 ; perimeter
G1 X52.564 Y64.007 E1.57938 ; perimeter
G1 X51.692 Y64.369 E1.61009 ; perimeter
G1 X50.943 Y64.943 E1.64080 ; perimeter
G1 X50.369 Y65.692 E1.67151 ; perimeter
G1 X49.830 Y66.993 E1.71734 ; perimeter
G1 X49.507 Y66.929 E1.72804 ; perimeter
G1 X49.507 Y60.507 E1.93699 ; perimeter
G1 X150.493 Y60.507 E5.22259 ; perimeter
G1 X150.493 Y66.929 E5.43153 ; perimeter
G1 X150.170 Y66.993 E5.44223 ; perimeter
G1 X149.631 Y65.692 E5.48806 ; perimeter
G1 X149.057 Y64.943 E5.51877 ; perimeter
G1 X148.308 Y64.369 E5.54948 ; perimeter
G1 X147.551 Y64.055 E5.57614 ; perimeter
G1 X147.551 Y64.023 E5.57720 ; perimeter
G1 X146.500 Y63.884 E5.61168 ; perimeter
G1 X145.564 Y64.007 E5.64239 ; perimeter
G1 X145.405 Y64.073 E5.64800 ; perimeter
G1 X144.692 Y64.369 E5.67310 ; perimeter
G1 X143.943 Y64.943 E5.70381 ; perimeter
G1 X143.369 Y65.692 E5.73452 ; perimeter
G1 X143.073 Y66.405 E5.75963 ; perimeter
G1 X143.007 Y66.564 E5.76523 ; perimeter
G1 X142.884 Y67.500 E5.79595 ; perimeter
G1 X143.007 Y68.436 E5.82666 ; perimeter
G1 X143.369 Y69.308 E5.85736 ; perimeter
G1 X143.943 Y70.057 E5.88808 ; perimeter
G1 X144.692 Y70.631 E5.91879 ; perimeter
G1 X145.564 Y70.993 E5.94950 ; perimeter
G1 X146.500 Y71.116 E5.98021 ; perimeter
G1 X147.436 Y70.993 E6.01092 ; perimeter
G1 X148.308 Y70.631 E6.04163 ; perimeter
G1 X149.057 Y70.057 E6.07234 ; perimeter
G1 X149.631 Y69.308 E6.10305 ; perimeter
G1 X150.170 Y68.007 E6.14888 ; perimeter
G1 X150.493 Y68.071 E6.15957 ; perimeter
G1 X150.493 Y74.493 E6.36852 ; perimeter
G1 X140.493 Y74.493 E6.69388 ; perimeter
G1 X140.493 Y103.507 E7.63786 ; perimeter
G1 X150.493 Y103.507 E7.96321 ; perimeter
G1 X150.493 Y109.929 E8.17216 ; perimeter
G1 X150.170 Y109.993 E8.18286 ; perimeter
G1 X149.631 Y108.692 E8.22869 ; perimeter
G1 X149.057 Y107.943 E8.25940 ; perimeter
G1 X148.308 Y107.369 E8.29011 ; perimeter
G1 X147.524 Y107.044 E8.31770 ; perimeter
G1 X147.524 Y106.749 E8.32729 ; perimeter
G1 X145.564 Y107.007 E8.39161 ; perimeter
G1 X144.692 Y107.369 E8.42232 ; perimeter
G1 X143.943 Y107.943 E8.45303 ; perimeter
G1 X143.369 Y108.692 E8.48374 ; perimeter
G1 X143.073 Y109.405 E8.50885 ; perimeter
G1 X143.007 Y109.564 E8.51445 ; perimeter
G1 X142.884 Y110.500 E8.54516 ; perimeter
G1 X143.007 Y111.436 E8.57587 ; perimeter
G1 X143.369 Y112.308 E8.60658 ; perimeter
G1 X143.943 Y113.057 E8.63729 ; perimeter
G1 X144.692 Y113.631 E8.66801 ; perimeter
G1 X145.564 Y113.993 E8.69871 ; perimeter
G1 X146.500 Y114.116 E8.72943 ; perimeter
