; generated by Slic3r 1.0.1 on 2014-06-18 at 08:47:23

; layer_height = 0.4
; perimeters = 3
; top_solid_layers = 3
; bottom_solid_layers = 3
; fill_density = 0.4
; perimeter_speed = 30
; infill_speed = 60
; travel_speed = 130
; nozzle_diameter = 0.5
; filament_diameter = 3
; extrusion_multiplier = 1
; perimeters extrusion width = 0.50mm
; infill extrusion width = 0.53mm
; solid infill extrusion width = 0.53mm
; top infill extrusion width = 0.53mm
; first layer extrusion width = 0.70mm

G21 ; set units to millimeters
M107
M104 S200 ; set temperature
G28 ; home all axes
G1 Z5 F5000 ; lift nozzle

M109 S200 ; wait for temperature to be reached
G90 ; use absolute coordinates
G92 E0
M82 ; use absolute distances for extrusion
G1 F1800.000 E-1.00000
G92 E0
G1 Z0.350 F7800.000
G1 X52.800 Y64.960 F7800.000
G1 E1.00000 F1800.000
G1 X53.950 Y64.350 E1.04235 F540.000
G1 X55.200 Y63.970 E1.08486
G1 X56.500 Y63.840 E1.12737
G1 X143.500 Y63.840 E3.95793
G1 X144.800 Y63.970 E4.00044
G1 X146.050 Y64.350 E4.04294
G1 X147.200 Y64.960 E4.08530
G1 X148.210 Y65.790 E4.12783
G1 X149.040 Y66.800 E4.17036
G1 X149.650 Y67.950 E4.21272
G1 X150.030 Y69.200 E4.25522
G1 X150.160 Y70.500 E4.29773
G1 X150.160 Y129.500 E6.21731
G1 X150.030 Y130.800 E6.25981
G1 X149.650 Y132.050 E6.30232
G1 X149.040 Y133.200 E6.34467
G1 X148.210 Y134.210 E6.38721
G1 X147.200 Y135.040 E6.42974
G1 X146.050 Y135.650 E6.47209
G1 X144.800 Y136.030 E6.51460
G1 X143.500 Y136.160 E6.55711
G1 X56.500 Y136.160 E9.38767
G1 X55.200 Y136.030 E9.43018
G1 X53.950 Y135.650 E9.47268
G1 X52.800 Y135.040 E9.51504
G1 X51.790 Y134.210 E9.55757
G1 X50.960 Y133.200 E9.60010
G1 X50.350 Y132.050 E9.64246
G1 X49.970 Y130.800 E9.68496
G1 X49.840 Y129.500 E9.72747
G1 X49.840 Y70.500 E11.64705
G1 X49.970 Y69.200 E11.68955
G1 X50.350 Y67.950 E11.73206
G1 X50.960 Y66.800 E11.77441
G1 X51.790 Y65.790 E11.81695
G1 X52.724 Y65.023 E11.85627
G1 F1800.000 E10.85627
G92 E0
G1 X135.648 Y77.736 F7800.000
G1 E1.00000 F1800.000
G1 X135.943 Y77.023 E1.02508 F540.000
G1 X136.412 Y76.412 E1.05016
G1 X137.023 Y75.943 E1.07524
G1 X137.736 Y75.648 E1.10032
G1 X138.415 Y75.558 E1.12262
G1 X138.500 Y75.547 E1.12541
G1 X139.264 Y75.648 E1.15049
G1 X139.977 Y75.943 E1.17557
G1 X140.588 Y76.412 E1.20065
G1 X141.057 Y77.023 E1.22573
G1 X141.352 Y77.736 E1.25081
G1 X141.453 Y78.500 E1.27589
G1 X141.352 Y79.264 E1.30097
G1 X141.057 Y79.977 E1.32606
G1 X140.588 Y80.588 E1.35114
G1 X139.977 Y81.057 E1.37622
G1 X139.264 Y81.352 E1.40130
G1 X138.500 Y81.453 E1.42638
G1 X137.736 Y81.352 E1.45146
G1 X137.023 Y81.057 E1.47654
G1 X136.412 Y80.588 E1.50162
G1 X135.943 Y79.977 E1.52670
G1 X135.648 Y79.264 E1.55179
G1 X135.547 Y78.500 E1.57687
G1 X135.635 Y77.833 E1.59874
G1 X135.204 Y77.251 F7800.000
G1 X127.406 Y77.427 F7800.000
G1 X127.679 Y79.500 E1.66677 F540.000
G1 X127.570 Y80.323 E1.69377
G1 X127.253 Y81.089 E1.72077
G1 X126.748 Y81.748 E1.74776
G1 X126.089 Y82.253 E1.77476
G1 X125.323 Y82.570 E1.80175
G1 X124.500 Y82.679 E1.82875
G1 X123.677 Y82.570 E1.85575
G1 X122.911 Y82.253 E1.88274
G1 X122.444 Y81.895 E1.90187
G1 X122.252 Y81.748 E1.90974
G1 X121.747 Y81.089 E1.93674
G1 X121.430 Y80.323 E1.96373
G1 X121.321 Y79.500 E1.99073
G1 X121.430 Y78.677 E2.01773
G1 X121.747 Y77.911 E2.04472
G1 X121.895 Y77.719 E2.05259
G1 X122.252 Y77.252 E2.07172
G1 X122.911 Y76.747 E2.09872
G1 X123.677 Y76.430 E2.12571
G1 X124.260 Y76.353 E2.14484
G1 X124.500 Y76.321 E2.15271
G1 X125.323 Y76.430 E2.17971
G1 X126.089 Y76.747 E2.20670
G1 X126.748 Y77.252 E2.23370
G1 X126.881 Y77.427 E2.24085
G1 X127.307 Y77.427 E2.25470
G1 X126.829 Y78.084 F7800.000
G1 X127.016 Y79.500 E2.30117 F540.000
G1 X126.930 Y80.151 E2.32253
G1 X126.679 Y80.758 E2.34390
G1 X126.279 Y81.279 E2.36527
G1 X125.758 Y81.679 E2.38664
G1 X125.151 Y81.930 E2.40800
G1 X124.500 Y82.016 E2.42937
G1 X123.849 Y81.930 E2.45074
G1 X123.242 Y81.679 E2.47211
G1 X122.844 Y81.374 E2.48842
G1 X122.721 Y81.279 E2.49347
G1 X122.321 Y80.758 E2.51484
G1 X122.070 Y80.151 E2.53621
G1 X121.984 Y79.500 E2.55757
G1 X122.070 Y78.849 E2.57894
G1 X122.321 Y78.242 E2.60031
G1 X122.416 Y78.119 E2.60537
G1 X122.721 Y77.721 E2.62168
G1 X123.242 Y77.321 E2.64305
G1 X123.849 Y77.070 E2.66441
G1 X124.346 Y77.005 E2.68072
G1 X124.500 Y76.984 E2.68578
G1 X125.151 Y77.070 E2.70715
G1 X125.758 Y77.321 E2.72851
G1 X126.279 Y77.721 E2.74988
G1 X126.557 Y78.084 E2.76476
G1 X126.731 Y78.084 E2.77041
G1 X126.105 Y78.573 F7800.000
G1 X126.174 Y78.741 E2.77630 F540.000
G1 X126.253 Y78.741 E2.77887
G1 X126.353 Y79.500 E2.80378
G1 X126.290 Y79.980 E2.81952
G1 X126.105 Y80.427 E2.83526
G1 X125.810 Y80.810 E2.85099
G1 X125.427 Y81.105 E2.86673
G1 X124.980 Y81.290 E2.88247
G1 X124.500 Y81.353 E2.89821
G1 X124.020 Y81.290 E2.91395
G1 X123.573 Y81.105 E2.92969
G1 X123.244 Y80.852 E2.94318
G1 X123.190 Y80.810 E2.94543
G1 X122.895 Y80.427 E2.96116
G1 X122.710 Y79.980 E2.97690
G1 X122.647 Y79.500 E2.99264
G1 X122.710 Y79.020 E3.00838
G1 X122.895 Y78.573 E3.02412
G1 X122.937 Y78.519 E3.02636
G1 X123.190 Y78.190 E3.03986
G1 X123.573 Y77.895 E3.05559
G1 X124.020 Y77.710 E3.07133
G1 X124.432 Y77.656 E3.08483
G1 X124.500 Y77.647 E3.08707
G1 X124.980 Y77.710 E3.10281
G1 X125.427 Y77.895 E3.11855
G1 X125.810 Y78.190 E3.13429
G1 X126.045 Y78.495 E3.14682
G1 X126.286 Y78.581 F7800.000
G1 F1800.000 E2.14682
G92 E0
G1 X120.164 Y83.836 F7800.000
G1 E1.00000 F1800.000
G1 X120.164 Y116.164 E2.05181 F540.000
G1 X87.836 Y116.164 E3.10362
G1 X87.836 Y83.836 E4.15543
G1 X120.066 Y83.836 E5.20403
G1 X119.507 Y84.493 F7800.000
G1 X119.507 Y115.507 E6.21308 F540.000
G1 X88.493 Y115.507 E7.22213
G1 X88.493 Y84.493 E8.23119
G1 X119.409 Y84.493 E9.23703
G1 X118.850 Y85.150 F7800.000
G1 X118.850 Y114.850 E10.20333 F378.000
G1 X89.150 Y114.850 E11.16962
G1 X89.150 Y85.150 E12.13592
G1 X118.751 Y85.150 E13.09901
G1 X119.507 Y85.150 F7800.000
G1 X86.570 Y80.323 F7800.000
G1 X86.253 Y81.089 E13.12600 F540.000
G1 X85.748 Y81.748 E13.15300
G1 X85.089 Y82.253 E13.17999
G1 X84.323 Y82.570 E13.20699
G1 X83.500 Y82.679 E13.23399
G1 X82.677 Y82.570 E13.26098
G1 X81.911 Y82.253 E13.28798
G1 X81.444 Y81.895 E13.30711
G1 X81.252 Y81.748 E13.31498
G1 X80.747 Y81.089 E13.34197
G1 X80.430 Y80.323 E13.36897
G1 X80.398 Y80.083 E13.37684
G1 X80.321 Y79.500 E13.39596
G1 X80.430 Y78.677 E13.42296
G1 X80.747 Y77.911 E13.44996
G1 X81.252 Y77.252 E13.47696
G1 X81.911 Y76.747 E13.50395
G1 X82.677 Y76.430 E13.53095
G1 X83.260 Y76.353 E13.55007
G1 X83.500 Y76.321 E13.55795
G1 X84.323 Y76.430 E13.58494
G1 X85.089 Y76.747 E13.61194
G1 X85.748 Y77.252 E13.63893
G1 X86.253 Y77.911 E13.66593
G1 X86.570 Y78.677 E13.69293
G1 X86.679 Y79.500 E13.71992
G1 X86.583 Y80.225 E13.74371
G1 X85.930 Y80.151 F7800.000
G1 X85.679 Y80.758 E13.76508 F540.000
G1 X85.279 Y81.279 E13.78645
G1 X84.758 Y81.679 E13.80782
G1 X84.151 Y81.930 E13.82918
G1 X83.500 Y82.016 E13.85055
G1 X82.849 Y81.930 E13.87192
G1 X82.242 Y81.679 E13.89329
G1 X81.844 Y81.374 E13.90960
G1 X81.721 Y81.279 E13.91465
G1 X81.321 Y80.758 E13.93602
G1 X81.070 Y80.151 E13.95739
G1 X81.050 Y79.997 E13.96244
G1 X80.984 Y79.500 E13.97875
G1 X81.070 Y78.849 E14.00012
G1 X81.321 Y78.242 E14.02149
G1 X81.721 Y77.721 E14.04286
G1 X82.242 Y77.321 E14.06423
G1 X82.849 Y77.070 E14.08559
G1 X83.346 Y77.005 E14.10190
G1 X83.500 Y76.984 E14.10696
G1 X84.151 Y77.070 E14.12833
G1 X84.758 Y77.321 E14.14969
G1 X85.279 Y77.721 E14.17106
G1 X85.679 Y78.242 E14.19243
G1 X85.930 Y78.849 E14.21380
G1 X86.016 Y79.500 E14.23517
G1 X85.943 Y80.053 E14.25333
G1 X85.290 Y79.980 F7800.000
G1 X85.105 Y80.427 E14.26906 F540.000
G1 X84.810 Y80.810 E14.28480
G1 X84.427 Y81.105 E14.30054
G1 X83.980 Y81.290 E14.31628
G1 X83.500 Y81.353 E14.33202
G1 X83.020 Y81.290 E14.34776
G1 X82.573 Y81.105 E14.36350
G1 X82.244 Y80.852 E14.37699
G1 X82.190 Y80.810 E14.37923
G1 X81.895 Y80.427 E14.39497
G1 X81.710 Y79.980 E14.41071
G1 X81.701 Y79.911 E14.41295
G1 X81.647 Y79.500 E14.42645
G1 X81.710 Y79.020 E14.44219
G1 X81.895 Y78.573 E14.45793
G1 X82.190 Y78.190 E14.47366
G1 X82.573 Y77.895 E14.48940
G1 X83.020 Y77.710 E14.50514
G1 X83.432 Y77.656 E14.51864
G1 X83.500 Y77.647 E14.52088
G1 X83.980 Y77.710 E14.53662
G1 X84.427 Y77.895 E14.55236
G1 X84.810 Y78.190 E14.56809
G1 X85.105 Y78.573 E14.58383
G1 X85.290 Y79.020 E14.59957
G1 X85.353 Y79.500 E14.61531
G1 X85.303 Y79.882 E14.62784
G1 X85.617 Y80.336 F7800.000
G1 F1800.000 E13.62784
G92 E0
G1 X64.453 Y78.500 F7800.000
G1 E1.00000 F1800.000
G1 X64.352 Y79.264 E1.02508 F540.000
G1 X64.057 Y79.977 E1.05016
G1 X63.588 Y80.588 E1.07524
G1 X62.977 Y81.057 E1.10032
G1 X62.264 Y81.352 E1.12541
G1 X61.500 Y81.453 E1.15049
G1 X60.736 Y81.352 E1.17557
G1 X60.023 Y81.057 E1.20065
G1 X59.412 Y80.588 E1.22573
G1 X58.943 Y79.977 E1.25081
G1 X58.910 Y79.897 E1.25360
G1 X58.648 Y79.264 E1.27589
G1 X58.547 Y78.500 E1.30097
G1 X58.648 Y77.736 E1.32605
G1 X58.680 Y77.657 E1.32884
G1 X58.943 Y77.023 E1.35114
G1 X59.412 Y76.412 E1.37622
G1 X60.023 Y75.943 E1.40130
G1 X60.736 Y75.648 E1.42638
G1 X61.500 Y75.547 E1.45146
G1 X62.264 Y75.648 E1.47654
G1 X62.977 Y75.943 E1.50162
G1 X63.588 Y76.412 E1.52670
G1 X64.057 Y77.023 E1.55179
G1 X64.352 Y77.736 E1.57687
G1 X64.440 Y78.402 E1.59874
G1 X65.007 Y78.853 F7800.000
G1 F1800.000 E0.59874
G92 E0
G1 X61.867 Y118.499 F7800.000
G1 E1.00000 F1800.000
G1 X61.867 Y118.595 E1.00315 F540.000
G1 X62.264 Y118.648 E1.01618
G1 X62.977 Y118.943 E1.04126
G1 X63.588 Y119.412 E1.06634
G1 X64.057 Y120.023 E1.09142
G1 X64.352 Y120.736 E1.11650
G1 X64.453 Y121.500 E1.14158
G1 X64.352 Y122.264 E1.16667
G1 X64.057 Y122.977 E1.19175
G1 X63.588 Y123.588 E1.21683
G1 X62.977 Y124.057 E1.24191
G1 X62.264 Y124.352 E1.26699
G1 X61.500 Y124.453 E1.29207
G1 X60.736 Y124.352 E1.31715
G1 X60.023 Y124.057 E1.34223
G1 X59.412 Y123.588 E1.36731
G1 X58.943 Y122.977 E1.39240
G1 X58.648 Y122.264 E1.41748
G1 X58.547 Y121.500 E1.44256
G1 X58.648 Y120.736 E1.46764
G1 X58.680 Y120.657 E1.47043
G1 X58.943 Y120.023 E1.49272
G1 X59.412 Y119.412 E1.51780
G1 X60.023 Y118.943 E1.54288
G1 X60.736 Y118.648 E1.56796
G1 X61.769 Y118.512 E1.60189
G1 X61.964 Y118.494 F7800.000
G1 X80.321 Y120.500 F7800.000
G1 X80.430 Y119.677 E1.62888 F540.000
G1 X80.522 Y119.454 E1.63676
G1 X80.747 Y118.911 E1.65588
G1 X81.252 Y118.252 E1.68288
G1 X81.911 Y117.747 E1.70988
G1 X82.454 Y117.522 E1.72900
G1 X82.677 Y117.430 E1.73687
G1 X83.500 Y117.321 E1.76387
G1 X84.323 Y117.430 E1.79086
G1 X84.866 Y117.655 E1.80999
G1 X85.089 Y117.747 E1.81786
G1 X85.748 Y118.252 E1.84486
G1 X86.253 Y118.911 E1.87185
G1 X86.570 Y119.677 E1.89885
G1 X86.679 Y120.500 E1.92584
G1 X86.570 Y121.323 E1.95284
G1 X86.253 Y122.089 E1.97984
G1 X85.748 Y122.748 E2.00683
G1 X85.089 Y123.253 E2.03383
G1 X84.323 Y123.570 E2.06083
G1 X83.500 Y123.679 E2.08782
G1 X82.677 Y123.570 E2.11482
G1 X81.911 Y123.253 E2.14182
G1 X81.252 Y122.748 E2.16881
G1 X80.747 Y122.089 E2.19581
G1 X80.430 Y121.323 E2.22280
G1 X80.334 Y120.598 E2.24659
G1 X80.984 Y120.500 F7800.000
G1 X81.070 Y119.849 E2.26796 F540.000
G1 X81.129 Y119.705 E2.27302
G1 X81.321 Y119.242 E2.28933
G1 X81.721 Y118.721 E2.31070
G1 X82.242 Y118.321 E2.33207
G1 X82.705 Y118.129 E2.34838
G1 X82.849 Y118.070 E2.35343
G1 X83.500 Y117.984 E2.37480
G1 X84.151 Y118.070 E2.39617
G1 X84.614 Y118.262 E2.41248
G1 X84.758 Y118.321 E2.41753
G1 X85.279 Y118.721 E2.43890
G1 X85.679 Y119.242 E2.46027
G1 X85.930 Y119.849 E2.48164
G1 X86.016 Y120.500 E2.50300
G1 X85.930 Y121.151 E2.52437
G1 X85.679 Y121.758 E2.54574
G1 X85.279 Y122.279 E2.56711
G1 X84.758 Y122.679 E2.58847
G1 X84.151 Y122.930 E2.60984
G1 X83.500 Y123.016 E2.63121
G1 X82.849 Y122.930 E2.65258
G1 X82.242 Y122.679 E2.67394
G1 X81.721 Y122.279 E2.69531
G1 X81.321 Y121.758 E2.71668
G1 X81.070 Y121.151 E2.73804
G1 X80.997 Y120.598 E2.75621
G1 X81.647 Y120.500 F7800.000
G1 X81.710 Y120.020 E2.77194 F540.000
G1 X81.736 Y119.957 E2.77419
G1 X81.895 Y119.573 E2.78768
G1 X82.190 Y119.190 E2.80342
G1 X82.573 Y118.895 E2.81916
G1 X82.957 Y118.736 E2.83266
G1 X83.020 Y118.710 E2.83490
G1 X83.500 Y118.647 E2.85064
G1 X83.980 Y118.710 E2.86637
G1 X84.427 Y118.895 E2.88211
G1 X84.810 Y119.190 E2.89785
G1 X85.105 Y119.573 E2.91359
G1 X85.290 Y120.020 E2.92933
G1 X85.353 Y120.500 E2.94507
G1 X85.290 Y120.980 E2.96081
G1 X85.105 Y121.427 E2.97654
G1 X84.810 Y121.810 E2.99228
G1 X84.427 Y122.105 E3.00802
G1 X83.980 Y122.290 E3.02376
G1 X83.500 Y122.353 E3.03950
G1 X83.020 Y122.290 E3.05524
G1 X82.573 Y122.105 E3.07097
G1 X82.190 Y121.810 E3.08671
G1 X81.895 Y121.427 E3.10245
G1 X81.710 Y120.980 E3.11819
G1 X81.660 Y120.598 E3.13072
G1 X81.239 Y120.240 F7800.000
G1 F1800.000 E2.13072
G92 E0
G1 X121.321 Y120.500 F7800.000
G1 E1.00000 F1800.000
G1 X121.430 Y119.677 E1.02700 F540.000
G1 X121.747 Y118.911 E1.05399
G1 X122.252 Y118.252 E1.08099
G1 X122.911 Y117.747 E1.10799
G1 X123.677 Y117.430 E1.13498
G1 X124.500 Y117.321 E1.16198
G1 X125.323 Y117.430 E1.18898
G1 X126.089 Y117.747 E1.21597
G1 X126.748 Y118.252 E1.24297
G1 X127.253 Y118.911 E1.26997
G1 X127.570 Y119.677 E1.29696
G1 X127.679 Y120.500 E1.32396
G1 X127.570 Y121.323 E1.35095
G1 X127.253 Y122.089 E1.37795
G1 X126.748 Y122.748 E1.40495
G1 X126.089 Y123.253 E1.43194
G1 X125.323 Y123.570 E1.45894
G1 X124.500 Y123.679 E1.48593
G1 X123.677 Y123.570 E1.51293
G1 X122.911 Y123.253 E1.53993
G1 X122.252 Y122.748 E1.56693
G1 X121.747 Y122.089 E1.59392
G1 X121.430 Y121.323 E1.62092
G1 X121.334 Y120.598 E1.64471
G1 X121.984 Y120.500 F7800.000
G1 X122.070 Y119.849 E1.66607 F540.000
G1 X122.321 Y119.242 E1.68744
G1 X122.721 Y118.721 E1.70881
G1 X123.242 Y118.321 E1.73018
G1 X123.849 Y118.070 E1.75154
G1 X124.500 Y117.984 E1.77291
G1 X125.151 Y118.070 E1.79428
G1 X125.758 Y118.321 E1.81565
G1 X126.279 Y118.721 E1.83701
G1 X126.679 Y119.242 E1.85838
G1 X126.930 Y119.849 E1.87975
G1 X127.016 Y120.500 E1.90112
G1 X126.930 Y121.151 E1.92248
G1 X126.679 Y121.758 E1.94385
G1 X126.279 Y122.279 E1.96522
G1 X125.758 Y122.679 E1.98659
G1 X125.151 Y122.930 E2.00795
G1 X124.500 Y123.016 E2.02932
G1 X123.849 Y122.930 E2.05069
G1 X123.242 Y122.679 E2.07206
G1 X122.721 Y122.279 E2.09342
G1 X122.321 Y121.758 E2.11479
G1 X122.070 Y121.151 E2.13616
G1 X121.997 Y120.598 E2.15432
G1 X122.647 Y120.500 F7800.000
G1 X122.710 Y120.020 E2.17006 F540.000
G1 X122.895 Y119.573 E2.18580
G1 X123.190 Y119.190 E2.20153
G1 X123.573 Y118.895 E2.21727
G1 X124.020 Y118.710 E2.23301
G1 X124.500 Y118.647 E2.24875
G1 X124.980 Y118.710 E2.26449
G1 X125.427 Y118.895 E2.28023
G1 X125.810 Y119.190 E2.29596
G1 X126.105 Y119.573 E2.31170
G1 X126.290 Y120.020 E2.32744
G1 X126.353 Y120.500 E2.34318
G1 X126.290 Y120.980 E2.35892
G1 X126.105 Y121.427 E2.37466
G1 X125.810 Y121.810 E2.39039
G1 X125.427 Y122.105 E2.40613
G1 X124.980 Y122.290 E2.42187
G1 X124.500 Y122.353 E2.43761
G1 X124.020 Y122.290 E2.45335
G1 X123.573 Y122.105 E2.46909
G1 X123.190 Y121.810 E2.48483
G1 X122.895 Y121.427 E2.50056
G1 X122.710 Y120.980 E2.51630
G1 X122.660 Y120.598 E2.52883
G1 X122.239 Y120.240 F7800.000
G1 F1800.000 E1.52883
G92 E0
G1 X135.547 Y121.500 F7800.000
G1 E1.00000 F1800.000
G1 X135.648 Y120.736 E1.02508 F540.000
G1 X135.680 Y120.657 E1.02787
G1 X135.943 Y120.023 E1.05016
G1 X136.412 Y119.412 E1.07524
G1 X137.023 Y118.943 E1.10033
G1 X137.736 Y118.648 E1.12541
G1 X138.867 Y118.499 E1.16254
G1 X138.867 Y118.595 E1.16568
G1 X139.264 Y118.648 E1.17871
G1 X139.977 Y118.943 E1.20379
G1 X140.588 Y119.412 E1.22888
G1 X141.057 Y120.023 E1.25396
G1 X141.352 Y120.736 E1.27904
G1 X141.453 Y121.500 E1.30412
G1 X141.352 Y122.264 E1.32920
G1 X141.057 Y122.977 E1.35428
G1 X140.588 Y123.588 E1.37936
G1 X139.977 Y124.057 E1.40444
G1 X139.264 Y124.352 E1.42953
G1 X138.500 Y124.453 E1.45461
G1 X137.736 Y124.352 E1.47969
G1 X137.023 Y124.057 E1.50477
G1 X136.412 Y123.588 E1.52985
G1 X135.943 Y122.977 E1.55493
G1 X135.648 Y122.264 E1.58001
G1 X135.560 Y121.598 E1.60189
G1 X134.993 Y121.147 F7800.000
G1 X134.255 Y121.244 F7800.000
G1 X134.221 Y121.500 E1.61030 F540.000
G1 X134.367 Y122.607 E1.64664
G1 X134.795 Y123.639 E1.68298
G1 X135.475 Y124.525 E1.71932
G1 X136.361 Y125.205 E1.75566
G1 X137.393 Y125.633 E1.79200
