; generated by Slic3r 0.9.10b on 2013-09-12 at 20:35:32

; layer_height = 0.4
; perimeters = 3
; top_solid_layers = 3
; bottom_solid_layers = 3
; fill_density = 0.4
; perimeter_speed = 30
; infill_speed = 60
; travel_speed = 130
; nozzle_diameter = 0.5
; filament_diameter = 3
; extrusion_multiplier = 1
; perimeters extrusion width = 0.53mm
; infill extrusion width = 0.53mm
; solid infill extrusion width = 0.53mm
; top infill extrusion width = 0.53mm
; first layer extrusion width = 1.00mm

G21 ; set units to millimeters
M107
M104 S180 ; set temperature
G28 ; home all axes
G1 Z5 F5000 ; lift nozzle
M190 S60 ; bed on
M109 S180 ; wait for temperature to be reached
G90 ; use absolute coordinates
G92 E0
M82 ; use absolute distances for extrusion
G1 F1800.000 E-1.00000
G1 Z1.000 F7800.000
G92 E0
G1 X44.490 Y55.580
G1 Z0.500
G1 F1800.000 E1.00000
G1 X45.690 Y54.950 F600.000 E1.08558
G1 X46.980 Y54.560 E1.17068
G1 X48.330 Y54.440 E1.25626
G1 X49.670 Y54.580 E1.34134
G1 X50.960 Y54.980 E1.42662
G1 X52.150 Y55.620 E1.51194
G1 X53.190 Y56.480 E1.59716
G1 X54.040 Y57.530 E1.68247
G1 X54.670 Y58.730 E1.76805
G1 X55.060 Y60.020 E1.85315
G1 X55.180 Y61.370 E1.93873
G1 X54.890 Y116.060 E5.39221
G1 X54.750 Y117.400 E5.47728
G1 X54.350 Y118.690 E5.56257
G1 X53.710 Y119.880 E5.64789
G1 X52.850 Y120.920 E5.73311
G1 X51.800 Y121.770 E5.81841
G1 X50.600 Y122.400 E5.90399
G1 X49.310 Y122.790 E5.98909
G1 X47.960 Y122.910 E6.07467
G1 X46.620 Y122.770 E6.15975
G1 X45.330 Y122.370 E6.24503
G1 X44.140 Y121.730 E6.33036
G1 X43.100 Y120.870 E6.41557
G1 X42.250 Y119.820 E6.50088
G1 X41.620 Y118.630 E6.58590
G1 X41.230 Y117.330 E6.67160
G1 X41.110 Y115.990 E6.75656
G1 X41.400 Y61.290 E10.21067
G1 X41.540 Y59.950 E10.29574
G1 X41.940 Y58.660 E10.38103
G1 X42.580 Y57.470 E10.46635
G1 X43.440 Y56.430 E10.55156
G1 X44.386 Y55.664 E10.62841
G1 F1800.000 E9.62841
G1 Z1.000 F7800.000
G92 E0
G1 X48.123 Y93.119
G1 Z0.500
G1 F1800.000 E1.00000
G1 X48.291 Y61.334 F600.000 E3.00713
G1 F1800.000 E2.00713
G1 Z1.000 F7800.000
G92 E0
G1 X48.123 Y93.119
G1 Z0.500
G1 F1800.000 E1.00000
G1 X48.029 Y111.544 F600.000 E2.16345
G1 X48.029 Y111.544 F7800.000
G1 X48.024 Y112.042 F600.000 E2.19492
G1 X48.024 Y112.042 F7800.000
G1 X48.024 Y112.540 F600.000 E2.22635
G1 X48.024 Y112.540 F7800.000
G1 X48.021 Y112.540 F600.000 E2.22651
G1 X48.021 Y112.540 F7800.000
G1 X48.005 Y116.026 F600.000 E2.44663
M106 S255
G1 F1800.000 E1.44663
G1 Z1.400 F7800.000
G92 E0
G1 X48.255 Y99.187
G1 Z0.900
G1 F1800.000 E1.00000
G1 X48.006 Y115.971 F600.000 E1.49360
G1 F1800.000 E0.49360
G1 Z1.400 F7800.000
G92 E0
G1 X48.255 Y99.187
G1 Z0.900
G1 F1800.000 E1.00000
G1 X48.259 Y98.924 F600.000 E1.00771
G1 X48.259 Y98.924 F7800.000
G1 X48.270 Y98.138 F600.000 E1.03085
G1 X48.270 Y98.138 F7800.000
G1 X48.325 Y94.466 F600.000 E1.13882
G1 X48.325 Y94.466 F7800.000
G1 X48.438 Y86.861 F600.000 E1.36249
G1 X48.438 Y86.861 F7800.000
G1 X48.495 Y83.036 F600.000 E1.47497
G1 X48.371 Y82.905 E1.48026
G1 X48.495 Y83.036 F7800.000
G1 X48.610 Y82.930 F600.000 E1.48487
G1 X48.610 Y82.930 F7800.000
G1 X48.622 Y82.909 F600.000 E1.48560
G1 F1800.000 E0.48560
G1 Z1.800 F7800.000
G92 E0
G1 X48.101 Y111.703
G1 Z1.300
G1 F1800.000 E1.00000
G1 X48.009 Y115.610 F600.000 E1.11492
G1 F1800.000 E0.11492
G1 Z1.800 F7800.000
G92 E0
G1 X48.101 Y111.703
G1 Z1.300
G1 F1800.000 E1.00000
G1 X48.107 Y111.443 F600.000 E1.00766
G1 X48.107 Y111.443 F7800.000
G1 X48.125 Y110.661 F600.000 E1.03064
G1 X48.125 Y110.661 F7800.000
G1 X48.211 Y107.015 F600.000 E1.13790
G1 X48.211 Y107.015 F7800.000
G1 X48.388 Y99.461 F600.000 E1.36007
G1 X48.388 Y99.461 F7800.000
G1 X48.477 Y95.653 F600.000 E1.47208
G1 X48.358 Y95.523 E1.47727
G1 X48.477 Y95.653 F7800.000
G1 X48.585 Y95.559 F600.000 E1.48148
G1 X48.585 Y95.559 F7800.000
G1 X48.603 Y95.529 F600.000 E1.48251
G1 F1800.000 E0.48251
G1 Z2.200 F7800.000
G92 E0
G1 X48.338 Y105.134
G1 Z1.700
G1 F1800.000 E1.00000
G1 X48.461 Y101.332 F600.000 E1.11185
G1 X48.346 Y101.202 E1.11695
G1 X48.461 Y101.332 F7800.000
G1 X48.560 Y101.250 F600.000 E1.12073
G1 X48.560 Y101.250 F7800.000
G1 X48.583 Y101.210 F600.000 E1.12210
G1 F1800.000 E0.12210
G1 Z2.200 F7800.000
G92 E0
G1 X48.338 Y105.134
G1 Z1.700
G1 F1800.000 E1.00000
G1 X48.096 Y112.655 F600.000 E1.22128
G1 X48.096 Y112.655 F7800.000
G1 X48.046 Y114.211 F600.000 E1.26706
G1 X48.046 Y114.211 F7800.000
G1 X48.029 Y114.730 F600.000 E1.28232
G1 X48.029 Y114.730 F7800.000
G1 X48.021 Y114.989 F600.000 E1.28995
G1 X48.021 Y114.989 F7800.000
G1 X48.013 Y115.249 F600.000 E1.29758
G1 F1800.000 E0.29758
G1 Z2.600 F7800.000
G92 E0
G1 X48.285 Y108.319
G1 Z2.100
G1 F1800.000 E1.00000
G1 X48.444 Y104.455 F600.000 E1.11373
G1 X48.333 Y104.323 E1.11877
G1 X48.444 Y104.455 F7800.000
G1 X48.529 Y104.389 F600.000 E1.12194
G1 X48.529 Y104.389 F7800.000
G1 X48.565 Y104.333 F600.000 E1.12388
G1 F1800.000 E0.12388
G1 Z2.600 F7800.000
G92 E0
G1 X48.285 Y108.319
G1 Z2.100
G1 F1800.000 E1.00000
G1 X48.221 Y109.894 F600.000 E1.04635
G1 X48.221 Y109.894 F7800.000
G1 X48.210 Y110.156 F600.000 E1.05407
G1 X48.210 Y110.156 F7800.000
G1 X48.199 Y110.419 F600.000 E1.06179
G1 X48.199 Y110.419 F7800.000
G1 X48.167 Y111.206 F600.000 E1.08497
G1 X48.167 Y111.206 F7800.000
G1 X48.081 Y113.306 F600.000 E1.14676
G1 X48.081 Y113.306 F7800.000
G1 X48.016 Y114.881 F600.000 E1.19311
G1 F1800.000 E0.19311
G1 Z3.000 F7800.000
G92 E0
G1 Z2.900
G1 Z3.300
G1 Z3.700
G1 Z4.100
G1 Z4.500
G1 Z4.900
G1 X142.844 Y107.793
G1 Z4.400
G1 F1800.000 E1.00000
G1 X143.109 Y107.506 F600.000 E1.01148
G1 X144.024 Y107.338 E1.03885
G1 X142.844 Y107.793 F7800.000
G1 X142.681 Y107.881 F600.000 E1.04428
G1 X142.681 Y107.881 F7800.000
G1 X142.696 Y107.944 F600.000 E1.04620
G1 F1800.000 E0.04620
G1 Z5.800 F7800.000
G92 E0
G1 X143.428 Y107.487
G1 Z5.300
G1 F1800.000 E1.00000
G1 X143.635 Y107.450 F600.000 E1.00619
G1 X143.428 Y107.487 F7800.000
G1 X143.113 Y107.501 F600.000 E1.01546
G1 X142.860 Y107.777 E1.02646
G1 X142.860 Y107.777 F7800.000
G1 X142.699 Y107.873 F600.000 E1.03197
G1 X142.699 Y107.873 F7800.000
G1 X142.712 Y107.928 F600.000 E1.03360
G1 F1800.000 E0.03360
G1 Z6.200 F7800.000
G92 E0
G1 X143.450 Y107.483
G1 Z5.700
G1 F1800.000 E1.00000
G1 X143.659 Y107.452 F600.000 E1.00621
G1 X143.450 Y107.483 F7800.000
G1 X143.117 Y107.497 F600.000 E1.01602
G1 X142.876 Y107.760 E1.02651
G1 X142.876 Y107.760 F7800.000
G1 X142.717 Y107.866 F600.000 E1.03211
G1 X142.717 Y107.866 F7800.000
G1 X142.727 Y107.911 F600.000 E1.03347
G1 F1800.000 E0.03347
G1 Z6.600 F7800.000
G92 E0
G1 X143.121 Y107.494
G1 Z6.100
G1 F1800.000 E1.00000
G1 X143.472 Y107.477 F600.000 E1.01034
G1 X143.121 Y107.494 F7800.000
G1 X142.896 Y107.700 F600.000 E1.01931
G1 X142.896 Y107.700 F7800.000
G1 X142.735 Y107.858 F600.000 E1.02594
G1 X142.735 Y107.858 F7800.000
G1 X142.743 Y107.894 F600.000 E1.02702
G1 F1800.000 E0.02702
G1 Z7.000 F7800.000
G92 E0
G1 X143.125 Y107.492
G1 Z6.500
G1 F1800.000 E1.00000
G1 X143.494 Y107.470 F600.000 E1.01085
G1 X143.125 Y107.492 F7800.000
G1 X142.911 Y107.693 F600.000 E1.01950
G1 X142.911 Y107.693 F7800.000
G1 X142.753 Y107.850 F600.000 E1.02603
G1 X142.753 Y107.850 F7800.000
G1 X142.759 Y107.877 F600.000 E1.02684
G1 F1800.000 E0.02684
G1 Z7.400 F7800.000
G92 E0
G1 X143.129 Y107.491
G1 Z6.900
G1 F1800.000 E1.00000
G1 X143.515 Y107.461 F600.000 E1.01136
G1 X143.129 Y107.491 F7800.000
G1 X142.926 Y107.687 F600.000 E1.01966
G1 X142.926 Y107.687 F7800.000
G1 X142.771 Y107.842 F600.000 E1.02610
G1 X142.771 Y107.842 F7800.000
G1 X142.774 Y107.860 F600.000 E1.02665
G1 F1800.000 E0.02665
G1 Z7.800 F7800.000
G92 E0
G1 X143.303 Y107.479
G1 Z7.300
G1 F1800.000 E1.00000
G1 X143.582 Y107.364 F600.000 E1.00887
G1 X143.303 Y107.479 F7800.000
G1 X143.052 Y107.522 F600.000 E1.01638
G1 X142.872 Y107.713 E1.02410
G1 X142.872 Y107.713 F7800.000
G1 X142.730 Y107.830 F600.000 E1.02951
G1 X142.730 Y107.830 F7800.000
G1 X142.720 Y107.829 F600.000 E1.02982
G1 F1800.000 E0.02982
G1 Z8.200 F7800.000
G92 E0
G1 X143.319 Y107.468
G1 Z7.700
G1 F1800.000 E1.00000
G1 X143.585 Y107.362 F600.000 E1.00843
G1 X143.319 Y107.468 F7800.000
G1 X143.058 Y107.517 F600.000 E1.01626
G1 X142.874 Y107.710 E1.02407
G1 X142.874 Y107.710 F7800.000
G1 X142.740 Y107.824 F600.000 E1.02926
G1 X142.740 Y107.824 F7800.000
G1 X142.717 Y107.821 F600.000 E1.02994
G1 F1800.000 E0.02994
G1 Z8.600 F7800.000
G92 E0
G1 X143.141 Y107.483
G1 Z8.100
G1 F1800.000 E1.00000
G1 X143.589 Y107.388 F600.000 E1.01346
G1 X143.141 Y107.483 F7800.000
G1 X143.027 Y107.579 F600.000 E1.01786
G1 X143.027 Y107.579 F7800.000
G1 X142.869 Y107.766 F600.000 E1.02505
G1 F1800.000 E0.02505
G1 Z9.000 F7800.000
G92 E0
G1 X143.181 Y107.478
G1 Z8.500
G1 F1800.000 E1.00000
G1 X143.424 Y107.409 F600.000 E1.00743
G1 X143.181 Y107.478 F7800.000
G1 X142.884 Y107.654 F600.000 E1.01757
G1 X142.884 Y107.654 F7800.000
G1 X142.711 Y107.807 F600.000 E1.02438
G1 F1800.000 E0.02438
G1 Z9.400 F7800.000
G92 E0
G1 X143.199 Y107.478
G1 Z8.900
G1 F1800.000 E1.00000
G1 X143.427 Y107.410 F600.000 E1.00700
G1 X143.199 Y107.478 F7800.000
G1 X142.887 Y107.649 F600.000 E1.01747
G1 X142.887 Y107.649 F7800.000
G1 X142.715 Y107.806 F600.000 E1.02431
G1 F1800.000 E0.02431
G1 Z9.800 F7800.000
G92 E0
G1 X143.217 Y107.478
G1 Z9.300
G1 F1800.000 E1.00000
G1 X143.430 Y107.411 F600.000 E1.00657
G1 X143.217 Y107.478 F7800.000
G1 X142.890 Y107.645 F600.000 E1.01737
G1 X142.890 Y107.645 F7800.000
G1 X142.719 Y107.804 F600.000 E1.02424
G1 F1800.000 E0.02424
G1 Z10.200 F7800.000
G92 E0
G1 Z10.100
G1 Z10.500
G1 Z10.900
G1 X56.077 Y107.412
G1 Z10.400
G1 F1800.000 E1.00000
G1 X56.555 Y107.581 F600.000 E1.01493
G1 X56.077 Y107.412 F7800.000
G1 X55.861 Y107.405 F600.000 E1.02128
G1 F1800.000 E0.02128
G1 Z10.900 F7800.000
G92 E0
G1 X108.037 Y107.430
G1 Z10.400
G1 F1800.000 E1.00000
G1 X108.151 Y107.421 F600.000 E1.00337
G1 X108.151 Y107.421 F7800.000
G1 X108.213 Y107.363 F600.000 E1.00587
G1 X108.213 Y107.363 F7800.000
G1 X108.333 Y107.399 F600.000 E1.00954
G1 F1800.000 E0.00954
G1 Z10.900 F7800.000
G92 E0
G1 X110.390 Y107.362
G1 Z10.400
G1 F1800.000 E1.00000
G1 X110.405 Y107.384 F600.000 E1.00078
G1 X110.405 Y107.384 F7800.000
G1 X110.573 Y107.413 F600.000 E1.00581
G1 F1800.000 E0.00581
G1 Z11.800 F7800.000
G92 E0
G1 X110.203 Y107.273
G1 Z11.300
G1 F1800.000 E1.00000
G1 X110.381 Y107.319 F600.000 E1.00540
G1 X110.203 Y107.273 F7800.000
G1 X109.181 Y107.196 F600.000 E1.03554
G1 X108.260 Y107.320 E1.06286
G1 X108.260 Y107.320 F7800.000
G1 X108.188 Y107.464 F600.000 E1.06760
G1 F1800.000 E0.06760
G1 Z11.800 F7800.000
G92 E0
G1 X56.070 Y107.452
G1 Z11.300
G1 F1800.000 E1.00000
G1 X55.871 Y107.429 F600.000 E1.00590
G1 X55.662 Y107.176 E1.01555
G1 X55.694 Y107.161 F7800.000
G1 X54.260 Y107.129 F600.000 E1.05775
G1 X54.260 Y107.129 F7800.000
G1 X52.459 Y107.091 F600.000 E1.11072
G1 X52.459 Y107.091 F7800.000
G1 X52.200 Y107.088 F600.000 E1.11833
G1 X52.200 Y107.088 F7800.000
G1 X51.673 Y107.089 F600.000 E1.13384
G1 X51.673 Y107.089 F7800.000
G1 X50.389 Y107.066 F600.000 E1.17160
G1 X50.389 Y107.066 F7800.000
G1 X50.165 Y107.063 F600.000 E1.17817
G1 F1800.000 E0.17817
G1 Z12.200 F7800.000
G92 E0
G1 X108.498 Y107.222
G1 Z11.700
G1 F1800.000 E1.00000
G1 X110.213 Y107.192 F600.000 E1.05046
G1 X110.159 Y107.223 F7800.000
G1 X110.370 Y107.421 F600.000 E1.05895
G1 X110.370 Y107.421 F7800.000
G1 X110.390 Y107.413 F600.000 E1.05959
G1 X108.498 Y107.222 F7800.000
G1 X107.904 Y107.566 F600.000 E1.07977
G1 F1800.000 E0.07977
G1 Z12.200 F7800.000
G92 E0
G1 X55.780 Y107.330
G1 Z11.700
G1 F1800.000 E1.00000
G1 X55.333 Y107.151 F600.000 E1.01415
G1 X55.333 Y107.151 F7800.000
G1 X55.079 Y107.096 F600.000 E1.02180
G1 X55.079 Y107.096 F7800.000
G1 X54.948 Y106.964 F600.000 E1.02724
G1 X55.147 Y106.825 F7800.000
G1 X54.948 Y106.964 F600.000 E1.03438
G1 X53.991 Y106.938 E1.06254
G1 X53.991 Y106.938 F7800.000
G1 X52.188 Y106.910 F600.000 E1.11558
G1 X52.188 Y106.910 F7800.000
G1 X51.930 Y106.906 F600.000 E1.12316
G1 X51.930 Y106.906 F7800.000
G1 X51.377 Y106.911 F600.000 E1.13941
G1 X51.377 Y106.911 F7800.000
G1 X50.302 Y106.887 F600.000 E1.17103
G1 X50.302 Y106.887 F7800.000
G1 X50.294 Y106.882 F600.000 E1.17130
G1 F1800.000 E0.17130
G1 Z12.600 F7800.000
G92 E0
G1 X108.509 Y107.275
G1 Z12.100
G1 F1800.000 E1.00000
G1 X108.733 Y107.118 F600.000 E1.00805
G1 X110.044 Y107.064 E1.04663
G1 X109.910 Y107.134 F7800.000
G1 X109.909 Y107.132 F600.000 E1.04669
G1 X109.910 Y107.134 F7800.000
G1 X110.393 Y107.421 F600.000 E1.06320
G1 X108.509 Y107.275 F7800.000
G1 X108.337 Y107.366 F600.000 E1.06891
G1 X108.337 Y107.366 F7800.000
G1 X108.196 Y107.398 F600.000 E1.07316
G1 F1800.000 E0.07316
G1 Z12.600 F7800.000
G92 E0
G1 X52.761 Y106.628
G1 Z12.100
G1 F1800.000 E1.00000
G1 X52.628 Y106.754 F600.000 E1.00537
G1 X51.968 Y106.742 E1.02478
G1 X51.968 Y106.742 F7800.000
G1 X51.961 Y106.740 F600.000 E1.02499
G1 X51.961 Y106.740 F7800.000
G1 X51.186 Y106.728 F600.000 E1.04779
G1 X51.186 Y106.728 F7800.000
G1 X50.495 Y106.714 F600.000 E1.06813
G1 X50.389 Y106.600 E1.07270
G1 X50.389 Y106.600 F7800.000
G1 X50.356 Y106.582 F600.000 E1.07381
G1 X50.495 Y106.714 F7800.000
G1 X50.401 Y106.810 F600.000 E1.07776
G1 X50.401 Y106.810 F7800.000
G1 X50.370 Y106.827 F600.000 E1.07879
G1 F1800.000 E0.07879
G1 Z12.600 F7800.000
G92 E0
G1 X52.628 Y106.754
G1 Z12.100
G1 F1800.000 E1.00000
G1 X52.747 Y106.880 F600.000 E1.00511
G1 X52.747 Y106.880 F7800.000
G1 X52.755 Y106.885 F600.000 E1.00537
G1 F1800.000 E0.00537
G1 Z13.000 F7800.000
G92 E0
G1 X110.396 Y107.423
G1 Z12.500
G1 F1800.000 E1.00000
G1 X110.590 Y107.531 F600.000 E1.00654
G1 X110.396 Y107.423 F7800.000
G1 X110.202 Y107.315 F600.000 E1.01308
G1 X110.202 Y107.315 F7800.000
G1 X109.805 Y107.172 F600.000 E1.02548
G1 X109.805 Y107.172 F7800.000
G1 X109.693 Y107.056 F600.000 E1.03020
G1 X109.747 Y106.990 F7800.000
G1 X109.525 Y107.037 F600.000 E1.03686
G1 X109.525 Y107.037 F7800.000
G1 X109.097 Y107.038 F600.000 E1.04945
G1 X109.084 Y107.016 F7800.000
G1 X108.947 Y107.302 F600.000 E1.05877
G1 X108.754 Y107.298 E1.06446
G1 X109.747 Y106.990 F7800.000
G1 X109.872 Y106.934 F600.000 E1.06850
G1 F1800.000 E0.06850
G1 Z13.400 F7800.000
G92 E0
G1 X108.947 Y107.296
G1 Z12.900
G1 F1800.000 E1.00000
G1 X109.364 Y107.125 F600.000 E1.01327
G1 X109.364 Y106.858 E1.02112
G1 X109.373 Y106.871 F7800.000
G1 X109.390 Y106.865 F600.000 E1.02164
G1 X109.364 Y107.125 F7800.000
G1 X109.384 Y107.175 F600.000 E1.02322
G1 X109.384 Y107.175 F7800.000
G1 X109.783 Y107.350 F600.000 E1.03605
G1 X108.947 Y107.296 F7800.000
G1 X108.909 Y107.267 F600.000 E1.03743
G1 X108.909 Y107.267 F7800.000
G1 X108.744 Y107.354 F600.000 E1.04291
G1 F1800.000 E0.04291
G1 Z13.800 F7800.000
G92 E0
G1 X109.313 Y106.921
G1 Z13.300
G1 F1800.000 E1.00000
G1 X109.400 Y107.027 F600.000 E1.00401
G1 X109.283 Y107.173 E1.00952
G1 X108.763 Y107.280 E1.02514
G1 X109.283 Y107.173 F7800.000
G1 X109.504 Y107.200 F600.000 E1.03167
G1 X109.313 Y106.921 F7800.000
G1 X109.350 Y106.704 F600.000 E1.03812
G1 F1800.000 E0.03812
G1 Z14.200 F7800.000
G92 E0
G1 X108.946 Y107.289
G1 Z13.700
G1 F1800.000 E1.00000
G1 X109.359 Y107.142 F600.000 E1.01289
G1 X109.364 Y106.837 E1.02189
G1 X109.359 Y107.142 F7800.000
G1 X109.382 Y107.194 F600.000 E1.02354
G1 X109.382 Y107.194 F7800.000
G1 X109.785 Y107.340 F600.000 E1.03615
G1 X108.946 Y107.289 F7800.000
G1 X108.743 Y107.346 F600.000 E1.04234
G1 X108.743 Y107.346 F7800.000
G1 X108.726 Y107.325 F600.000 E1.04315
G1 F1800.000 E0.04315
G1 Z14.600 F7800.000
G92 E0
G1 X108.947 Y107.299
G1 Z14.100
G1 F1800.000 E1.00000
G1 X109.150 Y107.240 F600.000 E1.00620
G1 X109.320 Y106.990 E1.01511
G1 X109.264 Y106.915 E1.01786
G1 X109.320 Y106.990 F7800.000
G1 X109.472 Y106.930 F600.000 E1.02265
G1 X109.472 Y106.930 F7800.000
G1 X109.513 Y106.915 F600.000 E1.02393
G1 X109.393 Y107.002 F7800.000
G1 X109.580 Y107.293 F600.000 E1.03409
G1 X109.775 Y107.290 E1.03982
G1 X108.947 Y107.299 F7800.000
G1 X108.752 Y107.304 F600.000 E1.04556
G1 F1800.000 E0.04556
G1 Z15.000 F7800.000
G92 E0
G1 X110.382 Y107.400
G1 Z14.500
G1 F1800.000 E1.00000
G1 X110.587 Y107.511 F600.000 E1.00684
