; generated by Slic3r 0.9.10b on 2013-09-01 at 12:07:51

; layer_height = 0.4
; perimeters = 3
; top_solid_layers = 3
; bottom_solid_layers = 3
; fill_density = 0.4
; perimeter_speed = 30
; infill_speed = 60
; travel_speed = 130
; nozzle_diameter = 0.5
; filament_diameter = 3
; extrusion_multiplier = 1
; perimeters extrusion width = 0.53mm
; infill extrusion width = 0.53mm
; solid infill extrusion width = 0.53mm
; top infill extrusion width = 0.53mm
; first layer extrusion width = 1.00mm

G21 ; set units to millimeters
M107
M104 S180 ; set temperature
G28 ; home all axes
G1 Z5 F5000 ; lift nozzle
M190 S60 ; bed on
M109 S180 ; wait for temperature to be reached
G90 ; use absolute coordinates
G92 E0
M82 ; use absolute distances for extrusion
G1 F1800.000 E-1.00000
G1 Z1.000 F7800.000
G92 E0
G1 X82.090 Y82.290
G1 Z0.500
G1 F1800.000 E1.00000
G1 X93.290 Y71.090 F600.000 E2.00017
G1 X93.880 Y70.560 E2.05025
G1 X94.410 Y70.140 E2.09296
G1 X95.230 Y69.580 E2.15566
G1 X96.130 Y69.140 E2.21892
G1 X96.780 Y68.880 E2.26312
G1 X97.620 Y68.600 E2.31904
G1 X98.500 Y68.440 E2.37551
G1 X99.150 Y68.360 E2.41687
G1 X99.970 Y68.310 E2.46874
G1 X100.800 Y68.350 E2.52122
G1 X101.480 Y68.430 E2.56445
G1 X102.420 Y68.610 E2.62489
G1 X103.340 Y68.920 E2.68619
G1 X103.960 Y69.180 E2.72864
G1 X104.770 Y69.590 E2.78597
G1 X105.520 Y70.100 E2.84324
G1 X106.060 Y70.520 E2.88644
G1 X106.700 Y71.090 E2.94056
G1 X117.900 Y82.290 E3.94073
G1 X118.430 Y82.880 E3.99081
G1 X118.850 Y83.410 E4.03351
G1 X119.390 Y84.200 E4.09394
G1 X119.820 Y85.060 E4.15465
G1 X120.080 Y85.690 E4.19769
G1 X120.380 Y86.590 E4.25759
G1 X120.560 Y87.510 E4.31679
G1 X120.640 Y88.190 E4.36003
G1 X120.680 Y89.010 E4.41187
G1 X120.630 Y89.820 E4.46311
G1 X120.550 Y90.490 E4.50572
G1 X120.370 Y91.430 E4.56615
G1 X120.070 Y92.340 E4.62666
G1 X119.810 Y92.960 E4.66911
G1 X119.400 Y93.770 E4.72644
G1 X118.890 Y94.520 E4.78371
G1 X118.470 Y95.060 E4.82691
G1 X117.900 Y95.700 E4.88103
G1 X106.700 Y106.900 E5.88120
G1 X106.060 Y107.470 E5.93532
G1 X105.520 Y107.890 E5.97852
G1 X104.770 Y108.400 E6.03579
G1 X103.960 Y108.810 E6.09312
G1 X103.340 Y109.070 E6.13557
G1 X102.430 Y109.370 E6.19607
G1 X101.490 Y109.550 E6.25651
G1 X100.820 Y109.630 E6.29912
G1 X100.010 Y109.680 E6.35036
G1 X99.190 Y109.640 E6.40220
G1 X98.510 Y109.560 E6.44544
G1 X97.590 Y109.380 E6.50463
G1 X96.690 Y109.080 E6.56454
G1 X96.060 Y108.820 E6.60757
G1 X95.200 Y108.390 E6.66829
G1 X94.410 Y107.850 E6.72871
G1 X93.880 Y107.430 E6.77142
G1 X93.290 Y106.900 E6.82150
G1 X82.090 Y95.700 E7.82167
G1 X81.520 Y95.060 E7.87579
G1 X81.100 Y94.520 E7.91899
G1 X80.590 Y93.770 E7.97626
G1 X80.180 Y92.960 E8.03359
G1 X79.920 Y92.340 E8.07604
G1 X79.610 Y91.420 E8.13734
G1 X79.430 Y90.480 E8.19778
G1 X79.350 Y89.800 E8.24101
G1 X79.310 Y88.980 E8.29285
G1 X79.360 Y88.170 E8.34410
G1 X79.440 Y87.500 E8.38671
G1 X79.610 Y86.580 E8.44578
G1 X79.910 Y85.690 E8.50509
G1 X80.170 Y85.060 E8.54813
G1 X80.600 Y84.200 E8.60884
G1 X81.140 Y83.410 E8.66927
G1 X81.560 Y82.880 E8.71197
G1 X82.001 Y82.390 E8.75359
G1 F1800.000 E7.75359
G1 Z1.000 F7800.000
G92 E0
G1 X102.108 Y88.689
G1 Z0.500
G1 F1800.000 E1.00000
G1 X101.960 Y87.990 F600.000 E1.04512
G1 X101.203 Y87.154 E1.11635
G1 X99.885 Y86.800 E1.20247
G1 X98.796 Y87.155 E1.27483
G1 X98.146 Y87.808 E1.33301
G1 X97.806 Y89.131 E1.41929
G1 X98.040 Y90.010 E1.47670
G1 X98.797 Y90.846 E1.54793
G1 X100.118 Y91.200 E1.63430
G1 X101.204 Y90.845 E1.70641
G1 X101.854 Y90.192 E1.76459
G1 X102.202 Y89.106 E1.83664
G1 X102.108 Y88.689 E1.86358
G1 F1800.000 E0.86358
G1 Z1.000 F7800.000
G92 E0
G1 X105.764 Y89.062
G1 X104.144 Y84.991
G1 X105.764 Y77.862
G1 X102.108 Y77.489
G1 Z0.500
G1 F1800.000 E1.00000
G1 X101.960 Y76.790 F600.000 E1.04512
G1 X101.203 Y75.954 E1.11635
G1 X99.885 Y75.600 E1.20247
G1 X98.796 Y75.955 E1.27483
G1 X98.146 Y76.608 E1.33301
G1 X97.806 Y77.931 E1.41929
G1 X98.040 Y78.810 E1.47670
G1 X98.797 Y79.646 E1.54793
G1 X100.118 Y80.000 E1.63430
G1 X101.204 Y79.645 E1.70641
G1 X101.854 Y78.992 E1.76459
G1 X102.202 Y77.906 E1.83664
G1 X102.108 Y77.489 E1.86358
G1 F1800.000 E0.86358
G1 Z1.000 F7800.000
G92 E0
G1 X105.764 Y77.862
G1 X104.009 Y81.944
G1 X100.445 Y83.400
G1 X99.574 Y83.400
G1 X95.987 Y84.866
G1 X92.944 Y84.991
G1 X94.564 Y89.062
G1 X90.908 Y88.689
G1 Z0.500
G1 F1800.000 E1.00000
G1 X90.760 Y87.990 F600.000 E1.04512
G1 X90.003 Y87.154 E1.11635
G1 X88.685 Y86.800 E1.20247
G1 X87.596 Y87.155 E1.27483
G1 X86.946 Y87.808 E1.33301
G1 X86.606 Y89.131 E1.41929
G1 X86.840 Y90.010 E1.47670
G1 X87.597 Y90.846 E1.54793
G1 X88.918 Y91.200 E1.63430
G1 X90.004 Y90.845 E1.70641
G1 X90.654 Y90.192 E1.76459
G1 X91.002 Y89.106 E1.83664
G1 X90.908 Y88.689 E1.86358
G1 F1800.000 E0.86358
G1 Z1.000 F7800.000
G92 E0
G1 X94.564 Y89.062
G1 X92.809 Y93.144
G1 X95.987 Y96.066
G1 X99.574 Y94.600
G1 X100.445 Y94.600
G1 X104.144 Y96.191
G1 X105.764 Y100.262
G1 X102.108 Y99.889
G1 Z0.500
G1 F1800.000 E1.00000
G1 X101.960 Y99.190 F600.000 E1.04512
G1 X101.203 Y98.354 E1.11635
G1 X99.885 Y98.000 E1.20247
G1 X98.796 Y98.355 E1.27483
G1 X98.146 Y99.008 E1.33301
G1 X97.806 Y100.331 E1.41929
G1 X98.040 Y101.210 E1.47670
G1 X98.797 Y102.046 E1.54793
G1 X100.118 Y102.400 E1.63430
G1 X101.204 Y102.045 E1.70641
G1 X101.854 Y101.392 E1.76459
G1 X102.202 Y100.306 E1.83664
G1 X102.108 Y99.889 E1.86358
G1 F1800.000 E0.86358
G1 Z1.000 F7800.000
G92 E0
G1 X105.764 Y100.262
G1 X115.209 Y93.144
G1 X116.964 Y89.062
G1 X113.308 Y88.689
G1 Z0.500
G1 F1800.000 E1.00000
G1 X113.160 Y87.990 F600.000 E1.04512
G1 X112.403 Y87.154 E1.11635
G1 X111.085 Y86.800 E1.20247
G1 X109.996 Y87.155 E1.27483
G1 X109.346 Y87.808 E1.33301
G1 X109.006 Y89.131 E1.41929
G1 X109.240 Y90.010 E1.47670
G1 X109.997 Y90.846 E1.54793
G1 X111.318 Y91.200 E1.63430
G1 X112.404 Y90.845 E1.70641
G1 X113.054 Y90.192 E1.76459
G1 X113.402 Y89.106 E1.83664
G1 X113.308 Y88.689 E1.86358
M106 S255
G1 F1800.000 E0.86358
G1 Z1.400 F7800.000
G92 E0
G1 X116.964 Y89.062
G1 X115.344 Y84.991
G1 X111.645 Y83.400
G1 X110.774 Y83.400
G1 X104.144 Y84.991
G1 X105.764 Y89.062
G1 X102.062 Y89.000
G1 Z0.900
G1 F1800.000 E1.00000
G1 X101.992 Y89.534 F600.000 E1.01583
G1 X101.967 Y89.594 E1.01773
G1 X101.786 Y90.031 E1.03166
G1 X101.458 Y90.458 E1.04749
G1 X101.031 Y90.786 E1.06332
G1 X100.594 Y90.967 E1.07724
G1 X100.534 Y90.992 E1.07915
G1 X100.000 Y91.062 E1.09497
G1 X99.466 Y90.992 E1.11080
G1 X99.029 Y90.811 E1.12473
G1 X98.969 Y90.786 E1.12663
G1 X98.542 Y90.458 E1.14246
G1 X98.214 Y90.031 E1.15829
G1 X98.008 Y89.534 E1.17412
G1 X97.938 Y89.000 E1.18995
G1 X98.008 Y88.466 E1.20578
G1 X98.214 Y87.969 E1.22161
G1 X98.542 Y87.542 E1.23744
G1 X98.969 Y87.214 E1.25326
G1 X99.466 Y87.008 E1.26909
G1 X100.000 Y86.938 E1.28492
G1 X100.534 Y87.008 E1.30075
G1 X101.031 Y87.214 E1.31658
G1 X101.458 Y87.542 E1.33241
G1 X101.786 Y87.969 E1.34824
G1 X101.992 Y88.466 E1.36407
G1 X102.052 Y88.923 E1.37761
G1 X101.601 Y89.240 F7800.000
G1 X102.258 Y89.605
G1 X102.025 Y90.169 F600.000 E1.39555
G1 X101.653 Y90.653 E1.41350
G1 X101.169 Y91.025 E1.43145
G1 X100.605 Y91.258 E1.44939
G1 X100.000 Y91.338 E1.46734
G1 X99.395 Y91.258 E1.48529
G1 X98.831 Y91.025 E1.50323
G1 X98.347 Y90.653 E1.52118
G1 X97.975 Y90.169 E1.53913
G1 X97.742 Y89.605 E1.55707
G1 X97.662 Y89.000 E1.57502
G1 X97.742 Y88.395 E1.59297
G1 X97.975 Y87.831 E1.61091
G1 X98.347 Y87.347 E1.62886
G1 X98.831 Y86.975 E1.64681
G1 X99.395 Y86.742 E1.66475
G1 X100.000 Y86.662 E1.68270
G1 X100.605 Y86.742 E1.70065
G1 X101.169 Y86.975 E1.71859
G1 X101.653 Y87.347 E1.73654
G1 X102.025 Y87.831 E1.75449
G1 X102.258 Y88.395 E1.77243
G1 X102.338 Y89.000 E1.79038
G1 X102.268 Y89.528 E1.80604
G1 X101.751 Y89.718 F7800.000
G1 F1800.000 E0.80604
G1 Z1.400 F7800.000
G92 E0
G1 X101.636 Y87.980
G1 X101.218 Y87.446
G1 X98.352 Y87.578
G1 Z0.900
G1 F1800.000 E1.00000
G1 X98.953 Y87.064 F600.000 E1.02326
G1 X99.946 Y86.800 E1.05346
G1 X101.047 Y87.064 E1.08675
G1 X101.593 Y87.483 E1.10700
G1 X102.087 Y88.340 E1.13609
G1 X102.198 Y89.024 E1.15647
G1 X101.942 Y90.009 E1.18639
G1 X101.533 Y90.578 E1.20700
G1 X100.629 Y91.109 E1.23784
G1 X99.939 Y91.200 E1.25831
G1 X98.953 Y90.936 E1.28831
G1 X98.407 Y90.517 E1.30855
G1 X97.913 Y89.660 E1.33764
G1 X97.802 Y88.976 E1.35803
G1 X97.883 Y88.408 E1.37490
G1 X98.352 Y87.578 E1.40293
G1 F1800.000 E0.40293
G1 Z1.400 F7800.000
G92 E0
G1 X95.987 Y84.866
G1 X95.856 Y81.809
G1 X99.938 Y83.564
G1 X99.466 Y79.792
G1 Z0.900
G1 F1800.000 E1.00000
G1 X98.969 Y79.586 F600.000 E1.01583
G1 X98.542 Y79.258 E1.03166
G1 X98.214 Y78.831 E1.04749
G1 X98.008 Y78.334 E1.06332
G1 X98.000 Y78.269 E1.06522
G1 X97.938 Y77.800 E1.07915
G1 X98.008 Y77.266 E1.09497
G1 X98.214 Y76.769 E1.11080
G1 X98.542 Y76.342 E1.12663
G1 X98.969 Y76.014 E1.14246
G1 X99.466 Y75.808 E1.15829
G1 X99.936 Y75.746 E1.17221
G1 X100.000 Y75.738 E1.17412
G1 X100.534 Y75.808 E1.18995
G1 X101.031 Y76.014 E1.20578
G1 X101.458 Y76.342 E1.22161
G1 X101.786 Y76.769 E1.23744
G1 X101.992 Y77.266 E1.25326
G1 X102.000 Y77.331 E1.25517
G1 X102.062 Y77.800 E1.26909
G1 X101.992 Y78.334 E1.28492
G1 X101.786 Y78.831 E1.30075
G1 X101.458 Y79.258 E1.31658
G1 X101.031 Y79.586 E1.33241
G1 X100.534 Y79.792 E1.34824
G1 X100.000 Y79.862 E1.36407
G1 X99.544 Y79.802 E1.37761
G1 X99.354 Y79.284 F7800.000
G1 X98.831 Y79.825
G1 X98.347 Y79.453 F600.000 E1.39555
G1 X97.975 Y78.969 E1.41350
G1 X97.742 Y78.405 E1.43145
G1 X97.662 Y77.800 E1.44939
G1 X97.742 Y77.195 E1.46734
G1 X97.975 Y76.631 E1.48529
G1 X98.347 Y76.147 E1.50323
G1 X98.831 Y75.775 E1.52118
G1 X99.395 Y75.542 E1.53913
G1 X100.000 Y75.462 E1.55707
G1 X100.605 Y75.542 E1.57502
G1 X101.169 Y75.775 E1.59297
G1 X101.653 Y76.147 E1.61091
G1 X102.025 Y76.631 E1.62886
G1 X102.258 Y77.195 E1.64681
G1 X102.338 Y77.800 E1.66475
G1 X102.258 Y78.405 E1.68270
G1 X102.025 Y78.969 E1.70065
G1 X101.653 Y79.453 E1.71859
G1 X101.169 Y79.825 E1.73654
G1 X100.605 Y80.058 E1.75449
G1 X100.000 Y80.138 E1.77243
G1 X99.395 Y80.058 E1.79038
G1 X98.903 Y79.855 E1.80604
G1 X98.854 Y79.306 F7800.000
G1 F1800.000 E0.80604
G1 Z1.400 F7800.000
G92 E0
G1 X101.636 Y76.780
G1 X101.218 Y76.246
G1 X98.352 Y76.378
G1 Z0.900
G1 F1800.000 E1.00000
G1 X98.953 Y75.864 F600.000 E1.02326
G1 X99.946 Y75.600 E1.05346
G1 X101.047 Y75.864 E1.08675
G1 X101.593 Y76.283 E1.10700
G1 X102.087 Y77.140 E1.13609
G1 X102.198 Y77.824 E1.15647
G1 X101.942 Y78.809 E1.18639
G1 X101.533 Y79.378 E1.20700
G1 X100.629 Y79.909 E1.23784
G1 X99.939 Y80.000 E1.25831
G1 X98.953 Y79.736 E1.28831
G1 X98.407 Y79.317 E1.30855
G1 X97.913 Y78.460 E1.33764
G1 X97.802 Y77.776 E1.35803
G1 X97.883 Y77.208 E1.37490
G1 X98.352 Y76.378 E1.40293
G1 F1800.000 E0.40293
G1 Z1.400 F7800.000
G92 E0
G1 X95.987 Y73.666
G1 X94.236 Y77.738
G1 X92.944 Y84.991
G1 X89.831 Y87.214
G1 Z0.900
G1 F1800.000 E1.00000
G1 X90.258 Y87.542 F600.000 E1.01583
G1 X90.586 Y87.969 E1.03166
G1 X90.792 Y88.466 E1.04749
G1 X90.862 Y89.000 E1.06332
G1 X90.792 Y89.534 E1.07915
G1 X90.586 Y90.031 E1.09497
G1 X90.258 Y90.458 E1.11080
G1 X89.831 Y90.786 E1.12663
G1 X89.334 Y90.992 E1.14246
G1 X88.800 Y91.062 E1.15829
G1 X88.331 Y91.000 E1.17221
G1 X88.266 Y90.992 E1.17412
G1 X87.769 Y90.786 E1.18995
G1 X87.342 Y90.458 E1.20578
G1 X87.014 Y90.031 E1.22161
G1 X86.808 Y89.534 E1.23744
G1 X86.738 Y89.000 E1.25326
G1 X86.746 Y88.936 E1.25517
G1 X86.808 Y88.466 E1.26909
G1 X87.014 Y87.969 E1.28492
G1 X87.342 Y87.542 E1.30075
G1 X87.769 Y87.214 E1.31658
G1 X88.266 Y87.008 E1.33241
G1 X88.800 Y86.938 E1.34824
G1 X89.334 Y87.008 E1.36407
G1 X89.759 Y87.184 E1.37761
G1 X89.808 Y87.733 F7800.000
G1 X90.453 Y87.347
G1 X90.825 Y87.831 F600.000 E1.39555
G1 X91.058 Y88.395 E1.41350
G1 X91.138 Y89.000 E1.43145
G1 X91.058 Y89.605 E1.44939
G1 X90.825 Y90.169 E1.46734
G1 X90.453 Y90.653 E1.48529
G1 X89.969 Y91.025 E1.50323
G1 X89.405 Y91.258 E1.52118
G1 X88.800 Y91.338 E1.53913
G1 X88.195 Y91.258 E1.55707
G1 X87.631 Y91.025 E1.57502
G1 X87.147 Y90.653 E1.59297
G1 X86.775 Y90.169 E1.61091
G1 X86.542 Y89.605 E1.62886
G1 X86.462 Y89.000 E1.64681
G1 X86.542 Y88.395 E1.66475
G1 X86.775 Y87.831 E1.68270
G1 X87.147 Y87.347 E1.70065
G1 X87.631 Y86.975 E1.71859
G1 X88.195 Y86.742 E1.73654
G1 X88.800 Y86.662 E1.75449
G1 X89.405 Y86.742 E1.77243
G1 X89.969 Y86.975 E1.79038
G1 X90.391 Y87.299 E1.80604
G1 X90.297 Y87.842 F7800.000
G1 F1800.000 E0.80604
G1 Z1.400 F7800.000
G92 E0
G1 X90.436 Y87.980
G1 X90.018 Y87.446
G1 X87.152 Y87.578
G1 Z0.900
G1 F1800.000 E1.00000
G1 X87.753 Y87.064 F600.000 E1.02326
G1 X88.746 Y86.800 E1.05346
G1 X89.847 Y87.064 E1.08675
G1 X90.393 Y87.483 E1.10700
G1 X90.887 Y88.340 E1.13609
G1 X90.998 Y89.024 E1.15647
G1 X90.742 Y90.009 E1.18639
G1 X90.333 Y90.578 E1.20700
G1 X89.429 Y91.109 E1.23784
G1 X88.739 Y91.200 E1.25831
G1 X87.753 Y90.936 E1.28831
G1 X87.207 Y90.517 E1.30855
G1 X86.713 Y89.660 E1.33764
G1 X86.602 Y88.976 E1.35803
G1 X86.683 Y88.408 E1.37490
G1 X87.152 Y87.578 E1.40293
G1 F1800.000 E0.40293
G1 Z1.400 F7800.000
G92 E0
G1 X84.787 Y84.866
G1 X83.036 Y88.938
G1 X84.656 Y93.009
G1 X88.738 Y94.764
G1 X95.987 Y96.066
G1 X98.542 Y98.742
G1 Z0.900
G1 F1800.000 E1.00000
G1 X98.969 Y98.414 F600.000 E1.01583
G1 X99.466 Y98.208 E1.03166
G1 X100.000 Y98.138 E1.04749
G1 X100.534 Y98.208 E1.06332
G1 X101.031 Y98.414 E1.07915
G1 X101.458 Y98.742 E1.09497
G1 X101.786 Y99.169 E1.11080
G1 X101.811 Y99.229 E1.11271
G1 X101.992 Y99.666 E1.12663
G1 X102.062 Y100.200 E1.14246
G1 X101.992 Y100.734 E1.15829
G1 X101.967 Y100.794 E1.16020
G1 X101.786 Y101.231 E1.17412
G1 X101.458 Y101.658 E1.18995
G1 X101.031 Y101.986 E1.20578
G1 X100.594 Y102.167 E1.21970
G1 X100.534 Y102.192 E1.22161
G1 X100.000 Y102.262 E1.23744
G1 X99.466 Y102.192 E1.25326
G1 X99.029 Y102.011 E1.26719
G1 X98.969 Y101.986 E1.26909
G1 X98.542 Y101.658 E1.28492
G1 X98.214 Y101.231 E1.30075
G1 X98.008 Y100.734 E1.31658
G1 X97.938 Y100.200 E1.33241
G1 X98.008 Y99.666 E1.34824
G1 X98.214 Y99.169 E1.36407
G1 X98.494 Y98.804 E1.37761
G1 X99.037 Y98.898 F7800.000
G1 X98.831 Y98.175
G1 X99.395 Y97.942 F600.000 E1.39555
G1 X100.000 Y97.862 E1.41350
G1 X100.605 Y97.942 E1.43145
G1 X101.169 Y98.175 E1.44939
G1 X101.653 Y98.547 E1.46734
G1 X102.025 Y99.031 E1.48529
G1 X102.258 Y99.595 E1.50323
G1 X102.338 Y100.200 E1.52118
G1 X102.258 Y100.805 E1.53913
G1 X102.025 Y101.369 E1.55707
G1 X101.653 Y101.853 E1.57502
G1 X101.169 Y102.225 E1.59297
G1 X100.605 Y102.458 E1.61091
G1 X100.000 Y102.538 E1.62886
G1 X99.395 Y102.458 E1.64681
G1 X98.831 Y102.225 E1.66475
G1 X98.347 Y101.853 E1.68270
G1 X97.975 Y101.369 E1.70065
G1 X97.742 Y100.805 E1.71859
G1 X97.662 Y100.200 E1.73654
G1 X97.742 Y99.595 E1.75449
G1 X97.975 Y99.031 E1.77243
G1 X98.347 Y98.547 E1.79038
G1 X98.769 Y98.223 E1.80604
G1 X99.269 Y98.454 F7800.000
G1 X98.352 Y98.778
G1 X98.953 Y98.264 F600.000 E1.82929
G1 X99.946 Y98.000 E1.85950
G1 X101.047 Y98.264 E1.89279
G1 X101.593 Y98.683 E1.91304
G1 X102.087 Y99.540 E1.94212
G1 X102.198 Y100.224 E1.96251
G1 X101.942 Y101.209 E1.99242
G1 X101.533 Y101.778 E2.01303
G1 X100.629 Y102.309 E2.04387
G1 X99.939 Y102.400 E2.06434
G1 X98.953 Y102.136 E2.09434
G1 X98.407 Y101.717 E2.11459
G1 X97.913 Y100.860 E2.14368
G1 X97.802 Y100.176 E2.16406
G1 X97.883 Y99.608 E2.18094
G1 X98.352 Y98.778 E2.20896
G1 F1800.000 E1.20896
G1 Z1.400 F7800.000
G92 E0
G1 X95.987 Y96.066
G1 X99.574 Y94.600
G1 X100.445 Y94.600
G1 X107.056 Y93.009
G1 X109.414 Y90.031
G1 Z0.900
G1 F1800.000 E1.00000
G1 X109.208 Y89.534 F600.000 E1.01583
G1 X109.200 Y89.469 E1.01773
G1 X109.138 Y89.000 E1.03166
G1 X109.208 Y88.466 E1.04749
G1 X109.414 Y87.969 E1.06332
G1 X109.742 Y87.542 E1.07915
G1 X110.169 Y87.214 E1.09497
G1 X110.666 Y87.008 E1.11080
G1 X111.136 Y86.946 E1.12473
G1 X111.200 Y86.938 E1.12663
G1 X111.734 Y87.008 E1.14246
G1 X112.231 Y87.214 E1.15829
G1 X112.658 Y87.542 E1.17412
G1 X112.986 Y87.969 E1.18995
G1 X113.192 Y88.466 E1.20578
G1 X113.200 Y88.531 E1.20768
G1 X113.262 Y89.000 E1.22161
G1 X113.192 Y89.534 E1.23744
G1 X112.986 Y90.031 E1.25326
G1 X112.658 Y90.458 E1.26909
G1 X112.231 Y90.786 E1.28492
G1 X111.734 Y90.992 E1.30075
G1 X111.200 Y91.062 E1.31658
G1 X110.666 Y90.992 E1.33241
