; generated by Slic3r 0.9.10b on 2013-09-01 at 12:29:09

; layer_height = 0.4
; perimeters = 3
; top_solid_layers = 3
; bottom_solid_layers = 3
; fill_density = 0.4
; perimeter_speed = 30
; infill_speed = 60
; travel_speed = 130
; nozzle_diameter = 0.5
; filament_diameter = 3
; extrusion_multiplier = 1
; perimeters extrusion width = 0.53mm
; infill extrusion width = 0.53mm
; solid infill extrusion width = 0.53mm
; top infill extrusion width = 0.53mm
; first layer extrusion width = 1.00mm

G21 ; set units to millimeters
M107
M104 S180 ; set temperature
G28 ; home all axes
G1 Z5 F5000 ; lift nozzle
M190 S60 ; bed on
M109 S180 ; wait for temperature to be reached
G90 ; use absolute coordinates
G92 E0
M82 ; use absolute distances for extrusion
G1 F1800.000 E-1.00000
G1 Z1.000 F7800.000
G92 E0
G1 X83.637 Y77.360
G1 Z0.500
G1 F1800.000 E1.00000
G1 X84.317 Y76.760 F600.000 E1.05726
G1 X84.937 Y76.280 E1.10678
G1 X85.737 Y75.750 E1.16737
G1 X86.597 Y75.330 E1.22781
G1 X87.347 Y75.030 E1.27882
G1 X88.007 Y74.800 E1.32295
G1 X88.697 Y74.650 E1.36754
G1 X107.757 Y71.250 E2.59009
G1 X108.517 Y71.160 E2.63842
G1 X109.357 Y71.110 E2.69155
G1 X110.207 Y71.160 E2.74532
G1 X110.987 Y71.260 E2.79498
G1 X111.887 Y71.440 E2.85293
G1 X112.757 Y71.740 E2.91104
G1 X113.477 Y72.040 E2.96030
G1 X114.267 Y72.420 E3.01565
G1 X114.987 Y72.910 E3.07065
G1 X115.607 Y73.380 E3.11978
G1 X116.297 Y73.970 E3.17710
G1 X116.897 Y74.650 E3.23437
G1 X117.377 Y75.270 E3.28388
G1 X117.897 Y76.040 E3.34255
G1 X118.307 Y76.870 E3.40101
G1 X118.607 Y77.600 E3.45084
G1 X118.887 Y78.450 E3.50735
G1 X119.067 Y79.330 E3.56407
G1 X119.167 Y80.100 E3.61310
G1 X119.217 Y81.280 E3.68768
G1 X118.547 Y97.280 E4.69890
G1 X118.497 Y97.870 E4.73629
G1 X118.397 Y98.650 E4.78594
G1 X118.227 Y99.530 E4.84254
G1 X117.937 Y100.380 E4.89925
G1 X117.647 Y101.090 E4.94768
G1 X117.267 Y101.880 E5.00303
G1 X116.777 Y102.620 E5.05908
G1 X116.297 Y103.260 E5.10959
G1 X115.657 Y103.990 E5.17090
G1 X114.927 Y104.630 E5.23220
G1 X114.287 Y105.110 E5.28272
G1 X113.547 Y105.600 E5.33876
G1 X112.757 Y105.980 E5.39412
G1 X112.047 Y106.270 E5.44254
G1 X111.197 Y106.560 E5.49926
G1 X110.317 Y106.730 E5.55585
G1 X109.537 Y106.830 E5.60551
G1 X108.407 Y106.880 E5.67693
G1 X90.407 Y106.220 E6.81432
G1 X89.767 Y106.170 E6.85485
G1 X88.997 Y106.070 E6.90388
G1 X88.117 Y105.890 E6.96060
G1 X87.267 Y105.610 E7.01711
G1 X86.537 Y105.310 E7.06695
G1 X85.707 Y104.900 E7.12541
G1 X84.937 Y104.380 E7.18408
G1 X84.317 Y103.900 E7.23359
G1 X83.637 Y103.300 E7.29085
G1 X83.047 Y102.610 E7.34818
G1 X82.577 Y101.990 E7.39731
G1 X82.087 Y101.250 E7.45335
G1 X81.687 Y100.450 E7.50983
G1 X81.387 Y99.720 E7.55967
G1 X81.107 Y98.870 E7.61618
G1 X80.927 Y97.990 E7.67290
G1 X80.827 Y97.220 E7.72193
G1 X80.777 Y96.330 E7.77822
G1 X80.777 Y84.330 E8.53596
G1 X80.827 Y83.450 E8.59162
G1 X80.927 Y82.670 E8.64128
G1 X81.107 Y81.770 E8.69923
G1 X81.407 Y80.900 E8.75734
G1 X81.707 Y80.180 E8.80660
G1 X82.087 Y79.390 E8.86195
G1 X82.577 Y78.670 E8.91695
G1 X83.047 Y78.050 E8.96608
G1 X83.550 Y77.462 E9.01495
G1 F1800.000 E8.01495
G1 Z1.000 F7800.000
G92 E0
G1 X92.754 Y94.961
G1 Z0.500
G1 F1800.000 E1.00000
G1 X93.113 Y95.799 F600.000 E1.05755
G1 X93.113 Y96.838 E1.12315
G1 X92.775 Y97.685 E1.18079
G1 X92.032 Y98.432 E1.24728
G1 X91.187 Y98.782 E1.30507
G1 X90.147 Y98.782 E1.37073
G1 X89.303 Y98.433 E1.42842
G1 X88.579 Y97.705 E1.49319
G1 X88.220 Y96.868 E1.55073
G1 X88.220 Y95.829 E1.61633
G1 X88.559 Y94.981 E1.67397
G1 X89.301 Y94.235 E1.74046
G1 X90.161 Y93.885 E1.79906
G1 X91.187 Y93.884 E1.86385
G1 X92.031 Y94.234 E1.92156
G1 X92.754 Y94.961 E1.98632
G1 F1800.000 E0.98632
G1 Z1.000 F7800.000
G92 E0
G1 X95.091 Y92.039
G1 X96.831 Y84.393
G1 X95.091 Y80.039
G1 X92.754 Y82.961
G1 Z0.500
G1 F1800.000 E1.00000
G1 X93.113 Y83.799 F600.000 E1.05755
G1 X93.113 Y84.838 E1.12315
G1 X92.775 Y85.685 E1.18079
G1 X92.032 Y86.432 E1.24728
G1 X91.187 Y86.782 E1.30507
G1 X90.147 Y86.782 E1.37073
G1 X89.303 Y86.433 E1.42842
G1 X88.579 Y85.705 E1.49319
G1 X88.220 Y84.868 E1.55073
G1 X88.220 Y83.829 E1.61633
G1 X88.559 Y82.981 E1.67397
G1 X89.301 Y82.235 E1.74046
G1 X90.161 Y81.885 E1.79906
G1 X91.187 Y81.884 E1.86385
G1 X92.031 Y82.234 E1.92156
G1 X92.754 Y82.961 E1.98632
G1 F1800.000 E0.98632
G1 Z1.000 F7800.000
G92 E0
G1 X95.091 Y80.039
G1 X102.443 Y83.000
G1 X106.424 Y84.706
G1 X104.087 Y87.628
G1 Z0.500
G1 F1800.000 E1.00000
G1 X104.447 Y88.465 F600.000 E1.05755
G1 X104.447 Y89.504 E1.12315
G1 X104.108 Y90.352 E1.18079
G1 X103.365 Y91.098 E1.24728
G1 X102.520 Y91.449 E1.30507
G1 X101.480 Y91.449 E1.37073
G1 X100.636 Y91.099 E1.42842
G1 X99.913 Y90.372 E1.49319
G1 X99.553 Y89.535 E1.55073
G1 X99.553 Y88.496 E1.61633
G1 X99.892 Y87.648 E1.67397
G1 X100.635 Y86.902 E1.74046
G1 X101.494 Y86.551 E1.79906
G1 X102.520 Y86.550 E1.86385
G1 X103.364 Y86.901 E1.92156
G1 X104.087 Y87.628 E1.98632
G1 F1800.000 E0.98632
G1 Z1.000 F7800.000
G92 E0
G1 X106.424 Y84.706
G1 X108.165 Y89.059
G1 X113.091 Y92.706
G1 X110.754 Y95.628
G1 Z0.500
G1 F1800.000 E1.00000
G1 X111.113 Y96.465 F600.000 E1.05755
G1 X111.113 Y97.504 E1.12315
G1 X110.775 Y98.352 E1.18079
G1 X110.032 Y99.098 E1.24728
G1 X109.187 Y99.449 E1.30507
G1 X108.147 Y99.449 E1.37073
G1 X107.303 Y99.099 E1.42842
G1 X106.579 Y98.372 E1.49319
G1 X106.220 Y97.535 E1.55073
G1 X106.220 Y96.496 E1.61633
G1 X106.559 Y95.648 E1.67397
G1 X107.301 Y94.902 E1.74046
G1 X108.161 Y94.551 E1.79906
G1 X109.187 Y94.550 E1.86385
G1 X110.031 Y94.901 E1.92156
G1 X110.754 Y95.628 E1.98632
G1 F1800.000 E0.98632
G1 Z1.000 F7800.000
G92 E0
G1 X113.091 Y92.706
G1 X115.498 Y81.059
G1 X113.758 Y76.706
G1 X111.421 Y79.628
G1 Z0.500
G1 F1800.000 E1.00000
G1 X111.780 Y80.465 F600.000 E1.05755
G1 X111.780 Y81.504 E1.12315
G1 X111.441 Y82.352 E1.18079
G1 X110.699 Y83.098 E1.24728
G1 X109.853 Y83.449 E1.30507
G1 X108.813 Y83.449 E1.37073
G1 X107.969 Y83.099 E1.42842
G1 X107.246 Y82.372 E1.49319
G1 X106.887 Y81.535 E1.55073
G1 X106.887 Y80.496 E1.61633
G1 X107.225 Y79.648 E1.67397
G1 X107.968 Y78.902 E1.74046
G1 X108.827 Y78.551 E1.79906
G1 X109.853 Y78.550 E1.86385
G1 X110.697 Y78.901 E1.92156
G1 X111.421 Y79.628 E1.98632
M106 S255
G1 F1800.000 E0.98632
G1 Z1.400 F7800.000
G92 E0
G1 X113.758 Y76.706
G1 X109.777 Y75.000
G1 X108.907 Y75.000
G1 X105.036 Y76.585
G1 X97.702 Y84.585
G1 X95.835 Y88.941
G1 X95.091 Y92.039
G1 X92.266 Y94.734
G1 Z0.900
G1 F1800.000 E1.00000
G1 X92.626 Y95.202 F600.000 E1.01736
G1 X92.652 Y95.265 E1.01937
G1 X92.852 Y95.748 E1.03473
G1 X92.929 Y96.333 E1.05209
G1 X92.852 Y96.919 E1.06946
G1 X92.626 Y97.464 E1.08682
G1 X92.266 Y97.933 E1.10419
G1 X91.798 Y98.292 E1.12155
G1 X91.252 Y98.518 E1.13891
G1 X90.667 Y98.595 E1.15628
G1 X90.081 Y98.518 E1.17364
G1 X89.599 Y98.318 E1.18900
G1 X89.536 Y98.292 E1.19101
G1 X89.067 Y97.933 E1.20837
G1 X88.708 Y97.464 E1.22574
G1 X88.682 Y97.401 E1.22774
G1 X88.482 Y96.919 E1.24310
G1 X88.405 Y96.333 E1.26046
G1 X88.482 Y95.748 E1.27783
G1 X88.508 Y95.685 E1.27983
G1 X88.708 Y95.202 E1.29519
G1 X89.067 Y94.734 E1.31256
G1 X89.536 Y94.374 E1.32992
G1 X90.018 Y94.174 E1.34528
G1 X90.081 Y94.148 E1.34729
G1 X90.667 Y94.071 E1.36465
G1 X91.252 Y94.148 E1.38202
G1 X91.798 Y94.374 E1.39938
G1 X92.204 Y94.686 E1.41445
G1 X92.110 Y95.229 F7800.000
G1 X93.038 Y94.964
G1 X93.311 Y95.625 F600.000 E1.43547
G1 X93.405 Y96.333 E1.45649
G1 X93.311 Y97.042 E1.47750
G1 X93.038 Y97.702 E1.49852
G1 X92.603 Y98.269 E1.51954
G1 X92.036 Y98.704 E1.54056
G1 X91.375 Y98.978 E1.56157
G1 X90.667 Y99.071 E1.58259
G1 X89.958 Y98.978 E1.60361
G1 X89.298 Y98.704 E1.62463
G1 X88.731 Y98.269 E1.64564
G1 X88.296 Y97.702 E1.66666
G1 X88.022 Y97.042 E1.68768
G1 X87.929 Y96.333 E1.70869
G1 X88.022 Y95.625 E1.72971
G1 X88.296 Y94.964 E1.75073
G1 X88.731 Y94.397 E1.77175
G1 X89.298 Y93.962 E1.79276
G1 X89.958 Y93.689 E1.81378
G1 X90.667 Y93.595 E1.83480
G1 X91.375 Y93.689 E1.85582
G1 X92.036 Y93.962 E1.87683
G1 X92.603 Y94.397 E1.89785
G1 X92.990 Y94.903 E1.91658
G1 X92.759 Y95.403 F7800.000
G1 X92.385 Y94.523
G1 X92.841 Y95.105 F600.000 E1.93833
G1 X93.085 Y95.710 E1.95750
G1 X93.164 Y96.357 E1.97667
G1 X92.873 Y97.484 E2.01089
G1 X92.435 Y98.097 E2.03306
G1 X91.944 Y98.483 E2.05142
G1 X91.377 Y98.731 E2.06960
G1 X90.601 Y98.833 E2.09263
G1 X89.474 Y98.531 E2.12695
G1 X88.859 Y98.060 E2.14972
G1 X88.293 Y97.080 E2.18301
G1 X88.169 Y96.310 E2.20595
G1 X88.460 Y95.183 E2.24017
G1 X88.898 Y94.569 E2.26233
G1 X89.474 Y94.135 E2.28352
G1 X90.609 Y93.833 E2.31808
G1 X91.377 Y93.936 E2.34086
G1 X92.385 Y94.523 E2.37516
G1 F1800.000 E1.37516
G1 Z1.400 F7800.000
G92 E0
G1 X95.091 Y92.039
G1 X94.961 Y88.758
G1 X90.607 Y90.498
G1 X91.252 Y86.518
G1 Z0.900
G1 F1800.000 E1.00000
G1 X90.667 Y86.595 F600.000 E1.01736
G1 X90.081 Y86.518 E1.03473
G1 X89.536 Y86.292 E1.05209
G1 X89.067 Y85.933 E1.06946
G1 X88.708 Y85.464 E1.08682
G1 X88.482 Y84.919 E1.10419
G1 X88.405 Y84.333 E1.12155
G1 X88.414 Y84.266 E1.12356
G1 X88.482 Y83.748 E1.13891
G1 X88.708 Y83.202 E1.15628
G1 X89.067 Y82.734 E1.17364
G1 X89.536 Y82.374 E1.19101
G1 X90.081 Y82.148 E1.20837
G1 X90.667 Y82.071 E1.22574
G1 X91.185 Y82.139 E1.24109
G1 X91.252 Y82.148 E1.24310
G1 X91.798 Y82.374 E1.26046
G1 X92.266 Y82.734 E1.27783
G1 X92.308 Y82.788 E1.27983
G1 X92.626 Y83.202 E1.29519
G1 X92.852 Y83.748 E1.31256
G1 X92.929 Y84.333 E1.32992
G1 X92.852 Y84.919 E1.34729
G1 X92.626 Y85.464 E1.36465
G1 X92.266 Y85.933 E1.38201
G1 X91.798 Y86.292 E1.39938
G1 X91.324 Y86.488 E1.41445
G1 X90.901 Y86.135 F7800.000
G1 X90.667 Y87.071
G1 X89.958 Y86.978 F600.000 E1.43547
G1 X89.298 Y86.704 E1.45649
G1 X88.731 Y86.269 E1.47750
G1 X88.296 Y85.702 E1.49852
G1 X88.022 Y85.042 E1.51954
G1 X87.929 Y84.333 E1.54056
G1 X88.022 Y83.625 E1.56157
G1 X88.296 Y82.964 E1.58259
G1 X88.731 Y82.397 E1.60361
G1 X89.298 Y81.962 E1.62462
G1 X89.958 Y81.689 E1.64564
G1 X90.667 Y81.595 E1.66666
G1 X91.375 Y81.689 E1.68768
G1 X92.036 Y81.962 E1.70869
G1 X92.603 Y82.397 E1.72971
G1 X93.038 Y82.964 E1.75073
G1 X93.311 Y83.625 E1.77175
G1 X93.405 Y84.333 E1.79276
G1 X93.311 Y85.042 E1.81378
G1 X93.038 Y85.702 E1.83480
G1 X92.603 Y86.269 E1.85582
G1 X92.036 Y86.704 E1.87683
G1 X91.375 Y86.978 E1.89785
G1 X90.744 Y87.061 E1.91658
G1 X90.427 Y86.610 F7800.000
G1 F1800.000 E0.91658
G1 Z1.400 F7800.000
G92 E0
G1 X92.928 Y83.856
G1 X92.405 Y82.595
G1 X92.385 Y82.523
G1 Z0.900
G1 F1800.000 E1.00000
G1 X92.841 Y83.105 F600.000 E1.02175
G1 X93.085 Y83.710 E1.04092
G1 X93.164 Y84.357 E1.06009
G1 X92.873 Y85.484 E1.09432
G1 X92.435 Y86.097 E1.11648
G1 X91.944 Y86.483 E1.13484
G1 X91.377 Y86.731 E1.15303
G1 X90.601 Y86.833 E1.17606
G1 X89.474 Y86.531 E1.21037
G1 X88.859 Y86.060 E1.23314
G1 X88.293 Y85.080 E1.26643
G1 X88.169 Y84.310 E1.28937
G1 X88.460 Y83.183 E1.32359
G1 X88.898 Y82.569 E1.34576
G1 X89.474 Y82.135 E1.36695
G1 X90.609 Y81.833 E1.40151
G1 X91.377 Y81.936 E1.42429
G1 X92.385 Y82.523 E1.45858
G1 F1800.000 E0.45858
G1 Z1.400 F7800.000
G92 E0
G1 X95.091 Y80.039
G1 X97.702 Y84.585
G1 X100.041 Y87.869
G1 Z0.900
G1 F1800.000 E1.00000
G1 X100.400 Y87.400 F600.000 E1.01736
G1 X100.869 Y87.041 E1.03473
G1 X101.415 Y86.815 E1.05209
G1 X102.000 Y86.738 E1.06946
G1 X102.518 Y86.806 E1.08482
G1 X102.585 Y86.815 E1.08682
G1 X103.131 Y87.041 E1.10419
G1 X103.600 Y87.400 E1.12155
G1 X103.641 Y87.455 E1.12356
G1 X103.959 Y87.869 E1.13891
G1 X104.185 Y88.415 E1.15628
G1 X104.262 Y89.000 E1.17364
G1 X104.185 Y89.585 E1.19101
G1 X103.959 Y90.131 E1.20837
G1 X103.600 Y90.600 E1.22574
G1 X103.131 Y90.959 E1.24310
G1 X102.585 Y91.185 E1.26046
G1 X102.000 Y91.262 E1.27783
G1 X101.415 Y91.185 E1.29519
G1 X100.869 Y90.959 E1.31256
G1 X100.400 Y90.600 E1.32992
G1 X100.041 Y90.131 E1.34729
G1 X99.815 Y89.585 E1.36465
G1 X99.738 Y89.000 E1.38201
G1 X99.815 Y88.415 E1.39938
G1 X100.011 Y87.941 E1.41445
G1 X100.560 Y87.892 F7800.000
G1 X100.064 Y87.064
G1 X100.631 Y86.629 F600.000 E1.43547
G1 X101.291 Y86.355 E1.45649
G1 X102.000 Y86.262 E1.47750
G1 X102.709 Y86.355 E1.49852
G1 X103.369 Y86.629 E1.51954
G1 X103.936 Y87.064 E1.54056
G1 X104.371 Y87.631 E1.56157
G1 X104.645 Y88.291 E1.58259
G1 X104.738 Y89.000 E1.60361
G1 X104.645 Y89.709 E1.62462
G1 X104.371 Y90.369 E1.64564
G1 X103.936 Y90.936 E1.66666
G1 X103.369 Y91.371 E1.68768
G1 X102.709 Y91.645 E1.70869
G1 X102.000 Y91.738 E1.72971
G1 X101.291 Y91.645 E1.75073
G1 X100.631 Y91.371 E1.77175
G1 X100.064 Y90.936 E1.79276
G1 X99.629 Y90.369 E1.81378
G1 X99.355 Y89.709 E1.83480
G1 X99.262 Y89.000 E1.85582
G1 X99.355 Y88.291 E1.87683
G1 X99.629 Y87.631 E1.89785
G1 X100.017 Y87.126 E1.91658
G1 X100.560 Y87.220 F7800.000
G1 X100.658 Y87.015
G1 X101.839 Y86.525
G1 X103.051 Y86.976
G1 X103.739 Y87.261
G1 X103.718 Y87.190
G1 X104.174 Y87.772 F600.000 E1.93833
G1 X104.418 Y88.377 E1.95750
G1 X104.497 Y89.024 E1.97667
G1 X104.206 Y90.151 E2.01089
G1 X103.768 Y90.764 E2.03306
G1 X103.277 Y91.149 E2.05142
G1 X102.711 Y91.398 E2.06960
G1 X101.934 Y91.500 E2.09263
G1 X100.807 Y91.198 E2.12695
G1 X100.192 Y90.727 E2.14972
G1 X99.626 Y89.747 E2.18301
G1 X99.503 Y88.976 E2.20595
G1 X99.794 Y87.849 E2.24017
G1 X100.232 Y87.236 E2.26233
G1 X100.807 Y86.802 E2.28352
G1 X101.943 Y86.500 E2.31808
G1 X102.711 Y86.602 E2.34086
G1 X103.718 Y87.190 E2.37516
G1 F1800.000 E1.37516
G1 Z1.400 F7800.000
G92 E0
G1 X106.424 Y84.706
G1 X108.165 Y89.059
G1 X108.241 Y91.000
G1 X104.369 Y92.585
G1 X107.536 Y95.041
G1 Z0.900
G1 F1800.000 E1.00000
G1 X108.081 Y94.815 F600.000 E1.01736
G1 X108.599 Y94.747 E1.03272
G1 X108.667 Y94.738 E1.03473
G1 X109.252 Y94.815 E1.05209
G1 X109.798 Y95.041 E1.06946
G1 X110.266 Y95.400 E1.08682
G1 X110.626 Y95.869 E1.10419
G1 X110.852 Y96.415 E1.12155
G1 X110.861 Y96.482 E1.12356
G1 X110.929 Y97.000 E1.13891
G1 X110.852 Y97.585 E1.15628
G1 X110.626 Y98.131 E1.17364
G1 X110.266 Y98.600 E1.19101
G1 X109.798 Y98.959 E1.20837
G1 X109.252 Y99.185 E1.22574
G1 X108.667 Y99.262 E1.24310
G1 X108.081 Y99.185 E1.26046
G1 X107.536 Y98.959 E1.27783
G1 X107.121 Y98.641 E1.29319
G1 X107.067 Y98.600 E1.29519
G1 X106.708 Y98.131 E1.31256
G1 X106.482 Y97.585 E1.32992
G1 X106.473 Y97.518 E1.33193
G1 X106.405 Y97.000 E1.34729
G1 X106.482 Y96.415 E1.36465
G1 X106.708 Y95.869 E1.38201
G1 X107.067 Y95.400 E1.39938
G1 X107.474 Y95.088 E1.41445
G1 X107.974 Y95.320 F7800.000
G1 X107.958 Y94.355
G1 X108.667 Y94.262 F600.000 E1.43547
G1 X109.375 Y94.355 E1.45649
G1 X110.036 Y94.629 E1.47750
G1 X110.603 Y95.064 E1.49852
G1 X111.038 Y95.631 E1.51954
G1 X111.311 Y96.291 E1.54056
G1 X111.405 Y97.000 E1.56157
G1 X111.311 Y97.709 E1.58259
G1 X111.038 Y98.369 E1.60361
G1 X110.603 Y98.936 E1.62462
G1 X110.036 Y99.371 E1.64564
G1 X109.375 Y99.645 E1.66666
G1 X108.667 Y99.738 E1.68768
G1 X107.958 Y99.645 E1.70869
G1 X107.298 Y99.371 E1.72971
G1 X106.731 Y98.936 E1.75073
G1 X106.296 Y98.369 E1.77175
G1 X106.022 Y97.709 E1.79276
G1 X105.929 Y97.000 E1.81378
G1 X106.022 Y96.291 E1.83480
G1 X106.296 Y95.631 E1.85582
G1 X106.731 Y95.064 E1.87683
G1 X107.298 Y94.629 E1.89785
G1 X107.886 Y94.385 E1.91658
G1 X108.309 Y94.738 F7800.000
G1 X110.385 Y95.190
G1 X110.841 Y95.772 F600.000 E1.93833
G1 X111.085 Y96.377 E1.95750
G1 X111.164 Y97.024 E1.97667
G1 X110.873 Y98.151 E2.01089
G1 X110.435 Y98.764 E2.03306
G1 X109.944 Y99.149 E2.05142
G1 X109.377 Y99.398 E2.06960
G1 X108.601 Y99.500 E2.09263
G1 X107.474 Y99.198 E2.12695
G1 X106.859 Y98.727 E2.14972
G1 X106.293 Y97.747 E2.18301
G1 X106.169 Y96.976 E2.20595
G1 X106.460 Y95.849 E2.24017
G1 X106.898 Y95.236 E2.26233
G1 X107.474 Y94.802 E2.28352
G1 X108.609 Y94.500 E2.31808
G1 X109.377 Y94.602 E2.34086
G1 X110.385 Y95.190 E2.37516
G1 F1800.000 E1.37516
G1 Z1.400 F7800.000
G92 E0
G1 X113.091 Y92.706
G1 X109.274 Y87.165
G1 X109.333 Y83.262
G1 Z0.900
G1 F1800.000 E1.00000
G1 X108.748 Y83.185 F600.000 E1.01736
G1 X108.265 Y82.985 E1.03272
G1 X108.202 Y82.959 E1.03473
G1 X107.734 Y82.600 E1.05209
G1 X107.374 Y82.131 E1.06946
G1 X107.348 Y82.068 E1.07146
G1 X107.148 Y81.585 E1.08682
G1 X107.071 Y81.000 E1.10419
G1 X107.148 Y80.415 E1.12155
G1 X107.174 Y80.352 E1.12356
G1 X107.374 Y79.869 E1.13891
G1 X107.734 Y79.400 E1.15628
G1 X108.202 Y79.041 E1.17364
