; generated by Slic3r 0.9.8-dev on 2013-01-12 at 09:38:09

; layer_height = 0.4
; perimeters = 3
; top_solid_layers = 3
; bottom_solid_layers = 3
; fill_density = 0.40
; perimeter_speed = 30
; infill_speed = 60
; travel_speed = 130
; scale = 1
; nozzle_diameter = 0.5
; filament_diameter = 3
; extrusion_multiplier = 1
; perimeters extrusion width = 0.53mm
; infill extrusion width = 0.53mm
; first layer extrusion width = 0.80mm

M190 S60 ; wait for bed temperature to be reached
M104 S180 ; set temperature
G28 ; home all axes
G92 E0 ;reset extruder
M109 S180 ; wait for temperature to be reached
G90 ; use absolute coordinates
G21 ; set units to millimeters
G92 E0 ; reset extrusion distance
M82 ; use absolute distances for extrusion
G1 F1800.000 E-1.00000 ; retract
G1 Z1.400 ; move to next layer (0) and lift
G92 E0 ; reset extrusion distance
G1 X149.530 Y112.090 F7800.000 ; move to first skirt point
G1 Z0.400 ; restore layer Z
G1 F1800.000 E1.00000 ; compensate retraction
G1 X149.470 Y112.970 F540.000 E1.03672 ; skirt
G1 X148.800 Y118.070 E1.25084 ; skirt
G1 X148.670 Y118.760 E1.28007 ; skirt
G1 X148.580 Y119.100 E1.29471 ; skirt
G1 X148.340 Y119.770 E1.32434 ; skirt
G1 X146.230 Y124.840 E1.55294 ; skirt
G1 X146.070 Y125.160 E1.56783 ; skirt
G1 X145.890 Y125.460 E1.58239 ; skirt
G1 X145.700 Y125.760 E1.59718 ; skirt
G1 X145.490 Y126.040 E1.61174 ; skirt
G1 X142.360 Y130.120 E1.82581 ; skirt
G1 X141.910 Y130.660 E1.85507 ; skirt
G1 X141.660 Y130.910 E1.86978 ; skirt
G1 X141.120 Y131.360 E1.89905 ; skirt
G1 X137.040 Y134.490 E2.11311 ; skirt
G1 X136.760 Y134.700 E2.12768 ; skirt
G1 X136.460 Y134.890 E2.14246 ; skirt
G1 X136.160 Y135.070 E2.15702 ; skirt
G1 X135.840 Y135.230 E2.17192 ; skirt
G1 X130.450 Y137.470 E2.41489 ; skirt
G1 X129.450 Y137.740 E2.45801 ; skirt
G1 X128.770 Y137.840 E2.48662 ; skirt
G1 X123.960 Y138.470 E2.68856 ; skirt
G1 X123.090 Y138.530 E2.72486 ; skirt
G1 X76.890 Y138.530 E4.64806 ; skirt
G1 X76.010 Y138.470 E4.68477 ; skirt
G1 X70.920 Y137.800 E4.89848 ; skirt
G1 X70.600 Y137.750 E4.91197 ; skirt
G1 X69.960 Y137.600 E4.93933 ; skirt
G1 X68.930 Y137.230 E4.98489 ; skirt
G1 X64.460 Y135.370 E5.18643 ; skirt
G1 X63.830 Y135.070 E5.21548 ; skirt
G1 X63.230 Y134.700 E5.24482 ; skirt
G1 X58.870 Y131.360 E5.47345 ; skirt
G1 X58.330 Y130.910 E5.50271 ; skirt
G1 X58.080 Y130.660 E5.51743 ; skirt
G1 X57.630 Y130.120 E5.54669 ; skirt
G1 X54.500 Y126.040 E5.76075 ; skirt
G1 X54.290 Y125.760 E5.77532 ; skirt
G1 X53.920 Y125.160 E5.80467 ; skirt
G1 X53.620 Y124.520 E5.83409 ; skirt
G1 X51.650 Y119.770 E6.04815 ; skirt
G1 X51.410 Y119.100 E6.07778 ; skirt
G1 X51.320 Y118.760 E6.09242 ; skirt
G1 X51.190 Y118.070 E6.12165 ; skirt
G1 X50.500 Y112.820 E6.34207 ; skirt
G1 X50.440 Y111.940 E6.37879 ; skirt
G1 X50.440 Y65.740 E8.30198 ; skirt
G1 X50.510 Y64.810 E8.34080 ; skirt
G1 X51.200 Y59.870 E8.54844 ; skirt
G1 X51.330 Y59.200 E8.57685 ; skirt
G1 X51.420 Y58.860 E8.59149 ; skirt
G1 X51.650 Y58.220 E8.61980 ; skirt
G1 X53.620 Y53.470 E8.83386 ; skirt
G1 X53.920 Y52.830 E8.86329 ; skirt
G1 X54.290 Y52.230 E8.89263 ; skirt
G1 X57.630 Y47.870 E9.12126 ; skirt
G1 X58.080 Y47.330 E9.15052 ; skirt
G1 X58.330 Y47.080 E9.16524 ; skirt
G1 X58.870 Y46.630 E9.19450 ; skirt
G1 X62.950 Y43.500 E9.40856 ; skirt
G1 X63.230 Y43.290 E9.42313 ; skirt
G1 X63.530 Y43.100 E9.43791 ; skirt
G1 X63.830 Y42.920 E9.45248 ; skirt
G1 X64.150 Y42.760 E9.46737 ; skirt
G1 X69.220 Y40.650 E9.69597 ; skirt
G1 X69.860 Y40.420 E9.72428 ; skirt
G1 X70.200 Y40.330 E9.73892 ; skirt
G1 X70.870 Y40.200 E9.76733 ; skirt
G1 X75.810 Y39.510 E9.97497 ; skirt
G1 X76.740 Y39.440 E10.01379 ; skirt
G1 X122.940 Y39.440 E11.93698 ; skirt
G1 X123.820 Y39.500 E11.97370 ; skirt
G1 X129.070 Y40.190 E12.19412 ; skirt
G1 X129.760 Y40.320 E12.22335 ; skirt
G1 X130.100 Y40.410 E12.23799 ; skirt
G1 X130.770 Y40.650 E12.26762 ; skirt
G1 X135.520 Y42.620 E12.48168 ; skirt
G1 X136.160 Y42.920 E12.51110 ; skirt
G1 X136.760 Y43.290 E12.54045 ; skirt
G1 X141.390 Y46.850 E12.78357 ; skirt
G1 X141.660 Y47.080 E12.79833 ; skirt
G1 X141.910 Y47.330 E12.81305 ; skirt
G1 X142.360 Y47.870 E12.84231 ; skirt
G1 X145.700 Y52.230 E13.07094 ; skirt
G1 X146.070 Y52.830 E13.10029 ; skirt
G1 X146.370 Y53.460 E13.12933 ; skirt
G1 X148.390 Y58.340 E13.34919 ; skirt
G1 X148.600 Y58.960 E13.37644 ; skirt
G1 X148.750 Y59.600 E13.40381 ; skirt
G1 X148.800 Y59.920 E13.41729 ; skirt
G1 X149.470 Y65.010 E13.63100 ; skirt
G1 X149.530 Y65.890 E13.66772 ; skirt
G1 X149.530 Y111.980 E15.58632 ; skirt
G1 X149.530 Y112.090 E15.59091 ; skirt
G1 F1800.000 E14.59091 ; retract
G1 Z1.400 ; move to next layer (0) and lift
G92 E0 ; reset extrusion distance
G1 X83.962 Y119.162 F7800.000 ; move to first perimeter point
G1 Z0.400 ; restore layer Z
G1 F1800.000 E1.00000 ; compensate retraction
G1 X81.894 Y120.749 F540.000 E1.10853 ; perimeter
G1 X79.485 Y121.747 E1.21706 ; perimeter
G1 X76.900 Y122.087 E1.32560 ; perimeter
G1 X74.315 Y121.747 E1.43413 ; perimeter
G1 X71.906 Y120.749 E1.54266 ; perimeter
G1 X70.061 Y119.334 E1.63947 ; perimeter
G1 X69.838 Y119.162 E1.65119 ; perimeter
G1 X68.251 Y117.094 E1.75973 ; perimeter
G1 X67.253 Y114.685 E1.86826 ; perimeter
G1 X66.913 Y112.100 E1.97679 ; perimeter
G1 X67.253 Y109.515 E2.08533 ; perimeter
G1 X68.251 Y107.106 E2.19386 ; perimeter
G1 X69.838 Y105.038 E2.30239 ; perimeter
G1 X71.906 Y103.451 E2.41092 ; perimeter
G1 X74.315 Y102.453 E2.51946 ; perimeter
G1 X76.900 Y102.113 E2.62799 ; perimeter
G1 X79.485 Y102.453 E2.73652 ; perimeter
G1 X81.894 Y103.451 E2.84505 ; perimeter
G1 X83.962 Y105.038 E2.95359 ; perimeter
G1 X84.134 Y105.261 E2.96531 ; perimeter
G1 X85.549 Y107.106 E3.06212 ; perimeter
G1 X86.547 Y109.515 E3.17065 ; perimeter
G1 X86.887 Y112.100 E3.27919 ; perimeter
G1 X86.547 Y114.685 E3.38772 ; perimeter
G1 X85.549 Y117.094 E3.49625 ; perimeter
G1 X84.029 Y119.075 E3.60019 ; perimeter
G1 X83.962 Y119.162 E3.60478 ; perimeter
G1 X83.437 Y118.637 F7800.000 ; move to first perimeter point
G1 X81.523 Y120.107 F540.000 E3.70525 ; perimeter
G1 X79.293 Y121.030 E3.80572 ; perimeter
G1 X76.900 Y121.345 E3.90619 ; perimeter
G1 X74.507 Y121.030 E4.00666 ; perimeter
G1 X72.277 Y120.107 E4.10713 ; perimeter
G1 X70.509 Y118.750 E4.19991 ; perimeter
G1 X70.363 Y118.638 E4.20760 ; perimeter
G1 X68.893 Y116.723 E4.30807 ; perimeter
G1 X67.970 Y114.493 E4.40854 ; perimeter
G1 X67.655 Y112.100 E4.50901 ; perimeter
G1 X67.970 Y109.707 E4.60948 ; perimeter
G1 X68.893 Y107.477 E4.70995 ; perimeter
G1 X70.363 Y105.562 E4.81042 ; perimeter
G1 X72.277 Y104.093 E4.91089 ; perimeter
G1 X74.507 Y103.170 E5.01136 ; perimeter
G1 X76.900 Y102.855 E5.11183 ; perimeter
G1 X79.293 Y103.170 E5.21230 ; perimeter
G1 X81.523 Y104.093 E5.31277 ; perimeter
G1 X83.437 Y105.563 E5.41324 ; perimeter
G1 X83.550 Y105.709 E5.42093 ; perimeter
G1 X84.907 Y107.477 E5.51371 ; perimeter
G1 X85.830 Y109.707 E5.61418 ; perimeter
G1 X86.145 Y112.100 E5.71465 ; perimeter
G1 X85.830 Y114.493 E5.81512 ; perimeter
G1 X84.907 Y116.723 E5.91558 ; perimeter
G1 X83.505 Y118.550 E6.01146 ; perimeter
G1 X83.437 Y118.637 E6.01606 ; perimeter
G1 X82.913 Y118.113 F7800.000 ; move to first perimeter point
G1 X81.152 Y119.464 F540.000 E6.10846 ; perimeter
G1 X79.101 Y120.314 E6.20087 ; perimeter
G1 X76.900 Y120.603 E6.29328 ; perimeter
G1 X74.699 Y120.314 E6.38568 ; perimeter
G1 X72.648 Y119.464 E6.47809 ; perimeter
G1 X70.957 Y118.166 E6.56684 ; perimeter
G1 X70.887 Y118.113 E6.57050 ; perimeter
G1 X69.536 Y116.352 E6.66290 ; perimeter
G1 X68.686 Y114.301 E6.75531 ; perimeter
G1 X68.397 Y112.100 E6.84772 ; perimeter
G1 X68.686 Y109.899 E6.94012 ; perimeter
G1 X69.536 Y107.848 E7.03253 ; perimeter
G1 X70.887 Y106.087 E7.12494 ; perimeter
G1 X72.648 Y104.736 E7.21734 ; perimeter
G1 X74.699 Y103.886 E7.30975 ; perimeter
G1 X76.900 Y103.597 E7.40216 ; perimeter
G1 X79.101 Y103.886 E7.49456 ; perimeter
G1 X81.152 Y104.736 E7.58697 ; perimeter
G1 X82.913 Y106.087 E7.67938 ; perimeter
G1 X82.966 Y106.157 E7.68304 ; perimeter
G1 X84.264 Y107.848 E7.77178 ; perimeter
G1 X85.114 Y109.899 E7.86419 ; perimeter
G1 X85.403 Y112.100 E7.95660 ; perimeter
G1 X85.114 Y114.301 E8.04900 ; perimeter
G1 X84.264 Y116.352 E8.14141 ; perimeter
G1 X82.980 Y118.025 E8.22922 ; perimeter
G1 X82.913 Y118.113 E8.23382 ; perimeter
G1 X83.072 Y118.831 F7800.000 ; move inwards before travel
G1 F1800.000 E7.23382 ; retract
G1 Z1.400 ; lift plate during travel
G92 E0 ; reset extrusion distance
G1 X67.794 Y96.327 F7800.000 ; move to first perimeter point
G1 Z0.400 ; restore layer Z
G1 F1800.000 E1.00000 ; compensate retraction
G1 X72.186 Y94.508 F540.000 E1.19792 ; perimeter
G1 X76.900 Y93.887 E1.39583 ; perimeter
G1 X81.614 Y94.508 E1.59375 ; perimeter
G1 X86.006 Y96.327 E1.79166 ; perimeter
G1 X89.778 Y99.222 E1.98958 ; perimeter
G1 X92.673 Y102.994 E2.18750 ; perimeter
G1 X94.492 Y107.386 E2.38541 ; perimeter
G1 X95.154 Y112.413 E2.59648 ; perimeter
G1 X95.071 Y112.413 E2.59991 ; perimeter
G1 X94.492 Y116.814 E2.78468 ; perimeter
G1 X92.673 Y121.206 E2.98259 ; perimeter
G1 X89.778 Y124.978 E3.18051 ; perimeter
G1 X86.006 Y127.873 E3.37842 ; perimeter
G1 X81.614 Y129.692 E3.57634 ; perimeter
G1 X81.511 Y129.706 E3.58065 ; perimeter
G1 X76.900 Y130.313 E3.77426 ; perimeter
G1 X72.186 Y129.692 E3.97217 ; perimeter
G1 X67.794 Y127.873 E4.17009 ; perimeter
G1 X64.022 Y124.978 E4.36800 ; perimeter
G1 X61.127 Y121.206 E4.56592 ; perimeter
G1 X59.308 Y116.814 E4.76384 ; perimeter
G1 X58.687 Y112.100 E4.96175 ; perimeter
G1 X59.308 Y107.386 E5.15967 ; perimeter
G1 X61.127 Y102.994 E5.35758 ; perimeter
G1 X64.022 Y99.222 E5.55550 ; perimeter
G1 X67.706 Y96.395 E5.74882 ; perimeter
G1 X67.794 Y96.327 E5.75342 ; perimeter
G1 X67.423 Y95.685 F7800.000 ; move to first perimeter point
G1 X71.994 Y93.791 F540.000 E5.95939 ; perimeter
G1 X72.193 Y93.765 E5.96773 ; perimeter
G1 X76.900 Y93.145 E6.16537 ; perimeter
G1 X81.806 Y93.791 E6.37135 ; perimeter
G1 X86.377 Y95.685 E6.57733 ; perimeter
G1 X90.303 Y98.697 E6.78331 ; perimeter
G1 X93.315 Y102.623 E6.98929 ; perimeter
G1 X95.132 Y107.009 E7.18693 ; perimeter
G1 X95.209 Y107.194 E7.19527 ; perimeter
G1 X95.855 Y112.100 E7.40125 ; perimeter
G1 X95.209 Y117.006 E7.60723 ; perimeter
G1 X93.315 Y121.577 E7.81320 ; perimeter
G1 X90.303 Y125.503 E8.01918 ; perimeter
G1 X86.377 Y128.515 E8.22516 ; perimeter
G1 X81.806 Y130.409 E8.43114 ; perimeter
G1 X76.900 Y131.055 E8.63712 ; perimeter
G1 X71.994 Y130.409 E8.84310 ; perimeter
G1 X71.809 Y130.332 E8.85144 ; perimeter
G1 X67.423 Y128.515 E9.04908 ; perimeter
G1 X63.497 Y125.503 E9.25506 ; perimeter
G1 X60.485 Y121.577 E9.46103 ; perimeter
G1 X58.668 Y117.191 E9.65868 ; perimeter
G1 X58.591 Y117.006 E9.66701 ; perimeter
G1 X57.945 Y112.100 E9.87299 ; perimeter
G1 X58.591 Y107.194 E10.07897 ; perimeter
G1 X60.485 Y102.623 E10.28495 ; perimeter
G1 X63.497 Y98.697 E10.49093 ; perimeter
G1 X67.335 Y95.752 E10.69231 ; perimeter
G1 X67.423 Y95.685 E10.69691 ; perimeter
G1 X67.052 Y95.042 F7800.000 ; move to first perimeter point
G1 X71.802 Y93.075 F540.000 E10.91095 ; perimeter
G1 X76.742 Y92.424 E11.11837 ; perimeter
G1 X76.742 Y92.383 E11.12010 ; perimeter
G1 X81.998 Y93.075 E11.34076 ; perimeter
G1 X86.748 Y95.042 E11.55480 ; perimeter
G1 X90.828 Y98.172 E11.76884 ; perimeter
G1 X93.958 Y102.252 E11.98289 ; perimeter
G1 X95.812 Y106.728 E12.18456 ; perimeter
G1 X95.925 Y107.002 E12.19693 ; perimeter
G1 X96.597 Y112.100 E12.41097 ; perimeter
G1 X95.925 Y117.198 E12.62501 ; perimeter
G1 X93.958 Y121.948 E12.83905 ; perimeter
G1 X90.828 Y126.028 E13.05310 ; perimeter
G1 X86.748 Y129.158 E13.26714 ; perimeter
G1 X81.998 Y131.125 E13.48118 ; perimeter
G1 X76.900 Y131.797 E13.69522 ; perimeter
G1 X71.802 Y131.125 E13.90926 ; perimeter
G1 X71.528 Y131.012 E13.92163 ; perimeter
G1 X67.052 Y129.158 E14.12330 ; perimeter
G1 X62.972 Y126.028 E14.33735 ; perimeter
G1 X59.842 Y121.948 E14.55139 ; perimeter
G1 X57.875 Y117.198 E14.76543 ; perimeter
G1 X57.183 Y111.942 E14.98609 ; perimeter
G1 X57.224 Y111.942 E14.98782 ; perimeter
G1 X57.875 Y107.002 E15.19524 ; perimeter
G1 X59.842 Y102.252 E15.40928 ; perimeter
G1 X62.972 Y98.172 E15.62332 ; perimeter
G1 X66.964 Y95.109 E15.83277 ; perimeter
G1 X67.052 Y95.042 E15.83737 ; perimeter
G1 X67.672 Y95.438 F7800.000 ; move inwards before travel
G1 F1800.000 E14.83737 ; retract
G1 Z1.400 ; lift plate during travel
G92 E0 ; reset extrusion distance
G1 X81.708 Y102.715 F7800.000 ; move to first fill point
G1 Z0.400 ; restore layer Z
G1 F1800.000 E1.00000 ; compensate retraction
G1 X73.770 Y94.776 F1080.000 E1.47231 ; fill
G1 X72.841 Y94.899 E1.51173 ; fill
G1 X79.914 Y101.972 E1.93253 ; fill
G1 X78.702 Y101.811 E1.98395 ; fill
G1 X71.960 Y95.069 E2.38510 ; fill
G1 X71.216 Y95.376 E2.41896 ; fill
G1 X77.491 Y101.652 E2.79232 ; fill
G1 X76.479 Y101.691 E2.83493 ; fill
G1 X70.472 Y95.684 E3.19232 ; fill
G1 X69.729 Y95.992 E3.22617 ; fill
G1 X75.550 Y101.813 E3.57253 ; fill
G1 X74.621 Y101.936 E3.61196 ; fill
G1 X68.985 Y96.300 E3.94728 ; fill
G1 X68.241 Y96.607 E3.98114 ; fill
G1 X73.825 Y102.191 E4.31334 ; fill
G1 X73.081 Y102.499 E4.34719 ; fill
G1 X67.584 Y97.002 E4.67426 ; fill
G1 X66.989 Y97.458 E4.70580 ; fill
G1 X72.338 Y102.807 E5.02402 ; fill
G1 X71.629 Y103.150 E5.05714 ; fill
G1 X66.394 Y97.915 E5.36860 ; fill
G1 X65.799 Y98.371 E5.40015 ; fill
G1 X71.035 Y103.606 E5.71161 ; fill
G1 X70.440 Y104.063 E5.74316 ; fill
G1 X65.205 Y98.827 E6.05463 ; fill
G1 X64.610 Y99.284 E6.08617 ; fill
G1 X69.845 Y104.519 E6.39764 ; fill
G1 F1800.000 E5.39764 ; retract
G1 Z1.400 ; lift plate during travel
G92 E0 ; reset extrusion distance
G1 X61.388 Y120.243 F7800.000 ; move to first fill point
G1 Z0.400 ; restore layer Z
G1 F1800.000 E1.00000 ; compensate retraction
G1 X68.757 Y127.612 F1080.000 E1.43842 ; fill
G1 X70.551 Y128.356 E1.52015 ; fill
G1 X60.644 Y118.449 E2.10958 ; fill
G1 X59.901 Y116.654 E2.19131 ; fill
G1 X72.346 Y129.099 E2.93175 ; fill
G1 X73.642 Y129.344 E2.98723 ; fill
G1 X59.656 Y115.358 E3.81932 ; fill
G1 X59.496 Y114.147 E3.87072 ; fill
G1 X74.853 Y129.504 E4.78439 ; fill
G1 X76.065 Y129.664 E4.83580 ; fill
G1 X59.336 Y112.935 E5.83105 ; fill
G1 X59.210 Y111.757 E5.88091 ; fill
G1 X77.243 Y129.790 E6.95381 ; fill
G1 X78.172 Y129.668 E6.99323 ; fill
G1 X59.332 Y110.828 E8.11414 ; fill
G1 X59.454 Y109.899 E8.15356 ; fill
G1 X79.101 Y129.546 E9.32246 ; fill
G1 X80.030 Y129.424 E9.36188 ; fill
G1 X72.092 Y121.485 E9.83419 ; fill
G1 X73.886 Y122.229 E9.91592 ; fill
G1 X80.959 Y129.301 E10.33672 ; fill
G1 X81.840 Y129.131 E10.37448 ; fill
G1 X75.098 Y122.389 E10.77563 ; fill
G1 X76.309 Y122.548 E10.82701 ; fill
G1 X82.584 Y128.824 E11.20037 ; fill
G1 X83.328 Y128.516 E11.23422 ; fill
G1 X77.321 Y122.509 E11.59161 ; fill
G1 X78.250 Y122.387 E11.63103 ; fill
G1 X84.071 Y128.208 E11.97738 ; fill
G1 X84.815 Y127.900 E12.01124 ; fill
G1 X79.179 Y122.264 E12.34657 ; fill
G1 X79.975 Y122.009 E12.38174 ; fill
G1 X85.559 Y127.593 E12.71394 ; fill
G1 X86.216 Y127.198 E12.74618 ; fill
G1 X80.719 Y121.701 E13.07324 ; fill
G1 X81.462 Y121.393 E13.10709 ; fill
G1 X86.811 Y126.742 E13.42532 ; fill
G1 X87.406 Y126.285 E13.45686 ; fill
G1 X82.171 Y121.050 E13.76833 ; fill
G1 X82.765 Y120.594 E13.79987 ; fill
G1 X88.001 Y125.829 E14.11134 ; fill
G1 X88.595 Y125.372 E14.14289 ; fill
G1 X83.360 Y120.137 E14.45435 ; fill
G1 X83.955 Y119.681 E14.48590 ; fill
G1 X89.190 Y124.916 E14.79736 ; fill
G1 X89.716 Y124.390 E14.82864 ; fill
G1 X84.481 Y119.155 E15.14010 ; fill
G1 X84.937 Y118.560 E15.17165 ; fill
G1 X90.172 Y123.795 E15.48312 ; fill
G1 X90.629 Y123.201 E15.51466 ; fill
G1 X85.394 Y117.965 E15.82613 ; fill
G1 X85.850 Y117.371 E15.85767 ; fill
G1 X91.085 Y122.606 E16.16914 ; fill
G1 X91.542 Y122.011 E16.20069 ; fill
G1 X86.193 Y116.662 E16.51891 ; fill
G1 X86.501 Y115.919 E16.55276 ; fill
G1 X91.998 Y121.416 E16.87982 ; fill
G1 X92.393 Y120.759 E16.91206 ; fill
G1 X86.809 Y115.175 E17.24426 ; fill
G1 X87.064 Y114.379 E17.27943 ; fill
G1 X92.700 Y120.015 E17.61476 ; fill
G1 X93.008 Y119.271 E17.64862 ; fill
