; generated by Slic3r 1.0.1 on 2014-06-21 at 11:04:19

; layer_height = 0.4
; perimeters = 3
; top_solid_layers = 3
; bottom_solid_layers = 3
; fill_density = 0.4
; perimeter_speed = 30
; infill_speed = 60
; travel_speed = 130
; nozzle_diameter = 0.5
; filament_diameter = 3
; extrusion_multiplier = 1
; perimeters extrusion width = 0.50mm
; infill extrusion width = 0.53mm
; solid infill extrusion width = 0.53mm
; top infill extrusion width = 0.53mm
; first layer extrusion width = 0.70mm

G21 ; set units to millimeters
M190 S60 ; wait for bed temperature to be reached
M104 S185 ; set temperature
G28 ; home all axes
G1 Z5 F5000 ; lift nozzle
G92 E0 ;reset extruder
M109 S185 ; wait for temperature to be reached
G90 ; use absolute coordinates
G92 E0 ; reset extrusion distance
M82 ; use absolute distances for extrusion
G1 F1800.000 E-1.00000 ; retract
G1 Z0.850 F7800.000 ; move to next layer (0) and lift
G92 E0 ; reset extrusion distance
G1 X45.290 Y55.290 F7800.000 ; move to first skirt point
G1 Z0.350 F7800.000 ; restore layer Z
G1 E1.00000 F1800.000 ; compensate retraction
G1 X46.300 Y54.460 E1.04253 F540.000 ; skirt
G1 X47.450 Y53.850 E1.08489 ; skirt
G1 X48.700 Y53.470 E1.12739 ; skirt
G1 X50.000 Y53.340 E1.16990 ; skirt
G1 X150.000 Y53.340 E4.42342 ; skirt
G1 X151.300 Y53.470 E4.46593 ; skirt
G1 X152.550 Y53.850 E4.50843 ; skirt
G1 X153.700 Y54.460 E4.55079 ; skirt
G1 X154.710 Y55.290 E4.59332 ; skirt
G1 X155.540 Y56.300 E4.63585 ; skirt
G1 X156.150 Y57.450 E4.67821 ; skirt
G1 X156.530 Y58.700 E4.72071 ; skirt
G1 X156.660 Y60.000 E4.76322 ; skirt
G1 X156.660 Y118.000 E6.65026 ; skirt
G1 X156.530 Y119.300 E6.69277 ; skirt
G1 X156.150 Y120.550 E6.73528 ; skirt
G1 X155.540 Y121.700 E6.77763 ; skirt
G1 X154.710 Y122.710 E6.82016 ; skirt
G1 X153.700 Y123.540 E6.86270 ; skirt
G1 X152.550 Y124.150 E6.90505 ; skirt
G1 X151.300 Y124.530 E6.94756 ; skirt
G1 X150.000 Y124.660 E6.99006 ; skirt
G1 X50.000 Y124.660 E10.24358 ; skirt
G1 X48.700 Y124.530 E10.28609 ; skirt
G1 X47.450 Y124.150 E10.32860 ; skirt
G1 X46.300 Y123.540 E10.37095 ; skirt
G1 X45.290 Y122.710 E10.41348 ; skirt
G1 X44.460 Y121.700 E10.45602 ; skirt
G1 X43.850 Y120.550 E10.49837 ; skirt
G1 X43.470 Y119.300 E10.54088 ; skirt
G1 X43.340 Y118.000 E10.58338 ; skirt
G1 X43.340 Y60.000 E12.47042 ; skirt
G1 X43.470 Y58.700 E12.51293 ; skirt
G1 X43.850 Y57.450 E12.55544 ; skirt
G1 X44.460 Y56.300 E12.59779 ; skirt
G1 X45.227 Y55.366 E12.63712 ; skirt
G1 F1800.000 E11.63712 ; retract
G1 Z0.850 F7800.000 ; lift plate during travel
G92 E0 ; reset extrusion distance
G1 X104.236 Y67.436 F7800.000 ; move to first perimeter point
G1 Z0.350 F7800.000 ; restore layer Z
G1 E1.00000 F1800.000 ; compensate retraction
G1 X136.664 Y67.436 E2.05505 F540.000 ; perimeter
G1 X136.664 Y73.336 E2.24701 ; perimeter
G1 X142.664 Y73.336 E2.44222 ; perimeter
G1 X142.664 Y99.964 E3.30857 ; perimeter
G1 X136.690 Y99.964 E3.50295 ; perimeter
G1 X136.690 Y111.664 E3.88361 ; perimeter
G1 X104.236 Y111.664 E4.93951 ; perimeter
G1 X104.236 Y67.534 E6.37528 ; perimeter
G1 X104.893 Y68.093 F7800.000 ; move to first perimeter point
G1 X136.007 Y68.093 E7.38757 F540.000 ; perimeter
G1 X136.007 Y73.993 E7.57953 ; perimeter
G1 X142.007 Y73.993 E7.77474 ; perimeter
G1 X142.007 Y99.307 E8.59834 ; perimeter
G1 X136.033 Y99.307 E8.79272 ; perimeter
G1 X136.033 Y111.007 E9.17338 ; perimeter
G1 X104.893 Y111.007 E10.18652 ; perimeter
G1 X104.893 Y68.191 E11.57954 ; perimeter
G1 X105.550 Y68.750 F7800.000 ; move to first perimeter point
G1 X135.350 Y68.750 E12.54907 F378.000 ; perimeter
G1 X135.350 Y74.650 E12.74103 ; perimeter
G1 X141.350 Y74.650 E12.93624 ; perimeter
G1 X141.350 Y98.650 E13.71709 ; perimeter
G1 X135.376 Y98.650 E13.91146 ; perimeter
G1 X135.376 Y110.350 E14.29212 ; perimeter
G1 X105.550 Y110.350 E15.26251 ; perimeter
G1 X105.550 Y68.849 E16.61277 ; perimeter
G1 X105.550 Y68.093 F7800.000 ; move inwards before travel
G1 X96.022 Y66.936 F7800.000 ; move to first perimeter point
G1 X96.022 Y104.303 E17.82851 F540.000 ; perimeter
G1 X95.996 Y111.664 E18.06801 ; perimeter
G1 X60.003 Y111.664 E19.23905 ; perimeter
G1 X60.003 Y66.936 E20.69430 ; perimeter
G1 X95.924 Y66.936 E21.86297 ; perimeter
G1 X95.365 Y67.593 F7800.000 ; move to first perimeter point
G1 X95.365 Y104.302 E23.05730 F540.000 ; perimeter
G1 X95.342 Y111.007 E23.27546 ; perimeter
G1 X60.661 Y111.007 E24.40382 ; perimeter
G1 X60.661 Y67.593 E25.81631 ; perimeter
G1 X95.267 Y67.593 E26.94223 ; perimeter
G1 X94.708 Y68.250 F7800.000 ; move to first perimeter point
G1 X94.708 Y104.301 E28.11514 F378.000 ; perimeter
G1 X94.687 Y110.350 E28.31196 ; perimeter
G1 X61.318 Y110.350 E29.39764 ; perimeter
G1 X61.318 Y68.250 E30.76737 ; perimeter
G1 X94.610 Y68.250 E31.85054 ; perimeter
G1 X95.365 Y68.250 F7800.000 ; move inwards before travel
G1 X51.664 Y61.664 F7800.000 ; move to first perimeter point
G1 X148.336 Y61.664 E34.99577 F540.000 ; perimeter
G1 X148.336 Y116.336 E36.77452 ; perimeter
G1 X51.664 Y116.336 E39.91976 ; perimeter
G1 X51.664 Y61.763 E41.69531 ; perimeter
G1 X51.007 Y61.007 F7800.000 ; move to first perimeter point
G1 X148.993 Y61.007 E44.88330 F540.000 ; perimeter
G1 X148.993 Y116.993 E46.70481 ; perimeter
G1 X51.007 Y116.993 E49.89280 ; perimeter
G1 X51.007 Y61.106 E51.71110 ; perimeter
G1 X50.350 Y60.350 F7800.000 ; move to first perimeter point
G1 X149.650 Y60.350 E54.94185 F378.000 ; perimeter
G1 X149.650 Y117.650 E56.80612 ; perimeter
G1 X50.350 Y117.650 E60.03686 ; perimeter
G1 X50.350 Y60.449 E61.89792 ; perimeter
G1 X50.919 Y60.679 F7800.000 ; move inwards before travel
G1 X60.553 Y112.131 F7800.000 ; move to first fill point
G1 X64.292 Y115.869 E62.07084 F1080.000 ; fill
G1 X65.226 Y115.869 E62.10138 ; fill
G1 X61.487 Y112.131 E62.27429 ; fill
G1 X62.421 Y112.131 E62.30484 ; fill
G1 X66.160 Y115.869 E62.47775 ; fill
G1 X67.094 Y115.869 E62.50829 ; fill
G1 X63.355 Y112.131 E62.68120 ; fill
G1 X64.289 Y112.131 E62.71175 ; fill
G1 X68.028 Y115.869 E62.88466 ; fill
G1 X68.962 Y115.869 E62.91520 ; fill
G1 X65.223 Y112.131 E63.08811 ; fill
G1 X66.157 Y112.131 E63.11866 ; fill
G1 X69.896 Y115.869 E63.29157 ; fill
G1 X70.830 Y115.869 E63.32211 ; fill
G1 X67.091 Y112.131 E63.49503 ; fill
G1 X68.025 Y112.131 E63.52557 ; fill
G1 X71.764 Y115.869 E63.69848 ; fill
G1 X72.698 Y115.869 E63.72902 ; fill
G1 X68.959 Y112.131 E63.90194 ; fill
G1 X69.893 Y112.131 E63.93248 ; fill
G1 X73.632 Y115.869 E64.10539 ; fill
G1 X74.566 Y115.869 E64.13593 ; fill
G1 X70.827 Y112.131 E64.30885 ; fill
G1 X71.761 Y112.131 E64.33939 ; fill
G1 X75.500 Y115.869 E64.51230 ; fill
G1 X76.434 Y115.869 E64.54284 ; fill
G1 X72.695 Y112.131 E64.71576 ; fill
G1 X73.629 Y112.131 E64.74630 ; fill
G1 X77.368 Y115.869 E64.91921 ; fill
G1 X78.302 Y115.869 E64.94976 ; fill
G1 X74.563 Y112.131 E65.12267 ; fill
G1 X75.497 Y112.131 E65.15321 ; fill
G1 X79.236 Y115.869 E65.32612 ; fill
G1 X80.170 Y115.869 E65.35667 ; fill
G1 X76.431 Y112.131 E65.52958 ; fill
G1 X77.365 Y112.131 E65.56012 ; fill
G1 X81.104 Y115.869 E65.73303 ; fill
G1 X82.038 Y115.869 E65.76358 ; fill
G1 X78.299 Y112.131 E65.93649 ; fill
G1 X79.233 Y112.131 E65.96703 ; fill
G1 X82.972 Y115.869 E66.13995 ; fill
G1 X83.906 Y115.869 E66.17049 ; fill
G1 X80.167 Y112.131 E66.34340 ; fill
G1 X81.101 Y112.131 E66.37394 ; fill
G1 X84.840 Y115.869 E66.54686 ; fill
G1 X85.774 Y115.869 E66.57740 ; fill
G1 X82.035 Y112.131 E66.75031 ; fill
G1 X82.969 Y112.131 E66.78085 ; fill
G1 X86.708 Y115.869 E66.95377 ; fill
G1 X87.642 Y115.869 E66.98431 ; fill
G1 X83.903 Y112.131 E67.15722 ; fill
G1 X84.837 Y112.131 E67.18776 ; fill
G1 X88.576 Y115.869 E67.36068 ; fill
G1 X89.510 Y115.869 E67.39122 ; fill
G1 X85.771 Y112.131 E67.56413 ; fill
G1 X86.705 Y112.131 E67.59468 ; fill
G1 X90.444 Y115.869 E67.76759 ; fill
G1 X91.378 Y115.869 E67.79813 ; fill
G1 X87.639 Y112.131 E67.97104 ; fill
G1 X88.573 Y112.131 E68.00159 ; fill
G1 X92.312 Y115.869 E68.17450 ; fill
G1 X93.246 Y115.869 E68.20504 ; fill
G1 X89.507 Y112.131 E68.37795 ; fill
G1 X90.441 Y112.131 E68.40850 ; fill
G1 X94.180 Y115.869 E68.58141 ; fill
G1 X95.114 Y115.869 E68.61195 ; fill
G1 X91.375 Y112.131 E68.78487 ; fill
G1 X92.309 Y112.131 E68.81541 ; fill
G1 X96.048 Y115.869 E68.98832 ; fill
G1 X96.982 Y115.869 E69.01886 ; fill
G1 X93.243 Y112.131 E69.19178 ; fill
G1 X94.177 Y112.131 E69.22232 ; fill
G1 X97.916 Y115.869 E69.39523 ; fill
G1 X98.850 Y115.869 E69.42577 ; fill
G1 X95.111 Y112.131 E69.59869 ; fill
G1 X96.045 Y112.131 E69.62923 ; fill
G1 X99.784 Y115.869 E69.80214 ; fill
G1 X100.718 Y115.869 E69.83268 ; fill
G1 X96.463 Y111.614 E70.02946 ; fill
G1 X96.466 Y110.684 E70.05990 ; fill
G1 X101.652 Y115.869 E70.29972 ; fill
G1 X102.586 Y115.869 E70.33026 ; fill
G1 X96.469 Y109.753 E70.61312 ; fill
G1 X96.473 Y108.822 E70.64356 ; fill
G1 X103.520 Y115.869 E70.96946 ; fill
G1 X104.454 Y115.869 E71.00000 ; fill
G1 X96.476 Y107.892 E71.36894 ; fill
G1 X96.479 Y106.961 E71.39938 ; fill
G1 X105.388 Y115.869 E71.81136 ; fill
G1 X106.322 Y115.869 E71.84191 ; fill
G1 X96.483 Y106.030 E72.29693 ; fill
G1 X96.486 Y105.100 E72.32737 ; fill
G1 X107.256 Y115.869 E72.82544 ; fill
G1 X108.190 Y115.869 E72.85598 ; fill
G1 X104.451 Y112.131 E73.02889 ; fill
G1 X105.385 Y112.131 E73.05943 ; fill
G1 X109.124 Y115.869 E73.23235 ; fill
G1 X110.058 Y115.869 E73.26289 ; fill
G1 X106.319 Y112.131 E73.43580 ; fill
G1 X107.253 Y112.131 E73.46634 ; fill
G1 X110.992 Y115.869 E73.63926 ; fill
G1 X111.926 Y115.869 E73.66980 ; fill
G1 X108.187 Y112.131 E73.84271 ; fill
G1 X109.121 Y112.131 E73.87325 ; fill
G1 X112.860 Y115.869 E74.04617 ; fill
G1 X113.794 Y115.869 E74.07671 ; fill
G1 X110.055 Y112.131 E74.24962 ; fill
G1 X110.989 Y112.131 E74.28017 ; fill
G1 X114.728 Y115.869 E74.45308 ; fill
G1 X115.662 Y115.869 E74.48362 ; fill
G1 X111.923 Y112.131 E74.65653 ; fill
G1 X112.857 Y112.131 E74.68708 ; fill
G1 X116.596 Y115.869 E74.85999 ; fill
G1 X117.530 Y115.869 E74.89053 ; fill
G1 X113.791 Y112.131 E75.06344 ; fill
G1 X114.725 Y112.131 E75.09399 ; fill
G1 X118.464 Y115.869 E75.26690 ; fill
G1 X119.398 Y115.869 E75.29744 ; fill
G1 X115.659 Y112.131 E75.47035 ; fill
G1 X116.593 Y112.131 E75.50090 ; fill
G1 X120.332 Y115.869 E75.67381 ; fill
G1 X121.266 Y115.869 E75.70435 ; fill
G1 X117.527 Y112.131 E75.87727 ; fill
G1 X118.461 Y112.131 E75.90781 ; fill
G1 X122.200 Y115.869 E76.08072 ; fill
G1 X123.134 Y115.869 E76.11126 ; fill
G1 X119.395 Y112.131 E76.28418 ; fill
G1 X120.329 Y112.131 E76.31472 ; fill
G1 X124.068 Y115.869 E76.48763 ; fill
G1 X125.002 Y115.869 E76.51817 ; fill
G1 X121.263 Y112.131 E76.69109 ; fill
G1 X122.197 Y112.131 E76.72163 ; fill
G1 X125.936 Y115.869 E76.89454 ; fill
G1 X126.870 Y115.869 E76.92508 ; fill
G1 X123.131 Y112.131 E77.09800 ; fill
G1 X124.065 Y112.131 E77.12854 ; fill
G1 X127.804 Y115.869 E77.30145 ; fill
G1 X128.738 Y115.869 E77.33200 ; fill
G1 X124.999 Y112.131 E77.50491 ; fill
G1 X125.933 Y112.131 E77.53545 ; fill
G1 X129.672 Y115.869 E77.70836 ; fill
G1 X130.606 Y115.869 E77.73891 ; fill
G1 X126.867 Y112.131 E77.91182 ; fill
G1 X127.801 Y112.131 E77.94236 ; fill
G1 X131.539 Y115.869 E78.11527 ; fill
G1 X132.473 Y115.869 E78.14582 ; fill
G1 X128.735 Y112.131 E78.31873 ; fill
G1 X129.669 Y112.131 E78.34927 ; fill
G1 X133.407 Y115.869 E78.52219 ; fill
G1 X134.341 Y115.869 E78.55273 ; fill
G1 X130.602 Y112.131 E78.72564 ; fill
G1 X131.536 Y112.131 E78.75618 ; fill
G1 X135.275 Y115.869 E78.92910 ; fill
G1 X136.209 Y115.869 E78.95964 ; fill
G1 X132.470 Y112.131 E79.13255 ; fill
G1 X133.404 Y112.131 E79.16309 ; fill
G1 X137.143 Y115.869 E79.33601 ; fill
G1 X138.077 Y115.869 E79.36655 ; fill
G1 X134.338 Y112.131 E79.53946 ; fill
G1 X135.272 Y112.131 E79.57000 ; fill
G1 X139.011 Y115.869 E79.74292 ; fill
G1 X139.945 Y115.869 E79.77346 ; fill
G1 X136.206 Y112.131 E79.94637 ; fill
G1 X137.140 Y112.131 E79.97692 ; fill
G1 X140.879 Y115.869 E80.14983 ; fill
G1 X141.813 Y115.869 E80.18037 ; fill
G1 X137.156 Y111.212 E80.39574 ; fill
G1 X137.156 Y110.278 E80.42629 ; fill
G1 X142.747 Y115.869 E80.68485 ; fill
G1 X143.681 Y115.869 E80.71539 ; fill
G1 X137.156 Y109.344 E81.01715 ; fill
G1 X137.156 Y108.410 E81.04770 ; fill
G1 X144.615 Y115.869 E81.39265 ; fill
G1 X145.549 Y115.869 E81.42319 ; fill
G1 X137.156 Y107.476 E81.81134 ; fill
G1 X137.156 Y106.542 E81.84188 ; fill
G1 X146.483 Y115.869 E82.27322 ; fill
G1 X147.417 Y115.869 E82.30376 ; fill
G1 X137.156 Y105.608 E82.77829 ; fill
G1 X137.156 Y104.674 E82.80884 ; fill
G1 X147.869 Y115.388 E83.30428 ; fill
G1 X147.869 Y114.454 E83.33482 ; fill
G1 X137.156 Y103.741 E83.83027 ; fill
G1 X137.156 Y102.807 E83.86081 ; fill
G1 X147.869 Y113.520 E84.35626 ; fill
G1 X147.869 Y112.586 E84.38680 ; fill
G1 X137.156 Y101.873 E84.88224 ; fill
G1 X137.156 Y100.939 E84.91279 ; fill
G1 X147.869 Y111.652 E85.40823 ; fill
G1 X147.869 Y110.718 E85.43877 ; fill
G1 X137.582 Y100.431 E85.91452 ; fill
G1 X138.516 Y100.431 E85.94506 ; fill
G1 X147.869 Y109.784 E86.37762 ; fill
G1 X147.869 Y108.850 E86.40816 ; fill
G1 X139.450 Y100.431 E86.79752 ; fill
G1 X140.384 Y100.431 E86.82806 ; fill
G1 X147.869 Y107.916 E87.17422 ; fill
G1 X147.869 Y106.982 E87.20477 ; fill
G1 X141.318 Y100.431 E87.50774 ; fill
G1 X142.252 Y100.431 E87.53828 ; fill
G1 X147.869 Y106.048 E87.79806 ; fill
G1 X147.869 Y105.114 E87.82860 ; fill
G1 X143.131 Y100.375 E88.04776 ; fill
G1 X143.131 Y99.441 E88.07830 ; fill
G1 X147.869 Y104.180 E88.29746 ; fill
G1 X147.869 Y103.246 E88.32801 ; fill
G1 X143.131 Y98.507 E88.54717 ; fill
G1 X143.131 Y97.573 E88.57771 ; fill
G1 X147.869 Y102.312 E88.79687 ; fill
G1 X147.869 Y101.378 E88.82741 ; fill
G1 X143.131 Y96.639 E89.04657 ; fill
G1 X143.131 Y95.705 E89.07711 ; fill
G1 X147.869 Y100.444 E89.29627 ; fill
G1 X147.869 Y99.510 E89.32681 ; fill
G1 X143.131 Y94.771 E89.54597 ; fill
G1 X143.131 Y93.837 E89.57651 ; fill
G1 X147.869 Y98.576 E89.79567 ; fill
G1 X147.869 Y97.642 E89.82622 ; fill
G1 X143.131 Y92.903 E90.04538 ; fill
G1 X143.131 Y91.969 E90.07592 ; fill
G1 X147.869 Y96.708 E90.29508 ; fill
G1 X147.869 Y95.774 E90.32562 ; fill
G1 X143.131 Y91.035 E90.54478 ; fill
G1 X143.131 Y90.101 E90.57532 ; fill
G1 X147.869 Y94.840 E90.79448 ; fill
G1 X147.869 Y93.906 E90.82502 ; fill
G1 X143.131 Y89.167 E91.04418 ; fill
G1 X143.131 Y88.233 E91.07472 ; fill
G1 X147.869 Y92.972 E91.29388 ; fill
G1 X147.869 Y92.038 E91.32443 ; fill
G1 X143.131 Y87.299 E91.54359 ; fill
G1 X143.131 Y86.365 E91.57413 ; fill
G1 X147.869 Y91.104 E91.79329 ; fill
G1 X147.869 Y90.170 E91.82383 ; fill
G1 X143.131 Y85.431 E92.04299 ; fill
G1 X143.131 Y84.497 E92.07353 ; fill
G1 X147.869 Y89.236 E92.29269 ; fill
G1 X147.869 Y88.302 E92.32323 ; fill
G1 X143.131 Y83.563 E92.54239 ; fill
G1 X143.131 Y82.629 E92.57293 ; fill
G1 X147.869 Y87.368 E92.79209 ; fill
G1 X147.869 Y86.434 E92.82264 ; fill
G1 X143.131 Y81.695 E93.04179 ; fill
G1 X143.131 Y80.761 E93.07234 ; fill
G1 X147.869 Y85.500 E93.29150 ; fill
G1 X147.869 Y84.566 E93.32204 ; fill
G1 X143.131 Y79.827 E93.54120 ; fill
G1 X143.131 Y78.893 E93.57174 ; fill
G1 X147.869 Y83.632 E93.79090 ; fill
G1 X147.869 Y82.698 E93.82144 ; fill
G1 X143.131 Y77.959 E94.04060 ; fill
G1 X143.131 Y77.025 E94.07114 ; fill
G1 X147.869 Y81.764 E94.29030 ; fill
G1 X147.869 Y80.830 E94.32085 ; fill
G1 X143.131 Y76.091 E94.54000 ; fill
G1 X143.131 Y75.157 E94.57055 ; fill
G1 X147.869 Y79.896 E94.78971 ; fill
G1 X147.869 Y78.962 E94.82025 ; fill
G1 X143.131 Y74.223 E95.03941 ; fill
G1 X141.777 Y72.869 F7800.000 ; move to first fill point
G1 X137.131 Y68.223 E95.25428 F1080.000 ; fill
G1 X137.131 Y69.157 E95.28482 ; fill
G1 X140.843 Y72.869 E95.45650 ; fill
G1 X139.909 Y72.869 E95.48705 ; fill
G1 X137.131 Y70.091 E95.61553 ; fill
G1 X137.131 Y71.025 E95.64607 ; fill
G1 X138.975 Y72.869 E95.73137 ; fill
G1 X138.041 Y72.869 E95.76191 ; fill
G1 X137.131 Y71.959 E95.80401 ; fill
G1 X147.869 Y63.084 F7800.000 ; move to first fill point
G1 X146.916 Y62.131 E95.84812 F1080.000 ; fill
G1 X145.982 Y62.131 E95.87866 ; fill
G1 X147.869 Y64.018 E95.96597 ; fill
G1 X147.869 Y64.952 E95.99651 ; fill
