; generated by Slic3r 0.9.8-dev on 2013-03-02 at 12:22:35

; layer_height = 0.4
; perimeters = 3
; top_solid_layers = 3
; bottom_solid_layers = 3
; fill_density = 0.40
; perimeter_speed = 30
; infill_speed = 60
; travel_speed = 130
; scale = 1
; nozzle_diameter = 0.5
; filament_diameter = 3
; extrusion_multiplier = 1
; perimeters extrusion width = 0.53mm
; infill extrusion width = 0.53mm
; first layer extrusion width = 0.80mm

M190 S60 ; wait for bed temperature to be reached
M104 S185 ; set temperature
G28 ; home all axes
G92 E0 ;reset extruder
M109 S185 ; wait for temperature to be reached
G90 ; use absolute coordinates
G21 ; set units to millimeters
G92 E0 ; reset extrusion distance
M82 ; use absolute distances for extrusion
G1 F1800.000 E-1.00000 ; retract
G1 Z1.400 ; move to next layer (0) and lift
G92 E0 ; reset extrusion distance
G1 X109.190 Y107.990 F7800.000 ; move to first skirt point
G1 Z0.400 ; restore layer Z
G1 F1800.000 E1.00000 ; compensate retraction
G1 X108.930 Y108.470 F900.000 E1.02272 ; skirt
G1 X108.640 Y108.930 E1.04536 ; skirt
G1 X108.320 Y109.360 E1.06767 ; skirt
G1 X108.140 Y109.570 E1.07919 ; skirt
G1 X107.770 Y109.960 E1.10157 ; skirt
G1 X107.360 Y110.320 E1.12428 ; skirt
G1 X106.700 Y110.790 E1.15801 ; skirt
G1 X105.990 Y111.190 E1.19193 ; skirt
G1 X105.490 Y111.400 E1.21450 ; skirt
G1 X104.970 Y111.570 E1.23728 ; skirt
G1 X104.450 Y111.700 E1.25959 ; skirt
G1 X103.910 Y111.790 E1.28238 ; skirt
G1 X103.100 Y111.840 E1.31616 ; skirt
G1 X76.900 Y111.840 E2.40680 ; skirt
G1 X76.090 Y111.790 E2.44059 ; skirt
G1 X75.550 Y111.700 E2.46338 ; skirt
G1 X74.770 Y111.490 E2.49700 ; skirt
G1 X74.010 Y111.190 E2.53101 ; skirt
G1 X73.530 Y110.930 E2.55374 ; skirt
G1 X73.070 Y110.640 E2.57637 ; skirt
G1 X72.640 Y110.320 E2.59869 ; skirt
G1 X72.230 Y109.960 E2.62140 ; skirt
G1 X71.680 Y109.360 E2.65528 ; skirt
G1 X71.360 Y108.930 E2.67759 ; skirt
G1 X71.070 Y108.470 E2.70023 ; skirt
G1 X70.810 Y107.990 E2.72296 ; skirt
G1 X70.600 Y107.490 E2.74553 ; skirt
G1 X70.360 Y106.710 E2.77950 ; skirt
G1 X70.250 Y106.180 E2.80203 ; skirt
G1 X70.210 Y105.910 E2.81340 ; skirt
G1 X70.160 Y105.100 E2.84718 ; skirt
G1 X70.160 Y64.900 E4.52061 ; skirt
G1 X70.210 Y64.090 E4.55439 ; skirt
G1 X70.300 Y63.550 E4.57718 ; skirt
G1 X70.510 Y62.770 E4.61080 ; skirt
G1 X70.810 Y62.010 E4.64482 ; skirt
G1 X71.070 Y61.530 E4.66754 ; skirt
G1 X71.360 Y61.070 E4.69018 ; skirt
G1 X71.680 Y60.640 E4.71249 ; skirt
G1 X71.860 Y60.430 E4.72400 ; skirt
G1 X72.230 Y60.040 E4.74638 ; skirt
G1 X72.640 Y59.680 E4.76909 ; skirt
G1 X73.300 Y59.210 E4.80282 ; skirt
G1 X74.010 Y58.810 E4.83675 ; skirt
G1 X74.510 Y58.600 E4.85932 ; skirt
G1 X75.030 Y58.430 E4.88209 ; skirt
G1 X75.550 Y58.300 E4.90441 ; skirt
G1 X76.090 Y58.210 E4.92720 ; skirt
G1 X76.900 Y58.160 E4.96098 ; skirt
G1 X103.100 Y58.160 E6.05162 ; skirt
G1 X103.910 Y58.210 E6.08540 ; skirt
G1 X104.450 Y58.300 E6.10819 ; skirt
G1 X105.230 Y58.510 E6.14182 ; skirt
G1 X105.990 Y58.810 E6.17583 ; skirt
G1 X106.470 Y59.070 E6.19855 ; skirt
G1 X106.930 Y59.360 E6.22119 ; skirt
G1 X107.360 Y59.680 E6.24350 ; skirt
G1 X107.770 Y60.040 E6.26622 ; skirt
G1 X108.320 Y60.640 E6.30010 ; skirt
G1 X108.640 Y61.070 E6.32241 ; skirt
G1 X108.930 Y61.530 E6.34505 ; skirt
G1 X109.190 Y62.010 E6.36777 ; skirt
G1 X109.400 Y62.510 E6.39035 ; skirt
G1 X109.640 Y63.290 E6.42432 ; skirt
G1 X109.750 Y63.820 E6.44685 ; skirt
G1 X109.790 Y64.090 E6.45821 ; skirt
G1 X109.840 Y64.900 E6.49200 ; skirt
G1 X109.840 Y105.100 E8.16542 ; skirt
G1 X109.790 Y105.910 E8.19921 ; skirt
G1 X109.700 Y106.450 E8.22199 ; skirt
G1 X109.490 Y107.230 E8.25562 ; skirt
G1 X109.234 Y107.889 E8.28504 ; skirt
G1 X109.190 Y107.990 E8.28964 ; skirt
G1 F1800.000 E7.28964 ; retract
G1 Z1.400 ; move to next layer (0) and lift
G92 E0 ; reset extrusion distance
G1 X95.984 Y78.842 F7800.000 ; move to first perimeter point
G1 Z0.400 ; restore layer Z
G1 F1800.000 E1.00000 ; compensate retraction
G1 X94.865 Y79.305 F720.000 E1.05039 ; perimeter
G1 X93.665 Y79.463 E1.10079 ; perimeter
G1 X92.465 Y79.305 E1.15118 ; perimeter
G1 X91.346 Y78.842 E1.20158 ; perimeter
G1 X90.386 Y78.105 E1.25197 ; perimeter
G1 X89.649 Y77.145 E1.30236 ; perimeter
G1 X89.186 Y76.026 E1.35276 ; perimeter
G1 X89.028 Y74.826 E1.40315 ; perimeter
G1 X89.186 Y73.626 E1.45355 ; perimeter
G1 X89.649 Y72.507 E1.50394 ; perimeter
G1 X90.192 Y71.799 E1.54109 ; perimeter
G1 X90.386 Y71.547 E1.55434 ; perimeter
G1 X91.346 Y70.810 E1.60473 ; perimeter
G1 X92.465 Y70.347 E1.65513 ; perimeter
G1 X93.350 Y70.230 E1.69228 ; perimeter
G1 X93.665 Y70.189 E1.70552 ; perimeter
G1 X94.865 Y70.347 E1.75592 ; perimeter
G1 X95.984 Y70.810 E1.80631 ; perimeter
G1 X96.692 Y71.353 E1.84346 ; perimeter
G1 X96.944 Y71.547 E1.85670 ; perimeter
G1 X97.681 Y72.507 E1.90710 ; perimeter
G1 X98.144 Y73.626 E1.95749 ; perimeter
G1 X98.302 Y74.826 E2.00789 ; perimeter
G1 X98.144 Y76.026 E2.05828 ; perimeter
G1 X97.681 Y77.145 E2.10867 ; perimeter
G1 X96.944 Y78.105 E2.15907 ; perimeter
G1 X96.071 Y78.775 E2.20487 ; perimeter
G1 X95.984 Y78.842 E2.20946 ; perimeter
G1 X95.613 Y78.200 F7800.000 ; move to first perimeter point
G1 X94.673 Y78.589 F720.000 E2.25179 ; perimeter
G1 X93.665 Y78.721 E2.29413 ; perimeter
G1 X92.657 Y78.589 E2.33646 ; perimeter
G1 X91.717 Y78.200 E2.37879 ; perimeter
G1 X90.911 Y77.580 E2.42112 ; perimeter
G1 X90.291 Y76.774 E2.46345 ; perimeter
G1 X89.902 Y75.834 E2.50578 ; perimeter
G1 X89.798 Y75.045 E2.53890 ; perimeter
G1 X89.770 Y74.826 E2.54811 ; perimeter
G1 X89.902 Y73.818 E2.59045 ; perimeter
G1 X90.291 Y72.878 E2.63278 ; perimeter
G1 X90.776 Y72.247 E2.66590 ; perimeter
G1 X90.911 Y72.072 E2.67511 ; perimeter
G1 X91.717 Y71.452 E2.71744 ; perimeter
G1 X92.657 Y71.063 E2.75977 ; perimeter
G1 X93.446 Y70.959 E2.79289 ; perimeter
G1 X93.665 Y70.931 E2.80210 ; perimeter
G1 X94.673 Y71.063 E2.84443 ; perimeter
G1 X95.613 Y71.452 E2.88677 ; perimeter
G1 X96.244 Y71.937 E2.91989 ; perimeter
G1 X96.419 Y72.072 E2.92910 ; perimeter
G1 X97.039 Y72.878 E2.97143 ; perimeter
G1 X97.428 Y73.818 E3.01376 ; perimeter
G1 X97.560 Y74.826 E3.05609 ; perimeter
G1 X97.428 Y75.834 E3.09842 ; perimeter
G1 X97.039 Y76.774 E3.14075 ; perimeter
G1 X96.419 Y77.580 E3.18309 ; perimeter
G1 X95.700 Y78.132 E3.22082 ; perimeter
G1 X95.613 Y78.200 E3.22542 ; perimeter
G1 X95.242 Y77.557 F7800.000 ; move to first perimeter point
G1 X94.481 Y77.872 F720.000 E3.25969 ; perimeter
G1 X93.665 Y77.979 E3.29395 ; perimeter
G1 X92.849 Y77.872 E3.32822 ; perimeter
G1 X92.088 Y77.557 E3.36249 ; perimeter
G1 X91.435 Y77.056 E3.39676 ; perimeter
G1 X90.934 Y76.403 E3.43103 ; perimeter
G1 X90.619 Y75.642 E3.46530 ; perimeter
G1 X90.528 Y74.949 E3.49438 ; perimeter
G1 X90.512 Y74.826 E3.49956 ; perimeter
G1 X90.619 Y74.010 E3.53383 ; perimeter
G1 X90.934 Y73.249 E3.56810 ; perimeter
G1 X91.359 Y72.695 E3.59719 ; perimeter
G1 X91.435 Y72.596 E3.60237 ; perimeter
G1 X92.088 Y72.095 E3.63664 ; perimeter
G1 X92.849 Y71.780 E3.67091 ; perimeter
G1 X93.542 Y71.689 E3.69999 ; perimeter
G1 X93.665 Y71.673 E3.70518 ; perimeter
G1 X94.481 Y71.780 E3.73944 ; perimeter
G1 X95.242 Y72.095 E3.77371 ; perimeter
G1 X95.796 Y72.520 E3.80280 ; perimeter
G1 X95.895 Y72.596 E3.80798 ; perimeter
G1 X96.396 Y73.249 E3.84225 ; perimeter
G1 X96.711 Y74.010 E3.87652 ; perimeter
G1 X96.818 Y74.826 E3.91079 ; perimeter
G1 X96.711 Y75.642 E3.94505 ; perimeter
G1 X96.396 Y76.403 E3.97932 ; perimeter
G1 X95.895 Y77.056 E4.01359 ; perimeter
G1 X95.329 Y77.490 E4.04327 ; perimeter
G1 X95.242 Y77.557 E4.04786 ; perimeter
G1 X95.210 Y78.292 F7800.000 ; move inwards before travel
G1 F1800.000 E3.04786 ; retract
G1 Z1.400 ; lift plate during travel
G92 E0 ; reset extrusion distance
G1 X88.587 Y91.299 F7800.000 ; move to first perimeter point
G1 Z0.400 ; restore layer Z
G1 F1800.000 E1.00000 ; compensate retraction
G1 X89.535 Y92.053 F720.000 E1.05040 ; perimeter
G1 X90.255 Y93.025 E1.10079 ; perimeter
G1 X90.699 Y94.152 E1.15118 ; perimeter
G1 X90.837 Y95.354 E1.20158 ; perimeter
G1 X90.658 Y96.552 E1.25197 ; perimeter
G1 X90.176 Y97.662 E1.30237 ; perimeter
G1 X89.422 Y98.610 E1.35276 ; perimeter
G1 X89.167 Y98.799 E1.36600 ; perimeter
G1 X88.450 Y99.330 E1.40315 ; perimeter
G1 X87.323 Y99.774 E1.45355 ; perimeter
G1 X86.121 Y99.912 E1.50394 ; perimeter
G1 X84.923 Y99.733 E1.55434 ; perimeter
G1 X83.813 Y99.251 E1.60473 ; perimeter
G1 X82.865 Y98.498 E1.65513 ; perimeter
G1 X82.145 Y97.525 E1.70552 ; perimeter
G1 X81.701 Y96.398 E1.75591 ; perimeter
G1 X81.563 Y95.196 E1.80631 ; perimeter
G1 X81.695 Y94.313 E1.84346 ; perimeter
G1 X81.742 Y93.998 E1.85670 ; perimeter
G1 X82.224 Y92.888 E1.90710 ; perimeter
G1 X82.977 Y91.940 E1.95749 ; perimeter
G1 X83.950 Y91.220 E2.00789 ; perimeter
G1 X85.077 Y90.776 E2.05828 ; perimeter
G1 X86.279 Y90.638 E2.10868 ; perimeter
G1 X87.477 Y90.817 E2.15907 ; perimeter
G1 X88.486 Y91.255 E2.20487 ; perimeter
G1 X88.587 Y91.299 E2.20946 ; perimeter
G1 X88.205 Y91.935 F7800.000 ; move to first perimeter point
G1 X89.001 Y92.568 F720.000 E2.25180 ; perimeter
G1 X89.606 Y93.385 E2.29413 ; perimeter
G1 X89.979 Y94.331 E2.33646 ; perimeter
G1 X90.095 Y95.342 E2.37879 ; perimeter
G1 X89.978 Y96.129 E2.41191 ; perimeter
G1 X89.945 Y96.347 E2.42112 ; perimeter
G1 X89.540 Y97.280 E2.46345 ; perimeter
G1 X88.907 Y98.076 E2.50578 ; perimeter
G1 X88.729 Y98.208 E2.51500 ; perimeter
G1 X88.090 Y98.681 E2.54811 ; perimeter
G1 X87.144 Y99.054 E2.59045 ; perimeter
G1 X86.133 Y99.170 E2.63278 ; perimeter
G1 X85.914 Y99.137 E2.64199 ; perimeter
G1 X85.128 Y99.020 E2.67511 ; perimeter
G1 X84.195 Y98.615 E2.71744 ; perimeter
G1 X83.399 Y97.982 E2.75977 ; perimeter
G1 X82.794 Y97.165 E2.80210 ; perimeter
G1 X82.421 Y96.219 E2.84443 ; perimeter
G1 X82.305 Y95.208 E2.88677 ; perimeter
G1 X82.422 Y94.421 E2.91989 ; perimeter
G1 X82.455 Y94.203 E2.92910 ; perimeter
G1 X82.860 Y93.270 E2.97143 ; perimeter
G1 X83.493 Y92.474 E3.01376 ; perimeter
G1 X84.310 Y91.869 E3.05609 ; perimeter
G1 X85.256 Y91.496 E3.09842 ; perimeter
G1 X86.267 Y91.380 E3.14075 ; perimeter
G1 X87.272 Y91.530 E3.18309 ; perimeter
G1 X88.104 Y91.891 E3.22082 ; perimeter
G1 X88.205 Y91.935 E3.22542 ; perimeter
G1 X87.823 Y92.571 F7800.000 ; move to first perimeter point
G1 X88.468 Y93.084 F720.000 E3.25969 ; perimeter
G1 X88.958 Y93.745 E3.29395 ; perimeter
G1 X89.260 Y94.511 E3.32822 ; perimeter
G1 X89.353 Y95.329 E3.36249 ; perimeter
G1 X89.250 Y96.020 E3.39158 ; perimeter
G1 X89.232 Y96.143 E3.39676 ; perimeter
G1 X88.904 Y96.898 E3.43103 ; perimeter
G1 X88.391 Y97.543 E3.46530 ; perimeter
G1 X88.291 Y97.617 E3.47048 ; perimeter
G1 X87.730 Y98.033 E3.49956 ; perimeter
G1 X86.964 Y98.335 E3.53383 ; perimeter
G1 X86.146 Y98.428 E3.56810 ; perimeter
G1 X86.023 Y98.410 E3.57328 ; perimeter
G1 X85.332 Y98.307 E3.60237 ; perimeter
G1 X84.577 Y97.979 E3.63664 ; perimeter
G1 X83.932 Y97.466 E3.67091 ; perimeter
G1 X83.442 Y96.805 E3.70518 ; perimeter
G1 X83.140 Y96.039 E3.73944 ; perimeter
G1 X83.047 Y95.221 E3.77371 ; perimeter
G1 X83.150 Y94.530 E3.80280 ; perimeter
G1 X83.168 Y94.407 E3.80798 ; perimeter
G1 X83.496 Y93.652 E3.84225 ; perimeter
G1 X84.009 Y93.007 E3.87652 ; perimeter
G1 X84.570 Y92.591 E3.90561 ; perimeter
G1 X84.670 Y92.517 E3.91079 ; perimeter
G1 X85.436 Y92.215 E3.94505 ; perimeter
G1 X86.254 Y92.122 E3.97932 ; perimeter
G1 X87.068 Y92.243 E4.01359 ; perimeter
G1 X87.722 Y92.527 E4.04327 ; perimeter
G1 X87.823 Y92.571 E4.04786 ; perimeter
G1 X88.481 Y92.243 F7800.000 ; move inwards before travel
G1 F1800.000 E3.04786 ; retract
G1 Z1.400 ; lift plate during travel
G92 E0 ; reset extrusion distance
G1 X101.629 Y103.629 F7800.000 ; move to first perimeter point
G1 Z0.400 ; restore layer Z
G1 F1800.000 E1.00000 ; compensate retraction
G1 X78.371 Y103.629 F900.000 E1.96815 ; perimeter
G1 X78.371 Y66.371 E3.51909 ; perimeter
G1 X101.629 Y66.371 E4.48725 ; perimeter
G1 X101.629 Y103.518 E6.03359 ; perimeter
G1 X101.629 Y103.629 E6.03819 ; perimeter
G1 X102.364 Y104.364 F7800.000 ; move to first perimeter point
G1 X77.636 Y104.364 F900.000 E7.06758 ; perimeter
G1 X77.636 Y65.636 E8.67977 ; perimeter
G1 X102.364 Y65.636 E9.70916 ; perimeter
G1 X102.364 Y104.254 E11.31675 ; perimeter
G1 X102.364 Y104.364 E11.32135 ; perimeter
G1 X103.100 Y105.100 F7800.000 ; move to first perimeter point
G1 X76.900 Y105.100 F900.000 E12.41199 ; perimeter
G1 X76.900 Y64.900 E14.08542 ; perimeter
G1 X103.100 Y64.900 E15.17606 ; perimeter
G1 X103.100 Y104.990 E16.84489 ; perimeter
G1 X103.100 Y105.100 E16.84948 ; perimeter
G1 X102.463 Y104.732 F7800.000 ; move inwards before travel
G1 F1800.000 E15.84948 ; retract
G1 Z1.400 ; lift plate during travel
G92 E0 ; reset extrusion distance
G1 X83.182 Y99.641 F7800.000 ; move to first fill point
G1 Z0.400 ; restore layer Z
G1 F1800.000 E1.00000 ; compensate retraction
G1 X86.668 Y103.127 F1800.000 E1.20652 ; fill
G1 X87.715 Y103.127 E1.25036 ; fill
G1 X84.855 Y100.267 E1.41976 ; fill
G1 X86.036 Y100.401 E1.46951 ; fill
G1 X88.762 Y103.127 E1.63101 ; fill
G1 X89.809 Y103.127 E1.67486 ; fill
G1 X86.975 Y100.294 E1.84271 ; fill
G1 X87.785 Y100.057 E1.87806 ; fill
G1 X90.856 Y103.127 E2.05996 ; fill
G1 X91.902 Y103.127 E2.10380 ; fill
G1 X88.536 Y99.761 E2.30323 ; fill
G1 X89.145 Y99.323 E2.33465 ; fill
G1 X92.949 Y103.127 E2.55999 ; fill
G1 X93.996 Y103.127 E2.60384 ; fill
G1 X89.737 Y98.868 E2.85614 ; fill
G1 X90.200 Y98.285 E2.88734 ; fill
G1 X95.043 Y103.127 E3.17418 ; fill
G1 X96.089 Y103.127 E3.21803 ; fill
G1 X90.637 Y97.675 E3.54103 ; fill
G1 X90.954 Y96.945 E3.57436 ; fill
G1 X97.136 Y103.127 E3.94059 ; fill
G1 X98.183 Y103.127 E3.98443 ; fill
G1 X91.194 Y96.139 E4.39840 ; fill
G1 X91.330 Y95.228 E4.43698 ; fill
G1 X99.230 Y103.127 E4.90491 ; fill
G1 X100.276 Y103.127 E4.94875 ; fill
G1 X91.223 Y94.074 E5.48502 ; fill
G1 X90.697 Y92.502 E5.55448 ; fill
G1 X101.127 Y102.931 E6.17229 ; fill
G1 X101.127 Y101.885 E6.21613 ; fill
G1 X78.873 Y79.630 E7.53440 ; fill
G1 X78.873 Y80.677 E7.57824 ; fill
G1 X89.009 Y90.813 E8.17866 ; fill
G1 X87.412 Y90.263 E8.24941 ; fill
G1 X78.873 Y81.724 E8.75523 ; fill
G1 X78.873 Y82.770 E8.79907 ; fill
G1 X86.263 Y90.161 E9.23684 ; fill
G1 X85.324 Y90.268 E9.27645 ; fill
G1 X78.873 Y83.817 E9.65858 ; fill
G1 X78.873 Y84.864 E9.70242 ; fill
G1 X84.534 Y90.525 E10.03779 ; fill
G1 X83.792 Y90.830 E10.07140 ; fill
G1 X78.873 Y85.911 E10.36278 ; fill
G1 X78.873 Y86.957 E10.40662 ; fill
G1 X83.190 Y91.275 E10.66237 ; fill
G1 X82.613 Y91.745 E10.69353 ; fill
G1 X78.873 Y88.004 E10.91511 ; fill
G1 X78.873 Y89.051 E10.95895 ; fill
G1 X82.150 Y92.328 E11.15308 ; fill
G1 X81.729 Y92.954 E11.18467 ; fill
G1 X78.873 Y90.098 E11.35388 ; fill
G1 X78.873 Y91.144 E11.39773 ; fill
G1 X81.412 Y93.684 E11.54816 ; fill
G1 X81.191 Y94.509 E11.58395 ; fill
G1 X78.873 Y92.191 E11.72127 ; fill
G1 X78.873 Y93.238 E11.76512 ; fill
G1 X81.056 Y95.421 E11.89446 ; fill
G1 X81.191 Y96.603 E11.94428 ; fill
G1 X78.873 Y94.285 E12.08161 ; fill
G1 F1800.000 E11.08161 ; retract
G1 Z1.400 ; lift plate during travel
G92 E0 ; reset extrusion distance
G1 X79.341 Y103.127 F7800.000 ; move to first fill point
G1 Z0.400 ; restore layer Z
G1 F1800.000 E1.00000 ; compensate retraction
G1 X78.873 Y102.659 F1800.000 E1.02774 ; fill
G1 X78.873 Y101.612 E1.07159 ; fill
G1 X80.388 Y103.127 E1.16134 ; fill
G1 X81.435 Y103.127 E1.20518 ; fill
G1 X78.873 Y100.565 E1.35694 ; fill
G1 X78.873 Y99.519 E1.40078 ; fill
G1 X82.481 Y103.127 E1.61454 ; fill
G1 X83.528 Y103.127 E1.65838 ; fill
G1 X78.873 Y98.472 E1.93415 ; fill
G1 X78.873 Y97.425 E1.97799 ; fill
G1 X84.575 Y103.127 E2.31577 ; fill
G1 X85.622 Y103.127 E2.35961 ; fill
G1 X78.873 Y96.378 E2.75939 ; fill
G1 X78.873 Y95.332 E2.80324 ; fill
G1 X81.931 Y98.390 E2.98441 ; fill
G1 F1800.000 E1.98441 ; retract
G1 Z1.400 ; lift plate during travel
G92 E0 ; reset extrusion distance
G1 X78.873 Y78.583 F7800.000 ; move to first fill point
G1 Z0.400 ; restore layer Z
G1 F1800.000 E1.00000 ; compensate retraction
G1 X101.127 Y100.838 F1800.000 E2.31826 ; fill
G1 X101.127 Y99.791 E2.36211 ; fill
