; generated by Slic3r 0.9.8-dev on 2013-01-12 at 11:03:59

; layer_height = 0.4
; perimeters = 3
; top_solid_layers = 3
; bottom_solid_layers = 3
; fill_density = 0.40
; perimeter_speed = 30
; infill_speed = 60
; travel_speed = 130
; scale = 1
; nozzle_diameter = 0.5
; filament_diameter = 3
; extrusion_multiplier = 1
; perimeters extrusion width = 0.53mm
; infill extrusion width = 0.53mm
; first layer extrusion width = 0.80mm

M190 S60 ; wait for bed temperature to be reached
M104 S180 ; set temperature
G28 ; home all axes
G92 E0 ;reset extruder
M109 S180 ; wait for temperature to be reached
G90 ; use absolute coordinates
G21 ; set units to millimeters
G92 E0 ; reset extrusion distance
M82 ; use absolute distances for extrusion
G1 F1800.000 E-1.00000 ; retract
G1 Z1.400 ; move to next layer (0) and lift
G92 E0 ; reset extrusion distance
G1 X121.380 Y109.140 F7800.000 ; move to first skirt point
G1 Z0.400 ; restore layer Z
G1 F1800.000 E1.00000 ; compensate retraction
G1 X120.930 Y109.680 F540.000 E1.02926 ; skirt
G1 X120.680 Y109.930 E1.04398 ; skirt
G1 X120.140 Y110.380 E1.07324 ; skirt
G1 X115.160 Y114.200 E1.33451 ; skirt
G1 X114.560 Y114.570 E1.36385 ; skirt
G1 X113.920 Y114.870 E1.39328 ; skirt
G1 X108.450 Y117.140 E1.63981 ; skirt
G1 X108.120 Y117.270 E1.65457 ; skirt
G1 X107.440 Y117.470 E1.68408 ; skirt
G1 X106.740 Y117.600 E1.71372 ; skirt
G1 X100.860 Y118.370 E1.96058 ; skirt
G1 X100.520 Y118.410 E1.97483 ; skirt
G1 X100.160 Y118.420 E1.98982 ; skirt
G1 X99.810 Y118.420 E2.00439 ; skirt
G1 X99.110 Y118.370 E2.03360 ; skirt
G1 X93.240 Y117.600 E2.28005 ; skirt
G1 X92.550 Y117.470 E2.30928 ; skirt
G1 X92.210 Y117.380 E2.32392 ; skirt
G1 X91.540 Y117.140 E2.35354 ; skirt
G1 X86.070 Y114.870 E2.60007 ; skirt
G1 X85.430 Y114.570 E2.62950 ; skirt
G1 X84.830 Y114.200 E2.65884 ; skirt
G1 X84.550 Y113.990 E2.67341 ; skirt
G1 X79.850 Y110.380 E2.92011 ; skirt
G1 X79.310 Y109.930 E2.94937 ; skirt
G1 X79.060 Y109.680 E2.96409 ; skirt
G1 X78.610 Y109.140 E2.99335 ; skirt
G1 X74.790 Y104.160 E3.25462 ; skirt
G1 X74.420 Y103.550 E3.28432 ; skirt
G1 X74.260 Y103.240 E3.29884 ; skirt
G1 X74.120 Y102.910 E3.31376 ; skirt
G1 X71.780 Y97.280 E3.56756 ; skirt
G1 X71.580 Y96.680 E3.59389 ; skirt
G1 X71.500 Y96.370 E3.60722 ; skirt
G1 X71.390 Y95.740 E3.63384 ; skirt
G1 X70.620 Y89.860 E3.88070 ; skirt
G1 X70.580 Y89.520 E3.89495 ; skirt
G1 X70.570 Y89.160 E3.90994 ; skirt
G1 X70.570 Y88.810 E3.92451 ; skirt
G1 X70.620 Y88.110 E3.95373 ; skirt
G1 X71.390 Y82.240 E4.20017 ; skirt
G1 X71.520 Y81.550 E4.22940 ; skirt
G1 X71.610 Y81.200 E4.24445 ; skirt
G1 X71.850 Y80.540 E4.27368 ; skirt
G1 X74.100 Y75.110 E4.51835 ; skirt
G1 X74.410 Y74.460 E4.54833 ; skirt
G1 X74.590 Y74.140 E4.56362 ; skirt
G1 X75.000 Y73.550 E4.59352 ; skirt
G1 X78.610 Y68.850 E4.84023 ; skirt
G1 X79.060 Y68.310 E4.86949 ; skirt
G1 X79.310 Y68.060 E4.88420 ; skirt
G1 X79.850 Y67.610 E4.91346 ; skirt
G1 X84.830 Y63.790 E5.17473 ; skirt
G1 X85.430 Y63.420 E5.20408 ; skirt
G1 X85.750 Y63.260 E5.21897 ; skirt
G1 X91.540 Y60.850 E5.48004 ; skirt
G1 X92.430 Y60.550 E5.51914 ; skirt
G1 X93.040 Y60.420 E5.54510 ; skirt
G1 X99.110 Y59.620 E5.79996 ; skirt
G1 X99.810 Y59.570 E5.82918 ; skirt
G1 X100.510 Y59.580 E5.85832 ; skirt
G1 X100.860 Y59.620 E5.87298 ; skirt
G1 X106.740 Y60.390 E6.11984 ; skirt
G1 X107.440 Y60.520 E6.14948 ; skirt
G1 X107.780 Y60.610 E6.16412 ; skirt
G1 X108.450 Y60.850 E6.19375 ; skirt
G1 X113.920 Y63.120 E6.44028 ; skirt
G1 X114.560 Y63.420 E6.46970 ; skirt
G1 X115.160 Y63.790 E6.49905 ; skirt
G1 X115.440 Y64.000 E6.51362 ; skirt
G1 X120.140 Y67.610 E6.76032 ; skirt
G1 X120.680 Y68.060 E6.78958 ; skirt
G1 X120.930 Y68.310 E6.80430 ; skirt
G1 X121.380 Y68.850 E6.83356 ; skirt
G1 X125.200 Y73.830 E7.09483 ; skirt
G1 X125.570 Y74.430 E7.12417 ; skirt
G1 X125.870 Y75.070 E7.15359 ; skirt
G1 X128.140 Y80.540 E7.40013 ; skirt
G1 X128.270 Y80.870 E7.41489 ; skirt
G1 X128.470 Y81.550 E7.44440 ; skirt
G1 X128.600 Y82.240 E7.47362 ; skirt
G1 X129.370 Y88.110 E7.72007 ; skirt
G1 X129.420 Y88.810 E7.74928 ; skirt
G1 X129.410 Y89.520 E7.77884 ; skirt
G1 X129.370 Y89.860 E7.79309 ; skirt
G1 X128.600 Y95.740 E8.03995 ; skirt
G1 X128.470 Y96.440 E8.06959 ; skirt
G1 X128.270 Y97.120 E8.09910 ; skirt
G1 X125.870 Y102.920 E8.36039 ; skirt
G1 X125.570 Y103.560 E8.38981 ; skirt
G1 X125.200 Y104.160 E8.41916 ; skirt
G1 X124.990 Y104.440 E8.43373 ; skirt
G1 X121.447 Y109.052 E8.67583 ; skirt
G1 X121.380 Y109.140 E8.68043 ; skirt
G1 F1800.000 E7.68043 ; retract
G1 Z1.400 ; move to next layer (0) and lift
G92 E0 ; reset extrusion distance
G1 X109.183 Y98.183 F7800.000 ; move to first perimeter point
G1 Z0.400 ; restore layer Z
G1 F1800.000 E1.00000 ; compensate retraction
G1 X106.494 Y100.247 F540.000 E1.14113 ; perimeter
G1 X103.361 Y101.545 E1.28227 ; perimeter
G1 X100.000 Y101.987 E1.42340 ; perimeter
G1 X96.639 Y101.545 E1.56453 ; perimeter
G1 X93.506 Y100.247 E1.70567 ; perimeter
G1 X90.817 Y98.183 E1.84680 ; perimeter
G1 X88.753 Y95.494 E1.98793 ; perimeter
G1 X87.455 Y92.361 E2.12907 ; perimeter
G1 X87.013 Y89.000 E2.27020 ; perimeter
G1 X87.455 Y85.639 E2.41134 ; perimeter
G1 X88.753 Y82.506 E2.55247 ; perimeter
G1 X90.817 Y79.817 E2.69360 ; perimeter
G1 X93.506 Y77.753 E2.83474 ; perimeter
G1 X96.639 Y76.455 E2.97587 ; perimeter
G1 X100.000 Y76.013 E3.11700 ; perimeter
G1 X103.361 Y76.455 E3.25814 ; perimeter
G1 X106.494 Y77.753 E3.39927 ; perimeter
G1 X109.183 Y79.817 E3.54040 ; perimeter
G1 X111.247 Y82.506 E3.68154 ; perimeter
G1 X112.545 Y85.639 E3.82267 ; perimeter
G1 X112.987 Y89.000 E3.96381 ; perimeter
G1 X112.545 Y92.361 E4.10494 ; perimeter
G1 X111.247 Y95.494 E4.24607 ; perimeter
G1 X109.251 Y98.096 E4.38261 ; perimeter
G1 X109.183 Y98.183 E4.38721 ; perimeter
G1 X108.659 Y97.659 F7800.000 ; move to first perimeter point
G1 X106.123 Y99.605 F540.000 E4.52027 ; perimeter
G1 X103.169 Y100.828 E4.65335 ; perimeter
G1 X100.000 Y101.245 E4.78642 ; perimeter
G1 X96.831 Y100.828 E4.91949 ; perimeter
G1 X93.877 Y99.605 E5.05256 ; perimeter
G1 X91.341 Y97.659 E5.18563 ; perimeter
G1 X89.395 Y95.123 E5.31870 ; perimeter
G1 X88.172 Y92.169 E5.45177 ; perimeter
G1 X87.755 Y89.000 E5.58484 ; perimeter
G1 X88.172 Y85.831 E5.71791 ; perimeter
G1 X89.395 Y82.877 E5.85098 ; perimeter
G1 X91.341 Y80.341 E5.98405 ; perimeter
G1 X93.877 Y78.395 E6.11712 ; perimeter
G1 X96.831 Y77.172 E6.25019 ; perimeter
G1 X100.000 Y76.755 E6.38326 ; perimeter
G1 X103.169 Y77.172 E6.51633 ; perimeter
G1 X106.123 Y78.395 E6.64941 ; perimeter
G1 X108.659 Y80.341 E6.78248 ; perimeter
G1 X110.605 Y82.877 E6.91555 ; perimeter
G1 X111.828 Y85.831 E7.04862 ; perimeter
G1 X112.245 Y89.000 E7.18169 ; perimeter
G1 X111.828 Y92.169 E7.31476 ; perimeter
G1 X110.605 Y95.123 E7.44783 ; perimeter
G1 X108.726 Y97.571 E7.57631 ; perimeter
G1 X108.659 Y97.659 E7.58090 ; perimeter
G1 X108.134 Y97.134 F7800.000 ; move to first perimeter point
G1 X105.752 Y98.962 F540.000 E7.70591 ; perimeter
G1 X102.977 Y100.111 E7.83091 ; perimeter
G1 X100.000 Y100.503 E7.95592 ; perimeter
G1 X97.023 Y100.111 E8.08093 ; perimeter
G1 X94.248 Y98.962 E8.20594 ; perimeter
G1 X91.866 Y97.134 E8.33095 ; perimeter
G1 X90.038 Y94.752 E8.45595 ; perimeter
G1 X88.889 Y91.977 E8.58096 ; perimeter
G1 X88.497 Y89.000 E8.70597 ; perimeter
G1 X88.889 Y86.023 E8.83098 ; perimeter
G1 X90.038 Y83.248 E8.95598 ; perimeter
G1 X91.866 Y80.866 E9.08099 ; perimeter
G1 X94.248 Y79.038 E9.20600 ; perimeter
G1 X97.023 Y77.889 E9.33101 ; perimeter
G1 X100.000 Y77.497 E9.45601 ; perimeter
G1 X102.977 Y77.889 E9.58102 ; perimeter
G1 X105.752 Y79.038 E9.70603 ; perimeter
G1 X108.134 Y80.866 E9.83104 ; perimeter
G1 X109.962 Y83.248 E9.95605 ; perimeter
G1 X111.111 Y86.023 E10.08105 ; perimeter
G1 X111.503 Y89.000 E10.20606 ; perimeter
G1 X111.111 Y91.977 E10.33107 ; perimeter
G1 X109.962 Y94.752 E10.45608 ; perimeter
G1 X108.201 Y97.047 E10.57649 ; perimeter
G1 X108.134 Y97.134 E10.58108 ; perimeter
G1 X108.293 Y97.852 F7800.000 ; move inwards before travel
G1 F1800.000 E9.58108 ; retract
G1 Z1.400 ; lift plate during travel
G92 E0 ; reset extrusion distance
G1 X105.490 Y68.510 F7800.000 ; move to first perimeter point
G1 Z0.400 ; restore layer Z
G1 F1800.000 E1.00000 ; compensate retraction
G1 X110.606 Y70.629 F540.000 E1.23052 ; perimeter
G1 X115.000 Y74.000 E1.46103 ; perimeter
G1 X118.371 Y78.394 E1.69155 ; perimeter
G1 X120.490 Y83.510 E1.92207 ; perimeter
G1 X121.213 Y89.000 E2.15258 ; perimeter
G1 X120.490 Y94.490 E2.38310 ; perimeter
G1 X118.371 Y99.606 E2.61362 ; perimeter
G1 X115.000 Y104.000 E2.84413 ; perimeter
G1 X110.606 Y107.371 E3.07465 ; perimeter
G1 X105.490 Y109.490 E3.30517 ; perimeter
G1 X100.000 Y110.213 E3.53569 ; perimeter
G1 X94.510 Y109.490 E3.76620 ; perimeter
G1 X89.394 Y107.371 E3.99672 ; perimeter
G1 X85.000 Y104.000 E4.22724 ; perimeter
G1 X81.629 Y99.606 E4.45775 ; perimeter
G1 X79.570 Y94.634 E4.68179 ; perimeter
G1 X79.510 Y94.490 E4.68827 ; perimeter
G1 X78.787 Y89.000 E4.91879 ; perimeter
G1 X79.510 Y83.510 E5.14930 ; perimeter
G1 X81.629 Y78.394 E5.37982 ; perimeter
G1 X85.000 Y74.000 E5.61034 ; perimeter
G1 X89.394 Y70.629 E5.84085 ; perimeter
G1 X94.510 Y68.510 E6.07137 ; perimeter
G1 X100.000 Y67.787 E6.30189 ; perimeter
G1 X105.381 Y68.496 E6.52781 ; perimeter
G1 X105.490 Y68.510 E6.53240 ; perimeter
G1 X105.407 Y67.757 F7800.000 ; move to first perimeter point
G1 X105.407 Y67.679 F540.000 E6.53564 ; perimeter
G1 X110.977 Y69.987 E6.78662 ; perimeter
G1 X115.524 Y73.476 E7.02520 ; perimeter
G1 X119.013 Y78.023 E7.26378 ; perimeter
G1 X121.206 Y83.318 E7.50236 ; perimeter
G1 X121.955 Y89.000 E7.74094 ; perimeter
G1 X121.206 Y94.682 E7.97952 ; perimeter
G1 X119.013 Y99.977 E8.21810 ; perimeter
G1 X115.524 Y104.524 E8.45668 ; perimeter
G1 X110.977 Y108.013 E8.69526 ; perimeter
G1 X105.682 Y110.206 E8.93384 ; perimeter
G1 X100.000 Y110.955 E9.17242 ; perimeter
G1 X94.318 Y110.206 E9.41100 ; perimeter
G1 X89.023 Y108.013 E9.64958 ; perimeter
G1 X84.476 Y104.524 E9.88816 ; perimeter
G1 X80.987 Y99.977 E10.12674 ; perimeter
G1 X78.890 Y94.916 E10.35481 ; perimeter
G1 X78.794 Y94.682 E10.36532 ; perimeter
G1 X78.045 Y89.000 E10.60390 ; perimeter
G1 X78.803 Y83.248 E10.84540 ; perimeter
G1 X78.822 Y83.248 E10.84621 ; perimeter
G1 X80.987 Y78.023 E11.08166 ; perimeter
G1 X84.476 Y73.476 E11.32024 ; perimeter
G1 X89.023 Y69.987 E11.55882 ; perimeter
G1 X94.248 Y67.822 E11.79427 ; perimeter
G1 X94.248 Y67.803 E11.79509 ; perimeter
G1 X100.000 Y67.045 E12.03659 ; perimeter
G1 X105.298 Y67.743 E12.25902 ; perimeter
G1 X105.407 Y67.757 E12.26361 ; perimeter
G1 X105.874 Y67.077 F7800.000 ; move to first perimeter point
G1 X111.348 Y69.344 F540.000 E12.51025 ; perimeter
G1 X116.049 Y72.951 E12.75689 ; perimeter
G1 X119.656 Y77.652 E13.00354 ; perimeter
G1 X121.923 Y83.126 E13.25018 ; perimeter
G1 X122.697 Y89.000 E13.49682 ; perimeter
G1 X121.923 Y94.874 E13.74347 ; perimeter
G1 X119.656 Y100.348 E13.99011 ; perimeter
G1 X116.049 Y105.049 E14.23675 ; perimeter
G1 X111.348 Y108.656 E14.48339 ; perimeter
G1 X105.874 Y110.923 E14.73004 ; perimeter
G1 X100.000 Y111.697 E14.97668 ; perimeter
G1 X94.126 Y110.923 E15.22332 ; perimeter
G1 X88.652 Y108.656 E15.46996 ; perimeter
G1 X83.951 Y105.049 E15.71661 ; perimeter
G1 X80.344 Y100.348 E15.96325 ; perimeter
G1 X78.077 Y94.874 E16.20989 ; perimeter
G1 X77.349 Y89.346 E16.44199 ; perimeter
G1 X77.303 Y89.000 E16.45653 ; perimeter
G1 X78.077 Y83.126 E16.70318 ; perimeter
G1 X80.344 Y77.652 E16.94982 ; perimeter
G1 X83.951 Y72.951 E17.19646 ; perimeter
G1 X88.652 Y69.344 E17.44311 ; perimeter
G1 X94.126 Y67.077 E17.68975 ; perimeter
G1 X100.000 Y66.303 E17.93639 ; perimeter
G1 X105.765 Y67.062 E18.17844 ; perimeter
G1 X105.874 Y67.077 E18.18303 ; perimeter
G1 X106.034 Y67.795 F7800.000 ; move inwards before travel
G1 F1800.000 E17.18303 ; retract
G1 Z1.400 ; lift plate during travel
G92 E0 ; reset extrusion distance
G1 X99.832 Y68.304 F7800.000 ; move to first fill point
G1 Z0.400 ; restore layer Z
G1 F1800.000 E1.00000 ; compensate retraction
G1 X120.696 Y89.168 F1080.000 E2.24291 ; fill
G1 X120.537 Y87.956 E2.29442 ; fill
G1 X101.044 Y68.463 E3.45561 ; fill
G1 X102.257 Y68.623 E3.50711 ; fill
G1 X120.377 Y86.743 E4.58657 ; fill
G1 X120.217 Y85.531 E4.63808 ; fill
G1 X103.469 Y68.783 E5.63581 ; fill
G1 X104.681 Y68.942 E5.68732 ; fill
G1 X120.058 Y84.319 E6.60332 ; fill
G1 X119.498 Y82.706 E6.67521 ; fill
G1 X106.294 Y69.502 E7.46182 ; fill
G1 X108.091 Y70.246 E7.54376 ; fill
G1 X118.754 Y80.909 E8.17896 ; fill
G1 X118.009 Y79.112 E8.26089 ; fill
G1 X109.888 Y70.991 E8.74469 ; fill
G1 F1800.000 E7.74469 ; retract
G1 Z1.400 ; lift plate during travel
G92 E0 ; reset extrusion distance
G1 X114.240 Y74.291 F7800.000 ; move to first fill point
G1 Z0.400 ; restore layer Z
G1 F1800.000 E1.00000 ; compensate retraction
G1 X114.709 Y74.760 F1080.000 E1.02794 ; fill
G1 F1800.000 E0.02794 ; retract
G1 Z1.400 ; lift plate during travel
G92 E0 ; reset extrusion distance
G1 X81.991 Y98.888 F7800.000 ; move to first fill point
G1 Z0.400 ; restore layer Z
G1 F1800.000 E1.00000 ; compensate retraction
G1 X90.112 Y107.009 F1080.000 E1.48380 ; fill
G1 X91.909 Y107.754 E1.56574 ; fill
G1 X81.246 Y97.091 E2.20094 ; fill
G1 X80.502 Y95.294 E2.28288 ; fill
G1 X93.706 Y108.498 E3.06949 ; fill
G1 X95.319 Y109.058 E3.14138 ; fill
G1 X79.942 Y93.681 E4.05739 ; fill
G1 X79.783 Y92.469 E4.10890 ; fill
G1 X96.531 Y109.217 E5.10663 ; fill
G1 X97.743 Y109.377 E5.15814 ; fill
G1 X79.623 Y91.257 E6.23761 ; fill
G1 X79.463 Y90.044 E6.28911 ; fill
G1 X98.956 Y109.537 E7.45031 ; fill
G1 X100.168 Y109.696 E7.50182 ; fill
G1 X79.304 Y88.832 E8.74474 ; fill
G1 X79.411 Y87.886 E8.78483 ; fill
G1 X101.114 Y109.589 E10.07770 ; fill
G1 X102.044 Y109.467 E10.11722 ; fill
G1 X93.468 Y100.890 E10.62812 ; fill
G1 X95.265 Y101.635 E10.71006 ; fill
G1 X102.974 Y109.344 E11.16931 ; fill
G1 X103.904 Y109.222 E11.20884 ; fill
G1 X96.786 Y102.103 E11.63291 ; fill
G1 X97.998 Y102.262 E11.68442 ; fill
G1 X104.835 Y109.099 E12.09170 ; fill
G1 X105.718 Y108.930 E12.12960 ; fill
G1 X99.210 Y102.422 E12.51731 ; fill
G1 X100.270 Y102.429 E12.56194 ; fill
G1 X106.463 Y108.622 E12.93087 ; fill
G1 X107.207 Y108.314 E12.96481 ; fill
G1 X101.200 Y102.306 E13.32267 ; fill
G1 X102.130 Y102.184 E13.36219 ; fill
G1 X107.952 Y108.005 E13.70898 ; fill
G1 X108.696 Y107.697 E13.74292 ; fill
G1 X103.061 Y102.061 E14.07863 ; fill
G1 X103.857 Y101.805 E14.11386 ; fill
G1 X109.440 Y107.389 E14.44650 ; fill
G1 X110.185 Y107.080 E14.48044 ; fill
G1 X104.601 Y101.496 E14.81307 ; fill
G1 X105.345 Y101.188 E14.84701 ; fill
G1 X110.837 Y106.680 E15.17417 ; fill
G1 X111.433 Y106.223 E15.20580 ; fill
G1 X106.090 Y100.880 E15.52410 ; fill
G1 X106.794 Y100.531 E15.55719 ; fill
G1 X112.029 Y105.766 E15.86906 ; fill
G1 X112.624 Y105.309 E15.90068 ; fill
G1 X107.389 Y100.074 E16.21255 ; fill
G1 X107.985 Y99.617 E16.24417 ; fill
G1 X113.220 Y104.852 E16.55604 ; fill
G1 X113.816 Y104.395 E16.58767 ; fill
G1 X108.580 Y99.160 E16.89954 ; fill
G1 X109.176 Y98.702 E16.93116 ; fill
G1 X114.411 Y103.938 E17.24303 ; fill
G1 X114.938 Y103.411 E17.27439 ; fill
G1 X109.702 Y98.176 E17.58626 ; fill
G1 X110.160 Y97.580 E17.61788 ; fill
G1 X115.395 Y102.816 E17.92975 ; fill
G1 X115.852 Y102.220 E17.96138 ; fill
G1 X110.617 Y96.985 E18.27324 ; fill
G1 X111.074 Y96.389 E18.30487 ; fill
G1 X116.309 Y101.624 E18.61674 ; fill
G1 X116.766 Y101.029 E18.64836 ; fill
G1 X111.531 Y95.793 E18.96023 ; fill
G1 X111.880 Y95.090 E18.99331 ; fill
G1 X117.223 Y100.433 E19.31162 ; fill
G1 X117.680 Y99.837 E19.34324 ; fill
G1 X112.188 Y94.345 E19.67040 ; fill
G1 X112.496 Y93.601 E19.70434 ; fill
G1 X118.080 Y99.185 E20.03698 ; fill
G1 X118.389 Y98.440 E20.07092 ; fill
G1 X112.805 Y92.857 E20.40355 ; fill
G1 X113.061 Y92.061 E20.43879 ; fill
G1 X118.697 Y97.696 E20.77450 ; fill
G1 X119.005 Y96.952 E20.80844 ; fill
G1 X113.184 Y91.130 E21.15522 ; fill
G1 X113.306 Y90.200 E21.19475 ; fill
G1 X119.314 Y96.207 E21.55261 ; fill
G1 X119.622 Y95.463 E21.58655 ; fill
