; generated by Slic3r 0.9.10b on 2013-09-12 at 20:27:29

; layer_height = 0.4
; perimeters = 3
; top_solid_layers = 3
; bottom_solid_layers = 3
; fill_density = 0.4
; perimeter_speed = 30
; infill_speed = 60
; travel_speed = 130
; nozzle_diameter = 0.5
; filament_diameter = 3
; extrusion_multiplier = 1
; perimeters extrusion width = 0.53mm
; infill extrusion width = 0.53mm
; solid infill extrusion width = 0.53mm
; top infill extrusion width = 0.53mm
; first layer extrusion width = 1.00mm

G21 ; set units to millimeters
M107
M104 S180 ; set temperature
G28 ; home all axes
G1 Z5 F5000 ; lift nozzle
M190 S60 ; bed on
M109 S180 ; wait for temperature to be reached
G90 ; use absolute coordinates
G92 E0
M82 ; use absolute distances for extrusion
G1 F1800.000 E-1.00000
G1 Z1.000 F7800.000
G92 E0
G1 X44.490 Y55.580
G1 Z0.500
G1 F1800.000 E1.00000
G1 X45.680 Y54.940 F600.000 E1.08532
G1 X46.960 Y54.550 E1.16982
G1 X48.310 Y54.410 E1.25552
G1 X110.740 Y54.110 E5.19774
G1 X112.040 Y54.230 E5.28018
G1 X113.290 Y54.600 E5.36250
G1 X114.460 Y55.190 E5.44524
G1 X115.480 Y56.000 E5.52749
G1 X116.340 Y56.980 E5.60982
G1 X117.000 Y58.110 E5.69245
G1 X117.430 Y59.340 E5.77473
G1 X117.620 Y60.640 E5.85769
G1 X117.570 Y61.940 E5.93984
G1 X117.270 Y63.210 E6.02224
G1 X116.730 Y64.400 E6.10476
G1 X115.980 Y65.470 E6.18727
G1 X115.050 Y66.380 E6.26943
G1 X114.750 Y66.620 E6.29369
G1 X113.440 Y67.450 E6.39162
G1 X111.980 Y67.960 E6.48928
G1 X110.440 Y68.130 E6.58711
G1 X48.340 Y68.190 E10.50845
G1 X47.000 Y68.060 E10.59346
G1 X45.710 Y67.670 E10.67856
G1 X44.520 Y67.030 E10.76388
G1 X43.470 Y66.180 E10.84919
G1 X42.610 Y65.140 E10.93440
G1 X41.980 Y63.950 E11.01943
G1 X41.580 Y62.660 E11.10471
G1 X41.450 Y61.320 E11.18972
G1 X41.580 Y59.970 E11.27536
G1 X41.960 Y58.680 E11.36028
G1 X42.600 Y57.490 E11.44560
G1 X43.450 Y56.440 E11.53091
G1 X44.387 Y55.665 E11.60767
G1 F1800.000 E10.60767
G1 Z1.000 F7800.000
G92 E0
G1 X79.100 Y61.276
G1 Z0.500
G1 F1800.000 E1.00000
G1 X85.750 Y61.123 F600.000 E1.42006
G1 X86.066 Y61.269 E1.44207
G1 X86.250 Y61.120 E1.45700
G1 X86.564 Y61.269 E1.47893
G1 X86.750 Y61.118 E1.49405
G1 X87.061 Y61.268 E1.51590
G1 X87.250 Y61.115 E1.53122
G1 X87.559 Y61.268 E1.55298
G1 X87.750 Y61.113 E1.56849
G1 X88.057 Y61.267 E1.59017
G1 X88.250 Y61.110 E1.60588
G1 X88.554 Y61.266 E1.62748
G1 X88.750 Y61.108 E1.64338
G1 X89.052 Y61.266 E1.66490
G1 X89.250 Y61.105 E1.68100
G1 X89.550 Y61.265 E1.70245
G1 X89.750 Y61.103 E1.71873
G1 X90.047 Y61.265 E1.74011
G1 X90.250 Y61.101 E1.75659
G1 X90.545 Y61.264 E1.77789
G1 X90.750 Y61.098 E1.79456
G1 X91.042 Y61.264 E1.81579
G1 X91.250 Y61.096 E1.83266
G1 X91.540 Y61.263 E1.85382
G1 X91.750 Y61.093 E1.87088
G1 X92.038 Y61.263 E1.89197
G1 X92.250 Y61.091 E1.90922
G1 X92.535 Y61.262 E1.93025
G1 X92.750 Y61.088 E1.94770
G1 X93.033 Y61.262 E1.96865
G1 X93.250 Y61.086 E1.98630
G1 X93.531 Y61.261 E2.00719
G1 X93.750 Y61.083 E2.02503
G1 X94.028 Y61.261 E2.04586
G1 X94.250 Y61.081 E2.06389
G1 X94.526 Y61.260 E2.08466
G1 X94.750 Y61.079 E2.10288
G1 X95.023 Y61.260 E2.12359
G1 X95.250 Y61.076 E2.14201
G1 X95.521 Y61.259 E2.16266
G1 X95.750 Y61.074 E2.18127
G1 X96.019 Y61.259 E2.20187
G1 X96.250 Y61.071 E2.22067
G1 X96.516 Y61.258 E2.24122
G1 X96.750 Y61.069 E2.26021
G1 X97.014 Y61.258 E2.28071
G1 X97.250 Y61.066 E2.29990
G1 X97.511 Y61.257 E2.32034
G1 X97.750 Y61.064 E2.33972
G1 X98.009 Y61.257 E2.36012
G1 X98.250 Y61.061 E2.37969
G1 X98.507 Y61.256 E2.40004
G1 X98.750 Y61.059 E2.41981
G1 X99.004 Y61.256 E2.44011
G1 X99.250 Y61.057 E2.46007
G1 X99.502 Y61.255 E2.48033
G1 X99.750 Y61.054 E2.50049
G1 X100.000 Y61.255 E2.52071
G1 X100.250 Y61.052 E2.54105
G1 X100.497 Y61.254 E2.56123
G1 X100.750 Y61.049 E2.58177
G1 X100.995 Y61.254 E2.60191
G1 X101.250 Y61.047 E2.62265
G1 X101.492 Y61.253 E2.64275
G1 X101.750 Y61.044 E2.66368
G1 X101.990 Y61.252 E2.68375
G1 X102.250 Y61.042 E2.70487
G1 X102.488 Y61.252 E2.72490
G1 X102.750 Y61.039 E2.74622
G1 X102.985 Y61.251 E2.76622
G1 X103.250 Y61.037 E2.78773
G1 X103.483 Y61.251 E2.80770
G1 X103.750 Y61.035 E2.82940
G1 X103.981 Y61.250 E2.84935
G1 X104.250 Y61.032 E2.87125
G1 X104.478 Y61.250 E2.89117
G1 X104.750 Y61.030 E2.91326
G1 X104.976 Y61.249 E2.93316
G1 X105.250 Y61.027 E2.95544
G1 X105.473 Y61.249 E2.97531
G1 X105.750 Y61.025 E2.99779
G1 X105.971 Y61.248 E3.01764
G1 X106.250 Y61.022 E3.04031
G1 X106.469 Y61.248 E3.06015
G1 X106.750 Y61.020 E3.08301
G1 X106.966 Y61.247 E3.10283
G1 X107.250 Y61.017 E3.12589
G1 X107.464 Y61.247 E3.14570
G1 X107.750 Y61.015 E3.16894
G1 X107.962 Y61.246 E3.18874
G1 X108.250 Y61.013 E3.21218
G1 X108.459 Y61.246 E3.23196
G1 X108.750 Y61.010 E3.25560
G1 X108.957 Y61.245 E3.27537
G1 X109.250 Y61.008 E3.29920
G1 X109.454 Y61.245 E3.31897
G1 X109.750 Y61.005 E3.34299
G1 X109.952 Y61.244 E3.36275
G1 X110.250 Y61.003 E3.38697
G1 X110.450 Y61.244 E3.40673
G1 X110.750 Y61.000 E3.43114
G1 F1800.000 E2.43114
G1 Z1.000 F7800.000
G92 E0
G1 X79.100 Y61.276
G1 Z0.500
G1 F1800.000 E1.00000
G1 X58.750 Y61.255 F600.000 E2.28498
G1 X58.750 Y61.255 F7800.000
G1 X52.726 Y61.304 F600.000 E2.66541
G1 X52.726 Y61.304 F7800.000
G1 X50.237 Y61.306 F600.000 E2.82252
G1 X50.237 Y61.306 F7800.000
G1 X49.242 Y61.307 F600.000 E2.88537
G1 X49.242 Y61.307 F7800.000
G1 X48.745 Y61.308 F600.000 E2.91679
G1 X48.745 Y61.308 F7800.000
G1 X48.344 Y61.306 F600.000 E2.94210
M106 S255
G1 F1800.000 E1.94210
G1 Z1.400 F7800.000
G92 E0
G1 X134.812 Y61.143
G1 Z0.900
G1 F1800.000 E1.00000
G1 X151.606 Y61.003 F600.000 E1.49386
G1 F1800.000 E0.49386
G1 Z1.400 F7800.000
G92 E0
G1 X134.812 Y61.143
G1 Z0.900
G1 F1800.000 E1.00000
G1 X115.394 Y61.304 F600.000 E1.57102
G1 X115.394 Y61.304 F7800.000
G1 X93.614 Y61.485 F600.000 E2.21149
G1 X93.614 Y61.485 F7800.000
G1 X90.846 Y61.508 F600.000 E2.29289
G1 X90.729 Y61.630 F7800.000
G1 X90.717 Y61.637 F600.000 E2.29331
G1 X90.729 Y61.630 F7800.000
G1 X90.846 Y61.508 F600.000 E2.29828
G1 X90.715 Y61.381 E2.30364
G1 F1800.000 E1.30364
G1 Z1.800 F7800.000
G92 E0
G1 X134.879 Y61.223
G1 Z1.300
G1 F1800.000 E1.00000
G1 X151.608 Y61.005 F600.000 E1.49196
G1 F1800.000 E0.49196
G1 Z1.800 F7800.000
G92 E0
G1 X134.879 Y61.223
G1 Z1.300
G1 F1800.000 E1.00000
G1 X115.536 Y61.476 F600.000 E1.56883
G1 X115.536 Y61.476 F7800.000
G1 X113.968 Y61.496 F600.000 E1.61495
G1 X113.968 Y61.496 F7800.000
G1 X113.819 Y61.498 F600.000 E1.61932
G1 X113.692 Y61.626 F7800.000
G1 X113.819 Y61.498 F600.000 E1.62463
G1 X113.689 Y61.374 E1.62993
G1 F1800.000 E0.62993
G1 Z2.200 F7800.000
G92 E0
G1 X134.880 Y61.305
G1 Z1.700
G1 F1800.000 E1.00000
G1 X151.608 Y61.007 F600.000 E1.49196
G1 F1800.000 E0.49196
G1 Z2.200 F7800.000
G92 E0
G1 X134.880 Y61.305
G1 Z1.700
G1 F1800.000 E1.00000
G1 X124.948 Y61.481 F600.000 E1.29210
G1 X124.948 Y61.481 F7800.000
G1 X124.687 Y61.486 F600.000 E1.29979
G1 X124.687 Y61.486 F7800.000
G1 X124.531 Y61.489 F600.000 E1.30436
G1 X124.429 Y61.602 F7800.000
G1 X124.405 Y61.615 F600.000 E1.30518
G1 X124.429 Y61.602 F7800.000
G1 X124.531 Y61.489 F600.000 E1.30966
G1 X124.401 Y61.367 E1.31491
G1 F1800.000 E0.31491
G1 Z2.600 F7800.000
G92 E0
G1 X135.086 Y61.381
G1 Z2.100
G1 F1800.000 E1.00000
G1 X151.607 Y61.009 F600.000 E1.48591
G1 F1800.000 E0.48591
G1 Z2.600 F7800.000
G92 E0
G1 X135.086 Y61.381
G1 Z2.100
G1 F1800.000 E1.00000
G1 X131.677 Y61.458 F600.000 E1.10027
G1 X131.677 Y61.458 F7800.000
G1 X131.415 Y61.464 F600.000 E1.10798
G1 X131.415 Y61.464 F7800.000
G1 X130.726 Y61.479 F600.000 E1.12824
G1 X130.633 Y61.586 F7800.000
G1 X130.601 Y61.605 F600.000 E1.12933
G1 X130.633 Y61.586 F7800.000
G1 X130.726 Y61.479 F600.000 E1.13350
G1 X130.595 Y61.360 E1.13872
G1 F1800.000 E0.13872
G1 Z3.000 F7800.000
G92 E0
G1 Z2.900
G1 Z3.300
G1 Z3.700
G1 Z4.100
G1 Z4.500
G1 Z4.900
G1 Z5.300
G1 Z5.700
G1 Z6.100
G1 Z6.500
G1 Z6.900
G1 Z7.300
G1 Z7.700
G1 Z8.100
G1 Z8.500
G1 Z8.900
G1 Z9.300
G1 Z9.700
G1 Z10.100
G1 Z10.500
G1 Z10.900
G1 Z11.300
G1 Z11.700
G1 Z12.100
G1 Z12.500
G1 Z12.900
G1 Z13.300
G1 Z13.700
G1 Z14.100
G1 Z14.500
G1 Z14.900
G1 Z15.300
G1 Z15.700
G1 Z16.100
G1 Z16.500
G1 Z16.900
G1 Z17.300
G1 Z17.700
G1 Z18.100
G1 Z18.500
G1 Z18.900
G1 Z19.300
G1 Z19.700
G1 Z20.100
G1 Z20.500
G1 Z20.900
G1 Z21.300
G1 Z21.700
G1 Z22.100
G1 Z22.500
G1 Z22.900
G1 Z23.300
G1 Z23.700
G1 Z24.100
G1 Z24.500
G1 Z24.900
G1 Z25.300
G1 Z25.700
G1 Z26.100
G1 Z26.500
G1 Z26.900
G1 Z27.300
G1 Z27.700
G1 Z28.100
G1 Z28.500
G1 Z28.900
G1 Z29.300
G1 Z29.700
G1 Z30.100
G1 Z30.500
G1 Z30.900
G1 Z31.300
G1 Z31.700
G1 Z32.100
G1 Z32.500
G1 Z32.900
G1 Z33.300
G1 Z33.700
G1 Z34.100
G1 Z34.500
G1 Z34.900
G1 Z35.300
G1 Z35.700
G1 Z36.100
G1 Z36.500
G1 Z36.900
G1 Z37.300
G1 Z37.700
G1 Z38.100
G1 Z38.500
G1 Z38.900
G1 Z39.300
G1 Z39.700
G1 Z40.100
G1 Z40.500
G1 Z40.900
G1 Z41.300
G1 Z41.700
G1 Z42.100
G1 Z42.500
G1 Z42.900
G1 Z43.300
G1 Z43.700
G1 Z44.100
G1 X50.557 Y115.119
G1 Z43.600
G1 F1800.000 E1.00000
G1 X50.748 Y115.119 F600.000 E1.00562
G1 X50.557 Y115.119 F7800.000
G1 X50.161 Y115.298 F600.000 E1.01840
G1 F1800.000 E0.01840
G1 Z44.100 F7800.000
G92 E0
M107
M104 S0 ; turn off temperature
M149 S9 ; turn off bed heater
G28 X0  ; home X axis
G28 Y0  ; home Y axis
M84     ; disable motors
; filament used = 19.4mm (0.1cm3)
