; generated by Slic3r 0.9.10b on 2013-09-13 at 18:47:18

; layer_height = 0.4
; perimeters = 3
; top_solid_layers = 3
; bottom_solid_layers = 3
; fill_density = 0.4
; perimeter_speed = 30
; infill_speed = 60
; travel_speed = 130
; nozzle_diameter = 0.5
; filament_diameter = 3
; extrusion_multiplier = 1
; perimeters extrusion width = 0.53mm
; infill extrusion width = 0.53mm
; solid infill extrusion width = 0.53mm
; top infill extrusion width = 0.53mm
; first layer extrusion width = 0.70mm

G21 ; set units to millimeters
M107
M104 S200 ; set temperature
G28 ; home all axes
G1 Z5 F5000 ; lift nozzle

M109 S200 ; wait for temperature to be reached
G90 ; use absolute coordinates
G92 E0
M82 ; use absolute distances for extrusion
G1 F1800.000 E-1.00000
G92 E0
G1 Z0.350 F7800.000
G1 X44.300 Y66.460
G1 F1800.000 E1.00000
G1 X45.450 Y65.850 F540.000 E1.04235
G1 X46.700 Y65.470 E1.08486
G1 X48.000 Y65.340 E1.12737
G1 X152.000 Y65.340 E4.51103
G1 X153.300 Y65.470 E4.55354
G1 X154.550 Y65.850 E4.59604
G1 X155.700 Y66.460 E4.63840
G1 X156.710 Y67.290 E4.68093
G1 X157.540 Y68.300 E4.72346
G1 X158.150 Y69.450 E4.76581
G1 X158.530 Y70.700 E4.80832
G1 X158.660 Y72.000 E4.85083
G1 X158.660 Y128.000 E6.67280
G1 X158.530 Y129.300 E6.71531
G1 X158.150 Y130.550 E6.75781
G1 X157.540 Y131.700 E6.80017
G1 X156.710 Y132.710 E6.84270
G1 X155.700 Y133.540 E6.88523
G1 X154.550 Y134.150 E6.92759
G1 X153.300 Y134.530 E6.97009
G1 X152.000 Y134.660 E7.01260
G1 X48.000 Y134.660 E10.39626
G1 X46.700 Y134.530 E10.43877
G1 X45.450 Y134.150 E10.48128
G1 X44.300 Y133.540 E10.52363
G1 X43.290 Y132.710 E10.56616
G1 X42.460 Y131.700 E10.60869
G1 X41.850 Y130.550 E10.65105
G1 X41.470 Y129.300 E10.69355
G1 X41.340 Y128.000 E10.73606
G1 X41.340 Y72.000 E12.55803
G1 X41.470 Y70.700 E12.60054
G1 X41.850 Y69.450 E12.64305
G1 X42.460 Y68.300 E12.68540
G1 X43.290 Y67.290 E12.72793
G1 X44.224 Y66.523 E12.76726
G1 F1800.000 E11.76726
G92 E0
G1 X49.643 Y73.643 F7800.000
G1 F1800.000 E1.00000
G1 X150.357 Y73.643 F540.000 E4.27677
G1 X150.357 Y126.357 E5.99185
G1 X49.643 Y126.357 E9.26862
G1 X49.643 Y73.741 E10.98050
G1 X48.986 Y72.986 F7800.000
G1 X151.014 Y72.986 F540.000 E14.30002
G1 X151.014 Y127.014 E16.05786
G1 X48.986 Y127.014 E19.37739
G1 X48.986 Y73.084 E21.13202
G1 X48.329 Y72.329 F7800.000
G1 X151.671 Y72.329 F378.000 E24.49430
G1 X151.671 Y127.671 E26.29490
G1 X48.329 Y127.671 E29.65718
G1 X48.329 Y72.427 E31.45457
G1 X48.898 Y72.657 F7800.000
G1 X50.620 Y125.881
G1 X50.119 Y125.380 F1080.000 E31.47768
G1 X50.119 Y124.449 E31.50804
G1 X51.551 Y125.881 E31.57408
G1 X52.483 Y125.881 E31.60444
G1 X50.119 Y123.517 E31.71342
G1 X50.119 Y122.586 E31.74377
G1 X53.414 Y125.881 E31.89568
G1 X54.345 Y125.881 E31.92604
G1 X50.119 Y121.655 E32.12089
G1 X50.119 Y120.724 E32.15124
G1 X55.276 Y125.881 E32.38902
G1 X56.207 Y125.881 E32.41938
G1 X50.119 Y119.793 E32.70009
G1 X50.119 Y118.862 E32.73045
G1 X57.138 Y125.881 E33.05409
G1 X58.070 Y125.881 E33.08445
G1 X50.119 Y117.930 E33.45102
G1 X50.119 Y116.999 E33.48138
G1 X59.001 Y125.881 E33.89089
G1 X59.932 Y125.881 E33.92125
G1 X50.119 Y116.068 E34.37369
G1 X50.119 Y115.137 E34.40405
G1 X60.863 Y125.881 E34.89943
G1 X61.794 Y125.881 E34.92979
G1 X50.119 Y114.206 E35.46810
G1 X50.119 Y113.275 E35.49845
G1 X62.725 Y125.881 E36.07970
G1 X63.657 Y125.881 E36.11006
G1 X50.119 Y112.343 E36.73423
G1 X50.119 Y111.412 E36.76459
G1 X64.588 Y125.881 E37.43170
G1 X65.519 Y125.881 E37.46206
G1 X50.119 Y110.481 E38.17210
G1 X50.119 Y109.550 E38.20246
G1 X66.450 Y125.881 E38.95543
G1 X67.381 Y125.881 E38.98579
G1 X50.119 Y108.619 E39.78170
G1 X50.119 Y107.688 E39.81206
G1 X68.312 Y125.881 E40.65090
G1 X69.244 Y125.881 E40.68126
G1 X50.119 Y106.756 E41.56304
G1 X50.119 Y105.825 E41.59339
G1 X70.175 Y125.881 E42.51810
G1 X71.106 Y125.881 E42.54846
G1 X50.119 Y104.894 E43.51610
G1 X50.119 Y103.963 E43.54646
G1 X72.037 Y125.881 E44.55704
G1 X72.968 Y125.881 E44.58739
G1 X50.119 Y103.032 E45.64090
G1 X50.119 Y102.101 E45.67126
G1 X73.899 Y125.881 E46.76770
G1 X74.831 Y125.881 E46.79806
G1 X50.119 Y101.169 E47.93744
G1 X50.119 Y100.238 E47.96779
G1 X75.762 Y125.881 E49.15010
G1 X76.693 Y125.881 E49.18046
G1 X50.119 Y99.307 E50.40570
G1 X50.119 Y98.376 E50.43606
G1 X77.624 Y125.881 E51.70424
G1 X78.555 Y125.881 E51.73459
G1 X50.119 Y97.445 E53.04570
G1 X50.119 Y96.514 E53.07606
G1 X79.486 Y125.881 E54.43010
G1 X80.418 Y125.881 E54.46046
G1 X50.119 Y95.582 E55.85743
G1 X50.119 Y94.651 E55.88779
G1 X81.349 Y125.881 E57.32770
G1 X82.280 Y125.881 E57.35806
G1 X50.119 Y93.720 E58.84090
G1 X50.119 Y92.789 E58.87126
G1 X83.211 Y125.881 E60.39703
G1 X84.142 Y125.881 E60.42739
G1 X50.119 Y91.858 E61.99610
G1 X50.119 Y90.927 E62.02646
G1 X85.073 Y125.881 E63.63810
G1 X86.005 Y125.881 E63.66846
G1 X50.119 Y89.995 E65.32303
G1 X50.119 Y89.064 E65.35339
G1 X86.936 Y125.881 E67.05090
G1 X87.867 Y125.881 E67.08126
G1 X50.119 Y88.133 E68.82170
G1 X50.119 Y87.202 E68.85205
G1 X88.798 Y125.881 E70.63543
G1 X89.729 Y125.881 E70.66579
G1 X50.119 Y86.271 E72.49209
G1 X50.119 Y85.339 E72.52245
G1 X90.661 Y125.881 E74.39169
G1 X91.592 Y125.881 E74.42205
G1 X50.119 Y84.408 E76.33422
G1 X50.119 Y83.477 E76.36458
G1 X92.523 Y125.881 E78.31969
G1 X93.454 Y125.881 E78.35005
G1 X50.119 Y82.546 E80.34809
G1 X50.119 Y81.615 E80.37845
G1 X94.385 Y125.881 E82.41942
G1 X95.316 Y125.881 E82.44978
G1 X50.119 Y80.684 E84.53369
G1 X50.119 Y79.752 E84.56404
G1 X96.248 Y125.881 E86.69088
G1 X97.179 Y125.881 E86.72124
G1 X50.119 Y78.821 E88.89102
G1 X50.119 Y77.890 E88.92137
G1 X98.110 Y125.881 E91.13408
G1 X99.041 Y125.881 E91.16444
G1 X50.119 Y76.959 E93.42008
G1 X50.119 Y76.028 E93.45044
G1 X99.972 Y125.881 E95.74901
G1 X100.903 Y125.881 E95.77937
G1 X50.119 Y75.097 E98.12087
G1 X50.119 Y74.165 E98.15123
G1 X101.835 Y125.881 E100.53567
G1 X102.766 Y125.881 E100.56603
G1 X51.004 Y74.119 E102.95261
G1 X51.935 Y74.119 E102.98297
G1 X103.697 Y125.881 E105.36955
G1 X104.628 Y125.881 E105.39991
G1 X52.866 Y74.119 E107.78650
G1 X53.797 Y74.119 E107.81685
G1 X105.559 Y125.881 E110.20344
G1 X106.490 Y125.881 E110.23379
G1 X54.728 Y74.119 E112.62038
G1 X55.659 Y74.119 E112.65074
G1 X107.422 Y125.881 E115.03732
G1 X108.353 Y125.881 E115.06768
G1 X56.591 Y74.119 E117.45426
G1 X57.522 Y74.119 E117.48462
G1 X109.284 Y125.881 E119.87120
G1 X110.215 Y125.881 E119.90156
G1 X58.453 Y74.119 E122.28814
G1 X59.384 Y74.119 E122.31850
G1 X111.146 Y125.881 E124.70508
G1 X112.077 Y125.881 E124.73544
G1 X60.315 Y74.119 E127.12202
G1 X61.247 Y74.119 E127.15238
G1 X113.009 Y125.881 E129.53896
G1 X113.940 Y125.881 E129.56932
G1 X62.178 Y74.119 E131.95591
G1 X63.109 Y74.119 E131.98626
G1 X114.871 Y125.881 E134.37285
G1 X115.802 Y125.881 E134.40321
G1 X64.040 Y74.119 E136.78979
G1 X64.971 Y74.119 E136.82015
G1 X116.733 Y125.881 E139.20673
G1 X117.664 Y125.881 E139.23709
G1 X65.902 Y74.119 E141.62367
G1 X66.834 Y74.119 E141.65403
G1 X118.596 Y125.881 E144.04061
G1 X119.527 Y125.881 E144.07097
G1 X67.765 Y74.119 E146.45755
G1 X68.696 Y74.119 E146.48791
G1 X120.458 Y125.881 E148.87449
G1 X121.389 Y125.881 E148.90485
G1 X69.627 Y74.119 E151.29143
G1 X70.558 Y74.119 E151.32179
G1 X122.320 Y125.881 E153.70838
G1 X123.251 Y125.881 E153.73873
G1 X71.489 Y74.119 E156.12532
G1 X72.421 Y74.119 E156.15567
G1 X124.183 Y125.881 E158.54226
G1 X125.114 Y125.881 E158.57262
G1 X73.352 Y74.119 E160.95920
G1 X74.283 Y74.119 E160.98956
G1 X126.045 Y125.881 E163.37614
G1 X126.976 Y125.881 E163.40650
G1 X75.214 Y74.119 E165.79308
G1 X76.145 Y74.119 E165.82344
G1 X127.907 Y125.881 E168.21002
G1 X128.838 Y125.881 E168.24038
G1 X77.076 Y74.119 E170.62696
G1 X78.008 Y74.119 E170.65732
G1 X129.770 Y125.881 E173.04390
G1 X130.701 Y125.881 E173.07426
G1 X78.939 Y74.119 E175.46085
G1 X79.870 Y74.119 E175.49120
G1 X131.632 Y125.881 E177.87779
G1 X132.563 Y125.881 E177.90814
G1 X80.801 Y74.119 E180.29473
G1 X81.732 Y74.119 E180.32509
G1 X133.494 Y125.881 E182.71167
G1 X134.426 Y125.881 E182.74203
G1 X82.663 Y74.119 E185.12861
G1 X83.595 Y74.119 E185.15897
G1 X135.357 Y125.881 E187.54555
G1 X136.288 Y125.881 E187.57591
G1 X84.526 Y74.119 E189.96249
G1 X85.457 Y74.119 E189.99285
G1 X137.219 Y125.881 E192.37943
G1 X138.150 Y125.881 E192.40979
G1 X86.388 Y74.119 E194.79637
G1 X87.319 Y74.119 E194.82673
G1 X139.081 Y125.881 E197.21331
G1 X140.013 Y125.881 E197.24367
G1 X88.250 Y74.119 E199.63026
G1 X89.182 Y74.119 E199.66061
G1 X140.944 Y125.881 E202.04720
G1 X141.875 Y125.881 E202.07756
G1 X90.113 Y74.119 E204.46414
G1 X91.044 Y74.119 E204.49450
G1 X142.806 Y125.881 E206.88108
G1 X143.737 Y125.881 E206.91144
G1 X91.975 Y74.119 E209.29802
G1 X92.906 Y74.119 E209.32838
G1 X144.668 Y125.881 E211.71496
G1 X145.600 Y125.881 E211.74532
G1 X93.837 Y74.119 E214.13190
G1 X94.769 Y74.119 E214.16226
G1 X146.531 Y125.881 E216.54884
G1 X147.462 Y125.881 E216.57920
G1 X95.700 Y74.119 E218.96578
G1 X96.631 Y74.119 E218.99614
G1 X148.393 Y125.881 E221.38272
G1 X149.324 Y125.881 E221.41308
G1 X97.562 Y74.119 E223.79967
G1 X98.493 Y74.119 E223.83002
G1 X149.881 Y125.507 E226.19935
G1 X149.881 Y124.575 E226.22970
G1 X99.425 Y74.119 E228.55609
G1 X100.356 Y74.119 E228.58645
G1 X149.881 Y123.644 E230.86991
G1 X149.881 Y122.713 E230.90026
G1 X101.287 Y74.119 E233.14079
G1 X102.218 Y74.119 E233.17114
G1 X149.881 Y121.782 E235.36873
G1 X149.881 Y120.851 E235.39909
G1 X103.149 Y74.119 E237.55375
G1 X104.080 Y74.119 E237.58410
G1 X149.881 Y119.920 E239.69583
G1 X149.881 Y118.988 E239.72618
G1 X105.012 Y74.119 E241.79497
G1 X105.943 Y74.119 E241.82533
G1 X149.881 Y118.057 E243.85119
G1 X149.881 Y117.126 E243.88155
G1 X106.874 Y74.119 E245.86447
G1 X107.805 Y74.119 E245.89483
G1 X149.881 Y116.195 E247.83481
G1 X149.881 Y115.264 E247.86517
G1 X108.736 Y74.119 E249.76223
G1 X109.667 Y74.119 E249.79259
G1 X149.881 Y114.333 E251.64671
G1 X149.881 Y113.401 E251.67707
G1 X110.599 Y74.119 E253.48826
G1 X111.530 Y74.119 E253.51861
G1 X149.881 Y112.470 E255.28687
G1 X149.881 Y111.539 E255.31723
G1 X112.461 Y74.119 E257.04255
G1 X113.392 Y74.119 E257.07291
G1 X149.881 Y110.608 E258.75530
G1 X149.881 Y109.677 E258.78566
G1 X114.323 Y74.119 E260.42511
G1 X115.254 Y74.119 E260.45547
G1 X149.881 Y108.746 E262.05199
G1 X149.881 Y107.814 E262.08235
G1 X116.186 Y74.119 E263.63594
G1 X117.117 Y74.119 E263.66630
G1 X149.881 Y106.883 E265.17696
G1 X149.881 Y105.952 E265.20731
G1 X118.048 Y74.119 E266.67504
G1 X118.979 Y74.119 E266.70540
G1 X149.881 Y105.021 E268.13019
G1 X149.881 Y104.090 E268.16054
G1 X119.910 Y74.119 E269.54240
G1 X120.841 Y74.119 E269.57276
G1 X149.881 Y103.159 E270.91168
G1 X149.881 Y102.227 E270.94204
G1 X121.773 Y74.119 E272.23803
G1 X122.704 Y74.119 E272.26839
G1 X149.881 Y101.296 E273.52145
G1 X149.881 Y100.365 E273.55180
G1 X123.635 Y74.119 E274.76193
G1 X124.566 Y74.119 E274.79229
G1 X149.881 Y99.434 E275.95948
G1 X149.881 Y98.503 E275.98983
G1 X125.497 Y74.119 E277.11409
G1 X126.428 Y74.119 E277.14445
G1 X149.881 Y97.572 E278.22577
G1 X149.881 Y96.640 E278.25613
G1 X127.360 Y74.119 E279.29452
G1 X128.291 Y74.119 E279.32488
G1 X149.881 Y95.709 E280.32034
G1 X149.881 Y94.778 E280.35069
G1 X129.222 Y74.119 E281.30322
G1 X130.153 Y74.119 E281.33358
G1 X149.881 Y93.847 E282.24317
G1 X149.881 Y92.916 E282.27353
G1 X131.084 Y74.119 E283.14018
G1 X132.015 Y74.119 E283.17054
G1 X149.881 Y91.985 E283.99427
G1 X149.881 Y91.053 E284.02462
G1 X132.947 Y74.119 E284.80541
G1 X133.878 Y74.119 E284.83577
G1 X149.881 Y90.122 E285.57363
G1 X149.881 Y89.191 E285.60399
G1 X134.809 Y74.119 E286.29891
G1 X135.740 Y74.119 E286.32927
G1 X149.881 Y88.260 E286.98126
G1 X149.881 Y87.329 E287.01162
G1 X136.671 Y74.119 E287.62068
G1 X137.602 Y74.119 E287.65104
G1 X149.881 Y86.398 E288.21716
G1 X149.881 Y85.466 E288.24752
G1 X138.534 Y74.119 E288.77071
G1 X139.465 Y74.119 E288.80107
G1 X149.881 Y84.535 E289.28133
G1 X149.881 Y83.604 E289.31169
G1 X140.396 Y74.119 E289.74901
G1 X141.327 Y74.119 E289.77937
G1 X149.881 Y82.673 E290.17376
G1 X149.881 Y81.742 E290.20412
G1 X142.258 Y74.119 E290.55558
G1 X143.190 Y74.119 E290.58593
G1 X149.881 Y80.810 E290.89446
G1 X149.881 Y79.879 E290.92482
G1 X144.121 Y74.119 E291.19041
G1 X145.052 Y74.119 E291.22077
G1 X149.881 Y78.948 E291.44343
G1 X149.881 Y78.017 E291.47378
G1 X145.983 Y74.119 E291.65351
G1 X146.914 Y74.119 E291.68387
G1 X149.881 Y77.086 E291.82066
G1 X149.881 Y76.155 E291.85102
G1 X147.845 Y74.119 E291.94488
G1 X148.777 Y74.119 E291.97524
G1 X149.881 Y75.223 E292.02616
G1 X149.881 Y74.292 E292.05652
G1 X149.708 Y74.119 E292.06451
G1 F1800.000 E291.06451
G92 E0
G1 Z0.750 F7800.000
G1 X150.701 Y73.299
G1 F1800.000 E1.00000
G1 X150.701 Y126.701 F1800.000 E2.57030
G1 X49.299 Y126.701 E5.55205
G1 X49.299 Y73.299 E7.12235
G1 X150.623 Y73.299 E10.10181
G1 X151.221 Y72.779 F7800.000
G1 X151.221 Y127.221 F1800.000 E11.70267
G1 X48.779 Y127.221 E14.71498
G1 X48.779 Y72.779 E16.31584
G1 X151.143 Y72.779 E19.32586
G1 X151.740 Y72.260 F7800.000
G1 X151.740 Y127.740 F1260.000 E20.95728
G1 X48.260 Y127.740 E24.00015
G1 X48.260 Y72.260 E25.63157
G1 X151.662 Y72.260 E28.67215
G1 X151.480 Y72.710 F7800.000
G1 X150.324 Y125.930
G1 X149.930 Y126.324 F3600.000 E28.68860
G1 X149.193 Y126.324 E28.71033
G1 X150.324 Y125.193 E28.75752
G1 X150.324 Y124.456 E28.77926
G1 X148.456 Y126.324 E28.85718
G1 X147.719 Y126.324 E28.87892
G1 X150.324 Y123.719 E28.98759
G1 X150.324 Y122.982 E29.00932
G1 X146.982 Y126.324 E29.14873
G1 X146.245 Y126.324 E29.17047
G1 X150.324 Y122.245 E29.34062
G1 X150.324 Y121.508 E29.36236
G1 X145.508 Y126.324 E29.56325
G1 X144.771 Y126.324 E29.58499
G1 X150.324 Y120.771 E29.81662
G1 X150.324 Y120.034 E29.83836
G1 X144.034 Y126.324 E30.10073
G1 X143.297 Y126.324 E30.12247
G1 X150.324 Y119.297 E30.41558
G1 X150.324 Y118.560 E30.43732
G1 X142.560 Y126.324 E30.76118
G1 X141.822 Y126.324 E30.78292
G1 X150.324 Y117.822 E31.13751
G1 X150.324 Y117.085 E31.15925
G1 X141.085 Y126.324 E31.54459
G1 X140.348 Y126.324 E31.56633
G1 X150.324 Y116.348 E31.98241
G1 X150.324 Y115.611 E32.00414
G1 X139.611 Y126.324 E32.45097
G1 X138.874 Y126.324 E32.47270
G1 X150.324 Y114.874 E32.95027
G1 X150.324 Y114.137 E32.97200
G1 X138.137 Y126.324 E33.48031
G1 X137.400 Y126.324 E33.50205
G1 X150.324 Y113.400 E34.04109
G1 X150.324 Y112.663 E34.06283
G1 X136.663 Y126.324 E34.63262
G1 X135.926 Y126.324 E34.65435
G1 X150.324 Y111.926 E35.25488
G1 X150.324 Y111.189 E35.27662
G1 X135.189 Y126.324 E35.90789
G1 X134.452 Y126.324 E35.92963
G1 X150.324 Y110.452 E36.59164
G1 X150.324 Y109.715 E36.61338
G1 X133.715 Y126.324 E37.30613
G1 X132.978 Y126.324 E37.32786
G1 X150.324 Y108.978 E38.05136
G1 X150.324 Y108.241 E38.07310
G1 X132.241 Y126.324 E38.82733
G1 X131.504 Y126.324 E38.84907
G1 X150.324 Y107.504 E39.63404
G1 X150.324 Y106.767 E39.65578
G1 X130.767 Y126.324 E40.47150
G1 X130.030 Y126.324 E40.49324
G1 X150.324 Y106.030 E41.33970
G1 X150.324 Y105.293 E41.36143
G1 X129.293 Y126.324 E42.23863
G1 X128.556 Y126.324 E42.26037
G1 X150.324 Y104.556 E43.16831
G1 X150.324 Y103.819 E43.19005
G1 X127.819 Y126.324 E44.12873
G1 X127.081 Y126.324 E44.15047
G1 X150.324 Y103.081 E45.11989
G1 X150.324 Y102.344 E45.14163
G1 X126.344 Y126.324 E46.14180
G1 X125.607 Y126.324 E46.16353
G1 X150.324 Y101.607 E47.19444
G1 X150.324 Y100.870 E47.21618
G1 X124.870 Y126.324 E48.27783
G1 X124.133 Y126.324 E48.29956
G1 X150.324 Y100.133 E49.39195
G1 X150.324 Y99.396 E49.41369
G1 X123.396 Y126.324 E50.53682
G1 X122.659 Y126.324 E50.55856
G1 X150.324 Y98.659 E51.71243
G1 X150.324 Y97.922 E51.73417
G1 X121.922 Y126.324 E52.91878
G1 X121.185 Y126.324 E52.94052
G1 X150.324 Y97.185 E54.15587
G1 X150.324 Y96.448 E54.17761
G1 X120.448 Y126.324 E55.42371
G1 X119.711 Y126.324 E55.44544
G1 X150.324 Y95.711 E56.72228
G1 X150.324 Y94.974 E56.74402
G1 X118.974 Y126.324 E58.05160
G1 X118.237 Y126.324 E58.07333
G1 X150.324 Y94.237 E59.41165
G1 X150.324 Y93.500 E59.43339
G1 X117.500 Y126.324 E60.80245
G1 X116.763 Y126.324 E60.82419
G1 X150.324 Y92.763 E62.22399
G1 X150.324 Y92.026 E62.24573
G1 X116.026 Y126.324 E63.67627
G1 X115.289 Y126.324 E63.69801
G1 X150.324 Y91.289 E65.15930
