; generated by Slic3r 1.0.1 on 2014-08-23 at 11:34:57

; layer_height = 0.4
; perimeters = 3
; top_solid_layers = 3
; bottom_solid_layers = 3
; fill_density = 0.4
; perimeter_speed = 30
; infill_speed = 60
; travel_speed = 130
; nozzle_diameter = 0.5
; filament_diameter = 3
; extrusion_multiplier = 1
; perimeters extrusion width = 0.50mm
; infill extrusion width = 0.53mm
; solid infill extrusion width = 0.53mm
; top infill extrusion width = 0.53mm
; first layer extrusion width = 0.70mm

G21 ; set units to millimeters
M190 S60 ; wait for bed temperature to be reached
M104 S185 ; set temperature
G28 ; home all axes
G1 Z5 F5000 ; lift nozzle
G92 E0 ;reset extruder
M109 S185 ; wait for temperature to be reached
G90 ; use absolute coordinates
G92 E0 ; reset extrusion distance
M82 ; use absolute distances for extrusion
G1 F1800.000 E-1.00000 ; retract
G1 Z0.850 F7800.000 ; move to next layer (0) and lift
G92 E0 ; reset extrusion distance
G1 X45.010 Y55.600 F7800.000 ; move to first skirt point
G1 Z0.350 F7800.000 ; restore layer Z
G1 E1.00000 F1800.000 ; compensate retraction
G1 X46.210 Y54.910 E1.04504 F540.000 ; skirt
G1 X47.520 Y54.490 E1.08979 ; skirt
G1 X48.900 Y54.340 E1.13496 ; skirt
G1 X150.900 Y54.340 E4.45355 ; skirt
G1 X152.520 Y54.540 E4.50666 ; skirt
G1 X154.040 Y55.130 E4.55970 ; skirt
G1 X155.380 Y56.070 E4.61296 ; skirt
G1 X156.480 Y57.070 E4.66133 ; skirt
G1 X157.400 Y58.110 E4.70650 ; skirt
G1 X158.090 Y59.310 E4.75154 ; skirt
G1 X158.510 Y60.620 E4.79630 ; skirt
G1 X158.660 Y62.000 E4.84146 ; skirt
G1 X158.660 Y116.000 E6.59836 ; skirt
G1 X158.530 Y117.300 E6.64087 ; skirt
G1 X158.150 Y118.550 E6.68337 ; skirt
G1 X157.540 Y119.700 E6.72573 ; skirt
G1 X156.710 Y120.710 E6.76826 ; skirt
G1 X155.710 Y121.710 E6.81427 ; skirt
G1 X154.700 Y122.540 E6.85681 ; skirt
G1 X153.550 Y123.150 E6.89916 ; skirt
G1 X152.300 Y123.530 E6.94167 ; skirt
G1 X151.000 Y123.660 E6.98417 ; skirt
G1 X49.000 Y123.660 E10.30276 ; skirt
G1 X47.700 Y123.530 E10.34527 ; skirt
G1 X46.450 Y123.150 E10.38778 ; skirt
G1 X45.300 Y122.540 E10.43013 ; skirt
G1 X44.290 Y121.710 E10.47266 ; skirt
G1 X43.290 Y120.710 E10.51868 ; skirt
G1 X42.460 Y119.700 E10.56121 ; skirt
G1 X41.850 Y118.550 E10.60356 ; skirt
G1 X41.470 Y117.300 E10.64607 ; skirt
G1 X41.340 Y116.000 E10.68858 ; skirt
G1 X41.340 Y61.990 E12.44580 ; skirt
G1 X41.540 Y60.370 E12.49891 ; skirt
G1 X42.130 Y58.850 E12.55196 ; skirt
G1 X43.070 Y57.510 E12.60521 ; skirt
G1 X43.970 Y56.520 E12.64874 ; skirt
G1 X44.936 Y55.665 E12.69071 ; skirt
G1 F1800.000 E11.69071 ; retract
G1 Z0.850 F7800.000 ; lift plate during travel
G92 E0 ; reset extrusion distance
G1 X49.664 Y62.664 F7800.000 ; move to first perimeter point
G1 Z0.350 F7800.000 ; restore layer Z
G1 E1.00000 F1800.000 ; compensate retraction
G1 X150.336 Y62.664 E4.27537 F540.000 ; perimeter
G1 X150.336 Y115.336 E5.98906 ; perimeter
G1 X49.664 Y115.336 E9.26443 ; perimeter
G1 X49.664 Y62.763 E10.97491 ; perimeter
G1 X150.511 Y62.007 F7800.000 ; move to first perimeter point
G1 X150.993 Y62.446 E10.99612 F540.000 ; perimeter
G1 X150.993 Y115.583 E12.72495 ; perimeter
G1 X150.583 Y115.993 E12.74382 ; perimeter
G1 X49.417 Y115.993 E16.03527 ; perimeter
G1 X49.007 Y115.583 E16.05414 ; perimeter
G1 X49.007 Y62.386 E17.78489 ; perimeter
G1 X49.349 Y62.007 E17.80150 ; perimeter
G1 X150.412 Y62.007 E21.08962 ; perimeter
G1 X150.765 Y61.350 F7800.000 ; move to first perimeter point
G1 X151.650 Y62.155 E21.12855 F378.000 ; perimeter
G1 X151.650 Y115.855 E22.87570 ; perimeter
G1 X150.855 Y116.650 E22.91228 ; perimeter
G1 X49.145 Y116.650 E26.22143 ; perimeter
G1 X48.350 Y115.855 E26.25801 ; perimeter
G1 X48.350 Y62.134 E28.00583 ; perimeter
G1 X49.056 Y61.350 E28.04016 ; perimeter
G1 X150.666 Y61.350 E31.34607 ; perimeter
G1 X150.786 Y62.007 F7800.000 ; move inwards before travel
G1 X149.869 Y64.085 F7800.000 ; move to first fill point
G1 X148.915 Y63.131 E31.39026 F1080.000 ; fill
G1 X147.980 Y63.131 E31.42085 ; fill
G1 X149.869 Y65.020 E31.50831 ; fill
G1 X149.869 Y65.955 E31.53890 ; fill
G1 X147.045 Y63.131 E31.66963 ; fill
G1 X146.110 Y63.131 E31.70023 ; fill
G1 X149.869 Y66.890 E31.87422 ; fill
G1 X149.869 Y67.824 E31.90482 ; fill
G1 X145.176 Y63.131 E32.12208 ; fill
G1 X144.241 Y63.131 E32.15268 ; fill
G1 X149.869 Y68.759 E32.41321 ; fill
G1 X149.869 Y69.694 E32.44380 ; fill
G1 X143.306 Y63.131 E32.74760 ; fill
G1 X142.371 Y63.131 E32.77820 ; fill
G1 X149.869 Y70.629 E33.12527 ; fill
G1 X149.869 Y71.564 E33.15587 ; fill
G1 X141.436 Y63.131 E33.54620 ; fill
G1 X140.502 Y63.131 E33.57680 ; fill
G1 X149.869 Y72.498 E34.01041 ; fill
G1 X149.869 Y73.433 E34.04100 ; fill
G1 X139.567 Y63.131 E34.51788 ; fill
G1 X138.632 Y63.131 E34.54848 ; fill
G1 X149.869 Y74.368 E35.06862 ; fill
G1 X149.869 Y75.303 E35.09922 ; fill
G1 X137.697 Y63.131 E35.66263 ; fill
G1 X136.762 Y63.131 E35.69323 ; fill
G1 X149.869 Y76.238 E36.29991 ; fill
G1 X149.869 Y77.172 E36.33051 ; fill
G1 X135.828 Y63.131 E36.98046 ; fill
G1 X134.893 Y63.131 E37.01106 ; fill
G1 X149.869 Y78.107 E37.70428 ; fill
G1 X149.869 Y79.042 E37.73487 ; fill
G1 X133.958 Y63.131 E38.47136 ; fill
G1 X133.023 Y63.131 E38.50196 ; fill
G1 X149.869 Y79.977 E39.28172 ; fill
G1 X149.869 Y80.912 E39.31231 ; fill
G1 X132.088 Y63.131 E40.13534 ; fill
G1 X131.154 Y63.131 E40.16594 ; fill
G1 X149.869 Y81.846 E41.03223 ; fill
G1 X149.869 Y82.781 E41.06283 ; fill
G1 X130.219 Y63.131 E41.97239 ; fill
G1 X129.284 Y63.131 E42.00299 ; fill
G1 X149.869 Y83.716 E42.95582 ; fill
G1 X149.869 Y84.651 E42.98642 ; fill
G1 X128.349 Y63.131 E43.98252 ; fill
G1 X127.414 Y63.131 E44.01312 ; fill
G1 X149.869 Y85.586 E45.05249 ; fill
G1 X149.869 Y86.520 E45.08309 ; fill
G1 X126.480 Y63.131 E46.16573 ; fill
G1 X125.545 Y63.131 E46.19632 ; fill
G1 X149.869 Y87.455 E47.32223 ; fill
G1 X149.869 Y88.390 E47.35283 ; fill
G1 X124.610 Y63.131 E48.52201 ; fill
G1 X123.675 Y63.131 E48.55260 ; fill
G1 X149.869 Y89.325 E49.76505 ; fill
G1 X149.869 Y90.260 E49.79565 ; fill
G1 X122.740 Y63.131 E51.05137 ; fill
G1 X121.806 Y63.131 E51.08196 ; fill
G1 X149.869 Y91.194 E52.38095 ; fill
G1 X149.869 Y92.129 E52.41154 ; fill
G1 X120.871 Y63.131 E53.75380 ; fill
G1 X119.936 Y63.131 E53.78439 ; fill
G1 X149.869 Y93.064 E55.16992 ; fill
G1 X149.869 Y93.999 E55.20051 ; fill
G1 X119.001 Y63.131 E56.62930 ; fill
G1 X118.066 Y63.131 E56.65990 ; fill
G1 X149.869 Y94.934 E58.13196 ; fill
G1 X149.869 Y95.868 E58.16256 ; fill
G1 X117.132 Y63.131 E59.67789 ; fill
G1 X116.197 Y63.131 E59.70848 ; fill
G1 X149.869 Y96.803 E61.26708 ; fill
G1 X149.869 Y97.738 E61.29768 ; fill
G1 X115.262 Y63.131 E62.89954 ; fill
G1 X114.327 Y63.131 E62.93014 ; fill
G1 X149.869 Y98.673 E64.57528 ; fill
G1 X149.869 Y99.608 E64.60587 ; fill
G1 X113.392 Y63.131 E66.29428 ; fill
G1 X112.458 Y63.131 E66.32487 ; fill
G1 X149.869 Y100.542 E68.05655 ; fill
G1 X149.869 Y101.477 E68.08714 ; fill
G1 X111.523 Y63.131 E69.86209 ; fill
G1 X110.588 Y63.131 E69.89268 ; fill
G1 X149.869 Y102.412 E71.71090 ; fill
G1 X149.869 Y103.347 E71.74149 ; fill
G1 X109.653 Y63.131 E73.60297 ; fill
G1 X108.718 Y63.131 E73.63357 ; fill
G1 X149.869 Y104.282 E75.53832 ; fill
G1 X149.869 Y105.217 E75.56891 ; fill
G1 X107.783 Y63.131 E77.51693 ; fill
G1 X106.849 Y63.131 E77.54753 ; fill
G1 X149.869 Y106.151 E79.53882 ; fill
G1 X149.869 Y107.086 E79.56941 ; fill
G1 X105.914 Y63.131 E81.60397 ; fill
G1 X104.979 Y63.131 E81.63456 ; fill
G1 X149.869 Y108.021 E83.71239 ; fill
G1 X149.869 Y108.956 E83.74299 ; fill
G1 X104.044 Y63.131 E85.86408 ; fill
G1 X103.109 Y63.131 E85.89468 ; fill
G1 X149.869 Y109.891 E88.05904 ; fill
G1 X149.869 Y110.825 E88.08963 ; fill
G1 X102.175 Y63.131 E90.29727 ; fill
G1 X101.240 Y63.131 E90.32786 ; fill
G1 X149.869 Y111.760 E92.57876 ; fill
G1 X149.869 Y112.695 E92.60936 ; fill
G1 X100.305 Y63.131 E94.90353 ; fill
G1 X99.370 Y63.131 E94.93412 ; fill
G1 X149.869 Y113.630 E97.27156 ; fill
G1 X149.869 Y114.565 E97.30216 ; fill
G1 X98.435 Y63.131 E99.68287 ; fill
G1 X97.501 Y63.131 E99.71346 ; fill
G1 X149.240 Y114.869 E102.10829 ; fill
G1 X148.305 Y114.869 E102.13888 ; fill
G1 X96.566 Y63.131 E104.53370 ; fill
G1 X95.631 Y63.131 E104.56430 ; fill
G1 X147.370 Y114.869 E106.95912 ; fill
G1 X146.435 Y114.869 E106.98972 ; fill
G1 X94.696 Y63.131 E109.38454 ; fill
G1 X93.761 Y63.131 E109.41514 ; fill
G1 X145.500 Y114.869 E111.80996 ; fill
G1 X144.566 Y114.869 E111.84055 ; fill
G1 X92.827 Y63.131 E114.23538 ; fill
G1 X91.892 Y63.131 E114.26597 ; fill
G1 X143.631 Y114.869 E116.66080 ; fill
G1 X142.696 Y114.869 E116.69139 ; fill
G1 X90.957 Y63.131 E119.08621 ; fill
G1 X90.022 Y63.131 E119.11681 ; fill
G1 X141.761 Y114.869 E121.51163 ; fill
G1 X140.826 Y114.869 E121.54223 ; fill
G1 X89.087 Y63.131 E123.93705 ; fill
G1 X88.153 Y63.131 E123.96765 ; fill
G1 X139.892 Y114.869 E126.36247 ; fill
G1 X138.957 Y114.869 E126.39307 ; fill
G1 X87.218 Y63.131 E128.78789 ; fill
G1 X86.283 Y63.131 E128.81848 ; fill
G1 X138.022 Y114.869 E131.21331 ; fill
G1 X137.087 Y114.869 E131.24390 ; fill
G1 X85.348 Y63.131 E133.63872 ; fill
G1 X84.413 Y63.131 E133.66932 ; fill
G1 X136.152 Y114.869 E136.06414 ; fill
G1 X135.218 Y114.869 E136.09474 ; fill
G1 X83.479 Y63.131 E138.48956 ; fill
G1 X82.544 Y63.131 E138.52016 ; fill
G1 X134.283 Y114.869 E140.91498 ; fill
G1 X133.348 Y114.869 E140.94558 ; fill
G1 X81.609 Y63.131 E143.34040 ; fill
G1 X80.674 Y63.131 E143.37099 ; fill
G1 X132.413 Y114.869 E145.76582 ; fill
G1 X131.478 Y114.869 E145.79641 ; fill
G1 X79.739 Y63.131 E148.19123 ; fill
G1 X78.805 Y63.131 E148.22183 ; fill
G1 X130.544 Y114.869 E150.61665 ; fill
G1 X129.609 Y114.869 E150.64725 ; fill
G1 X77.870 Y63.131 E153.04207 ; fill
G1 X76.935 Y63.131 E153.07267 ; fill
G1 X128.674 Y114.869 E155.46749 ; fill
G1 X127.739 Y114.869 E155.49809 ; fill
G1 X76.000 Y63.131 E157.89291 ; fill
G1 X75.065 Y63.131 E157.92350 ; fill
G1 X126.804 Y114.869 E160.31833 ; fill
G1 X125.870 Y114.869 E160.34892 ; fill
G1 X74.131 Y63.131 E162.74375 ; fill
G1 X73.196 Y63.131 E162.77434 ; fill
G1 X124.935 Y114.869 E165.16916 ; fill
G1 X124.000 Y114.869 E165.19976 ; fill
G1 X72.261 Y63.131 E167.59458 ; fill
G1 X71.326 Y63.131 E167.62518 ; fill
G1 X123.065 Y114.869 E170.02000 ; fill
G1 X122.130 Y114.869 E170.05060 ; fill
G1 X70.391 Y63.131 E172.44542 ; fill
G1 X69.457 Y63.131 E172.47601 ; fill
G1 X121.196 Y114.869 E174.87084 ; fill
G1 X120.261 Y114.869 E174.90143 ; fill
G1 X68.522 Y63.131 E177.29626 ; fill
G1 X67.587 Y63.131 E177.32685 ; fill
G1 X119.326 Y114.869 E179.72167 ; fill
G1 X118.391 Y114.869 E179.75227 ; fill
G1 X66.652 Y63.131 E182.14709 ; fill
G1 X65.717 Y63.131 E182.17769 ; fill
G1 X117.456 Y114.869 E184.57251 ; fill
G1 X116.522 Y114.869 E184.60311 ; fill
G1 X64.783 Y63.131 E186.99793 ; fill
G1 X63.848 Y63.131 E187.02853 ; fill
G1 X115.587 Y114.869 E189.42335 ; fill
G1 X114.652 Y114.869 E189.45394 ; fill
G1 X62.913 Y63.131 E191.84877 ; fill
G1 X61.978 Y63.131 E191.87936 ; fill
G1 X113.717 Y114.869 E194.27418 ; fill
G1 X112.782 Y114.869 E194.30478 ; fill
G1 X61.043 Y63.131 E196.69960 ; fill
G1 X60.109 Y63.131 E196.73020 ; fill
G1 X111.848 Y114.869 E199.12502 ; fill
G1 X110.913 Y114.869 E199.15562 ; fill
G1 X59.174 Y63.131 E201.55044 ; fill
G1 X58.239 Y63.131 E201.58104 ; fill
G1 X109.978 Y114.869 E203.97586 ; fill
G1 X109.043 Y114.869 E204.00645 ; fill
G1 X57.304 Y63.131 E206.40128 ; fill
G1 X56.369 Y63.131 E206.43187 ; fill
G1 X108.108 Y114.869 E208.82669 ; fill
G1 X107.173 Y114.869 E208.85729 ; fill
G1 X55.435 Y63.131 E211.25211 ; fill
G1 X54.500 Y63.131 E211.28271 ; fill
G1 X106.239 Y114.869 E213.67753 ; fill
G1 X105.304 Y114.869 E213.70813 ; fill
G1 X53.565 Y63.131 E216.10295 ; fill
G1 X52.630 Y63.131 E216.13355 ; fill
G1 X104.369 Y114.869 E218.52837 ; fill
G1 X103.434 Y114.869 E218.55896 ; fill
G1 X51.695 Y63.131 E220.95379 ; fill
G1 X50.761 Y63.131 E220.98438 ; fill
G1 X102.499 Y114.869 E223.37921 ; fill
G1 X101.565 Y114.869 E223.40980 ; fill
G1 X50.131 Y63.435 E225.79052 ; fill
G1 X50.131 Y64.370 E225.82111 ; fill
G1 X100.630 Y114.869 E228.15856 ; fill
G1 X99.695 Y114.869 E228.18915 ; fill
G1 X50.131 Y65.305 E230.48333 ; fill
G1 X50.131 Y66.240 E230.51392 ; fill
G1 X98.760 Y114.869 E232.76483 ; fill
G1 X97.825 Y114.869 E232.79543 ; fill
G1 X50.131 Y67.175 E235.00307 ; fill
G1 X50.131 Y68.109 E235.03366 ; fill
G1 X96.891 Y114.869 E237.19803 ; fill
G1 X95.956 Y114.869 E237.22863 ; fill
G1 X50.131 Y69.044 E239.34973 ; fill
G1 X50.131 Y69.979 E239.38033 ; fill
G1 X95.021 Y114.869 E241.45816 ; fill
G1 X94.086 Y114.869 E241.48875 ; fill
G1 X50.131 Y70.914 E243.52332 ; fill
G1 X50.131 Y71.849 E243.55391 ; fill
G1 X93.151 Y114.869 E245.54521 ; fill
G1 X92.217 Y114.869 E245.57580 ; fill
G1 X50.131 Y72.783 E247.52383 ; fill
G1 X50.131 Y73.718 E247.55442 ; fill
G1 X91.282 Y114.869 E249.45918 ; fill
G1 X90.347 Y114.869 E249.48978 ; fill
G1 X50.131 Y74.653 E251.35126 ; fill
G1 X50.131 Y75.588 E251.38186 ; fill
G1 X89.412 Y114.869 E253.20008 ; fill
G1 X88.477 Y114.869 E253.23067 ; fill
G1 X50.131 Y76.523 E255.00562 ; fill
G1 X50.131 Y77.457 E255.03622 ; fill
G1 X87.543 Y114.869 E256.76790 ; fill
G1 X86.608 Y114.869 E256.79850 ; fill
G1 X50.131 Y78.392 E258.48691 ; fill
G1 X50.131 Y79.327 E258.51751 ; fill
G1 X85.673 Y114.869 E260.16265 ; fill
G1 X84.738 Y114.869 E260.19324 ; fill
G1 X50.131 Y80.262 E261.79512 ; fill
G1 X50.131 Y81.197 E261.82571 ; fill
G1 X83.803 Y114.869 E263.38432 ; fill
G1 X82.869 Y114.869 E263.41492 ; fill
G1 X50.131 Y82.131 E264.93025 ; fill
G1 X50.131 Y83.066 E264.96085 ; fill
G1 X81.934 Y114.869 E266.43292 ; fill
G1 X80.999 Y114.869 E266.46351 ; fill
G1 X50.131 Y84.001 E267.89231 ; fill
G1 X50.131 Y84.936 E267.92291 ; fill
G1 X80.064 Y114.869 E269.30844 ; fill
G1 X79.129 Y114.869 E269.33903 ; fill
G1 X50.131 Y85.871 E270.68129 ; fill
G1 X50.131 Y86.805 E270.71189 ; fill
G1 X78.195 Y114.869 E272.01088 ; fill
G1 X77.260 Y114.869 E272.04148 ; fill
G1 X50.131 Y87.740 E273.29720 ; fill
G1 X50.131 Y88.675 E273.32780 ; fill
G1 X76.325 Y114.869 E274.54025 ; fill
G1 X75.390 Y114.869 E274.57085 ; fill
G1 X50.131 Y89.610 E275.74003 ; fill
G1 X50.131 Y90.545 E275.77063 ; fill
G1 X74.455 Y114.869 E276.89655 ; fill
G1 X73.521 Y114.869 E276.92714 ; fill
G1 X50.131 Y91.479 E278.00979 ; fill
G1 X50.131 Y92.414 E278.04038 ; fill
G1 X72.586 Y114.869 E279.07976 ; fill
G1 X71.651 Y114.869 E279.11036 ; fill
G1 X50.131 Y93.349 E280.10647 ; fill
G1 X50.131 Y94.284 E280.13707 ; fill
G1 X70.716 Y114.869 E281.08991 ; fill
G1 X69.781 Y114.869 E281.12050 ; fill
G1 X50.131 Y95.219 E282.03007 ; fill
G1 X50.131 Y96.153 E282.06067 ; fill
G1 X68.847 Y114.869 E282.92697 ; fill
G1 X67.912 Y114.869 E282.95757 ; fill
G1 X50.131 Y97.088 E283.78060 ; fill
G1 X50.131 Y98.023 E283.81120 ; fill
G1 X66.977 Y114.869 E284.59097 ; fill
G1 X66.042 Y114.869 E284.62156 ; fill
G1 X50.131 Y98.958 E285.35806 ; fill
G1 X50.131 Y99.893 E285.38865 ; fill
G1 X65.107 Y114.869 E286.08188 ; fill
G1 X64.173 Y114.869 E286.11248 ; fill
G1 X50.131 Y100.827 E286.76244 ; fill
G1 X50.131 Y101.762 E286.79303 ; fill
G1 X63.238 Y114.869 E287.39972 ; fill
G1 X62.303 Y114.869 E287.43032 ; fill
G1 X50.131 Y102.697 E287.99374 ; fill
G1 X50.131 Y103.632 E288.02433 ; fill
G1 X61.368 Y114.869 E288.54449 ; fill
G1 X60.433 Y114.869 E288.57508 ; fill
G1 X50.131 Y104.567 E289.05197 ; fill
G1 X50.131 Y105.501 E289.08256 ; fill
G1 X59.499 Y114.869 E289.51618 ; fill
G1 X58.564 Y114.869 E289.54677 ; fill
G1 X50.131 Y106.436 E289.93712 ; fill
G1 X50.131 Y107.371 E289.96771 ; fill
G1 X57.629 Y114.869 E290.31479 ; fill
G1 X56.694 Y114.869 E290.34539 ; fill
G1 X50.131 Y108.306 E290.64919 ; fill
G1 X50.131 Y109.241 E290.67979 ; fill
G1 X55.759 Y114.869 E290.94033 ; fill
G1 X54.825 Y114.869 E290.97093 ; fill
G1 X50.131 Y110.175 E291.18820 ; fill
G1 X50.131 Y111.110 E291.21879 ; fill
G1 X53.890 Y114.869 E291.39279 ; fill
G1 X52.955 Y114.869 E291.42339 ; fill
G1 X50.131 Y112.045 E291.55412 ; fill
G1 X50.131 Y112.980 E291.58472 ; fill
G1 X52.020 Y114.869 E291.67218 ; fill
G1 X51.085 Y114.869 E291.70278 ; fill
G1 X50.131 Y113.915 E291.74697 ; fill
G1 X50.131 Y114.849 E291.77757 ; fill
