; generated by Slic3r 0.9.10b on 2013-09-14 at 12:28:13

; layer_height = 0.4
; perimeters = 3
; top_solid_layers = 3
; bottom_solid_layers = 3
; fill_density = 0.4
; perimeter_speed = 30
; infill_speed = 60
; travel_speed = 130
; nozzle_diameter = 0.5
; filament_diameter = 3
; extrusion_multiplier = 1
; perimeters extrusion width = 0.53mm
; infill extrusion width = 0.53mm
; solid infill extrusion width = 0.53mm
; top infill extrusion width = 0.53mm
; first layer extrusion width = 0.80mm

G21 ; set units to millimeters
M190 S60 ; wait for bed temperature to be reached
M104 S180 ; set temperature
G28 ; home all axes
G1 Z5 F5000 ; lift nozzle
G92 E0 ;reset extruder
M109 S180 ; wait for temperature to be reached
G90 ; use absolute coordinates
G92 E0 ; reset extrusion distance
M82 ; use absolute distances for extrusion
G1 F1800.000 E-1.00000 ; retract
G92 E0 ; reset extrusion distance
G1 Z0.400 F7800.000 ; move to next layer (0)
G1 X44.930 Y55.550 ; move to first skirt point
G1 F1800.000 E1.00000 ; compensate retraction
G1 X46.150 Y54.850 F540.000 E1.05855 ; skirt
G1 X47.490 Y54.410 E1.11726 ; skirt
G1 X48.890 Y54.260 E1.17587 ; skirt
G1 X150.890 Y54.260 E5.42188 ; skirt
G1 X152.510 Y54.460 E5.48983 ; skirt
G1 X154.030 Y55.040 E5.55756 ; skirt
G1 X155.370 Y55.970 E5.62546 ; skirt
G1 X156.480 Y56.960 E5.68737 ; skirt
G1 X157.440 Y58.010 E5.74659 ; skirt
G1 X158.150 Y59.240 E5.80571 ; skirt
G1 X158.590 Y60.580 E5.86442 ; skirt
G1 X158.740 Y61.990 E5.92345 ; skirt
G1 X158.740 Y115.990 E8.17134 ; skirt
G1 X158.610 Y117.300 E8.22614 ; skirt
G1 X158.220 Y118.570 E8.28144 ; skirt
G1 X157.600 Y119.730 E8.33619 ; skirt
G1 X156.760 Y120.750 E8.39120 ; skirt
G1 X155.750 Y121.760 E8.45066 ; skirt
G1 X154.730 Y122.600 E8.50566 ; skirt
G1 X153.570 Y123.220 E8.56042 ; skirt
G1 X152.300 Y123.610 E8.61572 ; skirt
G1 X150.990 Y123.740 E8.67052 ; skirt
G1 X48.990 Y123.740 E12.91653 ; skirt
G1 X47.660 Y123.600 E12.97220 ; skirt
G1 X46.380 Y123.210 E13.02790 ; skirt
G1 X45.210 Y122.570 E13.08342 ; skirt
G1 X44.180 Y121.710 E13.13927 ; skirt
G1 X43.190 Y120.700 E13.19815 ; skirt
G1 X42.370 Y119.690 E13.25230 ; skirt
G1 X41.760 Y118.540 E13.30649 ; skirt
G1 X41.390 Y117.290 E13.36076 ; skirt
G1 X41.260 Y115.990 E13.41514 ; skirt
G1 X41.260 Y61.990 E15.66303 ; skirt
G1 X41.460 Y60.360 E15.73139 ; skirt
G1 X42.050 Y58.830 E15.79965 ; skirt
G1 X42.990 Y57.490 E15.86779 ; skirt
G1 X43.880 Y56.500 E15.92321 ; skirt
G1 X44.848 Y55.624 E15.97756 ; skirt
G1 F1800.000 E14.97756 ; retract
G92 E0 ; reset extrusion distance
G1 X49.839 Y62.839 F7800.000 ; move to first perimeter point
G1 F1800.000 E1.00000 ; compensate retraction
G1 X150.161 Y62.839 F540.000 E5.17615 ; perimeter
G1 X150.161 Y115.161 E7.35419 ; perimeter
G1 X49.839 Y115.161 E11.53034 ; perimeter
G1 X49.839 Y62.949 E13.70378 ; perimeter
G1 F1800.000 E12.70378 ; retract
G92 E0 ; reset extrusion distance
G1 X150.897 Y62.488 F7800.000 ; move to first perimeter point
G1 F1800.000 E1.00000 ; compensate retraction
G1 X150.897 Y115.543 F540.000 E3.20854 ; perimeter
G1 X150.543 Y115.897 E3.22936 ; perimeter
G1 X49.457 Y115.897 E7.43732 ; perimeter
G1 X49.103 Y115.543 E7.45814 ; perimeter
G1 X49.103 Y62.423 E9.66937 ; perimeter
G1 X49.391 Y62.103 E9.68729 ; perimeter
G1 X150.473 Y62.103 E13.89509 ; perimeter
G1 X150.815 Y62.414 E13.91430 ; perimeter
G1 X151.632 Y62.163 F7800.000 ; move to first perimeter point
G1 X151.632 Y115.848 F540.000 E16.14907 ; perimeter
G1 X150.848 Y116.632 E16.19526 ; perimeter
G1 X49.152 Y116.632 E20.42858 ; perimeter
G1 X48.368 Y115.848 E20.47477 ; perimeter
G1 X48.368 Y62.141 E22.71044 ; perimeter
G1 X49.064 Y61.368 E22.75375 ; perimeter
G1 X150.758 Y61.368 E26.98702 ; perimeter
G1 X151.551 Y62.088 E27.03162 ; perimeter
G1 X151.120 Y62.691 F7800.000 ; move inwards before travel
G1 X149.485 Y63.372 ; move to first fill point
G1 X149.628 Y63.515 F1080.000 E27.04006 ; fill
G1 X149.628 Y64.558 E27.08357 ; fill
G1 X148.442 Y63.372 E27.15355 ; fill
G1 X147.399 Y63.372 E27.19705 ; fill
G1 X149.628 Y65.601 E27.32856 ; fill
G1 X149.628 Y66.644 E27.37206 ; fill
G1 X146.356 Y63.372 E27.56510 ; fill
G1 X145.314 Y63.372 E27.60860 ; fill
G1 X149.628 Y67.686 E27.86316 ; fill
G1 X149.628 Y68.729 E27.90667 ; fill
G1 X144.271 Y63.372 E28.22276 ; fill
G1 X143.228 Y63.372 E28.26627 ; fill
G1 X149.628 Y69.772 E28.64389 ; fill
G1 X149.628 Y70.815 E28.68739 ; fill
G1 X142.185 Y63.372 E29.12654 ; fill
G1 X141.143 Y63.372 E29.17005 ; fill
G1 X149.628 Y71.857 E29.67073 ; fill
G1 X149.628 Y72.900 E29.71423 ; fill
G1 X140.100 Y63.372 E30.27644 ; fill
G1 X139.057 Y63.372 E30.31995 ; fill
G1 X149.628 Y73.943 E30.94368 ; fill
G1 X149.628 Y74.986 E30.98719 ; fill
G1 X138.014 Y63.372 E31.67245 ; fill
G1 X136.972 Y63.372 E31.71596 ; fill
G1 X149.628 Y76.028 E32.46275 ; fill
G1 X149.628 Y77.071 E32.50626 ; fill
G1 X135.929 Y63.372 E33.31458 ; fill
G1 X134.886 Y63.372 E33.35808 ; fill
G1 X149.628 Y78.114 E34.22793 ; fill
G1 X149.628 Y79.156 E34.27144 ; fill
G1 X133.844 Y63.372 E35.20282 ; fill
G1 X132.801 Y63.372 E35.24633 ; fill
G1 X149.628 Y80.199 E36.23923 ; fill
G1 X149.628 Y81.242 E36.28274 ; fill
G1 X131.758 Y63.372 E37.33718 ; fill
G1 X130.715 Y63.372 E37.38068 ; fill
G1 X149.628 Y82.285 E38.49665 ; fill
G1 X149.628 Y83.327 E38.54015 ; fill
G1 X129.673 Y63.372 E39.71765 ; fill
G1 X128.630 Y63.372 E39.76115 ; fill
G1 X149.628 Y84.370 E41.00018 ; fill
G1 X149.628 Y85.413 E41.04368 ; fill
G1 X127.587 Y63.372 E42.34424 ; fill
G1 X126.544 Y63.372 E42.38774 ; fill
G1 X149.628 Y86.456 E43.74982 ; fill
G1 X149.628 Y87.498 E43.79333 ; fill
G1 X125.502 Y63.372 E45.21694 ; fill
G1 X124.459 Y63.372 E45.26045 ; fill
G1 X149.628 Y88.541 E46.74558 ; fill
G1 X149.628 Y89.584 E46.78909 ; fill
G1 X123.416 Y63.372 E48.33576 ; fill
G1 X122.373 Y63.372 E48.37926 ; fill
G1 X149.628 Y90.627 E49.98746 ; fill
G1 X149.628 Y91.669 E50.03097 ; fill
G1 X121.331 Y63.372 E51.70069 ; fill
G1 X120.288 Y63.372 E51.74420 ; fill
G1 X149.628 Y92.712 E53.47545 ; fill
G1 X149.628 Y93.755 E53.51896 ; fill
G1 X119.245 Y63.372 E55.31174 ; fill
G1 X118.202 Y63.372 E55.35525 ; fill
G1 X149.628 Y94.798 E57.20956 ; fill
G1 X149.628 Y95.840 E57.25306 ; fill
G1 X117.160 Y63.372 E59.16890 ; fill
G1 X116.117 Y63.372 E59.21241 ; fill
G1 X149.628 Y96.883 E61.18978 ; fill
G1 X149.628 Y97.926 E61.23329 ; fill
G1 X115.074 Y63.372 E63.27218 ; fill
G1 X114.031 Y63.372 E63.31569 ; fill
G1 X149.628 Y98.968 E65.41612 ; fill
G1 X149.628 Y100.011 E65.45962 ; fill
G1 X112.989 Y63.372 E67.62158 ; fill
G1 X111.946 Y63.372 E67.66509 ; fill
G1 X149.628 Y101.054 E69.88857 ; fill
G1 X149.628 Y102.097 E69.93208 ; fill
G1 X110.903 Y63.372 E72.21709 ; fill
G1 X109.861 Y63.372 E72.26060 ; fill
G1 X149.628 Y103.139 E74.60714 ; fill
G1 X149.628 Y104.182 E74.65064 ; fill
G1 X108.818 Y63.372 E77.05871 ; fill
G1 X107.775 Y63.372 E77.10222 ; fill
G1 X149.628 Y105.225 E79.57182 ; fill
G1 X149.628 Y106.268 E79.61533 ; fill
G1 X106.732 Y63.372 E82.14645 ; fill
G1 X105.690 Y63.372 E82.18996 ; fill
G1 X149.628 Y107.310 E84.78262 ; fill
G1 X149.628 Y108.353 E84.82613 ; fill
G1 X104.647 Y63.372 E87.48031 ; fill
G1 X103.604 Y63.372 E87.52382 ; fill
G1 X149.628 Y109.396 E90.23953 ; fill
G1 X149.628 Y110.439 E90.28304 ; fill
G1 X102.561 Y63.372 E93.06028 ; fill
G1 X101.519 Y63.372 E93.10379 ; fill
G1 X149.628 Y111.481 E95.94256 ; fill
G1 X149.628 Y112.524 E95.98607 ; fill
G1 X100.476 Y63.372 E98.88637 ; fill
G1 X99.433 Y63.372 E98.92988 ; fill
G1 X149.628 Y113.567 E101.89170 ; fill
G1 X149.628 Y114.610 E101.93521 ; fill
G1 X98.390 Y63.372 E104.95857 ; fill
G1 X97.348 Y63.372 E105.00208 ; fill
G1 X148.603 Y114.628 E108.02651 ; fill
G1 X147.560 Y114.628 E108.07002 ; fill
G1 X96.305 Y63.372 E111.09445 ; fill
G1 X95.262 Y63.372 E111.13795 ; fill
G1 X146.518 Y114.628 E114.16238 ; fill
G1 X145.475 Y114.628 E114.20589 ; fill
G1 X94.219 Y63.372 E117.23032 ; fill
G1 X93.177 Y63.372 E117.27383 ; fill
G1 X144.432 Y114.628 E120.29826 ; fill
G1 X143.389 Y114.628 E120.34176 ; fill
G1 X92.134 Y63.372 E123.36619 ; fill
G1 X91.091 Y63.372 E123.40970 ; fill
G1 X142.347 Y114.628 E126.43413 ; fill
G1 X141.304 Y114.628 E126.47764 ; fill
G1 X90.049 Y63.372 E129.50207 ; fill
G1 X89.006 Y63.372 E129.54558 ; fill
G1 X140.261 Y114.628 E132.57001 ; fill
G1 X139.219 Y114.628 E132.61351 ; fill
G1 X87.963 Y63.372 E135.63794 ; fill
G1 X86.920 Y63.372 E135.68145 ; fill
G1 X138.176 Y114.628 E138.70588 ; fill
G1 X137.133 Y114.628 E138.74939 ; fill
G1 X85.878 Y63.372 E141.77382 ; fill
G1 X84.835 Y63.372 E141.81733 ; fill
G1 X136.090 Y114.628 E144.84176 ; fill
G1 X135.048 Y114.628 E144.88526 ; fill
G1 X83.792 Y63.372 E147.90969 ; fill
G1 X82.749 Y63.372 E147.95320 ; fill
G1 X134.005 Y114.628 E150.97763 ; fill
G1 X132.962 Y114.628 E151.02114 ; fill
G1 X81.707 Y63.372 E154.04557 ; fill
G1 X80.664 Y63.372 E154.08908 ; fill
G1 X131.919 Y114.628 E157.11351 ; fill
G1 X130.877 Y114.628 E157.15701 ; fill
G1 X79.621 Y63.372 E160.18144 ; fill
G1 X78.578 Y63.372 E160.22495 ; fill
G1 X129.834 Y114.628 E163.24938 ; fill
G1 X128.791 Y114.628 E163.29289 ; fill
G1 X77.536 Y63.372 E166.31732 ; fill
G1 X76.493 Y63.372 E166.36083 ; fill
G1 X127.748 Y114.628 E169.38526 ; fill
G1 X126.706 Y114.628 E169.42876 ; fill
G1 X75.450 Y63.372 E172.45319 ; fill
G1 X74.407 Y63.372 E172.49670 ; fill
G1 X125.663 Y114.628 E175.52113 ; fill
G1 X124.620 Y114.628 E175.56464 ; fill
G1 X73.365 Y63.372 E178.58907 ; fill
G1 X72.322 Y63.372 E178.63258 ; fill
G1 X123.577 Y114.628 E181.65701 ; fill
G1 X122.535 Y114.628 E181.70051 ; fill
G1 X71.279 Y63.372 E184.72494 ; fill
G1 X70.236 Y63.372 E184.76845 ; fill
G1 X121.492 Y114.628 E187.79288 ; fill
G1 X120.449 Y114.628 E187.83639 ; fill
G1 X69.194 Y63.372 E190.86082 ; fill
G1 X68.151 Y63.372 E190.90433 ; fill
G1 X119.406 Y114.628 E193.92876 ; fill
G1 X118.364 Y114.628 E193.97226 ; fill
G1 X67.108 Y63.372 E196.99669 ; fill
G1 X66.066 Y63.372 E197.04020 ; fill
G1 X117.321 Y114.628 E200.06463 ; fill
G1 X116.278 Y114.628 E200.10814 ; fill
G1 X65.023 Y63.372 E203.13257 ; fill
G1 X63.980 Y63.372 E203.17608 ; fill
G1 X115.236 Y114.628 E206.20051 ; fill
G1 X114.193 Y114.628 E206.24401 ; fill
G1 X62.937 Y63.372 E209.26844 ; fill
G1 X61.895 Y63.372 E209.31195 ; fill
G1 X113.150 Y114.628 E212.33638 ; fill
G1 X112.107 Y114.628 E212.37989 ; fill
G1 X60.852 Y63.372 E215.40432 ; fill
G1 X59.809 Y63.372 E215.44783 ; fill
G1 X111.065 Y114.628 E218.47226 ; fill
G1 X110.022 Y114.628 E218.51576 ; fill
G1 X58.766 Y63.372 E221.54019 ; fill
G1 X57.724 Y63.372 E221.58370 ; fill
G1 X108.979 Y114.628 E224.60813 ; fill
G1 X107.936 Y114.628 E224.65164 ; fill
G1 X56.681 Y63.372 E227.67607 ; fill
G1 X55.638 Y63.372 E227.71958 ; fill
G1 X106.894 Y114.628 E230.74401 ; fill
G1 X105.851 Y114.628 E230.78751 ; fill
G1 X54.595 Y63.372 E233.81194 ; fill
G1 X53.553 Y63.372 E233.85545 ; fill
G1 X104.808 Y114.628 E236.87988 ; fill
G1 X103.765 Y114.628 E236.92339 ; fill
G1 X52.510 Y63.372 E239.94782 ; fill
G1 X51.467 Y63.372 E239.99133 ; fill
G1 X102.723 Y114.628 E243.01576 ; fill
G1 X101.680 Y114.628 E243.05926 ; fill
G1 X50.424 Y63.372 E246.08369 ; fill
G1 X50.372 Y64.363 E246.12508 ; fill
G1 X100.637 Y114.628 E249.09106 ; fill
G1 X99.594 Y114.628 E249.13457 ; fill
G1 X50.372 Y65.406 E252.03902 ; fill
G1 X50.372 Y66.448 E252.08253 ; fill
G1 X98.552 Y114.628 E254.92545 ; fill
G1 X97.509 Y114.628 E254.96896 ; fill
G1 X50.372 Y67.491 E257.75035 ; fill
G1 X50.372 Y68.534 E257.79386 ; fill
G1 X96.466 Y114.628 E260.51373 ; fill
G1 X95.423 Y114.628 E260.55723 ; fill
G1 X50.372 Y69.576 E263.21557 ; fill
G1 X50.372 Y70.619 E263.25908 ; fill
G1 X94.381 Y114.628 E265.85588 ; fill
G1 X93.338 Y114.628 E265.89939 ; fill
G1 X50.372 Y71.662 E268.43467 ; fill
G1 X50.372 Y72.705 E268.47818 ; fill
G1 X92.295 Y114.628 E270.95193 ; fill
G1 X91.253 Y114.628 E270.99544 ; fill
G1 X50.372 Y73.747 E273.40766 ; fill
G1 X50.372 Y74.790 E273.45116 ; fill
G1 X90.210 Y114.628 E275.80186 ; fill
G1 X89.167 Y114.628 E275.84536 ; fill
G1 X50.372 Y75.833 E278.13453 ; fill
G1 X50.372 Y76.876 E278.17803 ; fill
G1 X88.124 Y114.628 E280.40567 ; fill
G1 X87.082 Y114.628 E280.44918 ; fill
G1 X50.372 Y77.918 E282.61528 ; fill
G1 X50.372 Y78.961 E282.65879 ; fill
G1 X86.039 Y114.628 E284.76337 ; fill
G1 X84.996 Y114.628 E284.80687 ; fill
G1 X50.372 Y80.004 E286.84992 ; fill
G1 X50.372 Y81.047 E286.89343 ; fill
G1 X83.953 Y114.628 E288.87495 ; fill
G1 X82.911 Y114.628 E288.91846 ; fill
G1 X50.372 Y82.089 E290.83845 ; fill
G1 X50.372 Y83.132 E290.88195 ; fill
G1 X81.868 Y114.628 E292.74042 ; fill
G1 X80.825 Y114.628 E292.78392 ; fill
G1 X50.372 Y84.175 E294.58086 ; fill
G1 X50.372 Y85.218 E294.62436 ; fill
G1 X79.782 Y114.628 E296.35977 ; fill
G1 X78.740 Y114.628 E296.40328 ; fill
G1 X50.372 Y86.260 E298.07715 ; fill
G1 X50.372 Y87.303 E298.12066 ; fill
G1 X77.697 Y114.628 E299.73300 ; fill
G1 X76.654 Y114.628 E299.77651 ; fill
G1 X50.372 Y88.346 E301.32733 ; fill
G1 X50.372 Y89.389 E301.37084 ; fill
G1 X75.611 Y114.628 E302.86013 ; fill
G1 X74.569 Y114.628 E302.90363 ; fill
G1 X50.372 Y90.431 E304.33139 ; fill
G1 X50.372 Y91.474 E304.37490 ; fill
G1 X73.526 Y114.628 E305.74113 ; fill
G1 X72.483 Y114.628 E305.78464 ; fill
G1 X50.372 Y92.517 E307.08934 ; fill
G1 X50.372 Y93.559 E307.13285 ; fill
G1 X71.441 Y114.628 E308.37602 ; fill
G1 X70.398 Y114.628 E308.41953 ; fill
G1 X50.372 Y94.602 E309.60117 ; fill
G1 X50.372 Y95.645 E309.64468 ; fill
G1 X69.355 Y114.628 E310.76480 ; fill
G1 X68.312 Y114.628 E310.80831 ; fill
G1 X50.372 Y96.688 E311.86689 ; fill
G1 X50.372 Y97.730 E311.91040 ; fill
G1 X67.270 Y114.628 E312.90746 ; fill
G1 X66.227 Y114.628 E312.95097 ; fill
G1 X50.372 Y98.773 E313.88650 ; fill
G1 X50.372 Y99.816 E313.93000 ; fill
G1 X65.184 Y114.628 E314.80400 ; fill
G1 X64.141 Y114.628 E314.84751 ; fill
G1 X50.372 Y100.859 E315.65998 ; fill
G1 X50.372 Y101.901 E315.70349 ; fill
G1 X63.099 Y114.628 E316.45443 ; fill
G1 X62.056 Y114.628 E316.49794 ; fill
G1 X50.372 Y102.944 E317.18735 ; fill
G1 X50.372 Y103.987 E317.23086 ; fill
G1 X61.013 Y114.628 E317.85875 ; fill
G1 X59.970 Y114.628 E317.90225 ; fill
G1 X50.372 Y105.030 E318.46861 ; fill
G1 X50.372 Y106.072 E318.51212 ; fill
G1 X58.928 Y114.628 E319.01695 ; fill
G1 X57.885 Y114.628 E319.06045 ; fill
G1 X50.372 Y107.115 E319.50375 ; fill
G1 X50.372 Y108.158 E319.54726 ; fill
G1 X56.842 Y114.628 E319.92903 ; fill
G1 X55.799 Y114.628 E319.97254 ; fill
G1 X50.372 Y109.201 E320.29278 ; fill
G1 X50.372 Y110.243 E320.33629 ; fill
G1 X54.757 Y114.628 E320.59500 ; fill
G1 X53.714 Y114.628 E320.63851 ; fill
G1 X50.372 Y111.286 E320.83569 ; fill
G1 X50.372 Y112.329 E320.87920 ; fill
G1 X52.671 Y114.628 E321.01485 ; fill
G1 X51.628 Y114.628 E321.05836 ; fill
G1 X50.372 Y113.372 E321.13248 ; fill
G1 X50.372 Y114.414 E321.17599 ; fill
G1 X50.586 Y114.628 E321.18859 ; fill
M104 S175 ; set temperature
G1 F1800.000 E320.18859 ; retract
G92 E0 ; reset extrusion distance
G1 Z0.800 F7800.000 ; move to next layer (1)
G1 X49.538 Y115.701 ; move to first perimeter point
G1 F1800.000 E1.00000 ; compensate retraction
G1 X49.299 Y115.462 F1800.000 E1.00994 ; perimeter
G1 X49.299 Y62.499 E2.56735 ; perimeter
G1 X49.479 Y62.299 E2.57523 ; perimeter
G1 X150.398 Y62.299 E5.54280 ; perimeter
G1 X150.701 Y62.575 E5.55484 ; perimeter
G1 X150.701 Y115.462 E7.11001 ; perimeter
G1 X150.462 Y115.701 E7.11995 ; perimeter
G1 X49.616 Y115.701 E10.08535 ; perimeter
G1 F1800.000 E9.08535 ; retract
G92 E0 ; reset extrusion distance
G1 X150.599 Y61.779 F7800.000 ; move to first perimeter point
G1 F1800.000 E1.00000 ; compensate retraction
G1 X151.221 Y62.345 F1800.000 E1.02471 ; perimeter
G1 X151.221 Y115.677 E2.59297 ; perimeter
G1 X150.677 Y116.221 E2.61557 ; perimeter
G1 X49.323 Y116.221 E5.59592 ; perimeter
G1 X48.779 Y115.677 E5.61852 ; perimeter
G1 X48.779 Y62.299 E7.18812 ; perimeter
G1 X49.247 Y61.779 E7.20868 ; perimeter
G1 X150.521 Y61.779 E10.18666 ; perimeter
G1 X150.800 Y61.260 F7800.000 ; move to first perimeter point
G1 X151.740 Y62.115 F1800.000 E10.22404 ; perimeter
G1 X151.740 Y115.892 E11.80538 ; perimeter
