; generated by Slic3r 0.9.10b on 2013-09-14 at 11:00:41

; layer_height = 0.4
; perimeters = 3
; top_solid_layers = 3
; bottom_solid_layers = 3
; fill_density = 0.4
; perimeter_speed = 30
; infill_speed = 60
; travel_speed = 130
; nozzle_diameter = 0.5
; filament_diameter = 3
; extrusion_multiplier = 1
; perimeters extrusion width = 0.53mm
; infill extrusion width = 0.53mm
; solid infill extrusion width = 0.53mm
; top infill extrusion width = 0.53mm
; first layer extrusion width = 0.70mm

G21 ; set units to millimeters
M107
M104 S200 ; set temperature
G28 ; home all axes
G1 Z5 F5000 ; lift nozzle

M109 S200 ; wait for temperature to be reached
G90 ; use absolute coordinates
G92 E0
M82 ; use absolute distances for extrusion
G1 F1800.000 E-1.00000
G92 E0
G1 Z0.350 F7800.000
G1 X44.970 Y66.620
G1 F1800.000 E1.00000
G1 X46.180 Y65.920 F540.000 E1.04548
G1 X47.500 Y65.490 E1.09065
G1 X48.890 Y65.340 E1.13613
G1 X150.890 Y65.340 E4.45473
G1 X152.490 Y65.540 E4.50719
G1 X154.000 Y66.110 E4.55970
G1 X155.320 Y67.030 E4.61205
G1 X156.430 Y68.020 E4.66044
G1 X157.370 Y69.060 E4.70605
G1 X158.080 Y70.270 E4.75169
G1 X158.510 Y71.600 E4.79717
G1 X158.660 Y72.990 E4.84266
G1 X158.660 Y127.000 E6.59988
G1 X158.530 Y128.300 E6.64239
G1 X158.150 Y129.550 E6.68490
G1 X157.540 Y130.700 E6.72725
G1 X156.710 Y131.710 E6.76978
G1 X155.710 Y132.710 E6.81580
G1 X154.700 Y133.540 E6.85833
G1 X153.550 Y134.150 E6.90068
G1 X152.300 Y134.530 E6.94319
G1 X151.000 Y134.660 E6.98570
G1 X48.990 Y134.660 E10.30461
G1 X47.680 Y134.530 E10.34744
G1 X46.430 Y134.140 E10.39005
G1 X45.270 Y133.520 E10.43284
G1 X44.260 Y132.680 E10.47558
G1 X43.270 Y131.680 E10.52136
G1 X42.450 Y130.680 E10.56344
G1 X41.840 Y129.530 E10.60579
G1 X41.470 Y128.290 E10.64789
G1 X41.340 Y127.000 E10.69007
G1 X41.340 Y72.990 E12.44730
G1 X41.540 Y71.380 E12.50009
G1 X42.120 Y69.870 E12.55271
G1 X43.050 Y68.540 E12.60551
G1 X43.940 Y67.550 E12.64883
G1 X44.897 Y66.686 E12.69077
G1 F1800.000 E11.69077
G92 E0
G1 X49.643 Y73.643 F7800.000
G1 F1800.000 E1.00000
G1 X150.357 Y73.643 F540.000 E4.27677
G1 X150.357 Y126.357 E5.99185
G1 X49.643 Y126.357 E9.26862
G1 X49.643 Y73.741 E10.98050
G1 X48.986 Y73.378 F7800.000
G1 X49.339 Y72.986 F540.000 E10.99768
G1 X150.519 Y72.986 E14.28960
G1 X151.014 Y73.436 E14.31138
G1 X151.014 Y126.592 E16.04081
G1 X150.592 Y127.014 E16.06026
G1 X49.408 Y127.014 E19.35229
G1 X48.986 Y126.592 E19.37173
G1 X48.986 Y73.477 E21.09984
G1 X48.329 Y73.126 F7800.000
G1 X49.046 Y72.329 F378.000 E21.13475
G1 X150.773 Y72.329 E24.44445
G1 X151.671 Y73.145 E24.48395
G1 X151.671 Y126.864 E26.23170
G1 X150.864 Y127.671 E26.26886
G1 X49.136 Y127.671 E29.57859
G1 X48.329 Y126.864 E29.61575
G1 X48.329 Y73.225 E31.36091
G1 X48.985 Y73.103 F7800.000
G1 X50.620 Y125.881
G1 X50.119 Y125.380 F1080.000 E31.38402
G1 X50.119 Y124.449 E31.41438
G1 X51.551 Y125.881 E31.48043
G1 X52.483 Y125.881 E31.51078
G1 X50.119 Y123.517 E31.61976
G1 X50.119 Y122.586 E31.65012
G1 X53.414 Y125.881 E31.80203
G1 X54.345 Y125.881 E31.83239
G1 X50.119 Y121.655 E32.02723
G1 X50.119 Y120.724 E32.05759
G1 X55.276 Y125.881 E32.29537
G1 X56.207 Y125.881 E32.32573
G1 X50.119 Y119.793 E32.60644
G1 X50.119 Y118.862 E32.63679
G1 X57.138 Y125.881 E32.96044
G1 X58.070 Y125.881 E32.99080
G1 X50.119 Y117.930 E33.35737
G1 X50.119 Y116.999 E33.38773
G1 X59.001 Y125.881 E33.79724
G1 X59.932 Y125.881 E33.82760
G1 X50.119 Y116.068 E34.28004
G1 X50.119 Y115.137 E34.31040
G1 X60.863 Y125.881 E34.80578
G1 X61.794 Y125.881 E34.83613
G1 X50.119 Y114.206 E35.37444
G1 X50.119 Y113.275 E35.40480
G1 X62.725 Y125.881 E35.98604
G1 X63.657 Y125.881 E36.01640
G1 X50.119 Y112.343 E36.64058
G1 X50.119 Y111.412 E36.67094
G1 X64.588 Y125.881 E37.33805
G1 X65.519 Y125.881 E37.36841
G1 X50.119 Y110.481 E38.07845
G1 X50.119 Y109.550 E38.10881
G1 X66.450 Y125.881 E38.86178
G1 X67.381 Y125.881 E38.89214
G1 X50.119 Y108.619 E39.68805
G1 X50.119 Y107.688 E39.71841
G1 X68.312 Y125.881 E40.55725
G1 X69.244 Y125.881 E40.58761
G1 X50.119 Y106.756 E41.46938
G1 X50.119 Y105.825 E41.49974
G1 X70.175 Y125.881 E42.42445
G1 X71.106 Y125.881 E42.45481
G1 X50.119 Y104.894 E43.42245
G1 X50.119 Y103.963 E43.45281
G1 X72.037 Y125.881 E44.46339
G1 X72.968 Y125.881 E44.49374
G1 X50.119 Y103.032 E45.54725
G1 X50.119 Y102.101 E45.57761
G1 X73.899 Y125.881 E46.67405
G1 X74.831 Y125.881 E46.70441
G1 X50.119 Y101.169 E47.84379
G1 X50.119 Y100.238 E47.87415
G1 X75.762 Y125.881 E49.05645
G1 X76.693 Y125.881 E49.08681
G1 X50.119 Y99.307 E50.31205
G1 X50.119 Y98.376 E50.34241
G1 X77.624 Y125.881 E51.61059
G1 X78.555 Y125.881 E51.64095
G1 X50.119 Y97.445 E52.95205
G1 X50.119 Y96.514 E52.98241
G1 X79.486 Y125.881 E54.33645
G1 X80.418 Y125.881 E54.36681
G1 X50.119 Y95.582 E55.76379
G1 X50.119 Y94.651 E55.79415
G1 X81.349 Y125.881 E57.23405
G1 X82.280 Y125.881 E57.26441
G1 X50.119 Y93.720 E58.74725
G1 X50.119 Y92.789 E58.77761
G1 X83.211 Y125.881 E60.30339
G1 X84.142 Y125.881 E60.33375
G1 X50.119 Y91.858 E61.90245
G1 X50.119 Y90.927 E61.93281
G1 X85.073 Y125.881 E63.54445
G1 X86.005 Y125.881 E63.57481
G1 X50.119 Y89.995 E65.22939
G1 X50.119 Y89.064 E65.25974
G1 X86.936 Y125.881 E66.95725
G1 X87.867 Y125.881 E66.98761
G1 X50.119 Y88.133 E68.72805
G1 X50.119 Y87.202 E68.75841
G1 X88.798 Y125.881 E70.54178
G1 X89.729 Y125.881 E70.57214
G1 X50.119 Y86.271 E72.39845
G1 X50.119 Y85.339 E72.42881
G1 X90.661 Y125.881 E74.29805
G1 X91.592 Y125.881 E74.32841
G1 X50.119 Y84.408 E76.24058
G1 X50.119 Y83.477 E76.27094
G1 X92.523 Y125.881 E78.22605
G1 X93.454 Y125.881 E78.25641
G1 X50.119 Y82.546 E80.25445
G1 X50.119 Y81.615 E80.28480
G1 X94.385 Y125.881 E82.32578
G1 X95.316 Y125.881 E82.35614
G1 X50.119 Y80.684 E84.44004
G1 X50.119 Y79.752 E84.47040
G1 X96.248 Y125.881 E86.59724
G1 X97.179 Y125.881 E86.62760
G1 X50.119 Y78.821 E88.79738
G1 X50.119 Y77.890 E88.82773
G1 X98.110 Y125.881 E91.04044
G1 X99.041 Y125.881 E91.07080
G1 X50.119 Y76.959 E93.32644
G1 X50.119 Y76.028 E93.35680
G1 X99.972 Y125.881 E95.65537
G1 X100.903 Y125.881 E95.68573
G1 X50.119 Y75.097 E98.02724
G1 X50.119 Y74.165 E98.05759
G1 X101.835 Y125.881 E100.44203
G1 X102.766 Y125.881 E100.47239
G1 X51.004 Y74.119 E102.85898
G1 X51.935 Y74.119 E102.88933
G1 X103.697 Y125.881 E105.27592
G1 X104.628 Y125.881 E105.30628
G1 X52.866 Y74.119 E107.69286
G1 X53.797 Y74.119 E107.72322
G1 X105.559 Y125.881 E110.10980
G1 X106.490 Y125.881 E110.14016
G1 X54.728 Y74.119 E112.52674
G1 X55.659 Y74.119 E112.55710
G1 X107.422 Y125.881 E114.94368
G1 X108.353 Y125.881 E114.97404
G1 X56.591 Y74.119 E117.36063
G1 X57.522 Y74.119 E117.39098
G1 X109.284 Y125.881 E119.77757
G1 X110.215 Y125.881 E119.80793
G1 X58.453 Y74.119 E122.19451
G1 X59.384 Y74.119 E122.22487
G1 X111.146 Y125.881 E124.61145
G1 X112.077 Y125.881 E124.64181
G1 X60.315 Y74.119 E127.02839
G1 X61.247 Y74.119 E127.05875
G1 X113.009 Y125.881 E129.44533
G1 X113.940 Y125.881 E129.47569
G1 X62.178 Y74.119 E131.86227
G1 X63.109 Y74.119 E131.89263
G1 X114.871 Y125.881 E134.27922
G1 X115.802 Y125.881 E134.30957
G1 X64.040 Y74.119 E136.69616
G1 X64.971 Y74.119 E136.72652
G1 X116.733 Y125.881 E139.11310
G1 X117.664 Y125.881 E139.14346
G1 X65.902 Y74.119 E141.53004
G1 X66.834 Y74.119 E141.56040
G1 X118.596 Y125.881 E143.94698
G1 X119.527 Y125.881 E143.97734
G1 X67.765 Y74.119 E146.36392
G1 X68.696 Y74.119 E146.39428
G1 X120.458 Y125.881 E148.78086
G1 X121.389 Y125.881 E148.81122
G1 X69.627 Y74.119 E151.19781
G1 X70.558 Y74.119 E151.22816
G1 X122.320 Y125.881 E153.61475
G1 X123.251 Y125.881 E153.64511
G1 X71.489 Y74.119 E156.03169
G1 X72.421 Y74.119 E156.06205
G1 X124.183 Y125.881 E158.44863
G1 X125.114 Y125.881 E158.47899
G1 X73.352 Y74.119 E160.86557
G1 X74.283 Y74.119 E160.89593
G1 X126.045 Y125.881 E163.28251
G1 X126.976 Y125.881 E163.31287
G1 X75.214 Y74.119 E165.69945
G1 X76.145 Y74.119 E165.72981
G1 X127.907 Y125.881 E168.11640
G1 X128.838 Y125.881 E168.14675
G1 X77.076 Y74.119 E170.53334
G1 X78.008 Y74.119 E170.56370
G1 X129.770 Y125.881 E172.95028
G1 X130.701 Y125.881 E172.98064
G1 X78.939 Y74.119 E175.36722
G1 X79.870 Y74.119 E175.39758
G1 X131.632 Y125.881 E177.78416
G1 X132.563 Y125.881 E177.81452
G1 X80.801 Y74.119 E180.20110
G1 X81.732 Y74.119 E180.23146
G1 X133.494 Y125.881 E182.61804
G1 X134.426 Y125.881 E182.64840
G1 X82.663 Y74.119 E185.03499
G1 X83.595 Y74.119 E185.06534
G1 X135.357 Y125.881 E187.45193
G1 X136.288 Y125.881 E187.48229
G1 X84.526 Y74.119 E189.86887
G1 X85.457 Y74.119 E189.89923
G1 X137.219 Y125.881 E192.28581
G1 X138.150 Y125.881 E192.31617
G1 X86.388 Y74.119 E194.70275
G1 X87.319 Y74.119 E194.73311
G1 X139.081 Y125.881 E197.11969
G1 X140.013 Y125.881 E197.15005
G1 X88.250 Y74.119 E199.53664
G1 X89.182 Y74.119 E199.56699
G1 X140.944 Y125.881 E201.95358
G1 X141.875 Y125.881 E201.98394
G1 X90.113 Y74.119 E204.37052
G1 X91.044 Y74.119 E204.40088
G1 X142.806 Y125.881 E206.78746
G1 X143.737 Y125.881 E206.81782
G1 X91.975 Y74.119 E209.20440
G1 X92.906 Y74.119 E209.23476
G1 X144.668 Y125.881 E211.62134
G1 X145.600 Y125.881 E211.65170
G1 X93.837 Y74.119 E214.03828
G1 X94.769 Y74.119 E214.06864
G1 X146.531 Y125.881 E216.45523
G1 X147.462 Y125.881 E216.48558
G1 X95.700 Y74.119 E218.87217
G1 X96.631 Y74.119 E218.90253
G1 X148.393 Y125.881 E221.28911
G1 X149.324 Y125.881 E221.31947
G1 X97.562 Y74.119 E223.70605
G1 X98.493 Y74.119 E223.73641
G1 X149.881 Y125.507 E226.10573
G1 X149.881 Y124.575 E226.13609
G1 X99.425 Y74.119 E228.46248
G1 X100.356 Y74.119 E228.49284
G1 X149.881 Y123.644 E230.77629
G1 X149.881 Y122.713 E230.80665
G1 X101.287 Y74.119 E233.04717
G1 X102.218 Y74.119 E233.07753
G1 X149.881 Y121.782 E235.27512
G1 X149.881 Y120.851 E235.30548
G1 X103.149 Y74.119 E237.46013
G1 X104.080 Y74.119 E237.49049
G1 X149.881 Y119.920 E239.60221
G1 X149.881 Y118.988 E239.63257
G1 X105.012 Y74.119 E241.70136
G1 X105.943 Y74.119 E241.73172
G1 X149.881 Y118.057 E243.75757
G1 X149.881 Y117.126 E243.78793
G1 X106.874 Y74.119 E245.77086
G1 X107.805 Y74.119 E245.80121
G1 X149.881 Y116.195 E247.74120
G1 X149.881 Y115.264 E247.77156
G1 X108.736 Y74.119 E249.66862
G1 X109.667 Y74.119 E249.69898
G1 X149.881 Y114.333 E251.55310
G1 X149.881 Y113.401 E251.58346
G1 X110.599 Y74.119 E253.39465
G1 X111.530 Y74.119 E253.42500
G1 X149.881 Y112.470 E255.19326
G1 X149.881 Y111.539 E255.22362
G1 X112.461 Y74.119 E256.94894
G1 X113.392 Y74.119 E256.97930
G1 X149.881 Y110.608 E258.66169
G1 X149.881 Y109.677 E258.69205
G1 X114.323 Y74.119 E260.33150
G1 X115.254 Y74.119 E260.36186
G1 X149.881 Y108.746 E261.95839
G1 X149.881 Y107.814 E261.98874
G1 X116.186 Y74.119 E263.54233
G1 X117.117 Y74.119 E263.57269
G1 X149.881 Y106.883 E265.08335
G1 X149.881 Y105.952 E265.11371
G1 X118.048 Y74.119 E266.58143
G1 X118.979 Y74.119 E266.61179
G1 X149.881 Y105.021 E268.03658
G1 X149.881 Y104.090 E268.06694
G1 X119.910 Y74.119 E269.44879
G1 X120.841 Y74.119 E269.47915
G1 X149.881 Y103.159 E270.81808
G1 X149.881 Y102.227 E270.84843
G1 X121.773 Y74.119 E272.14442
G1 X122.704 Y74.119 E272.17478
G1 X149.881 Y101.296 E273.42784
G1 X149.881 Y100.365 E273.45820
G1 X123.635 Y74.119 E274.66832
G1 X124.566 Y74.119 E274.69868
G1 X149.881 Y99.434 E275.86587
G1 X149.881 Y98.503 E275.89623
G1 X125.497 Y74.119 E277.02049
G1 X126.428 Y74.119 E277.05084
G1 X149.881 Y97.572 E278.13217
G1 X149.881 Y96.640 E278.16253
G1 X127.360 Y74.119 E279.20092
G1 X128.291 Y74.119 E279.23128
G1 X149.881 Y95.709 E280.22673
G1 X149.881 Y94.778 E280.25709
G1 X129.222 Y74.119 E281.20961
G1 X130.153 Y74.119 E281.23997
G1 X149.881 Y93.847 E282.14956
G1 X149.881 Y92.916 E282.17992
G1 X131.084 Y74.119 E283.04658
G1 X132.015 Y74.119 E283.07694
G1 X149.881 Y91.985 E283.90066
G1 X149.881 Y91.053 E283.93102
G1 X132.947 Y74.119 E284.71181
G1 X133.878 Y74.119 E284.74217
G1 X149.881 Y90.122 E285.48003
G1 X149.881 Y89.191 E285.51039
G1 X134.809 Y74.119 E286.20531
G1 X135.740 Y74.119 E286.23567
G1 X149.881 Y88.260 E286.88766
G1 X149.881 Y87.329 E286.91802
G1 X136.671 Y74.119 E287.52708
G1 X137.602 Y74.119 E287.55743
G1 X149.881 Y86.398 E288.12356
G1 X149.881 Y85.466 E288.15392
G1 X138.534 Y74.119 E288.67711
G1 X139.465 Y74.119 E288.70747
G1 X149.881 Y84.535 E289.18772
G1 X149.881 Y83.604 E289.21808
G1 X140.396 Y74.119 E289.65541
G1 X141.327 Y74.119 E289.68577
G1 X149.881 Y82.673 E290.08016
G1 X149.881 Y81.742 E290.11052
G1 X142.258 Y74.119 E290.46197
G1 X143.190 Y74.119 E290.49233
G1 X149.881 Y80.810 E290.80086
G1 X149.881 Y79.879 E290.83122
G1 X144.121 Y74.119 E291.09681
G1 X145.052 Y74.119 E291.12717
G1 X149.881 Y78.948 E291.34982
G1 X149.881 Y78.017 E291.38018
G1 X145.983 Y74.119 E291.55991
G1 X146.914 Y74.119 E291.59027
G1 X149.881 Y77.086 E291.72706
G1 X149.881 Y76.155 E291.75742
G1 X147.845 Y74.119 E291.85127
G1 X148.777 Y74.119 E291.88163
G1 X149.881 Y75.223 E291.93256
G1 X149.881 Y74.292 E291.96292
G1 X149.708 Y74.119 E291.97091
G1 F1800.000 E290.97091
G92 E0
G1 Z0.750 F7800.000
G1 X150.398 Y73.299
G1 F1800.000 E1.00000
G1 X150.701 Y73.575 F1800.000 E1.01205
G1 X150.701 Y126.462 E2.56721
G1 X150.462 Y126.701 E2.57715
G1 X49.538 Y126.701 E5.54485
G1 X49.299 Y126.462 E5.55479
G1 X49.299 Y73.499 E7.11220
G1 X49.479 Y73.299 E7.12008
G1 X150.320 Y73.299 E10.08535
G1 X150.599 Y72.779 F7800.000
G1 X151.221 Y73.345 F1800.000 E10.11007
G1 X151.221 Y126.677 E11.67832
G1 X150.677 Y127.221 E11.70092
G1 X49.323 Y127.221 E14.68128
G1 X48.779 Y126.677 E14.70387
G1 X48.779 Y73.299 E16.27347
G1 X49.247 Y72.779 E16.29403
G1 X150.521 Y72.779 E19.27201
G1 X150.800 Y72.260 F7800.000
G1 X151.740 Y73.115 F1260.000 E19.30939
G1 X151.740 Y126.892 E20.89074
G1 X150.892 Y127.740 E20.92599
G1 X49.108 Y127.740 E23.91901
G1 X48.260 Y126.892 E23.95426
G1 X48.260 Y73.100 E25.53605
G1 X49.016 Y72.260 E25.56928
G1 X150.722 Y72.260 E28.55998
G1 X150.816 Y72.779 F7800.000
G1 X150.324 Y125.930
G1 X149.930 Y126.324 F3600.000 E28.57642
G1 X149.193 Y126.324 E28.59816
G1 X150.324 Y125.193 E28.64534
G1 X150.324 Y124.456 E28.66708
G1 X148.456 Y126.324 E28.74501
G1 X147.719 Y126.324 E28.76674
G1 X150.324 Y123.719 E28.87541
G1 X150.324 Y122.982 E28.89715
G1 X146.982 Y126.324 E29.03656
G1 X146.245 Y126.324 E29.05829
G1 X150.324 Y122.245 E29.22844
G1 X150.324 Y121.508 E29.25018
G1 X145.508 Y126.324 E29.45107
G1 X144.771 Y126.324 E29.47281
G1 X150.324 Y120.771 E29.70444
G1 X150.324 Y120.034 E29.72618
G1 X144.034 Y126.324 E29.98855
G1 X143.297 Y126.324 E30.01029
G1 X150.324 Y119.297 E30.30341
G1 X150.324 Y118.560 E30.32514
G1 X142.560 Y126.324 E30.64900
G1 X141.822 Y126.324 E30.67074
G1 X150.324 Y117.822 E31.02534
G1 X150.324 Y117.085 E31.04707
G1 X141.085 Y126.324 E31.43241
G1 X140.348 Y126.324 E31.45415
G1 X150.324 Y116.348 E31.87023
G1 X150.324 Y115.611 E31.89197
G1 X139.611 Y126.324 E32.33879
G1 X138.874 Y126.324 E32.36053
G1 X150.324 Y114.874 E32.83809
G1 X150.324 Y114.137 E32.85983
G1 X138.137 Y126.324 E33.36813
G1 X137.400 Y126.324 E33.38987
G1 X150.324 Y113.400 E33.92892
G1 X150.324 Y112.663 E33.95065
G1 X136.663 Y126.324 E34.52044
G1 X135.926 Y126.324 E34.54218
G1 X150.324 Y111.926 E35.14271
G1 X150.324 Y111.189 E35.16444
G1 X135.189 Y126.324 E35.79571
G1 X134.452 Y126.324 E35.81745
G1 X150.324 Y110.452 E36.47946
G1 X150.324 Y109.715 E36.50120
G1 X133.715 Y126.324 E37.19395
G1 X132.978 Y126.324 E37.21569
G1 X150.324 Y108.978 E37.93918
G1 X150.324 Y108.241 E37.96092
G1 X132.241 Y126.324 E38.71516
G1 X131.504 Y126.324 E38.73689
G1 X150.324 Y107.504 E39.52187
G1 X150.324 Y106.767 E39.54361
G1 X130.767 Y126.324 E40.35932
G1 X130.030 Y126.324 E40.38106
G1 X150.324 Y106.030 E41.22752
G1 X150.324 Y105.293 E41.24926
G1 X129.293 Y126.324 E42.12646
G1 X128.556 Y126.324 E42.14820
G1 X150.324 Y104.556 E43.05614
G1 X150.324 Y103.819 E43.07787
G1 X127.819 Y126.324 E44.01656
G1 X127.081 Y126.324 E44.03829
G1 X150.324 Y103.081 E45.00772
G1 X150.324 Y102.344 E45.02946
G1 X126.344 Y126.324 E46.02962
G1 X125.607 Y126.324 E46.05136
G1 X150.324 Y101.607 E47.08227
G1 X150.324 Y100.870 E47.10400
G1 X124.870 Y126.324 E48.16565
G1 X124.133 Y126.324 E48.18739
G1 X150.324 Y100.133 E49.27978
G1 X150.324 Y99.396 E49.30152
G1 X123.396 Y126.324 E50.42465
G1 X122.659 Y126.324 E50.44638
