; generated by Slic3r 0.9.10b on 2013-09-14 at 11:22:36

; layer_height = 0.4
; perimeters = 3
; top_solid_layers = 3
; bottom_solid_layers = 3
; fill_density = 0.4
; perimeter_speed = 30
; infill_speed = 60
; travel_speed = 130
; nozzle_diameter = 0.5
; filament_diameter = 3
; extrusion_multiplier = 1
; perimeters extrusion width = 0.53mm
; infill extrusion width = 0.53mm
; solid infill extrusion width = 0.53mm
; top infill extrusion width = 0.53mm
; first layer extrusion width = 0.80mm

G21 ; set units to millimeters
M190 S60 ; wait for bed temperature to be reached
M104 S180 ; set temperature
G28 ; home all axes
G1 Z5 F5000 ; lift nozzle
G92 E0 ;reset extruder
M109 S180 ; wait for temperature to be reached
G90 ; use absolute coordinates
G92 E0 ; reset extrusion distance
M82 ; use absolute distances for extrusion
G1 F1800.000 E-1.00000 ; retract
G92 E0 ; reset extrusion distance
G1 Z0.400 F7800.000 ; move to next layer (0)
G1 X44.930 Y55.550 ; move to first skirt point
G1 F1800.000 E1.00000 ; compensate retraction
G1 X46.150 Y54.850 F540.000 E1.05855 ; skirt
G1 X47.490 Y54.410 E1.11726 ; skirt
G1 X48.890 Y54.260 E1.17587 ; skirt
G1 X150.890 Y54.260 E5.42188 ; skirt
G1 X152.510 Y54.460 E5.48983 ; skirt
G1 X154.030 Y55.040 E5.55756 ; skirt
G1 X155.370 Y55.970 E5.62546 ; skirt
G1 X156.480 Y56.960 E5.68737 ; skirt
G1 X157.440 Y58.010 E5.74659 ; skirt
G1 X158.150 Y59.240 E5.80571 ; skirt
G1 X158.590 Y60.580 E5.86442 ; skirt
G1 X158.740 Y61.990 E5.92345 ; skirt
G1 X158.740 Y116.000 E8.17175 ; skirt
G1 X158.610 Y117.310 E8.22655 ; skirt
G1 X158.220 Y118.580 E8.28186 ; skirt
G1 X157.600 Y119.740 E8.33661 ; skirt
G1 X156.760 Y120.760 E8.39162 ; skirt
G1 X155.760 Y121.760 E8.45049 ; skirt
G1 X154.740 Y122.600 E8.50549 ; skirt
G1 X153.580 Y123.220 E8.56024 ; skirt
G1 X152.310 Y123.610 E8.61555 ; skirt
G1 X151.000 Y123.740 E8.67035 ; skirt
G1 X48.990 Y123.740 E12.91677 ; skirt
G1 X47.670 Y123.600 E12.97203 ; skirt
G1 X46.400 Y123.220 E13.02721 ; skirt
G1 X45.230 Y122.590 E13.08253 ; skirt
G1 X44.200 Y121.740 E13.13812 ; skirt
G1 X43.210 Y120.740 E13.19670 ; skirt
G1 X42.390 Y119.720 E13.25118 ; skirt
G1 X41.770 Y118.560 E13.30593 ; skirt
G1 X41.390 Y117.310 E13.36031 ; skirt
G1 X41.260 Y116.000 E13.41511 ; skirt
G1 X41.260 Y61.990 E15.66342 ; skirt
G1 X41.460 Y60.360 E15.73178 ; skirt
G1 X42.050 Y58.830 E15.80004 ; skirt
G1 X42.990 Y57.490 E15.86818 ; skirt
G1 X43.880 Y56.500 E15.92359 ; skirt
G1 X44.848 Y55.624 E15.97794 ; skirt
G1 F1800.000 E14.97794 ; retract
G92 E0 ; reset extrusion distance
G1 X49.839 Y62.839 F7800.000 ; move to first perimeter point
G1 F1800.000 E1.00000 ; compensate retraction
G1 X150.161 Y62.839 F540.000 E5.17615 ; perimeter
G1 X150.161 Y115.161 E7.35419 ; perimeter
G1 X49.839 Y115.161 E11.53034 ; perimeter
G1 X49.839 Y62.949 E13.70378 ; perimeter
G1 F1800.000 E12.70378 ; retract
G92 E0 ; reset extrusion distance
G1 X49.103 Y115.543 F7800.000 ; move to first perimeter point
G1 F1800.000 E1.00000 ; compensate retraction
G1 X49.103 Y62.423 F540.000 E3.21124 ; perimeter
G1 X49.391 Y62.103 E3.22916 ; perimeter
G1 X150.473 Y62.103 E7.43695 ; perimeter
G1 X150.897 Y62.488 E7.46076 ; perimeter
G1 X150.897 Y115.543 E9.66930 ; perimeter
G1 X150.543 Y115.897 E9.69012 ; perimeter
G1 X49.457 Y115.897 E13.89808 ; perimeter
G1 X49.181 Y115.621 E13.91430 ; perimeter
G1 X48.368 Y115.848 F7800.000 ; move to first perimeter point
G1 X48.368 Y62.141 F540.000 E16.14997 ; perimeter
G1 X49.064 Y61.368 E16.19328 ; perimeter
G1 X150.758 Y61.368 E20.42655 ; perimeter
G1 X151.632 Y62.163 E20.47574 ; perimeter
G1 X151.632 Y115.848 E22.71052 ; perimeter
G1 X150.848 Y116.632 E22.75670 ; perimeter
G1 X49.152 Y116.632 E26.99003 ; perimeter
G1 X48.446 Y115.926 E27.03162 ; perimeter
G1 X48.888 Y115.327 F7800.000 ; move inwards before travel
G1 X50.586 Y114.628 ; move to first fill point
G1 X50.372 Y114.414 F1080.000 E27.04422 ; fill
G1 X50.372 Y113.372 E27.08772 ; fill
G1 X51.628 Y114.628 E27.16185 ; fill
G1 X52.671 Y114.628 E27.20536 ; fill
G1 X50.372 Y112.329 E27.34101 ; fill
G1 X50.372 Y111.286 E27.38452 ; fill
G1 X53.714 Y114.628 E27.58170 ; fill
G1 X54.757 Y114.628 E27.62521 ; fill
G1 X50.372 Y110.243 E27.88392 ; fill
G1 X50.372 Y109.201 E27.92743 ; fill
G1 X55.799 Y114.628 E28.24767 ; fill
G1 X56.842 Y114.628 E28.29118 ; fill
G1 X50.372 Y108.158 E28.67295 ; fill
G1 X50.372 Y107.115 E28.71646 ; fill
G1 X57.885 Y114.628 E29.15976 ; fill
G1 X58.928 Y114.628 E29.20326 ; fill
G1 X50.372 Y106.072 E29.70809 ; fill
G1 X50.372 Y105.030 E29.75160 ; fill
G1 X59.970 Y114.628 E30.31796 ; fill
G1 X61.013 Y114.628 E30.36146 ; fill
G1 X50.372 Y103.987 E30.98935 ; fill
G1 X50.372 Y102.944 E31.03286 ; fill
G1 X62.056 Y114.628 E31.72227 ; fill
G1 X63.099 Y114.628 E31.76578 ; fill
G1 X50.372 Y101.901 E32.51672 ; fill
G1 X50.372 Y100.859 E32.56023 ; fill
G1 X64.141 Y114.628 E33.37270 ; fill
G1 X65.184 Y114.628 E33.41621 ; fill
G1 X50.372 Y99.816 E34.29021 ; fill
G1 X50.372 Y98.773 E34.33372 ; fill
G1 X66.227 Y114.628 E35.26925 ; fill
G1 X67.270 Y114.628 E35.31275 ; fill
G1 X50.372 Y97.730 E36.30981 ; fill
G1 X50.372 Y96.688 E36.35332 ; fill
G1 X68.312 Y114.628 E37.41191 ; fill
G1 X69.355 Y114.628 E37.45541 ; fill
G1 X50.372 Y95.645 E38.57553 ; fill
G1 X50.372 Y94.602 E38.61904 ; fill
G1 X70.398 Y114.628 E39.80068 ; fill
G1 X71.441 Y114.628 E39.84419 ; fill
G1 X50.372 Y93.559 E41.08736 ; fill
G1 X50.372 Y92.517 E41.13087 ; fill
G1 X72.483 Y114.628 E42.43557 ; fill
G1 X73.526 Y114.628 E42.47908 ; fill
G1 X50.372 Y91.474 E43.84531 ; fill
G1 X50.372 Y90.431 E43.88882 ; fill
G1 X74.569 Y114.628 E45.31658 ; fill
G1 X75.611 Y114.628 E45.36009 ; fill
G1 X50.372 Y89.389 E46.84938 ; fill
G1 X50.372 Y88.346 E46.89289 ; fill
G1 X76.654 Y114.628 E48.44370 ; fill
G1 X77.697 Y114.628 E48.48721 ; fill
G1 X50.372 Y87.303 E50.09956 ; fill
G1 X50.372 Y86.260 E50.14306 ; fill
G1 X78.740 Y114.628 E51.81694 ; fill
G1 X79.782 Y114.628 E51.86045 ; fill
G1 X50.372 Y85.218 E53.59585 ; fill
G1 X50.372 Y84.175 E53.63936 ; fill
G1 X80.825 Y114.628 E55.43629 ; fill
G1 X81.868 Y114.628 E55.47980 ; fill
G1 X50.372 Y83.132 E57.33826 ; fill
G1 X50.372 Y82.089 E57.38177 ; fill
G1 X82.911 Y114.628 E59.30176 ; fill
G1 X83.953 Y114.628 E59.34527 ; fill
G1 X50.372 Y81.047 E61.32679 ; fill
G1 X50.372 Y80.004 E61.37030 ; fill
G1 X84.996 Y114.628 E63.41334 ; fill
G1 X86.039 Y114.628 E63.45685 ; fill
G1 X50.372 Y78.961 E65.56143 ; fill
G1 X50.372 Y77.918 E65.60494 ; fill
G1 X87.082 Y114.628 E67.77104 ; fill
G1 X88.124 Y114.628 E67.81455 ; fill
G1 X50.372 Y76.876 E70.04219 ; fill
G1 X50.372 Y75.833 E70.08569 ; fill
G1 X89.167 Y114.628 E72.37486 ; fill
G1 X90.210 Y114.628 E72.41836 ; fill
G1 X50.372 Y74.790 E74.76906 ; fill
G1 X50.372 Y73.747 E74.81256 ; fill
G1 X91.253 Y114.628 E77.22479 ; fill
G1 X92.295 Y114.628 E77.26829 ; fill
G1 X50.372 Y72.705 E79.74204 ; fill
G1 X50.372 Y71.662 E79.78555 ; fill
G1 X93.338 Y114.628 E82.32083 ; fill
G1 X94.381 Y114.628 E82.36434 ; fill
G1 X50.372 Y70.619 E84.96115 ; fill
G1 X50.372 Y69.576 E85.00465 ; fill
G1 X95.423 Y114.628 E87.66299 ; fill
G1 X96.466 Y114.628 E87.70650 ; fill
G1 X50.372 Y68.534 E90.42636 ; fill
G1 X50.372 Y67.491 E90.46987 ; fill
G1 X97.509 Y114.628 E93.25127 ; fill
G1 X98.552 Y114.628 E93.29477 ; fill
G1 X50.372 Y66.448 E96.13770 ; fill
G1 X50.372 Y65.406 E96.18121 ; fill
G1 X99.594 Y114.628 E99.08566 ; fill
G1 X100.637 Y114.628 E99.12916 ; fill
G1 X50.372 Y64.363 E102.09515 ; fill
G1 X50.424 Y63.372 E102.13653 ; fill
G1 X101.680 Y114.628 E105.16096 ; fill
G1 X102.723 Y114.628 E105.20447 ; fill
G1 X51.467 Y63.372 E108.22890 ; fill
G1 X52.510 Y63.372 E108.27241 ; fill
G1 X103.765 Y114.628 E111.29684 ; fill
G1 X104.808 Y114.628 E111.34035 ; fill
G1 X53.553 Y63.372 E114.36478 ; fill
G1 X54.595 Y63.372 E114.40829 ; fill
G1 X105.851 Y114.628 E117.43272 ; fill
G1 X106.894 Y114.628 E117.47622 ; fill
G1 X55.638 Y63.372 E120.50065 ; fill
G1 X56.681 Y63.372 E120.54416 ; fill
G1 X107.936 Y114.628 E123.56859 ; fill
G1 X108.979 Y114.628 E123.61210 ; fill
G1 X57.724 Y63.372 E126.63653 ; fill
G1 X58.766 Y63.372 E126.68004 ; fill
G1 X110.022 Y114.628 E129.70447 ; fill
G1 X111.065 Y114.628 E129.74798 ; fill
G1 X59.809 Y63.372 E132.77241 ; fill
G1 X60.852 Y63.372 E132.81591 ; fill
G1 X112.107 Y114.628 E135.84034 ; fill
G1 X113.150 Y114.628 E135.88385 ; fill
G1 X61.895 Y63.372 E138.90828 ; fill
G1 X62.937 Y63.372 E138.95179 ; fill
G1 X114.193 Y114.628 E141.97622 ; fill
G1 X115.236 Y114.628 E142.01973 ; fill
G1 X63.980 Y63.372 E145.04416 ; fill
G1 X65.023 Y63.372 E145.08767 ; fill
G1 X116.278 Y114.628 E148.11210 ; fill
G1 X117.321 Y114.628 E148.15560 ; fill
G1 X66.066 Y63.372 E151.18003 ; fill
G1 X67.108 Y63.372 E151.22354 ; fill
G1 X118.364 Y114.628 E154.24797 ; fill
G1 X119.406 Y114.628 E154.29148 ; fill
G1 X68.151 Y63.372 E157.31591 ; fill
G1 X69.194 Y63.372 E157.35942 ; fill
G1 X120.449 Y114.628 E160.38385 ; fill
G1 X121.492 Y114.628 E160.42735 ; fill
G1 X70.236 Y63.372 E163.45179 ; fill
G1 X71.279 Y63.372 E163.49529 ; fill
G1 X122.535 Y114.628 E166.51972 ; fill
G1 X123.577 Y114.628 E166.56323 ; fill
G1 X72.322 Y63.372 E169.58766 ; fill
G1 X73.365 Y63.372 E169.63117 ; fill
G1 X124.620 Y114.628 E172.65560 ; fill
G1 X125.663 Y114.628 E172.69911 ; fill
G1 X74.407 Y63.372 E175.72354 ; fill
G1 X75.450 Y63.372 E175.76704 ; fill
G1 X126.706 Y114.628 E178.79148 ; fill
G1 X127.748 Y114.628 E178.83498 ; fill
G1 X76.493 Y63.372 E181.85941 ; fill
G1 X77.536 Y63.372 E181.90292 ; fill
G1 X128.791 Y114.628 E184.92735 ; fill
G1 X129.834 Y114.628 E184.97086 ; fill
G1 X78.578 Y63.372 E187.99529 ; fill
G1 X79.621 Y63.372 E188.03880 ; fill
G1 X130.877 Y114.628 E191.06323 ; fill
G1 X131.919 Y114.628 E191.10673 ; fill
G1 X80.664 Y63.372 E194.13117 ; fill
G1 X81.707 Y63.372 E194.17467 ; fill
G1 X132.962 Y114.628 E197.19910 ; fill
G1 X134.005 Y114.628 E197.24261 ; fill
G1 X82.749 Y63.372 E200.26704 ; fill
G1 X83.792 Y63.372 E200.31055 ; fill
G1 X135.048 Y114.628 E203.33498 ; fill
G1 X136.090 Y114.628 E203.37849 ; fill
G1 X84.835 Y63.372 E206.40292 ; fill
G1 X85.878 Y63.372 E206.44642 ; fill
G1 X137.133 Y114.628 E209.47086 ; fill
G1 X138.176 Y114.628 E209.51436 ; fill
G1 X86.920 Y63.372 E212.53879 ; fill
G1 X87.963 Y63.372 E212.58230 ; fill
G1 X139.219 Y114.628 E215.60673 ; fill
G1 X140.261 Y114.628 E215.65024 ; fill
G1 X89.006 Y63.372 E218.67467 ; fill
G1 X90.049 Y63.372 E218.71818 ; fill
G1 X141.304 Y114.628 E221.74261 ; fill
G1 X142.347 Y114.628 E221.78611 ; fill
G1 X91.091 Y63.372 E224.81054 ; fill
G1 X92.134 Y63.372 E224.85405 ; fill
G1 X143.389 Y114.628 E227.87848 ; fill
G1 X144.432 Y114.628 E227.92199 ; fill
G1 X93.177 Y63.372 E230.94642 ; fill
G1 X94.219 Y63.372 E230.98993 ; fill
G1 X145.475 Y114.628 E234.01436 ; fill
G1 X146.518 Y114.628 E234.05787 ; fill
G1 X95.262 Y63.372 E237.08230 ; fill
G1 X96.305 Y63.372 E237.12580 ; fill
G1 X147.560 Y114.628 E240.15023 ; fill
G1 X148.603 Y114.628 E240.19374 ; fill
G1 X97.348 Y63.372 E243.21817 ; fill
G1 X98.390 Y63.372 E243.26168 ; fill
G1 X149.628 Y114.610 E246.28504 ; fill
G1 X149.628 Y113.567 E246.32855 ; fill
G1 X99.433 Y63.372 E249.29038 ; fill
G1 X100.476 Y63.372 E249.33388 ; fill
G1 X149.628 Y112.524 E252.23418 ; fill
G1 X149.628 Y111.481 E252.27769 ; fill
G1 X101.519 Y63.372 E255.11646 ; fill
G1 X102.561 Y63.372 E255.15997 ; fill
G1 X149.628 Y110.439 E257.93721 ; fill
G1 X149.628 Y109.396 E257.98072 ; fill
G1 X103.604 Y63.372 E260.69644 ; fill
G1 X104.647 Y63.372 E260.73994 ; fill
G1 X149.628 Y108.353 E263.39413 ; fill
G1 X149.628 Y107.310 E263.43764 ; fill
G1 X105.690 Y63.372 E266.03029 ; fill
G1 X106.732 Y63.372 E266.07380 ; fill
G1 X149.628 Y106.268 E268.60493 ; fill
G1 X149.628 Y105.225 E268.64844 ; fill
G1 X107.775 Y63.372 E271.11803 ; fill
G1 X108.818 Y63.372 E271.16154 ; fill
G1 X149.628 Y104.182 E273.56961 ; fill
G1 X149.628 Y103.139 E273.61312 ; fill
G1 X109.861 Y63.372 E275.95966 ; fill
G1 X110.903 Y63.372 E276.00317 ; fill
G1 X149.628 Y102.097 E278.28818 ; fill
G1 X149.628 Y101.054 E278.33169 ; fill
G1 X111.946 Y63.372 E280.55517 ; fill
G1 X112.989 Y63.372 E280.59868 ; fill
G1 X149.628 Y100.011 E282.76063 ; fill
G1 X149.628 Y98.968 E282.80414 ; fill
G1 X114.031 Y63.372 E284.90457 ; fill
G1 X115.074 Y63.372 E284.94808 ; fill
G1 X149.628 Y97.926 E286.98697 ; fill
G1 X149.628 Y96.883 E287.03048 ; fill
G1 X116.117 Y63.372 E289.00785 ; fill
G1 X117.160 Y63.372 E289.05136 ; fill
G1 X149.628 Y95.840 E290.96720 ; fill
G1 X149.628 Y94.798 E291.01070 ; fill
G1 X118.202 Y63.372 E292.86501 ; fill
G1 X119.245 Y63.372 E292.90852 ; fill
G1 X149.628 Y93.755 E294.70130 ; fill
G1 X149.628 Y92.712 E294.74481 ; fill
G1 X120.288 Y63.372 E296.47606 ; fill
G1 X121.331 Y63.372 E296.51957 ; fill
G1 X149.628 Y91.669 E298.18929 ; fill
G1 X149.628 Y90.627 E298.23280 ; fill
G1 X122.373 Y63.372 E299.84100 ; fill
G1 X123.416 Y63.372 E299.88450 ; fill
G1 X149.628 Y89.584 E301.43117 ; fill
G1 X149.628 Y88.541 E301.47468 ; fill
G1 X124.459 Y63.372 E302.95982 ; fill
G1 X125.502 Y63.372 E303.00332 ; fill
G1 X149.628 Y87.498 E304.42693 ; fill
G1 X149.628 Y86.456 E304.47044 ; fill
G1 X126.544 Y63.372 E305.83252 ; fill
G1 X127.587 Y63.372 E305.87603 ; fill
G1 X149.628 Y85.413 E307.17658 ; fill
G1 X149.628 Y84.370 E307.22009 ; fill
G1 X128.630 Y63.372 E308.45911 ; fill
G1 X129.673 Y63.372 E308.50262 ; fill
G1 X149.628 Y83.327 E309.68011 ; fill
G1 X149.628 Y82.285 E309.72362 ; fill
G1 X130.715 Y63.372 E310.83958 ; fill
G1 X131.758 Y63.372 E310.88309 ; fill
G1 X149.628 Y81.242 E311.93752 ; fill
G1 X149.628 Y80.199 E311.98103 ; fill
G1 X132.801 Y63.372 E312.97394 ; fill
G1 X133.844 Y63.372 E313.01745 ; fill
G1 X149.628 Y79.156 E313.94882 ; fill
G1 X149.628 Y78.114 E313.99233 ; fill
G1 X134.886 Y63.372 E314.86218 ; fill
G1 X135.929 Y63.372 E314.90569 ; fill
G1 X149.628 Y77.071 E315.71401 ; fill
G1 X149.628 Y76.028 E315.75752 ; fill
G1 X136.972 Y63.372 E316.50431 ; fill
G1 X138.014 Y63.372 E316.54782 ; fill
G1 X149.628 Y74.986 E317.23308 ; fill
G1 X149.628 Y73.943 E317.27659 ; fill
G1 X139.057 Y63.372 E317.90032 ; fill
G1 X140.100 Y63.372 E317.94383 ; fill
G1 X149.628 Y72.900 E318.50603 ; fill
G1 X149.628 Y71.857 E318.54954 ; fill
G1 X141.143 Y63.372 E319.05022 ; fill
G1 X142.185 Y63.372 E319.09372 ; fill
G1 X149.628 Y70.815 E319.53287 ; fill
G1 X149.628 Y69.772 E319.57638 ; fill
G1 X143.228 Y63.372 E319.95400 ; fill
G1 X144.271 Y63.372 E319.99750 ; fill
G1 X149.628 Y68.729 E320.31359 ; fill
G1 X149.628 Y67.686 E320.35710 ; fill
G1 X145.314 Y63.372 E320.61166 ; fill
G1 X146.356 Y63.372 E320.65517 ; fill
G1 X149.628 Y66.644 E320.84820 ; fill
G1 X149.628 Y65.601 E320.89171 ; fill
G1 X147.399 Y63.372 E321.02321 ; fill
G1 X148.442 Y63.372 E321.06672 ; fill
G1 X149.628 Y64.558 E321.13669 ; fill
G1 X149.628 Y63.515 E321.18020 ; fill
G1 X149.485 Y63.372 E321.18865 ; fill
M104 S175 ; set temperature
G1 F1800.000 E320.18865 ; retract
G92 E0 ; reset extrusion distance
G1 Z0.800 F7800.000 ; move to next layer (1)
G1 X150.398 Y62.299 ; move to first perimeter point
G1 F1800.000 E1.00000 ; compensate retraction
G1 X150.701 Y62.575 F1800.000 E1.01205 ; perimeter
G1 X150.701 Y115.462 E2.56721 ; perimeter
G1 X150.462 Y115.701 E2.57715 ; perimeter
G1 X49.538 Y115.701 E5.54485 ; perimeter
G1 X49.299 Y115.462 E5.55479 ; perimeter
G1 X49.299 Y62.499 E7.11220 ; perimeter
G1 X49.479 Y62.299 E7.12008 ; perimeter
G1 X150.320 Y62.299 E10.08535 ; perimeter
G1 F1800.000 E9.08535 ; retract
G92 E0 ; reset extrusion distance
G1 X48.779 Y62.299 F7800.000 ; move to first perimeter point
G1 F1800.000 E1.00000 ; compensate retraction
G1 X49.247 Y61.779 F1800.000 E1.02056 ; perimeter
G1 X150.599 Y61.779 E4.00083 ; perimeter
G1 X151.221 Y62.345 E4.02555 ; perimeter
G1 X151.221 Y115.677 E5.59380 ; perimeter
G1 X150.677 Y116.221 E5.61640 ; perimeter
G1 X49.323 Y116.221 E8.59675 ; perimeter
G1 X48.779 Y115.677 E8.61935 ; perimeter
G1 X48.779 Y62.377 E10.18666 ; perimeter
G1 X48.260 Y62.100 F7800.000 ; move to first perimeter point
G1 X49.016 Y61.260 F1800.000 E10.21989 ; perimeter
G1 X150.800 Y61.260 E13.21287 ; perimeter
