; generated by Slic3r 0.9.10b on 2013-09-12 at 19:06:11

; layer_height = 0.4
; perimeters = 3
; top_solid_layers = 3
; bottom_solid_layers = 3
; fill_density = 0.4
; perimeter_speed = 30
; infill_speed = 60
; travel_speed = 130
; nozzle_diameter = 0.5
; filament_diameter = 3
; extrusion_multiplier = 1
; perimeters extrusion width = 0.53mm
; infill extrusion width = 0.53mm
; solid infill extrusion width = 0.53mm
; top infill extrusion width = 0.53mm
; first layer extrusion width = 1.00mm

G21 ; set units to millimeters
M107
M104 S180 ; set temperature
G28 ; home all axes
G1 Z5 F5000 ; lift nozzle
M190 S60 ; bed on
M109 S180 ; wait for temperature to be reached
G90 ; use absolute coordinates
G92 E0
M82 ; use absolute distances for extrusion
G1 F1800.000 E-1.00000
G1 Z1.000 F7800.000
G92 E0
G1 X44.170 Y55.270
G1 Z0.500
G1 F1800.000 E1.00000
G1 X45.360 Y54.630 F540.000 E1.08532
G1 X46.660 Y54.240 E1.17102
G1 X48.000 Y54.110 E1.25604
G1 X152.000 Y54.110 E7.82317
G1 X153.340 Y54.240 E7.90819
G1 X154.640 Y54.630 E7.99389
G1 X155.830 Y55.270 E8.07921
G1 X156.870 Y56.130 E8.16443
G1 X157.730 Y57.170 E8.24964
G1 X158.370 Y58.360 E8.33496
G1 X158.760 Y59.660 E8.42067
G1 X158.890 Y61.000 E8.50568
G1 X158.890 Y117.000 E12.04183
G1 X158.760 Y118.340 E12.12684
G1 X158.370 Y119.640 E12.21255
G1 X157.730 Y120.830 E12.29787
G1 X156.870 Y121.870 E12.38308
G1 X155.830 Y122.730 E12.46830
G1 X154.640 Y123.370 E12.55362
G1 X153.340 Y123.760 E12.63932
G1 X152.000 Y123.890 E12.72434
G1 X48.000 Y123.890 E19.29147
G1 X46.660 Y123.760 E19.37649
G1 X45.360 Y123.370 E19.46219
G1 X44.170 Y122.730 E19.54751
G1 X43.130 Y121.870 E19.63273
G1 X42.270 Y120.830 E19.71794
G1 X41.630 Y119.640 E19.80326
G1 X41.240 Y118.340 E19.88897
G1 X41.110 Y117.000 E19.97398
G1 X41.110 Y61.000 E23.51013
G1 X41.240 Y59.660 E23.59514
G1 X41.630 Y58.360 E23.68085
G1 X42.270 Y57.170 E23.76617
G1 X43.130 Y56.130 E23.85138
G1 X44.067 Y55.355 E23.92814
G1 F1800.000 E22.92814
G1 Z1.000 F7800.000
G92 E0
G1 X50.232 Y63.232
G1 Z0.500
G1 F1800.000 E1.00000
G1 X149.768 Y63.232 F540.000 E7.28529
G1 X149.768 Y114.768 E10.53959
G1 X50.232 Y114.768 E16.82487
G1 X50.232 Y63.366 E20.07072
G1 X49.339 Y62.339 F7800.000
G1 X150.661 Y62.339 F540.000 E26.46874
G1 X150.661 Y115.661 E29.83578
G1 X49.339 Y115.661 E36.23381
G1 X49.339 Y62.473 E39.59240
G1 X48.446 Y61.446 F7800.000
G1 X151.554 Y61.446 F378.000 E46.10316
G1 X151.554 Y116.554 E49.58294
G1 X48.446 Y116.554 E56.09371
G1 X48.446 Y61.580 E59.56503
G1 X49.219 Y61.893 F7800.000
G1 X51.000 Y114.121
G1 X50.879 Y114.000 F1080.000 E59.57583
G1 X50.879 Y112.736 E59.65575
G1 X52.264 Y114.121 E59.77958
G1 X53.528 Y114.121 E59.85950
G1 X50.879 Y111.472 E60.09636
G1 X50.879 Y110.208 E60.17629
G1 X54.792 Y114.121 E60.52618
G1 X56.056 Y114.121 E60.60610
G1 X50.879 Y108.944 E61.06902
G1 X50.879 Y107.680 E61.14895
G1 X57.320 Y114.121 E61.72490
G1 X58.584 Y114.121 E61.80483
G1 X50.879 Y106.416 E62.49381
G1 X50.879 Y105.152 E62.57374
G1 X59.848 Y114.121 E63.37576
G1 X61.112 Y114.121 E63.45568
G1 X50.879 Y103.888 E64.37073
G1 X50.879 Y102.624 E64.45066
G1 X62.376 Y114.121 E65.47874
G1 X63.641 Y114.121 E65.55867
G1 X50.879 Y101.359 E66.69978
G1 X50.879 Y100.095 E66.77971
G1 X64.905 Y114.121 E68.03385
G1 X66.169 Y114.121 E68.11378
G1 X50.879 Y98.831 E69.48096
G1 X50.879 Y97.567 E69.56088
G1 X67.433 Y114.121 E71.04109
G1 X68.697 Y114.121 E71.12102
G1 X50.879 Y96.303 E72.71426
G1 X50.879 Y95.039 E72.79419
G1 X69.961 Y114.121 E74.50046
G1 X71.225 Y114.121 E74.58038
G1 X50.879 Y93.775 E76.39969
G1 X50.879 Y92.511 E76.47962
G1 X72.489 Y114.121 E78.41195
G1 X73.753 Y114.121 E78.49188
G1 X50.879 Y91.247 E80.53725
G1 X50.879 Y89.983 E80.61718
G1 X75.017 Y114.121 E82.77558
G1 X76.282 Y114.121 E82.85550
G1 X50.879 Y88.718 E85.12694
G1 X50.879 Y87.454 E85.20686
G1 X77.546 Y114.121 E87.59133
G1 X78.810 Y114.121 E87.67126
G1 X50.879 Y86.190 E90.16876
G1 X50.879 Y84.926 E90.24868
G1 X80.074 Y114.121 E92.85921
G1 X81.338 Y114.121 E92.93914
G1 X50.879 Y83.662 E95.66270
G1 X50.879 Y82.398 E95.74263
G1 X82.602 Y114.121 E98.57922
G1 X83.866 Y114.121 E98.65915
G1 X50.879 Y81.134 E101.60877
G1 X50.879 Y79.870 E101.68870
G1 X85.130 Y114.121 E104.75136
G1 X86.394 Y114.121 E104.83128
G1 X50.879 Y78.606 E108.00697
G1 X50.879 Y77.342 E108.08690
G1 X87.658 Y114.121 E111.37562
G1 X88.923 Y114.121 E111.45555
G1 X50.879 Y76.077 E114.85730
G1 X50.879 Y74.813 E114.93723
G1 X90.187 Y114.121 E118.45201
G1 X91.451 Y114.121 E118.53194
G1 X50.879 Y73.549 E122.15976
G1 X50.879 Y72.285 E122.23969
G1 X92.715 Y114.121 E125.98054
G1 X93.979 Y114.121 E126.06046
G1 X50.879 Y71.021 E129.91434
G1 X50.879 Y69.757 E129.99427
G1 X95.243 Y114.121 E133.96119
G1 X96.507 Y114.121 E134.04111
G1 X50.879 Y68.493 E138.12106
G1 X50.879 Y67.229 E138.20098
G1 X97.771 Y114.121 E142.39396
G1 X99.035 Y114.121 E142.47389
G1 X50.879 Y65.965 E146.77990
G1 X50.879 Y64.700 E146.85983
G1 X100.300 Y114.121 E151.27887
G1 X101.564 Y114.121 E151.35880
G1 X51.321 Y63.879 E155.85131
G1 X52.585 Y63.879 E155.93123
G1 X102.828 Y114.121 E160.42375
G1 X104.092 Y114.121 E160.50367
G1 X53.849 Y63.879 E164.99619
G1 X55.114 Y63.879 E165.07611
G1 X105.356 Y114.121 E169.56863
G1 X106.620 Y114.121 E169.64855
G1 X56.378 Y63.879 E174.14107
G1 X57.642 Y63.879 E174.22099
G1 X107.884 Y114.121 E178.71350
G1 X109.148 Y114.121 E178.79343
G1 X58.906 Y63.879 E183.28594
G1 X60.170 Y63.879 E183.36587
G1 X110.412 Y114.121 E187.85838
G1 X111.676 Y114.121 E187.93831
G1 X61.434 Y63.879 E192.43082
G1 X62.698 Y63.879 E192.51075
G1 X112.941 Y114.121 E197.00326
G1 X114.205 Y114.121 E197.08319
G1 X63.962 Y63.879 E201.57570
G1 X65.226 Y63.879 E201.65563
G1 X115.469 Y114.121 E206.14814
G1 X116.733 Y114.121 E206.22806
G1 X66.490 Y63.879 E210.72058
G1 X67.755 Y63.879 E210.80050
G1 X117.997 Y114.121 E215.29302
G1 X119.261 Y114.121 E215.37294
G1 X69.019 Y63.879 E219.86546
G1 X70.283 Y63.879 E219.94538
G1 X120.525 Y114.121 E224.43790
G1 X121.789 Y114.121 E224.51782
G1 X71.547 Y63.879 E229.01033
G1 X72.811 Y63.879 E229.09026
G1 X123.053 Y114.121 E233.58277
G1 X124.317 Y114.121 E233.66270
G1 X74.075 Y63.879 E238.15521
G1 X75.339 Y63.879 E238.23514
G1 X125.582 Y114.121 E242.72765
G1 X126.846 Y114.121 E242.80758
G1 X76.603 Y63.879 E247.30009
G1 X77.867 Y63.879 E247.38002
G1 X128.110 Y114.121 E251.87253
G1 X129.374 Y114.121 E251.95246
G1 X79.132 Y63.879 E256.44497
G1 X80.396 Y63.879 E256.52490
G1 X130.638 Y114.121 E261.01741
G1 X131.902 Y114.121 E261.09733
G1 X81.660 Y63.879 E265.58985
G1 X82.924 Y63.879 E265.66977
G1 X133.166 Y114.121 E270.16229
G1 X134.430 Y114.121 E270.24221
G1 X84.188 Y63.879 E274.73473
G1 X85.452 Y63.879 E274.81465
G1 X135.694 Y114.121 E279.30716
G1 X136.958 Y114.121 E279.38709
G1 X86.716 Y63.879 E283.87960
G1 X87.980 Y63.879 E283.95953
G1 X138.223 Y114.121 E288.45204
G1 X139.487 Y114.121 E288.53197
G1 X89.244 Y63.879 E293.02448
G1 X90.508 Y63.879 E293.10441
G1 X140.751 Y114.121 E297.59692
G1 X142.015 Y114.121 E297.67685
G1 X91.773 Y63.879 E302.16936
G1 X93.037 Y63.879 E302.24929
G1 X143.279 Y114.121 E306.74180
G1 X144.543 Y114.121 E306.82173
G1 X94.301 Y63.879 E311.31424
G1 X95.565 Y63.879 E311.39416
G1 X145.807 Y114.121 E315.88668
G1 X147.071 Y114.121 E315.96660
G1 X96.829 Y63.879 E320.45912
G1 X98.093 Y63.879 E320.53904
G1 X148.335 Y114.121 E325.03156
G1 X149.121 Y113.643 E325.08972
G1 X99.357 Y63.879 E329.53946
G1 X100.621 Y63.879 E329.61939
G1 X149.121 Y112.379 E333.95610
G1 X149.121 Y111.115 E334.03603
G1 X101.885 Y63.879 E338.25971
G1 X103.149 Y63.879 E338.33964
G1 X149.121 Y109.851 E342.45028
G1 X149.121 Y108.586 E342.53021
G1 X104.414 Y63.879 E346.52783
G1 X105.678 Y63.879 E346.60775
G1 X149.121 Y107.322 E350.49234
G1 X149.121 Y106.058 E350.57226
G1 X106.942 Y63.879 E354.34381
G1 X108.206 Y63.879 E354.42374
G1 X149.121 Y104.794 E358.08226
G1 X149.121 Y103.530 E358.16219
G1 X109.470 Y63.879 E361.70767
G1 X110.734 Y63.879 E361.78760
G1 X149.121 Y102.266 E365.22006
G1 X149.121 Y101.002 E365.29998
G1 X111.998 Y63.879 E368.61941
G1 X113.262 Y63.879 E368.69933
G1 X149.121 Y99.738 E371.90572
G1 X149.121 Y98.474 E371.98565
G1 X114.526 Y63.879 E375.07901
G1 X115.790 Y63.879 E375.15894
G1 X149.121 Y97.210 E378.13926
G1 X149.121 Y95.945 E378.21919
G1 X117.055 Y63.879 E381.08649
G1 X118.319 Y63.879 E381.16641
G1 X149.121 Y94.681 E383.92068
G1 X149.121 Y93.417 E384.00060
G1 X119.583 Y63.879 E386.64183
G1 X120.847 Y63.879 E386.72176
G1 X149.121 Y92.153 E389.24996
G1 X149.121 Y90.889 E389.32988
G1 X122.111 Y63.879 E391.74505
G1 X123.375 Y63.879 E391.82498
G1 X149.121 Y89.625 E394.12711
G1 X149.121 Y88.361 E394.20704
G1 X124.639 Y63.879 E396.39614
G1 X125.903 Y63.879 E396.47607
G1 X149.121 Y87.097 E398.55214
G1 X149.121 Y85.833 E398.63207
G1 X127.167 Y63.879 E400.59511
G1 X128.431 Y63.879 E400.67503
G1 X149.121 Y84.569 E402.52504
G1 X149.121 Y83.304 E402.60496
G1 X129.696 Y63.879 E404.34194
G1 X130.960 Y63.879 E404.42187
G1 X149.121 Y82.040 E406.04581
G1 X149.121 Y80.776 E406.12574
G1 X132.224 Y63.879 E407.63665
G1 X133.488 Y63.879 E407.71657
G1 X149.121 Y79.512 E409.11445
G1 X149.121 Y78.248 E409.19438
G1 X134.752 Y63.879 E410.47922
G1 X136.016 Y63.879 E410.55915
G1 X149.121 Y76.984 E411.73097
G1 X149.121 Y75.720 E411.81089
G1 X137.280 Y63.879 E412.86967
G1 X138.544 Y63.879 E412.94960
G1 X149.121 Y74.456 E413.89535
G1 X149.121 Y73.192 E413.97528
G1 X139.808 Y63.879 E414.80800
G1 X141.072 Y63.879 E414.88792
G1 X149.121 Y71.928 E415.60761
G1 X149.121 Y70.663 E415.68754
G1 X142.337 Y63.879 E416.29419
G1 X143.601 Y63.879 E416.37412
G1 X149.121 Y69.399 E416.86774
G1 X149.121 Y68.135 E416.94766
G1 X144.865 Y63.879 E417.32826
G1 X146.129 Y63.879 E417.40818
G1 X149.121 Y66.871 E417.67574
G1 X149.121 Y65.607 E417.75567
G1 X147.393 Y63.879 E417.91019
G1 X148.657 Y63.879 E417.99012
G1 X149.121 Y64.343 E418.03161
G1 F1800.000 E417.03161
G1 Z1.400 F7800.000
G92 E0
G1 X150.701 Y62.299
G1 Z0.900
G1 F1800.000 E1.00000
G1 X150.701 Y115.701 F1800.000 E2.57030
G1 X49.299 Y115.701 E5.55205
G1 X49.299 Y62.299 E7.12235
G1 X150.623 Y62.299 E10.10181
G1 X151.221 Y61.779 F7800.000
G1 X151.221 Y116.221 F1800.000 E11.70267
G1 X48.779 Y116.221 E14.71498
G1 X48.779 Y61.779 E16.31584
G1 X151.143 Y61.779 E19.32586
G1 X151.740 Y61.260 F7800.000
G1 X151.740 Y116.740 F1260.000 E20.95728
G1 X48.260 Y116.740 E24.00015
G1 X48.260 Y61.260 E25.63157
G1 X151.662 Y61.260 E28.67215
G1 X151.480 Y61.710 F7800.000
G1 X150.324 Y114.930
G1 X149.930 Y115.324 F3600.000 E28.68860
G1 X149.193 Y115.324 E28.71033
G1 X150.324 Y114.193 E28.75752
G1 X150.324 Y113.456 E28.77926
G1 X148.456 Y115.324 E28.85718
G1 X147.719 Y115.324 E28.87892
G1 X150.324 Y112.719 E28.98759
G1 X150.324 Y111.982 E29.00932
G1 X146.982 Y115.324 E29.14873
G1 X146.245 Y115.324 E29.17047
G1 X150.324 Y111.245 E29.34062
G1 X150.324 Y110.508 E29.36236
G1 X145.508 Y115.324 E29.56325
G1 X144.771 Y115.324 E29.58499
G1 X150.324 Y109.771 E29.81662
G1 X150.324 Y109.034 E29.83836
G1 X144.034 Y115.324 E30.10073
G1 X143.297 Y115.324 E30.12247
G1 X150.324 Y108.297 E30.41558
G1 X150.324 Y107.560 E30.43732
G1 X142.560 Y115.324 E30.76118
G1 X141.822 Y115.324 E30.78292
G1 X150.324 Y106.822 E31.13751
G1 X150.324 Y106.085 E31.15925
G1 X141.085 Y115.324 E31.54459
G1 X140.348 Y115.324 E31.56633
G1 X150.324 Y105.348 E31.98241
G1 X150.324 Y104.611 E32.00414
G1 X139.611 Y115.324 E32.45097
G1 X138.874 Y115.324 E32.47270
G1 X150.324 Y103.874 E32.95027
G1 X150.324 Y103.137 E32.97200
G1 X138.137 Y115.324 E33.48031
G1 X137.400 Y115.324 E33.50205
G1 X150.324 Y102.400 E34.04109
G1 X150.324 Y101.663 E34.06283
G1 X136.663 Y115.324 E34.63262
G1 X135.926 Y115.324 E34.65435
G1 X150.324 Y100.926 E35.25488
G1 X150.324 Y100.189 E35.27662
G1 X135.189 Y115.324 E35.90789
G1 X134.452 Y115.324 E35.92963
G1 X150.324 Y99.452 E36.59164
G1 X150.324 Y98.715 E36.61338
G1 X133.715 Y115.324 E37.30613
G1 X132.978 Y115.324 E37.32786
G1 X150.324 Y97.978 E38.05136
G1 X150.324 Y97.241 E38.07310
G1 X132.241 Y115.324 E38.82733
G1 X131.504 Y115.324 E38.84907
G1 X150.324 Y96.504 E39.63404
G1 X150.324 Y95.767 E39.65578
G1 X130.767 Y115.324 E40.47150
G1 X130.030 Y115.324 E40.49324
G1 X150.324 Y95.030 E41.33970
G1 X150.324 Y94.293 E41.36143
G1 X129.293 Y115.324 E42.23863
G1 X128.556 Y115.324 E42.26037
G1 X150.324 Y93.556 E43.16831
G1 X150.324 Y92.819 E43.19005
G1 X127.819 Y115.324 E44.12873
G1 X127.081 Y115.324 E44.15047
G1 X150.324 Y92.081 E45.11989
G1 X150.324 Y91.344 E45.14163
G1 X126.344 Y115.324 E46.14180
G1 X125.607 Y115.324 E46.16353
G1 X150.324 Y90.607 E47.19444
G1 X150.324 Y89.870 E47.21618
G1 X124.870 Y115.324 E48.27783
G1 X124.133 Y115.324 E48.29956
G1 X150.324 Y89.133 E49.39195
G1 X150.324 Y88.396 E49.41369
G1 X123.396 Y115.324 E50.53682
G1 X122.659 Y115.324 E50.55856
G1 X150.324 Y87.659 E51.71243
G1 X150.324 Y86.922 E51.73417
G1 X121.922 Y115.324 E52.91878
G1 X121.185 Y115.324 E52.94052
G1 X150.324 Y86.185 E54.15587
G1 X150.324 Y85.448 E54.17761
G1 X120.448 Y115.324 E55.42371
G1 X119.711 Y115.324 E55.44544
G1 X150.324 Y84.711 E56.72228
G1 X150.324 Y83.974 E56.74402
G1 X118.974 Y115.324 E58.05160
G1 X118.237 Y115.324 E58.07333
G1 X150.324 Y83.237 E59.41165
G1 X150.324 Y82.500 E59.43339
G1 X117.500 Y115.324 E60.80245
G1 X116.763 Y115.324 E60.82419
G1 X150.324 Y81.763 E62.22399
G1 X150.324 Y81.026 E62.24573
G1 X116.026 Y115.324 E63.67627
G1 X115.289 Y115.324 E63.69801
G1 X150.324 Y80.289 E65.15930
G1 X150.324 Y79.552 E65.18103
G1 X114.552 Y115.324 E66.67306
G1 X113.815 Y115.324 E66.69480
G1 X150.324 Y78.815 E68.21757
G1 X150.324 Y78.078 E68.23930
G1 X113.078 Y115.324 E69.79281
G1 X112.340 Y115.324 E69.81455
G1 X150.324 Y77.340 E71.39880
G1 X150.324 Y76.603 E71.42054
G1 X111.603 Y115.324 E73.03553
G1 X110.866 Y115.324 E73.05727
G1 X150.324 Y75.866 E74.70300
G1 X150.324 Y75.129 E74.72474
G1 X110.129 Y115.324 E76.40121
G1 X109.392 Y115.324 E76.42295
G1 X150.324 Y74.392 E78.13016
G1 X150.324 Y73.655 E78.15190
G1 X108.655 Y115.324 E79.88986
G1 X107.918 Y115.324 E79.91160
G1 X150.324 Y72.918 E81.68029
G1 X150.324 Y72.181 E81.70203
G1 X107.181 Y115.324 E83.50147
G1 X106.444 Y115.324 E83.52321
G1 X150.324 Y71.444 E85.35339
G1 X150.324 Y70.707 E85.37513
G1 X105.707 Y115.324 E87.23605
G1 X104.970 Y115.324 E87.25779
G1 X150.324 Y69.970 E89.14945
G1 X150.324 Y69.233 E89.17119
G1 X104.233 Y115.324 E91.09359
G1 X103.496 Y115.324 E91.11533
G1 X150.324 Y68.496 E93.06847
G1 X150.324 Y67.759 E93.09021
G1 X102.759 Y115.324 E95.07410
G1 X102.022 Y115.324 E95.09584
G1 X150.324 Y67.022 E97.11047
G1 X150.324 Y66.285 E97.13220
G1 X101.285 Y115.324 E99.17757
G1 X100.548 Y115.324 E99.19931
G1 X150.324 Y65.548 E101.27542
G1 X150.324 Y64.811 E101.29716
G1 X99.811 Y115.324 E103.40401
G1 X99.074 Y115.324 E103.42575
G1 X150.324 Y64.074 E105.56334
G1 X150.324 Y63.336 E105.58508
G1 X98.336 Y115.324 E107.75342
G1 X97.599 Y115.324 E107.77515
G1 X150.248 Y62.676 E109.97105
G1 X149.511 Y62.676 E109.99279
G1 X96.862 Y115.324 E112.18868
G1 X96.125 Y115.324 E112.21042
G1 X148.774 Y62.676 E114.40632
G1 X148.037 Y62.676 E114.42805
G1 X95.388 Y115.324 E116.62395
G1 X94.651 Y115.324 E116.64569
G1 X147.300 Y62.676 E118.84158
G1 X146.563 Y62.676 E118.86332
G1 X93.914 Y115.324 E121.05922
G1 X93.177 Y115.324 E121.08095
G1 X145.826 Y62.676 E123.27685
G1 X145.089 Y62.676 E123.29859
G1 X92.440 Y115.324 E125.49448
G1 X91.703 Y115.324 E125.51622
G1 X144.352 Y62.676 E127.71212
G1 X143.615 Y62.676 E127.73386
G1 X90.966 Y115.324 E129.92975
G1 X90.229 Y115.324 E129.95149
G1 X142.878 Y62.676 E132.14739
G1 X142.140 Y62.676 E132.16912
G1 X89.492 Y115.324 E134.36502
G1 X88.755 Y115.324 E134.38676
G1 X141.403 Y62.676 E136.58265
G1 X140.666 Y62.676 E136.60439
G1 X88.018 Y115.324 E138.80029
G1 X87.281 Y115.324 E138.82202
G1 X139.929 Y62.676 E141.01792
G1 X139.192 Y62.676 E141.03966
G1 X86.544 Y115.324 E143.23555
G1 X85.807 Y115.324 E143.25729
G1 X138.455 Y62.676 E145.45319
G1 X137.718 Y62.676 E145.47492
G1 X85.070 Y115.324 E147.67082
G1 X84.333 Y115.324 E147.69256
G1 X136.981 Y62.676 E149.88845
G1 X136.244 Y62.676 E149.91019
G1 X83.595 Y115.324 E152.10609
G1 X82.858 Y115.324 E152.12782
G1 X135.507 Y62.676 E154.32372
