; generated by Slic3r 0.9.8-dev on 2012-12-31 at 14:14:09

; layer_height = 0.4
; perimeters = 3
; top_solid_layers = 3
; bottom_solid_layers = 3
; fill_density = 0.40
; perimeter_speed = 30
; infill_speed = 60
; travel_speed = 130
; scale = 1
; nozzle_diameter = 0.5
; filament_diameter = 3
; extrusion_multiplier = 1
; perimeters extrusion width = 0.53mm
; infill extrusion width = 0.53mm
; first layer extrusion width = 0.80mm

M190 S60 ; wait for bed temperature to be reached
M104 S185 ; set temperature
G28                 ; home all axes
G92 E0 ;reset extruder
G1 E3 F1200 ;Prime extruder 3mm
G1 E2 F1200 ;retract extruder 1mm
G92 E0 ;reset extruder
M109 S185 ; wait for temperature to be reached
G90 ; use absolute coordinates
G21 ; set units to millimeters
G92 E0 ; reset extrusion distance
M82 ; use absolute distances for extrusion
G1 F1800.000 E-1.00000 ; retract
G1 Z0.900 ; move to next layer (0) and lift
G92 E0 ; reset extrusion distance
G1 X117.911 Y103.760 F7800.000 ; move to first skirt point
G1 Z0.400 ; restore layer Z
G1 F1800.000 E1.00000 ; compensate retraction
G1 X117.491 Y104.170 F540.000 E1.02443 ; skirt
G1 X117.171 Y104.440 E1.04186 ; skirt
G1 X116.661 Y104.810 E1.06809 ; skirt
G1 X116.391 Y104.970 E1.08116 ; skirt
G1 X115.841 Y105.260 E1.10704 ; skirt
G1 X115.241 Y105.530 E1.13443 ; skirt
G1 X114.461 Y105.780 E1.16852 ; skirt
G1 X113.501 Y105.970 E1.20926 ; skirt
G1 X110.351 Y106.350 E1.34134 ; skirt
G1 X106.701 Y106.660 E1.49383 ; skirt
G1 X103.521 Y106.820 E1.62637 ; skirt
G1 X100.101 Y106.870 E1.76875 ; skirt
G1 X96.471 Y106.820 E1.91987 ; skirt
G1 X93.281 Y106.660 E2.05283 ; skirt
G1 X89.641 Y106.350 E2.20490 ; skirt
G1 X86.491 Y105.970 E2.33698 ; skirt
G1 X85.421 Y105.750 E2.38246 ; skirt
G1 X84.451 Y105.410 E2.42524 ; skirt
G1 X83.991 Y105.190 E2.44647 ; skirt
G1 X83.461 Y104.890 E2.47182 ; skirt
G1 X82.701 Y104.350 E2.51063 ; skirt
G1 X82.181 Y103.860 E2.54037 ; skirt
G1 X81.511 Y103.080 E2.58318 ; skirt
G1 X81.221 Y102.680 E2.60374 ; skirt
G1 X81.051 Y102.410 E2.61702 ; skirt
G1 X80.751 Y101.860 E2.64310 ; skirt
G1 X80.511 Y101.280 E2.66923 ; skirt
G1 X80.251 Y100.460 E2.70504 ; skirt
G1 X80.171 Y100.120 E2.71958 ; skirt
G1 X80.071 Y99.450 E2.74778 ; skirt
G1 X80.031 Y98.760 E2.77655 ; skirt
G1 X80.561 Y78.270 E3.62979 ; skirt
G1 X80.591 Y77.710 E3.65313 ; skirt
G1 X80.681 Y77.150 E3.67674 ; skirt
G1 X80.871 Y76.370 E3.71016 ; skirt
G1 X81.061 Y75.790 E3.73557 ; skirt
G1 X81.181 Y75.510 E3.74825 ; skirt
G1 X81.451 Y74.960 E3.77375 ; skirt
G1 X81.711 Y74.500 E3.79575 ; skirt
G1 X82.081 Y73.970 E3.82266 ; skirt
G1 X82.491 Y73.480 E3.84925 ; skirt
G1 X82.951 Y73.030 E3.87604 ; skirt
G1 X83.351 Y72.690 E3.89789 ; skirt
G1 X83.631 Y72.480 E3.91246 ; skirt
G1 X83.931 Y72.270 E3.92771 ; skirt
G1 X84.231 Y72.090 E3.94227 ; skirt
G1 X84.951 Y71.720 E3.97597 ; skirt
G1 X85.551 Y71.490 E4.00272 ; skirt
G1 X86.161 Y71.320 E4.02908 ; skirt
G1 X87.001 Y71.180 E4.06453 ; skirt
G1 X87.911 Y71.110 E4.10252 ; skirt
G1 X112.501 Y71.120 E5.12614 ; skirt
G1 X113.091 Y71.170 E5.15079 ; skirt
G1 X113.671 Y71.280 E5.17536 ; skirt
G1 X114.251 Y71.430 E5.20030 ; skirt
G1 X114.721 Y71.600 E5.22111 ; skirt
G1 X115.301 Y71.850 E5.24740 ; skirt
G1 X115.861 Y72.150 E5.27385 ; skirt
G1 X116.391 Y72.500 E5.30028 ; skirt
G1 X116.801 Y72.820 E5.32193 ; skirt
G1 X117.301 Y73.270 E5.34994 ; skirt
G1 X117.751 Y73.770 E5.37794 ; skirt
G1 X118.211 Y74.400 E5.41041 ; skirt
G1 X118.521 Y74.900 E5.43490 ; skirt
G1 X118.651 Y75.160 E5.44700 ; skirt
G1 X118.781 Y75.430 E5.45948 ; skirt
G1 X119.071 Y76.180 E5.49295 ; skirt
G1 X119.241 Y76.800 E5.51971 ; skirt
G1 X119.361 Y77.440 E5.54682 ; skirt
G1 X119.421 Y78.260 E5.58104 ; skirt
G1 X119.951 Y98.490 E6.42346 ; skirt
G1 X119.911 Y99.410 E6.46179 ; skirt
G1 X119.851 Y99.890 E6.48193 ; skirt
G1 X119.731 Y100.490 E6.50740 ; skirt
G1 X119.561 Y101.070 E6.53256 ; skirt
G1 X119.281 Y101.760 E6.56356 ; skirt
G1 X118.971 Y102.370 E6.59204 ; skirt
G1 X118.791 Y102.650 E6.60590 ; skirt
G1 X118.301 Y103.320 E6.64045 ; skirt
G1 X117.985 Y103.678 E6.66033 ; skirt
G1 X117.911 Y103.760 E6.66493 ; skirt
G1 F1800.000 E5.66493 ; retract
G1 Z0.900 ; lift plate during travel
G92 E0 ; reset extrusion distance
G1 X113.186 Y97.741 F7800.000 ; move to first perimeter point
G1 Z0.400 ; restore layer Z
G1 F1800.000 E1.00000 ; compensate retraction
G1 X109.396 Y98.196 F540.000 E1.15889 ; perimeter
G1 X106.270 Y98.463 E1.28951 ; perimeter
G1 X103.137 Y98.624 E1.42009 ; perimeter
G1 X99.999 Y98.678 E1.55072 ; perimeter
G1 X96.863 Y98.624 E1.68128 ; perimeter
G1 X93.728 Y98.463 E1.81194 ; perimeter
G1 X90.604 Y98.196 E1.94247 ; perimeter
G1 X86.814 Y97.741 E2.10137 ; perimeter
G1 X86.834 Y97.421 E2.11470 ; perimeter
G1 X97.127 Y97.421 E2.54319 ; perimeter
G1 X98.294 Y97.104 E2.59355 ; perimeter
G1 X99.140 Y96.968 E2.62921 ; perimeter
G1 X99.999 Y96.924 E2.66502 ; perimeter
G1 X100.860 Y96.968 E2.70090 ; perimeter
G1 X101.706 Y97.104 E2.73656 ; perimeter
G1 X102.873 Y97.421 E2.78692 ; perimeter
G1 X113.166 Y97.421 E3.21541 ; perimeter
G1 X113.179 Y97.631 E3.22415 ; perimeter
G1 X113.186 Y97.741 E3.22874 ; perimeter
G1 X112.491 Y98.565 F7800.000 ; move to first perimeter point
G1 X109.471 Y98.928 F540.000 E3.35535 ; perimeter
G1 X106.320 Y99.197 E3.48701 ; perimeter
G1 X103.162 Y99.359 E3.61862 ; perimeter
G1 X99.999 Y99.414 E3.75031 ; perimeter
G1 X96.838 Y99.359 E3.88191 ; perimeter
G1 X93.678 Y99.197 E4.01362 ; perimeter
G1 X90.529 Y98.928 E4.14519 ; perimeter
G1 X87.509 Y98.565 E4.27179 ; perimeter
G1 X88.033 Y78.586 E5.10379 ; perimeter
G1 X88.763 Y78.586 E5.13420 ; perimeter
G1 X88.763 Y81.881 E5.27140 ; perimeter
G1 X89.898 Y87.214 E5.49837 ; perimeter
G1 X88.763 Y87.214 E5.54561 ; perimeter
G1 X88.763 Y96.686 E5.93988 ; perimeter
G1 X97.029 Y96.686 E6.28394 ; perimeter
G1 X98.139 Y96.384 E6.33184 ; perimeter
G1 X99.063 Y96.235 E6.37078 ; perimeter
G1 X99.999 Y96.187 E6.40982 ; perimeter
G1 X100.937 Y96.235 E6.44893 ; perimeter
G1 X101.861 Y96.384 E6.48787 ; perimeter
G1 X102.971 Y96.686 E6.53577 ; perimeter
G1 X111.235 Y96.686 E6.87975 ; perimeter
G1 X111.235 Y87.214 E7.27401 ; perimeter
G1 X110.102 Y87.214 E7.32118 ; perimeter
G1 X111.235 Y81.881 E7.54814 ; perimeter
G1 X111.235 Y78.586 E7.68533 ; perimeter
G1 X111.967 Y78.586 E7.71583 ; perimeter
G1 X112.488 Y98.455 E8.54323 ; perimeter
G1 X112.491 Y98.565 E8.54782 ; perimeter
G1 X113.228 Y98.674 F7800.000 ; move to first perimeter point
G1 X113.202 Y98.859 F540.000 E8.55561 ; perimeter
G1 X113.115 Y99.034 E8.56373 ; perimeter
G1 X112.979 Y99.170 E8.57173 ; perimeter
G1 X112.806 Y99.257 E8.57981 ; perimeter
G1 X109.546 Y99.660 E8.71653 ; perimeter
G1 X106.370 Y99.931 E8.84923 ; perimeter
G1 X103.187 Y100.094 E8.98188 ; perimeter
G1 X99.999 Y100.150 E9.11462 ; perimeter
G1 X96.813 Y100.094 E9.24728 ; perimeter
G1 X93.628 Y99.931 E9.38002 ; perimeter
G1 X90.454 Y99.660 E9.51264 ; perimeter
G1 X87.194 Y99.257 E9.64935 ; perimeter
G1 X87.021 Y99.170 E9.65744 ; perimeter
G1 X86.883 Y99.034 E9.66548 ; perimeter
G1 X86.798 Y98.859 E9.67357 ; perimeter
G1 X86.771 Y98.653 E9.68222 ; perimeter
G1 X87.300 Y78.448 E10.52360 ; perimeter
G1 X87.341 Y78.234 E10.53269 ; perimeter
G1 X87.446 Y78.059 E10.54118 ; perimeter
G1 X87.605 Y77.927 E10.54977 ; perimeter
G1 X87.697 Y77.886 E10.55396 ; perimeter
G1 X87.915 Y77.850 E10.56317 ; perimeter
G1 X88.884 Y77.850 E10.60348 ; perimeter
G1 X89.085 Y77.880 E10.61196 ; perimeter
G1 X89.252 Y77.965 E10.61974 ; perimeter
G1 X89.323 Y78.026 E10.62365 ; perimeter
G1 X89.384 Y78.097 E10.62756 ; perimeter
G1 X89.469 Y78.264 E10.63535 ; perimeter
G1 X89.499 Y78.463 E10.64375 ; perimeter
G1 X89.499 Y81.804 E10.78281 ; perimeter
G1 X90.700 Y87.449 E11.02304 ; perimeter
G1 X90.758 Y87.907 E11.04227 ; perimeter
G1 X90.293 Y87.950 E11.06171 ; perimeter
G1 X89.499 Y87.950 E11.09475 ; perimeter
G1 X89.499 Y95.950 E11.42777 ; perimeter
G1 X96.930 Y95.950 E11.73712 ; perimeter
G1 X97.984 Y95.664 E11.78255 ; perimeter
G1 X98.985 Y95.502 E11.82478 ; perimeter
G1 X99.999 Y95.451 E11.86704 ; perimeter
G1 X101.015 Y95.502 E11.90938 ; perimeter
G1 X102.016 Y95.664 E11.95161 ; perimeter
G1 X103.070 Y95.950 E11.99704 ; perimeter
G1 X110.499 Y95.950 E12.30631 ; perimeter
G1 X110.499 Y87.950 E12.63933 ; perimeter
G1 X109.706 Y87.950 E12.67236 ; perimeter
G1 X109.243 Y87.907 E12.69172 ; perimeter
G1 X109.300 Y87.448 E12.71094 ; perimeter
G1 X110.499 Y81.804 E12.95115 ; perimeter
G1 X110.499 Y78.466 E13.09011 ; perimeter
G1 X110.531 Y78.264 E13.09862 ; perimeter
G1 X110.616 Y78.097 E13.10641 ; perimeter
G1 X110.677 Y78.026 E13.11032 ; perimeter
G1 X110.828 Y77.915 E13.11810 ; perimeter
G1 X111.005 Y77.858 E13.12584 ; perimeter
G1 X112.203 Y77.860 E13.17572 ; perimeter
G1 X112.395 Y77.927 E13.18418 ; perimeter
G1 X112.478 Y77.985 E13.18840 ; perimeter
G1 X112.554 Y78.059 E13.19280 ; perimeter
G1 X112.659 Y78.234 E13.20129 ; perimeter
G1 X112.700 Y78.448 E13.21038 ; perimeter
G1 X113.226 Y98.565 E14.04810 ; perimeter
G1 X113.228 Y98.674 E14.05262 ; perimeter
G1 X112.562 Y98.987 F7800.000 ; move inwards before travel
G1 F1800.000 E13.05262 ; retract
G1 Z0.900 ; lift plate during travel
G92 E0 ; reset extrusion distance
G1 X98.593 Y98.116 F7800.000 ; move to first fill point
G1 Z0.400 ; restore layer Z
G1 F1800.000 E1.00000 ; compensate retraction
G1 X98.125 Y97.648 F360.000 E1.02899 ; fill
G1 X99.065 Y97.494 E1.07070 ; fill
G1 X99.707 Y98.136 E1.11041 ; fill
G1 X100.143 Y97.478 E1.14497 ; fill
G1 X100.800 Y98.135 E1.18566 ; fill
G1 X101.407 Y97.648 E1.21973 ; fill
G1 X101.875 Y98.116 E1.24872 ; fill
G1 F1800.000 E0.24872 ; retract
G1 Z0.900 ; lift plate during travel
G92 E0 ; reset extrusion distance
G1 X95.711 Y98.123 F7800.000 ; move to first fill point
G1 Z0.400 ; restore layer Z
G1 F1800.000 E1.00000 ; compensate retraction
G1 X95.442 Y97.855 F360.000 E1.00905 ; fill
G1 F1800.000 E0.00905 ; retract
G1 Z0.900 ; lift plate during travel
G92 E0 ; reset extrusion distance
G1 X88.256 Y96.988 F7800.000 ; move to first fill point
G1 Z0.400 ; restore layer Z
G1 F1800.000 E1.00000 ; compensate retraction
G1 X87.988 Y96.719 F360.000 E1.01091 ; fill
G1 X88.330 Y96.343 E1.02551 ; fill
G1 X88.006 Y96.020 E1.03865 ; fill
G1 X88.330 Y95.625 E1.05330 ; fill
G1 X88.025 Y95.320 E1.06570 ; fill
G1 X88.330 Y94.907 E1.08045 ; fill
G1 X88.043 Y94.620 E1.09210 ; fill
G1 X88.330 Y94.189 E1.10698 ; fill
G1 X88.061 Y93.921 E1.11788 ; fill
G1 F1800.000 E0.11788 ; retract
G1 Z0.900 ; lift plate during travel
G92 E0 ; reset extrusion distance
G1 X88.829 Y86.681 F7800.000 ; move to first fill point
G1 Z0.400 ; restore layer Z
G1 F1800.000 E1.00000 ; compensate retraction
G1 X88.361 Y86.212 F360.000 E1.04039 ; fill
G1 X88.868 Y85.196 E1.10970 ; fill
G1 X88.400 Y84.727 E1.15008 ; fill
G1 F1800.000 E0.15008 ; retract
G1 Z0.900 ; lift plate during travel
G92 E0 ; reset extrusion distance
G1 X104.455 Y98.123 F7800.000 ; move to first fill point
G1 Z0.400 ; restore layer Z
G1 F1800.000 E1.00000 ; compensate retraction
G1 X104.187 Y97.855 F360.000 E1.00905 ; fill
G1 F1800.000 E0.00905 ; retract
G1 Z0.900 ; lift plate during travel
G92 E0 ; reset extrusion distance
G1 X111.937 Y96.988 F7800.000 ; move to first fill point
G1 Z0.400 ; restore layer Z
G1 F1800.000 E1.00000 ; compensate retraction
G1 X111.668 Y96.719 F360.000 E1.01091 ; fill
G1 X111.995 Y96.327 E1.02559 ; fill
G1 X111.668 Y96.000 E1.03887 ; fill
G1 X111.975 Y95.589 E1.05364 ; fill
G1 X111.668 Y95.282 E1.06613 ; fill
G1 X111.956 Y94.851 E1.08103 ; fill
G1 X111.668 Y94.563 E1.09273 ; fill
G1 X111.937 Y94.113 E1.10781 ; fill
G1 X111.668 Y93.845 E1.11872 ; fill
G1 F1800.000 E0.11872 ; retract
G1 Z0.900 ; lift plate during travel
G92 E0 ; reset extrusion distance
G1 X111.284 Y86.681 F7800.000 ; move to first fill point
G1 Z0.400 ; restore layer Z
G1 F1800.000 E1.00000 ; compensate retraction
G1 X110.815 Y86.212 F360.000 E1.04786 ; fill
G1 X111.600 Y85.191 E1.14092 ; fill
G1 X111.132 Y84.723 E1.18877 ; fill
G1 F1800.000 E0.18877 ; retract
G1 Z1.300 ; move to next layer (1) and lift
G92 E0 ; reset extrusion distance
G1 X112.321 Y98.419 F7800.000 ; move to first perimeter point
G1 Z0.800 ; restore layer Z
G1 F1800.000 E1.00000 ; compensate retraction
G1 X109.454 Y98.763 F1800.000 E1.08490 ; perimeter
G1 X106.308 Y99.031 E1.17773 ; perimeter
G1 X103.156 Y99.193 E1.27054 ; perimeter
G1 X99.999 Y99.248 E1.36340 ; perimeter
G1 X96.844 Y99.193 E1.45619 ; perimeter
G1 X93.690 Y99.031 E1.54906 ; perimeter
G1 X90.546 Y98.763 E1.64184 ; perimeter
G1 X87.679 Y98.419 E1.72673 ; perimeter
G1 X88.165 Y79.869 E2.27236 ; perimeter
G1 X89.693 Y87.048 E2.48819 ; perimeter
G1 X88.597 Y87.048 E2.52041 ; perimeter
G1 X88.597 Y96.852 E2.80869 ; perimeter
G1 X97.051 Y96.852 E3.05727 ; perimeter
G1 X98.174 Y96.546 E3.09150 ; perimeter
G1 X99.080 Y96.400 E3.11848 ; perimeter
G1 X99.999 Y96.353 E3.14554 ; perimeter
G1 X100.920 Y96.400 E3.17265 ; perimeter
G1 X101.826 Y96.546 E3.19964 ; perimeter
G1 X102.949 Y96.852 E3.23386 ; perimeter
G1 X111.401 Y96.852 E3.48239 ; perimeter
G1 X111.401 Y87.048 E3.77066 ; perimeter
G1 X110.307 Y87.048 E3.80283 ; perimeter
G1 X111.834 Y79.858 E4.01899 ; perimeter
G1 X112.318 Y98.341 E4.56267 ; perimeter
G1 X112.321 Y98.419 E4.56496 ; perimeter
G1 X112.846 Y98.649 F7800.000 ; move to first perimeter point
G1 X112.835 Y98.880 F1800.000 E4.57177 ; perimeter
G1 X109.507 Y99.280 E4.67033 ; perimeter
G1 X106.344 Y99.550 E4.76368 ; perimeter
G1 X103.174 Y99.712 E4.85701 ; perimeter
G1 X99.999 Y99.768 E4.95039 ; perimeter
G1 X96.826 Y99.712 E5.04371 ; perimeter
G1 X93.654 Y99.550 E5.13709 ; perimeter
G1 X90.493 Y99.280 E5.23039 ; perimeter
G1 X87.165 Y98.880 E5.32895 ; perimeter
G1 X87.154 Y98.649 E5.33576 ; perimeter
G1 X87.688 Y78.252 E5.93574 ; perimeter
G1 X87.931 Y78.232 E5.94292 ; perimeter
G1 X89.117 Y78.232 E5.97778 ; perimeter
G1 X89.117 Y81.844 E6.08400 ; perimeter
G1 X90.335 Y87.568 E6.25607 ; perimeter
G1 X89.117 Y87.568 E6.29189 ; perimeter
G1 X89.117 Y96.332 E6.54960 ; perimeter
G1 X96.981 Y96.332 E6.78087 ; perimeter
G1 X98.064 Y96.038 E6.81386 ; perimeter
G1 X99.025 Y95.883 E6.84249 ; perimeter
G1 X99.999 Y95.833 E6.87116 ; perimeter
G1 X100.975 Y95.883 E6.89988 ; perimeter
G1 X101.936 Y96.038 E6.92851 ; perimeter
G1 X103.019 Y96.332 E6.96150 ; perimeter
G1 X110.881 Y96.332 E7.19271 ; perimeter
G1 X110.881 Y87.568 E7.45042 ; perimeter
G1 X109.665 Y87.568 E7.48618 ; perimeter
G1 X110.881 Y81.844 E7.65824 ; perimeter
G1 X110.881 Y78.483 E7.75708 ; perimeter
G1 X110.904 Y78.232 E7.76449 ; perimeter
G1 X112.067 Y78.232 E7.79870 ; perimeter
G1 X112.312 Y78.252 E7.80593 ; perimeter
G1 X112.844 Y98.571 E8.40362 ; perimeter
G1 X112.846 Y98.649 E8.40591 ; perimeter
G1 X113.366 Y98.655 F7800.000 ; move to first perimeter point
G1 X113.333 Y98.900 F1800.000 E8.41318 ; perimeter
G1 X113.289 Y99.013 E8.41674 ; perimeter
G1 X113.151 Y99.206 E8.42372 ; perimeter
G1 X112.957 Y99.344 E8.43073 ; perimeter
G1 X112.722 Y99.417 E8.43796 ; perimeter
G1 X109.560 Y99.797 E8.53161 ; perimeter
G1 X106.379 Y100.068 E8.62549 ; perimeter
G1 X103.192 Y100.232 E8.71933 ; perimeter
G1 X99.999 Y100.287 E8.81323 ; perimeter
G1 X96.808 Y100.232 E8.90708 ; perimeter
G1 X93.619 Y100.068 E9.00098 ; perimeter
G1 X90.440 Y99.797 E9.09480 ; perimeter
G1 X87.278 Y99.417 E9.18845 ; perimeter
G1 X87.043 Y99.344 E9.19568 ; perimeter
G1 X86.848 Y99.205 E9.20272 ; perimeter
G1 X86.771 Y99.115 E9.20621 ; perimeter
G1 X86.667 Y98.900 E9.21323 ; perimeter
G1 X86.634 Y98.655 E9.22050 ; perimeter
G1 X87.163 Y78.439 E9.81516 ; perimeter
G1 X87.213 Y78.184 E9.82281 ; perimeter
G1 X87.342 Y77.969 E9.83019 ; perimeter
G1 X87.537 Y77.807 E9.83764 ; perimeter
G1 X87.774 Y77.724 E9.84502 ; perimeter
G1 X87.910 Y77.712 E9.84903 ; perimeter
G1 X88.889 Y77.712 E9.87782 ; perimeter
G1 X89.128 Y77.749 E9.88492 ; perimeter
G1 X89.333 Y77.853 E9.89169 ; perimeter
G1 X89.421 Y77.928 E9.89509 ; perimeter
G1 X89.496 Y78.016 E9.89850 ; perimeter
G1 X89.600 Y78.221 E9.90526 ; perimeter
G1 X89.636 Y78.458 E9.91231 ; perimeter
G1 X89.636 Y81.790 E10.01027 ; perimeter
