; generated by Slic3r 0.9.8-dev on 2013-01-08 at 17:51:53

; layer_height = 0.4
; perimeters = 3
; top_solid_layers = 3
; bottom_solid_layers = 3
; fill_density = 0.40
; perimeter_speed = 30
; infill_speed = 60
; travel_speed = 130
; scale = 1
; nozzle_diameter = 0.5
; filament_diameter = 3
; extrusion_multiplier = 1
; perimeters extrusion width = 0.53mm
; infill extrusion width = 0.53mm
; first layer extrusion width = 0.80mm

M190 S65 ; wait for bed temperature to be reached
M104 S180 ; set temperature
G28                 ; home all axes
G92 E0 ;reset extruder
G1 E3 F1200 ;Prime extruder 3mm
G1 E2 F1200 ;retract extruder 1mm
G92 E0 ;reset extruder
M109 S180 ; wait for temperature to be reached
G90 ; use absolute coordinates
G21 ; set units to millimeters
G92 E0 ; reset extrusion distance
M82 ; use absolute distances for extrusion
G1 F1800.000 E-1.00000 ; retract
G1 Z0.900 ; move to next layer (0) and lift
G92 E0 ; reset extrusion distance
G1 X121.497 Y93.075 F7800.000 ; move to first skirt point
G1 Z0.400 ; restore layer Z
G1 F1800.000 E1.00000 ; compensate retraction
G1 X121.177 Y93.535 F540.000 E1.02333 ; skirt
G1 X120.817 Y93.955 E1.04635 ; skirt
G1 X95.327 Y119.445 E2.54696 ; skirt
G1 X94.697 Y119.965 E2.58096 ; skirt
G1 X93.767 Y120.525 E2.62615 ; skirt
G1 X93.017 Y120.835 E2.65993 ; skirt
G1 X92.497 Y121.005 E2.68271 ; skirt
G1 X92.237 Y121.065 E2.69381 ; skirt
G1 X91.967 Y121.125 E2.70533 ; skirt
G1 X91.437 Y121.195 E2.72758 ; skirt
G1 X90.617 Y121.225 E2.76174 ; skirt
G1 X89.807 Y121.165 E2.79555 ; skirt
G1 X89.017 Y121.005 E2.82910 ; skirt
G1 X88.247 Y120.745 E2.86294 ; skirt
G1 X87.747 Y120.525 E2.88567 ; skirt
G1 X87.507 Y120.395 E2.89704 ; skirt
G1 X86.817 Y119.965 E2.93088 ; skirt
G1 X86.187 Y119.445 E2.96489 ; skirt
G1 X80.717 Y113.975 E3.28691 ; skirt
G1 X80.207 Y113.355 E3.32033 ; skirt
G1 X79.907 Y112.905 E3.34284 ; skirt
G1 X79.647 Y112.435 E3.36520 ; skirt
G1 X79.327 Y111.695 E3.39876 ; skirt
G1 X79.167 Y111.185 E3.42101 ; skirt
G1 X79.047 Y110.655 E3.44363 ; skirt
G1 X78.967 Y110.125 E3.46594 ; skirt
G1 X78.947 Y109.855 E3.47721 ; skirt
G1 X78.927 Y109.325 E3.49929 ; skirt
G1 X78.987 Y108.515 E3.53310 ; skirt
G1 X79.147 Y107.725 E3.56666 ; skirt
G1 X79.387 Y106.965 E3.59983 ; skirt
G1 X79.607 Y106.465 E3.62257 ; skirt
G1 X102.597 Y59.025 E5.81706 ; skirt
G1 X102.987 Y58.325 E5.85041 ; skirt
G1 X103.297 Y57.885 E5.87282 ; skirt
G1 X103.827 Y57.275 E5.90646 ; skirt
G1 X104.217 Y56.895 E5.92912 ; skirt
G1 X104.857 Y56.405 E5.96268 ; skirt
G1 X105.307 Y56.115 E5.98496 ; skirt
G1 X105.787 Y55.875 E6.00730 ; skirt
G1 X106.537 Y55.575 E6.04093 ; skirt
G1 X107.057 Y55.425 E6.06346 ; skirt
G1 X107.847 Y55.275 E6.09693 ; skirt
G1 X108.657 Y55.225 E6.13071 ; skirt
G1 X116.127 Y55.235 E6.44167 ; skirt
G1 X116.667 Y55.275 E6.46421 ; skirt
G1 X116.937 Y55.315 E6.47557 ; skirt
G1 X117.467 Y55.425 E6.49811 ; skirt
G1 X117.987 Y55.575 E6.52063 ; skirt
G1 X118.747 Y55.875 E6.55465 ; skirt
G1 X119.227 Y56.135 E6.57737 ; skirt
G1 X119.687 Y56.425 E6.60001 ; skirt
G1 X120.117 Y56.745 E6.62232 ; skirt
G1 X120.527 Y57.105 E6.64503 ; skirt
G1 X121.077 Y57.705 E6.67892 ; skirt
G1 X121.547 Y58.365 E6.71264 ; skirt
G1 X121.947 Y59.075 E6.74657 ; skirt
G1 X122.247 Y59.835 E6.78058 ; skirt
G1 X122.457 Y60.615 E6.81421 ; skirt
G1 X122.547 Y61.155 E6.83699 ; skirt
G1 X122.597 Y61.965 E6.87078 ; skirt
G1 X122.597 Y89.395 E8.01262 ; skirt
G1 X122.567 Y89.955 E8.03597 ; skirt
G1 X122.497 Y90.505 E8.05904 ; skirt
G1 X122.317 Y91.315 E8.09359 ; skirt
G1 X122.027 Y92.105 E8.12862 ; skirt
G1 X121.777 Y92.605 E8.15189 ; skirt
G1 X121.557 Y92.983 E8.17007 ; skirt
G1 X121.497 Y93.075 E8.17467 ; skirt
G1 F1800.000 E7.17467 ; retract
G1 Z0.900 ; lift plate during travel
G92 E0 ; reset extrusion distance
G1 X87.751 Y109.410 F7800.000 ; move to first perimeter point
G1 Z0.400 ; restore layer Z
G1 F1800.000 E1.00000 ; compensate retraction
G1 X110.135 Y87.026 F540.000 E2.31770 ; perimeter
G1 X110.135 Y63.436 E3.29971 ; perimeter
G1 X114.392 Y63.436 E3.47694 ; perimeter
G1 X114.392 Y88.790 E4.53235 ; perimeter
G1 X90.762 Y112.420 E5.92346 ; perimeter
G1 X87.830 Y109.488 E6.09610 ; perimeter
G1 X87.751 Y109.410 E6.10069 ; perimeter
G1 X87.109 Y109.012 F7800.000 ; move to first perimeter point
G1 X109.399 Y86.722 F540.000 E7.41293 ; perimeter
G1 X109.399 Y62.701 E8.41287 ; perimeter
G1 X115.128 Y62.701 E8.65134 ; perimeter
G1 X115.128 Y89.095 E9.75006 ; perimeter
G1 X90.921 Y113.301 E11.17512 ; perimeter
G1 X90.921 Y113.619 E11.18836 ; perimeter
G1 X86.711 Y109.410 E11.43619 ; perimeter
G1 X87.031 Y109.090 E11.45501 ; perimeter
G1 X87.109 Y109.012 E11.45960 ; perimeter
G1 X86.589 Y108.492 F7800.000 ; move to first perimeter point
G1 X108.663 Y86.417 F540.000 E12.75915 ; perimeter
G1 X108.663 Y61.965 E13.77703 ; perimeter
G1 X115.863 Y61.965 E14.07674 ; perimeter
G1 X115.863 Y89.399 E15.21877 ; perimeter
G1 X90.762 Y114.501 E16.69650 ; perimeter
G1 X85.671 Y109.410 E16.99621 ; perimeter
G1 X86.511 Y108.570 E17.04565 ; perimeter
G1 X86.589 Y108.492 E17.05024 ; perimeter
G1 X87.299 Y108.682 F7800.000 ; move inwards before travel
G1 F1800.000 E16.05024 ; retract
G1 Z0.900 ; lift plate during travel
G92 E0 ; reset extrusion distance
G1 X90.996 Y111.614 F7800.000 ; move to first fill point
G1 Z0.400 ; restore layer Z
G1 F1800.000 E1.00000 ; compensate retraction
G1 X88.558 Y109.175 F1080.000 E1.14438 ; fill
G1 X89.081 Y108.652 E1.17535 ; fill
G1 X91.519 Y111.091 E1.31973 ; fill
G1 X92.042 Y110.568 E1.35070 ; fill
G1 X89.604 Y108.129 E1.49508 ; fill
G1 X90.127 Y107.606 E1.52605 ; fill
G1 X92.566 Y110.044 E1.67043 ; fill
G1 X93.089 Y109.521 E1.70141 ; fill
G1 X90.650 Y107.083 E1.84578 ; fill
G1 X91.173 Y106.560 E1.87676 ; fill
G1 X93.612 Y108.998 E2.02113 ; fill
G1 X94.135 Y108.475 E2.05211 ; fill
G1 X91.697 Y106.036 E2.19649 ; fill
G1 X92.220 Y105.513 E2.22746 ; fill
G1 X94.658 Y107.952 E2.37184 ; fill
G1 X95.181 Y107.429 E2.40282 ; fill
G1 X92.743 Y104.990 E2.54719 ; fill
G1 X93.266 Y104.467 E2.57817 ; fill
G1 X95.704 Y106.905 E2.72254 ; fill
G1 X96.228 Y106.382 E2.75352 ; fill
G1 X93.789 Y103.944 E2.89790 ; fill
G1 X94.312 Y103.421 E2.92887 ; fill
G1 X96.751 Y105.859 E3.07325 ; fill
G1 X97.274 Y105.336 E3.10422 ; fill
G1 X94.835 Y102.898 E3.24860 ; fill
G1 X95.359 Y102.374 E3.27957 ; fill
G1 X97.797 Y104.813 E3.42395 ; fill
G1 X98.320 Y104.290 E3.45493 ; fill
G1 X95.882 Y101.851 E3.59930 ; fill
G1 X96.405 Y101.328 E3.63028 ; fill
G1 X98.843 Y103.767 E3.77465 ; fill
G1 X99.367 Y103.243 E3.80563 ; fill
G1 X96.928 Y100.805 E3.95001 ; fill
G1 X97.451 Y100.282 E3.98098 ; fill
G1 X99.890 Y102.720 E4.12536 ; fill
G1 X100.413 Y102.197 E4.15633 ; fill
G1 X97.974 Y99.759 E4.30071 ; fill
G1 X98.498 Y99.236 E4.33168 ; fill
G1 X100.936 Y101.674 E4.47606 ; fill
G1 X101.459 Y101.151 E4.50704 ; fill
G1 X99.021 Y98.712 E4.65142 ; fill
G1 X99.544 Y98.189 E4.68239 ; fill
G1 X101.982 Y100.628 E4.82677 ; fill
G1 X102.505 Y100.104 E4.85774 ; fill
G1 X100.067 Y97.666 E5.00212 ; fill
G1 X100.590 Y97.143 E5.03310 ; fill
G1 X103.029 Y99.581 E5.17747 ; fill
G1 X103.552 Y99.058 E5.20845 ; fill
G1 X101.113 Y96.620 E5.35282 ; fill
G1 X101.637 Y96.097 E5.38380 ; fill
G1 X104.075 Y98.535 E5.52818 ; fill
G1 X104.598 Y98.012 E5.55915 ; fill
G1 X102.160 Y95.573 E5.70353 ; fill
G1 X102.683 Y95.050 E5.73450 ; fill
G1 X105.121 Y97.489 E5.87888 ; fill
G1 X105.644 Y96.966 E5.90985 ; fill
G1 X103.206 Y94.527 E6.05423 ; fill
G1 X103.729 Y94.004 E6.08521 ; fill
G1 X106.168 Y96.442 E6.22959 ; fill
G1 X106.691 Y95.919 E6.26056 ; fill
G1 X104.252 Y93.481 E6.40493 ; fill
G1 X104.775 Y92.958 E6.43591 ; fill
G1 X107.214 Y95.396 E6.58029 ; fill
G1 X107.737 Y94.873 E6.61126 ; fill
G1 X105.299 Y92.435 E6.75564 ; fill
G1 X105.822 Y91.911 E6.78662 ; fill
G1 X108.260 Y94.350 E6.93099 ; fill
G1 X108.783 Y93.827 E6.96197 ; fill
G1 X106.345 Y91.388 E7.10634 ; fill
G1 X106.868 Y90.865 E7.13732 ; fill
G1 X109.306 Y93.303 E7.28170 ; fill
G1 X109.830 Y92.780 E7.31267 ; fill
G1 X107.391 Y90.342 E7.45705 ; fill
G1 X107.914 Y89.819 E7.48802 ; fill
G1 X110.353 Y92.257 E7.63240 ; fill
G1 X110.876 Y91.734 E7.66337 ; fill
G1 X108.437 Y89.296 E7.80775 ; fill
G1 X108.961 Y88.772 E7.83873 ; fill
G1 X111.399 Y91.211 E7.98310 ; fill
G1 X111.922 Y90.688 E8.01408 ; fill
G1 X109.484 Y88.249 E8.15845 ; fill
G1 X110.007 Y87.726 E8.18943 ; fill
G1 X112.445 Y90.165 E8.33381 ; fill
G1 X112.969 Y89.641 E8.36478 ; fill
G1 X110.530 Y87.203 E8.50916 ; fill
G1 X110.636 Y86.263 E8.54878 ; fill
G1 X113.492 Y89.118 E8.71785 ; fill
G1 X113.891 Y88.471 E8.74968 ; fill
G1 X110.636 Y85.216 E8.94239 ; fill
G1 X110.636 Y84.170 E8.98619 ; fill
G1 X113.891 Y87.425 E9.17890 ; fill
G1 X113.891 Y86.378 E9.22270 ; fill
G1 X110.636 Y83.124 E9.41541 ; fill
G1 X110.636 Y82.077 E9.45921 ; fill
G1 X113.891 Y85.332 E9.65191 ; fill
G1 X113.891 Y84.286 E9.69572 ; fill
G1 X110.636 Y81.031 E9.88842 ; fill
G1 X110.636 Y79.985 E9.93223 ; fill
G1 X113.891 Y83.239 E10.12493 ; fill
G1 X113.891 Y82.193 E10.16874 ; fill
G1 X110.636 Y78.939 E10.36144 ; fill
G1 X110.636 Y77.892 E10.40525 ; fill
G1 X113.891 Y81.147 E10.59795 ; fill
G1 X113.891 Y80.101 E10.64176 ; fill
G1 X110.636 Y76.846 E10.83446 ; fill
G1 X110.636 Y75.800 E10.87827 ; fill
G1 X113.891 Y79.054 E11.07097 ; fill
G1 X113.891 Y78.008 E11.11478 ; fill
G1 X110.636 Y74.753 E11.30748 ; fill
G1 X110.636 Y73.707 E11.35129 ; fill
G1 X113.891 Y76.962 E11.54399 ; fill
G1 X113.891 Y75.915 E11.58780 ; fill
G1 X110.636 Y72.661 E11.78050 ; fill
G1 X110.636 Y71.614 E11.82431 ; fill
G1 X113.891 Y74.869 E12.01701 ; fill
G1 X113.891 Y73.823 E12.06081 ; fill
G1 X110.636 Y70.568 E12.25352 ; fill
G1 X110.636 Y69.522 E12.29732 ; fill
G1 X113.891 Y72.776 E12.49003 ; fill
G1 X113.891 Y71.730 E12.53383 ; fill
G1 X110.636 Y68.475 E12.72654 ; fill
G1 X110.636 Y67.429 E12.77034 ; fill
G1 X113.891 Y70.684 E12.96305 ; fill
G1 X113.891 Y69.637 E13.00686 ; fill
G1 X110.636 Y66.383 E13.19956 ; fill
G1 X110.636 Y65.337 E13.24336 ; fill
G1 X113.891 Y68.591 E13.43607 ; fill
G1 X113.891 Y67.545 E13.47987 ; fill
G1 X110.636 Y64.290 E13.67258 ; fill
G1 X111.330 Y63.938 E13.70516 ; fill
G1 X113.891 Y66.499 E13.85679 ; fill
G1 X113.891 Y65.452 E13.90060 ; fill
G1 X112.376 Y63.938 E13.99027 ; fill
G1 X113.422 Y63.938 E14.03408 ; fill
G1 X113.891 Y64.406 E14.06181 ; fill
M104 S175 ; set temperature
G1 F1800.000 E13.06181 ; retract
G1 Z1.300 ; move to next layer (1) and lift
G92 E0 ; reset extrusion distance
G1 X86.429 Y109.927 F7800.000 ; move to first perimeter point
G1 Z0.800 ; restore layer Z
G1 F1800.000 E1.00000 ; compensate retraction
G1 X109.565 Y86.790 F1800.000 E1.96215 ; perimeter
G1 X109.565 Y62.867 E2.66563 ; perimeter
G1 X114.962 Y62.867 E2.82432 ; perimeter
G1 X114.962 Y89.026 E3.59353 ; perimeter
G1 X90.244 Y113.743 E4.62141 ; perimeter
G1 X86.484 Y109.982 E4.77780 ; perimeter
G1 X86.429 Y109.927 E4.78009 ; perimeter
G1 X86.404 Y109.217 F7800.000 ; move to first perimeter point
G1 X109.046 Y86.575 F1800.000 E5.72164 ; perimeter
G1 X109.046 Y62.347 E6.43408 ; perimeter
G1 X115.481 Y62.347 E6.62332 ; perimeter
G1 X115.481 Y89.241 E7.41415 ; perimeter
G1 X90.244 Y114.478 E8.46363 ; perimeter
G1 X85.694 Y109.927 E8.65288 ; perimeter
G1 X86.349 Y109.272 E8.68013 ; perimeter
G1 X86.404 Y109.217 E8.68243 ; perimeter
G1 X86.037 Y108.849 F7800.000 ; move to first perimeter point
G1 X108.526 Y86.360 F1800.000 E9.61765 ; perimeter
G1 X108.526 Y61.827 E10.33903 ; perimeter
G1 X116.001 Y61.827 E10.55884 ; perimeter
G1 X116.001 Y89.456 E11.37127 ; perimeter
G1 X90.244 Y115.213 E12.44237 ; perimeter
G1 X84.959 Y109.927 E12.66217 ; perimeter
G1 X85.982 Y108.904 E12.70471 ; perimeter
G1 X86.037 Y108.849 E12.70700 ; perimeter
G1 X86.539 Y108.984 F7800.000 ; move inwards before travel
G1 F1800.000 E11.70700 ; retract
G1 Z1.300 ; lift plate during travel
G92 E0 ; reset extrusion distance
G1 X114.607 Y88.645 F7800.000 ; move to first fill point
G1 Z0.800 ; restore layer Z
G1 F1800.000 E1.00000 ; compensate retraction
G1 X90.079 Y113.173 F3600.000 E2.03343 ; fill
G1 X89.707 Y112.801 E2.04912 ; fill
G1 X114.608 Y87.901 E3.09823 ; fill
G1 X114.608 Y87.156 E3.12042 ; fill
G1 X89.335 Y112.429 E4.18522 ; fill
G1 X88.962 Y112.057 E4.20091 ; fill
G1 X114.607 Y86.411 E5.28139 ; fill
G1 X114.608 Y85.667 E5.30357 ; fill
G1 X88.590 Y111.684 E6.39975 ; fill
G1 X88.218 Y111.312 E6.41543 ; fill
G1 X114.608 Y84.922 E7.52729 ; fill
G1 X114.607 Y84.178 E7.54947 ; fill
G1 X87.845 Y110.940 E8.67701 ; fill
G1 X87.473 Y110.568 E8.69269 ; fill
G1 X114.608 Y83.433 E9.83592 ; fill
G1 X114.608 Y82.689 E9.85810 ; fill
G1 X87.101 Y110.195 E11.01701 ; fill
G1 F1800.000 E10.01701 ; retract
G1 Z1.300 ; lift plate during travel
G92 E0 ; reset extrusion distance
G1 X109.919 Y86.632 F7800.000 ; move to first fill point
G1 Z0.800 ; restore layer Z
G1 F1800.000 E1.00000 ; compensate retraction
G1 X114.607 Y81.944 F3600.000 E1.19752 ; fill
G1 X114.608 Y81.200 E1.21970 ; fill
G1 X109.919 Y85.888 E1.41722 ; fill
G1 X109.919 Y85.143 E1.43941 ; fill
G1 X114.608 Y80.455 E1.63693 ; fill
G1 X114.607 Y79.711 E1.65911 ; fill
G1 X109.919 Y84.399 E1.85663 ; fill
G1 X109.919 Y83.654 E1.87881 ; fill
G1 X114.608 Y78.966 E2.07633 ; fill
G1 X114.608 Y78.222 E2.09851 ; fill
G1 X109.919 Y82.910 E2.29603 ; fill
G1 X109.919 Y82.165 E2.31822 ; fill
G1 X114.607 Y77.477 E2.51574 ; fill
G1 X114.608 Y76.733 E2.53792 ; fill
G1 X109.919 Y81.421 E2.73544 ; fill
G1 X109.919 Y80.676 E2.75762 ; fill
G1 X114.608 Y75.988 E2.95514 ; fill
G1 X114.607 Y75.243 E2.97733 ; fill
G1 X109.919 Y79.932 E3.17484 ; fill
G1 X109.919 Y79.187 E3.19702 ; fill
G1 X114.608 Y74.499 E3.39455 ; fill
G1 X114.608 Y73.754 E3.41673 ; fill
G1 X109.919 Y78.442 E3.61425 ; fill
G1 X109.919 Y77.698 E3.63643 ; fill
G1 X114.607 Y73.010 E3.83395 ; fill
G1 X114.608 Y72.265 E3.85613 ; fill
G1 X109.919 Y76.953 E4.05366 ; fill
G1 X109.919 Y76.209 E4.07584 ; fill
G1 X114.608 Y71.521 E4.27336 ; fill
G1 X114.607 Y70.776 E4.29554 ; fill
G1 X109.919 Y75.464 E4.49306 ; fill
G1 X109.919 Y74.720 E4.51524 ; fill
G1 X114.608 Y70.032 E4.71276 ; fill
G1 X114.608 Y69.287 E4.73494 ; fill
G1 X109.919 Y73.975 E4.93247 ; fill
G1 X109.919 Y73.231 E4.95465 ; fill
G1 X114.607 Y68.543 E5.15217 ; fill
G1 X114.608 Y67.798 E5.17435 ; fill
G1 X109.919 Y72.486 E5.37187 ; fill
G1 X109.919 Y71.742 E5.39405 ; fill
G1 X114.608 Y67.054 E5.59157 ; fill
G1 X114.607 Y66.309 E5.61375 ; fill
G1 X109.919 Y70.997 E5.81127 ; fill
G1 X109.919 Y70.253 E5.83345 ; fill
G1 X114.607 Y65.564 E6.03097 ; fill
G1 X114.608 Y64.820 E6.05315 ; fill
G1 X109.919 Y69.508 E6.25068 ; fill
G1 X109.919 Y68.763 E6.27286 ; fill
G1 X114.607 Y64.075 E6.47038 ; fill
G1 X114.607 Y63.331 E6.49256 ; fill
G1 X109.919 Y68.019 E6.69008 ; fill
G1 X109.919 Y67.274 E6.71226 ; fill
G1 X113.973 Y63.221 E6.88304 ; fill
G1 X113.228 Y63.221 E6.90523 ; fill
G1 X109.919 Y66.530 E7.04464 ; fill
G1 X109.919 Y65.785 E7.06682 ; fill
G1 X112.484 Y63.221 E7.17487 ; fill
G1 X111.739 Y63.221 E7.19705 ; fill
G1 X109.919 Y65.041 E7.27373 ; fill
G1 X109.919 Y64.296 E7.29591 ; fill
G1 X110.995 Y63.221 E7.34122 ; fill
G1 X110.250 Y63.221 E7.36340 ; fill
G1 X109.919 Y63.552 E7.37734 ; fill
G1 F1800.000 E6.37734 ; retract
G1 Z1.700 ; move to next layer (2) and lift
G92 E0 ; reset extrusion distance
G1 X114.962 Y62.867 F7800.000 ; move to first perimeter point
G1 Z1.200 ; restore layer Z
G1 F1800.000 E1.00000 ; compensate retraction
G1 X114.962 Y89.026 F1800.000 E1.76921 ; perimeter
G1 X89.939 Y114.048 E2.80977 ; perimeter
G1 X86.124 Y110.232 E2.96846 ; perimeter
G1 X109.565 Y86.790 E3.94329 ; perimeter
G1 X109.565 Y62.867 E4.64677 ; perimeter
G1 X114.884 Y62.867 E4.80316 ; perimeter
G1 X114.962 Y62.867 E4.80546 ; perimeter
G1 X115.481 Y62.347 F7800.000 ; move to first perimeter point
G1 X115.481 Y89.241 F1800.000 E5.59628 ; perimeter
G1 X89.939 Y114.783 E6.65845 ; perimeter
G1 X85.389 Y110.232 E6.84769 ; perimeter
G1 X109.046 Y86.575 E7.83147 ; perimeter
G1 X109.046 Y62.347 E8.54391 ; perimeter
G1 X115.403 Y62.347 E8.73086 ; perimeter
G1 X115.481 Y62.347 E8.73315 ; perimeter
