; generated by Slic3r 0.9.8-dev on 2013-01-12 at 13:54:37

; layer_height = 0.4
; perimeters = 3
; top_solid_layers = 3
; bottom_solid_layers = 3
; fill_density = 0.40
; perimeter_speed = 30
; infill_speed = 60
; travel_speed = 130
; scale = 1
; nozzle_diameter = 0.5
; filament_diameter = 3
; extrusion_multiplier = 1
; perimeters extrusion width = 0.53mm
; infill extrusion width = 0.53mm
; first layer extrusion width = 0.80mm

M190 S60 ; wait for bed temperature to be reached
M104 S180 ; set temperature
G28 ; home all axes
G92 E0 ;reset extruder
M109 S180 ; wait for temperature to be reached
G90 ; use absolute coordinates
G21 ; set units to millimeters
G92 E0 ; reset extrusion distance
M82 ; use absolute distances for extrusion
G1 F1800.000 E-1.00000 ; retract
G1 Z1.400 ; move to next layer (0) and lift
G92 E0 ; reset extrusion distance
G1 X126.390 Y142.397 F7800.000 ; move to first skirt point
G1 Z0.400 ; restore layer Z
G1 F1800.000 E1.00000 ; compensate retraction
G1 X73.590 Y142.397 F540.000 E3.19793 ; skirt
G1 X72.710 Y142.337 E3.23465 ; skirt
G1 X66.760 Y141.557 E3.48445 ; skirt
G1 X66.070 Y141.427 E3.51368 ; skirt
G1 X65.730 Y141.337 E3.52832 ; skirt
G1 X65.060 Y141.097 E3.55795 ; skirt
G1 X59.720 Y138.887 E3.79853 ; skirt
G1 X59.110 Y138.607 E3.82647 ; skirt
G1 X58.540 Y138.297 E3.85348 ; skirt
G1 X58.010 Y137.927 E3.88038 ; skirt
G1 X53.240 Y134.277 E4.13041 ; skirt
G1 X52.960 Y134.057 E4.14523 ; skirt
G1 X52.440 Y133.567 E4.17497 ; skirt
G1 X51.980 Y133.017 E4.20482 ; skirt
G1 X48.330 Y128.247 E4.45485 ; skirt
G1 X47.940 Y127.677 E4.48360 ; skirt
G1 X47.760 Y127.367 E4.49852 ; skirt
G1 X47.460 Y126.737 E4.52757 ; skirt
G1 X45.160 Y121.197 E4.77727 ; skirt
G1 X45.030 Y120.867 E4.79203 ; skirt
G1 X44.830 Y120.187 E4.82154 ; skirt
G1 X44.700 Y119.487 E4.85118 ; skirt
G1 X43.880 Y113.187 E5.11564 ; skirt
G1 X43.870 Y112.477 E5.14520 ; skirt
G1 X43.880 Y112.127 E5.15978 ; skirt
G1 X43.920 Y111.777 E5.17444 ; skirt
G1 X44.700 Y105.827 E5.42424 ; skirt
G1 X44.810 Y105.207 E5.45046 ; skirt
G1 X44.890 Y104.897 E5.46378 ; skirt
G1 X45.090 Y104.297 E5.49011 ; skirt
G1 X47.460 Y98.587 E5.74747 ; skirt
G1 X47.900 Y97.717 E5.78805 ; skirt
G1 X76.170 Y50.387 E8.08298 ; skirt
G1 X76.600 Y49.737 E8.11542 ; skirt
G1 X80.250 Y44.977 E8.36512 ; skirt
G1 X80.710 Y44.437 E8.39465 ; skirt
G1 X80.960 Y44.187 E8.40936 ; skirt
G1 X81.500 Y43.727 E8.43889 ; skirt
G1 X86.260 Y40.077 E8.68859 ; skirt
G1 X86.840 Y39.687 E8.71768 ; skirt
G1 X87.150 Y39.507 E8.73261 ; skirt
G1 X87.780 Y39.207 E8.76165 ; skirt
G1 X93.330 Y36.907 E9.01174 ; skirt
G1 X94.000 Y36.667 E9.04137 ; skirt
G1 X94.340 Y36.577 E9.05601 ; skirt
G1 X95.030 Y36.447 E9.08523 ; skirt
G1 X100.630 Y35.707 E9.32038 ; skirt
G1 X101.420 Y35.627 E9.35343 ; skirt
G1 X102.080 Y35.617 E9.38091 ; skirt
G1 X102.740 Y35.667 E9.40846 ; skirt
G1 X108.690 Y36.447 E9.65826 ; skirt
G1 X109.380 Y36.577 E9.68749 ; skirt
G1 X110.060 Y36.777 E9.71700 ; skirt
G1 X110.390 Y36.907 E9.73176 ; skirt
G1 X115.940 Y39.207 E9.98185 ; skirt
G1 X116.570 Y39.507 E10.01089 ; skirt
G1 X116.880 Y39.687 E10.02582 ; skirt
G1 X117.460 Y40.077 E10.05491 ; skirt
G1 X122.220 Y43.727 E10.30461 ; skirt
G1 X122.750 Y44.187 E10.33382 ; skirt
G1 X123.240 Y44.697 E10.36326 ; skirt
G1 X123.460 Y44.967 E10.37776 ; skirt
G1 X127.120 Y49.727 E10.62771 ; skirt
G1 X127.400 Y50.117 E10.64770 ; skirt
G1 X127.650 Y50.527 E10.66768 ; skirt
G1 X152.290 Y98.067 E12.89668 ; skirt
G1 X152.620 Y98.787 E12.92965 ; skirt
G1 X154.830 Y104.127 E13.17022 ; skirt
G1 X154.960 Y104.457 E13.18499 ; skirt
G1 X155.160 Y105.137 E13.21449 ; skirt
G1 X155.290 Y105.827 E13.24372 ; skirt
G1 X156.070 Y111.777 E13.49352 ; skirt
G1 X156.110 Y112.127 E13.50819 ; skirt
G1 X156.120 Y112.477 E13.52276 ; skirt
G1 X156.110 Y113.187 E13.55232 ; skirt
G1 X156.070 Y113.527 E13.56657 ; skirt
G1 X155.290 Y119.487 E13.81679 ; skirt
G1 X155.160 Y120.187 E13.84643 ; skirt
G1 X154.960 Y120.867 E13.87593 ; skirt
G1 X154.830 Y121.197 E13.89070 ; skirt
G1 X152.530 Y126.737 E14.14040 ; skirt
G1 X152.230 Y127.367 E14.16945 ; skirt
G1 X152.050 Y127.677 E14.18437 ; skirt
G1 X151.660 Y128.247 E14.21312 ; skirt
G1 X148.010 Y133.017 E14.46314 ; skirt
G1 X147.550 Y133.567 E14.49299 ; skirt
G1 X147.030 Y134.057 E14.52273 ; skirt
G1 X146.750 Y134.277 E14.53756 ; skirt
G1 X141.980 Y137.927 E14.78758 ; skirt
G1 X141.410 Y138.317 E14.81633 ; skirt
G1 X141.100 Y138.497 E14.83126 ; skirt
G1 X140.470 Y138.797 E14.86030 ; skirt
G1 X134.930 Y141.097 E15.11000 ; skirt
G1 X134.270 Y141.337 E15.13924 ; skirt
G1 X133.930 Y141.427 E15.15388 ; skirt
G1 X133.230 Y141.557 E15.18352 ; skirt
G1 X127.630 Y142.297 E15.41866 ; skirt
G1 X126.500 Y142.389 E15.46585 ; skirt
G1 X126.390 Y142.397 E15.47044 ; skirt
G1 F1800.000 E14.47044 ; retract
G1 Z1.400 ; move to next layer (0) and lift
G92 E0 ; reset extrusion distance
G1 X139.235 Y116.106 F7800.000 ; move to first perimeter point
G1 Z0.400 ; restore layer Z
G1 F1800.000 E1.00000 ; compensate retraction
G1 X137.907 Y119.310 F540.000 E1.14440 ; perimeter
G1 X135.796 Y122.062 E1.28879 ; perimeter
G1 X133.044 Y124.174 E1.43318 ; perimeter
G1 X129.839 Y125.501 E1.57758 ; perimeter
G1 X126.400 Y125.954 E1.72197 ; perimeter
G1 X126.114 Y125.916 E1.73399 ; perimeter
G1 X122.961 Y125.501 E1.86636 ; perimeter
G1 X119.756 Y124.174 E2.01076 ; perimeter
G1 X117.004 Y122.062 E2.15515 ; perimeter
G1 X114.893 Y119.310 E2.29954 ; perimeter
G1 X113.676 Y116.373 E2.43191 ; perimeter
G1 X113.565 Y116.106 E2.44394 ; perimeter
G1 X113.113 Y112.667 E2.58833 ; perimeter
G1 X113.565 Y109.228 E2.73272 ; perimeter
G1 X114.893 Y106.023 E2.87712 ; perimeter
G1 X117.004 Y103.271 E3.02151 ; perimeter
G1 X119.756 Y101.159 E3.16591 ; perimeter
G1 X122.961 Y99.832 E3.31030 ; perimeter
G1 X126.400 Y99.379 E3.45469 ; perimeter
G1 X129.839 Y99.832 E3.59909 ; perimeter
G1 X133.044 Y101.159 E3.74348 ; perimeter
G1 X135.796 Y103.271 E3.88787 ; perimeter
G1 X137.907 Y106.023 E4.03227 ; perimeter
G1 X139.235 Y109.228 E4.17666 ; perimeter
G1 X139.687 Y112.667 E4.32106 ; perimeter
G1 X139.249 Y115.996 E4.46085 ; perimeter
G1 X139.235 Y116.106 E4.46545 ; perimeter
G1 X138.518 Y115.914 F7800.000 ; move to first perimeter point
G1 X137.265 Y118.939 F540.000 E4.60178 ; perimeter
G1 X135.271 Y121.538 E4.73811 ; perimeter
G1 X132.673 Y123.531 E4.87444 ; perimeter
G1 X129.647 Y124.785 E5.01077 ; perimeter
G1 X126.400 Y125.212 E5.14710 ; perimeter
G1 X126.210 Y125.187 E5.15509 ; perimeter
G1 X123.153 Y124.785 E5.28343 ; perimeter
G1 X120.127 Y123.531 E5.41976 ; perimeter
G1 X117.529 Y121.538 E5.55609 ; perimeter
G1 X115.535 Y118.939 E5.69242 ; perimeter
G1 X114.356 Y116.091 E5.82076 ; perimeter
G1 X114.282 Y115.914 E5.82876 ; perimeter
G1 X113.855 Y112.667 E5.96509 ; perimeter
G1 X114.282 Y109.420 E6.10142 ; perimeter
G1 X115.535 Y106.394 E6.23775 ; perimeter
G1 X117.529 Y103.796 E6.37408 ; perimeter
G1 X120.127 Y101.802 E6.51041 ; perimeter
G1 X123.153 Y100.549 E6.64674 ; perimeter
G1 X126.400 Y100.121 E6.78307 ; perimeter
G1 X129.647 Y100.549 E6.91940 ; perimeter
G1 X132.673 Y101.802 E7.05573 ; perimeter
G1 X135.271 Y103.796 E7.19206 ; perimeter
G1 X137.265 Y106.394 E7.32839 ; perimeter
G1 X138.518 Y109.420 E7.46472 ; perimeter
G1 X138.945 Y112.667 E7.60105 ; perimeter
G1 X138.532 Y115.804 E7.73279 ; perimeter
G1 X138.518 Y115.914 E7.73738 ; perimeter
G1 X137.801 Y115.722 F7800.000 ; move to first perimeter point
G1 X136.622 Y118.568 F540.000 E7.86565 ; perimeter
G1 X134.746 Y121.013 E7.99392 ; perimeter
G1 X132.302 Y122.889 E8.12219 ; perimeter
G1 X129.455 Y124.068 E8.25046 ; perimeter
G1 X126.400 Y124.470 E8.37872 ; perimeter
G1 X126.306 Y124.458 E8.38268 ; perimeter
G1 X123.345 Y124.068 E8.50699 ; perimeter
G1 X120.498 Y122.889 E8.63526 ; perimeter
G1 X118.054 Y121.013 E8.76353 ; perimeter
G1 X116.178 Y118.568 E8.89179 ; perimeter
G1 X115.035 Y115.810 E9.01610 ; perimeter
G1 X114.999 Y115.722 E9.02006 ; perimeter
G1 X114.597 Y112.667 E9.14833 ; perimeter
G1 X114.999 Y109.612 E9.27660 ; perimeter
G1 X116.178 Y106.765 E9.40487 ; perimeter
G1 X118.054 Y104.320 E9.53313 ; perimeter
G1 X120.498 Y102.445 E9.66140 ; perimeter
G1 X123.345 Y101.265 E9.78967 ; perimeter
G1 X126.400 Y100.863 E9.91794 ; perimeter
G1 X129.455 Y101.265 E10.04620 ; perimeter
G1 X132.302 Y102.445 E10.17447 ; perimeter
G1 X134.746 Y104.320 E10.30274 ; perimeter
G1 X136.622 Y106.765 E10.43101 ; perimeter
G1 X137.801 Y109.612 E10.55927 ; perimeter
G1 X138.203 Y112.667 E10.68754 ; perimeter
G1 X137.816 Y115.612 E10.81122 ; perimeter
G1 X137.801 Y115.722 E10.81581 ; perimeter
G1 X138.298 Y116.264 F7800.000 ; move inwards before travel
G1 F1800.000 E9.81581 ; retract
G1 Z1.400 ; lift plate during travel
G92 E0 ; reset extrusion distance
G1 X145.030 Y123.423 F7800.000 ; move to first perimeter point
G1 Z0.400 ; restore layer Z
G1 F1800.000 E1.00000 ; compensate retraction
G1 X141.612 Y127.878 F540.000 E1.23378 ; perimeter
G1 X137.156 Y131.297 E1.46755 ; perimeter
G1 X131.968 Y133.446 E1.70133 ; perimeter
G1 X126.400 Y134.179 E1.93511 ; perimeter
G1 X120.832 Y133.446 E2.16888 ; perimeter
G1 X115.644 Y131.297 E2.40266 ; perimeter
G1 X111.188 Y127.878 E2.63644 ; perimeter
G1 X107.770 Y123.423 E2.87022 ; perimeter
G1 X105.620 Y118.235 E3.10399 ; perimeter
G1 X104.887 Y112.667 E3.33777 ; perimeter
G1 X105.620 Y107.099 E3.57155 ; perimeter
G1 X105.682 Y106.950 E3.57824 ; perimeter
G1 X107.770 Y101.910 E3.80532 ; perimeter
G1 X111.188 Y97.455 E4.03910 ; perimeter
G1 X115.644 Y94.036 E4.27288 ; perimeter
G1 X120.832 Y91.887 E4.50665 ; perimeter
G1 X126.400 Y91.154 E4.74043 ; perimeter
G1 X131.808 Y91.866 E4.96751 ; perimeter
G1 X131.968 Y91.887 E4.97421 ; perimeter
G1 X137.156 Y94.036 E5.20799 ; perimeter
G1 X141.612 Y97.455 E5.44176 ; perimeter
G1 X145.030 Y101.910 E5.67554 ; perimeter
G1 X147.180 Y107.099 E5.90932 ; perimeter
G1 X147.879 Y112.410 E6.13233 ; perimeter
G1 X147.946 Y112.410 E6.13514 ; perimeter
G1 X147.180 Y118.235 E6.37968 ; perimeter
G1 X145.073 Y123.321 E6.60886 ; perimeter
G1 X145.030 Y123.423 E6.61346 ; perimeter
G1 X145.673 Y123.794 F7800.000 ; move to first perimeter point
G1 X142.136 Y128.403 F540.000 E6.85530 ; perimeter
G1 X137.527 Y131.940 E7.09714 ; perimeter
G1 X132.160 Y134.163 E7.33898 ; perimeter
G1 X126.400 Y134.921 E7.58082 ; perimeter
G1 X120.896 Y134.197 E7.81193 ; perimeter
G1 X120.640 Y134.163 E7.82266 ; perimeter
G1 X115.273 Y131.940 E8.06449 ; perimeter
G1 X110.664 Y128.403 E8.30633 ; perimeter
G1 X107.127 Y123.794 E8.54817 ; perimeter
G1 X104.904 Y118.427 E8.79001 ; perimeter
G1 X104.145 Y112.667 E9.03185 ; perimeter
G1 X104.904 Y106.907 E9.27369 ; perimeter
G1 X105.002 Y106.669 E9.28442 ; perimeter
G1 X107.127 Y101.539 E9.51553 ; perimeter
G1 X110.664 Y96.930 E9.75737 ; perimeter
G1 X115.273 Y93.394 E9.99921 ; perimeter
G1 X120.640 Y91.170 E10.24105 ; perimeter
G1 X126.400 Y90.412 E10.48289 ; perimeter
G1 X131.904 Y91.137 E10.71400 ; perimeter
G1 X132.160 Y91.170 E10.72473 ; perimeter
G1 X137.527 Y93.394 E10.96657 ; perimeter
G1 X142.136 Y96.930 E11.20841 ; perimeter
G1 X145.673 Y101.539 E11.45025 ; perimeter
G1 X147.896 Y106.907 E11.69209 ; perimeter
G1 X148.655 Y112.667 E11.93393 ; perimeter
G1 X147.896 Y118.427 E12.17577 ; perimeter
G1 X145.715 Y123.692 E12.41302 ; perimeter
G1 X145.673 Y123.794 E12.41761 ; perimeter
G1 X146.316 Y124.165 F7800.000 ; move to first perimeter point
G1 X142.661 Y128.928 F540.000 E12.66752 ; perimeter
G1 X137.898 Y132.582 E12.91742 ; perimeter
G1 X132.352 Y134.880 E13.16732 ; perimeter
G1 X126.400 Y135.663 E13.41722 ; perimeter
G1 X120.448 Y134.880 E13.66713 ; perimeter
G1 X114.902 Y132.582 E13.91703 ; perimeter
G1 X110.139 Y128.928 E14.16693 ; perimeter
G1 X106.484 Y124.165 E14.41683 ; perimeter
G1 X104.187 Y118.619 E14.66674 ; perimeter
G1 X103.403 Y112.667 E14.91664 ; perimeter
G1 X104.187 Y106.715 E15.16654 ; perimeter
G1 X104.323 Y106.387 E15.18130 ; perimeter
G1 X106.484 Y101.168 E15.41645 ; perimeter
G1 X110.139 Y96.406 E15.66635 ; perimeter
G1 X114.902 Y92.751 E15.91625 ; perimeter
G1 X120.448 Y90.454 E16.16615 ; perimeter
G1 X126.400 Y89.670 E16.41606 ; perimeter
G1 X132.000 Y90.407 E16.65120 ; perimeter
G1 X132.352 Y90.454 E16.66596 ; perimeter
G1 X137.898 Y92.751 E16.91586 ; perimeter
G1 X142.661 Y96.406 E17.16577 ; perimeter
G1 X146.316 Y101.168 E17.41567 ; perimeter
G1 X148.613 Y106.715 E17.66557 ; perimeter
G1 X149.397 Y112.667 E17.91547 ; perimeter
G1 X148.613 Y118.619 E18.16538 ; perimeter
G1 X146.358 Y124.063 E18.41069 ; perimeter
G1 X146.316 Y124.165 E18.41528 ; perimeter
G1 X145.581 Y124.133 F7800.000 ; move inwards before travel
G1 F1800.000 E17.41528 ; retract
G1 Z1.400 ; lift plate during travel
G92 E0 ; reset extrusion distance
G1 X108.144 Y122.735 F7800.000 ; move to first fill point
G1 Z0.400 ; restore layer Z
G1 F1800.000 E1.00000 ; compensate retraction
G1 X116.331 Y130.923 F1080.000 E1.48605 ; fill
G1 X118.122 Y131.665 E1.56742 ; fill
G1 X107.402 Y120.945 E2.20383 ; fill
G1 X106.660 Y119.154 E2.28520 ; fill
G1 X119.913 Y132.406 E3.07196 ; fill
G1 X121.559 Y133.003 E3.14545 ; fill
G1 X106.063 Y117.508 E4.06535 ; fill
G1 X105.904 Y116.300 E4.11650 ; fill
G1 X122.767 Y133.162 E5.11757 ; fill
G1 X123.975 Y133.321 E5.16872 ; fill
G1 X105.745 Y115.092 E6.25094 ; fill
G1 X105.586 Y113.883 E6.30209 ; fill
G1 X125.183 Y133.481 E7.46549 ; fill
G1 X126.391 Y133.640 E7.51664 ; fill
G1 X105.427 Y112.675 E8.76119 ; fill
G1 X105.493 Y111.692 E8.80257 ; fill
G1 X127.375 Y133.574 E10.10162 ; fill
G1 X128.302 Y133.452 E10.14087 ; fill
G1 X119.631 Y124.781 E10.65563 ; fill
G1 X121.422 Y125.523 E10.73700 ; fill
G1 X129.229 Y133.330 E11.20047 ; fill
G1 X130.156 Y133.208 E11.23973 ; fill
G1 X122.992 Y126.044 E11.66501 ; fill
G1 X124.200 Y126.203 E11.71616 ; fill
G1 X131.083 Y133.086 E12.12476 ; fill
G1 X132.010 Y132.964 E12.16401 ; fill
G1 X125.408 Y126.362 E12.55592 ; fill
G1 X126.512 Y126.416 E12.60229 ; fill
G1 X132.752 Y132.656 E12.97274 ; fill
G1 X133.494 Y132.349 E13.00644 ; fill
G1 X127.439 Y126.294 E13.36590 ; fill
G1 X128.366 Y126.172 E13.40515 ; fill
G1 X134.235 Y132.042 E13.75360 ; fill
G1 X134.977 Y131.735 E13.78731 ; fill
G1 X129.293 Y126.050 E14.12477 ; fill
G1 X130.135 Y125.844 E14.16118 ; fill
G1 X135.719 Y131.427 E14.49267 ; fill
G1 X136.461 Y131.120 E14.52637 ; fill
G1 X130.877 Y125.536 E14.85785 ; fill
G1 X131.619 Y125.229 E14.89156 ; fill
G1 X137.166 Y130.776 E15.22086 ; fill
G1 X137.760 Y130.321 E15.25227 ; fill
G1 X132.361 Y124.922 E15.57278 ; fill
G1 X133.103 Y124.615 E15.60649 ; fill
G1 X138.353 Y129.865 E15.91820 ; fill
G1 X138.947 Y129.410 E15.94961 ; fill
G1 X133.712 Y124.175 E16.26040 ; fill
G1 X134.305 Y123.719 E16.29180 ; fill
G1 X139.540 Y128.954 E16.60259 ; fill
G1 X140.134 Y128.499 E16.63400 ; fill
G1 X134.899 Y123.264 E16.94478 ; fill
G1 X135.493 Y122.808 E16.97619 ; fill
G1 X140.728 Y128.043 E17.28698 ; fill
G1 X141.321 Y127.588 E17.31838 ; fill
G1 X136.086 Y122.353 E17.62917 ; fill
G1 X136.542 Y121.759 E17.66058 ; fill
G1 X141.777 Y126.994 E17.97136 ; fill
G1 X142.232 Y126.401 E18.00277 ; fill
G1 X136.997 Y121.166 E18.31355 ; fill
G1 X137.453 Y120.572 E18.34496 ; fill
G1 X142.688 Y125.807 E18.65575 ; fill
G1 X143.143 Y125.214 E18.68716 ; fill
G1 X137.908 Y119.978 E18.99794 ; fill
G1 X138.348 Y119.369 E19.02949 ; fill
G1 X143.599 Y124.620 E19.34120 ; fill
G1 X144.054 Y124.026 E19.37260 ; fill
G1 X138.655 Y118.627 E19.69311 ; fill
G1 X138.962 Y117.886 E19.72682 ; fill
G1 X144.510 Y123.433 E20.05613 ; fill
G1 X144.853 Y122.727 E20.08906 ; fill
G1 X139.270 Y117.144 E20.42055 ; fill
G1 X139.577 Y116.402 E20.45425 ; fill
G1 X145.161 Y121.986 E20.78573 ; fill
G1 X145.468 Y121.244 E20.81943 ; fill
G1 X139.784 Y115.559 E21.15690 ; fill
G1 X139.906 Y114.632 E21.19615 ; fill
G1 X145.775 Y120.502 E21.54460 ; fill
G1 X146.082 Y119.760 E21.57831 ; fill
G1 X140.028 Y113.705 E21.93776 ; fill
G1 X140.150 Y112.778 E21.97701 ; fill
G1 X146.390 Y119.018 E22.34747 ; fill
G1 X146.697 Y118.277 E22.38117 ; fill
G1 X140.095 Y111.675 E22.77308 ; fill
G1 X139.936 Y110.467 E22.82423 ; fill
G1 X146.819 Y117.350 E23.23283 ; fill
