; generated by Slic3r 0.9.8-dev on 2013-02-16 at 14:32:04

; layer_height = 0.4
; perimeters = 3
; top_solid_layers = 3
; bottom_solid_layers = 3
; fill_density = 0.40
; perimeter_speed = 30
; infill_speed = 60
; travel_speed = 130
; scale = 1
; nozzle_diameter = 0.5
; filament_diameter = 3
; extrusion_multiplier = 1
; perimeters extrusion width = 0.53mm
; infill extrusion width = 0.53mm
; first layer extrusion width = 0.80mm

M190 S60 ; wait for bed temperature to be reached
M104 S185 ; set temperature
G28 ; home all axes
G92 E0 ;reset extruder
M109 S185 ; wait for temperature to be reached
G90 ; use absolute coordinates
G21 ; set units to millimeters
G92 E0 ; reset extrusion distance
M82 ; use absolute distances for extrusion
G1 F1800.000 E-1.00000 ; retract
G1 Z1.400 ; move to next layer (0) and lift
G92 E0 ; reset extrusion distance
G1 X107.933 Y97.467 F7800.000 ; move to first skirt point
G1 Z0.400 ; restore layer Z
G1 F1800.000 E1.00000 ; compensate retraction
G1 X107.483 Y97.777 F900.000 E1.02275 ; skirt
G1 X106.773 Y98.177 E1.05667 ; skirt
G1 X106.013 Y98.477 E1.09068 ; skirt
G1 X105.493 Y98.627 E1.11321 ; skirt
G1 X104.963 Y98.737 E1.13574 ; skirt
G1 X104.693 Y98.777 E1.14711 ; skirt
G1 X103.883 Y98.827 E1.18089 ; skirt
G1 X75.843 Y98.817 E2.34813 ; skirt
G1 X75.303 Y98.777 E2.37067 ; skirt
G1 X75.032 Y98.737 E2.38203 ; skirt
G1 X74.503 Y98.627 E2.40456 ; skirt
G1 X73.983 Y98.477 E2.42709 ; skirt
G1 X73.223 Y98.177 E2.46110 ; skirt
G1 X72.743 Y97.917 E2.48383 ; skirt
G1 X72.282 Y97.627 E2.50646 ; skirt
G1 X71.853 Y97.307 E2.52878 ; skirt
G1 X71.443 Y96.947 E2.55149 ; skirt
G1 X70.893 Y96.347 E2.58537 ; skirt
G1 X70.422 Y95.687 E2.61910 ; skirt
G1 X70.023 Y94.977 E2.65302 ; skirt
G1 X69.723 Y94.217 E2.68703 ; skirt
G1 X69.513 Y93.437 E2.72066 ; skirt
G1 X69.422 Y92.897 E2.74345 ; skirt
G1 X69.373 Y92.087 E2.77723 ; skirt
G1 X69.373 Y77.907 E3.36751 ; skirt
G1 X69.422 Y77.097 E3.40129 ; skirt
G1 X69.513 Y76.557 E3.42408 ; skirt
G1 X69.723 Y75.777 E3.45771 ; skirt
G1 X70.023 Y75.017 E3.49172 ; skirt
G1 X70.282 Y74.537 E3.51444 ; skirt
G1 X70.573 Y74.077 E3.53708 ; skirt
G1 X70.893 Y73.647 E3.55939 ; skirt
G1 X71.253 Y73.237 E3.58211 ; skirt
G1 X71.853 Y72.687 E3.61599 ; skirt
G1 X72.282 Y72.367 E3.63830 ; skirt
G1 X72.743 Y72.077 E3.66094 ; skirt
G1 X73.223 Y71.817 E3.68366 ; skirt
G1 X73.723 Y71.607 E3.70624 ; skirt
G1 X74.503 Y71.367 E3.74021 ; skirt
G1 X75.032 Y71.257 E3.76274 ; skirt
G1 X75.303 Y71.217 E3.77410 ; skirt
G1 X76.113 Y71.167 E3.80789 ; skirt
G1 X104.153 Y71.177 E4.97512 ; skirt
G1 X104.693 Y71.217 E4.99766 ; skirt
G1 X104.963 Y71.257 E5.00902 ; skirt
G1 X105.493 Y71.367 E5.03156 ; skirt
G1 X106.013 Y71.517 E5.05409 ; skirt
G1 X106.773 Y71.817 E5.08810 ; skirt
G1 X107.252 Y72.077 E5.11082 ; skirt
G1 X107.713 Y72.367 E5.13346 ; skirt
G1 X108.143 Y72.687 E5.15577 ; skirt
G1 X108.553 Y73.047 E5.17848 ; skirt
G1 X109.103 Y73.647 E5.21237 ; skirt
G1 X109.573 Y74.307 E5.24610 ; skirt
G1 X109.972 Y75.017 E5.28002 ; skirt
G1 X110.273 Y75.777 E5.31403 ; skirt
G1 X110.483 Y76.557 E5.34766 ; skirt
G1 X110.573 Y77.097 E5.37045 ; skirt
G1 X110.623 Y77.907 E5.40423 ; skirt
G1 X110.623 Y92.087 E5.99451 ; skirt
G1 X110.573 Y92.897 E6.02829 ; skirt
G1 X110.483 Y93.437 E6.05108 ; skirt
G1 X110.273 Y94.217 E6.08470 ; skirt
G1 X109.972 Y94.977 E6.11872 ; skirt
G1 X109.713 Y95.457 E6.14144 ; skirt
G1 X109.423 Y95.917 E6.16408 ; skirt
G1 X109.103 Y96.347 E6.18639 ; skirt
G1 X108.923 Y96.557 E6.19790 ; skirt
G1 X108.553 Y96.947 E6.22028 ; skirt
G1 X108.020 Y97.400 E6.24938 ; skirt
G1 X107.933 Y97.467 E6.25397 ; skirt
G1 F1800.000 E5.25397 ; retract
G1 Z1.400 ; move to next layer (0) and lift
G92 E0 ; reset extrusion distance
G1 X101.837 Y90.049 F7800.000 ; move to first perimeter point
G1 Z0.400 ; restore layer Z
G1 F1800.000 E1.00000 ; compensate retraction
G1 X101.437 Y90.355 F720.000 E1.02095 ; perimeter
G1 X100.972 Y90.546 E1.04189 ; perimeter
G1 X100.473 Y90.610 E1.06284 ; perimeter
G1 X99.974 Y90.544 E1.08378 ; perimeter
G1 X99.510 Y90.350 E1.10473 ; perimeter
G1 X99.111 Y90.043 E1.12567 ; perimeter
G1 X98.806 Y89.643 E1.14662 ; perimeter
G1 X98.615 Y89.177 E1.16756 ; perimeter
G1 X98.550 Y88.678 E1.18851 ; perimeter
G1 X98.617 Y88.180 E1.20946 ; perimeter
G1 X98.811 Y87.715 E1.23040 ; perimeter
G1 X98.874 Y87.634 E1.23470 ; perimeter
G1 X99.118 Y87.317 E1.25135 ; perimeter
G1 X99.518 Y87.011 E1.27229 ; perimeter
G1 X99.983 Y86.820 E1.29324 ; perimeter
G1 X100.482 Y86.756 E1.31418 ; perimeter
G1 X100.981 Y86.822 E1.33513 ; perimeter
G1 X101.445 Y87.016 E1.35607 ; perimeter
G1 X101.844 Y87.323 E1.37702 ; perimeter
G1 X102.149 Y87.723 E1.39797 ; perimeter
G1 X102.340 Y88.189 E1.41891 ; perimeter
G1 X102.405 Y88.688 E1.43986 ; perimeter
G1 X102.338 Y89.186 E1.46080 ; perimeter
G1 X102.144 Y89.651 E1.48175 ; perimeter
G1 X101.905 Y89.962 E1.49810 ; perimeter
G1 X101.837 Y90.049 E1.50269 ; perimeter
G1 X101.995 Y90.768 F7800.000 ; move inwards before travel
G1 F1800.000 E0.50269 ; retract
G1 Z1.400 ; lift plate during travel
G92 E0 ; reset extrusion distance
G1 X101.229 Y84.122 F7800.000 ; move to first perimeter point
G1 Z0.400 ; restore layer Z
G1 F1800.000 E1.00000 ; compensate retraction
G1 X100.478 Y84.220 F720.000 E1.03155 ; perimeter
G1 X99.726 Y84.122 E1.06310 ; perimeter
G1 X99.026 Y83.831 E1.09466 ; perimeter
G1 X98.424 Y83.370 E1.12621 ; perimeter
G1 X97.963 Y82.769 E1.15776 ; perimeter
G1 X97.673 Y82.068 E1.18931 ; perimeter
G1 X97.655 Y81.934 E1.19495 ; perimeter
G1 X97.574 Y81.317 E1.22086 ; perimeter
G1 X97.673 Y80.566 E1.25241 ; perimeter
G1 X97.963 Y79.865 E1.28397 ; perimeter
G1 X98.424 Y79.264 E1.31552 ; perimeter
G1 X99.026 Y78.803 E1.34707 ; perimeter
G1 X100.478 Y78.201 E1.41248 ; perimeter
G1 X101.929 Y78.803 E1.47789 ; perimeter
G1 X102.531 Y79.264 E1.50944 ; perimeter
G1 X102.992 Y79.865 E1.54099 ; perimeter
G1 X103.593 Y81.317 E1.60641 ; perimeter
G1 X102.992 Y82.769 E1.67182 ; perimeter
G1 X102.531 Y83.370 E1.70337 ; perimeter
G1 X101.929 Y83.831 E1.73492 ; perimeter
G1 X101.331 Y84.079 E1.76188 ; perimeter
G1 X101.229 Y84.122 E1.76647 ; perimeter
G1 X101.008 Y84.823 F7800.000 ; move inwards before travel
G1 F1800.000 E0.76647 ; retract
G1 Z1.400 ; lift plate during travel
G92 E0 ; reset extrusion distance
G1 X81.394 Y81.777 F7800.000 ; move to first perimeter point
G1 Z0.400 ; restore layer Z
G1 F1800.000 E1.00000 ; compensate retraction
G1 X81.211 Y82.246 F720.000 E1.02095 ; perimeter
G1 X80.913 Y82.651 E1.04189 ; perimeter
G1 X80.521 Y82.966 E1.06284 ; perimeter
G1 X80.060 Y83.168 E1.08378 ; perimeter
G1 X79.563 Y83.244 E1.10473 ; perimeter
G1 X79.165 Y83.200 E1.12138 ; perimeter
G1 X79.062 Y83.189 E1.12567 ; perimeter
G1 X78.594 Y83.006 E1.14662 ; perimeter
G1 X78.188 Y82.708 E1.16756 ; perimeter
G1 X77.874 Y82.315 E1.18851 ; perimeter
G1 X77.671 Y81.854 E1.20946 ; perimeter
G1 X77.595 Y81.357 E1.23040 ; perimeter
G1 X77.651 Y80.857 E1.25135 ; perimeter
G1 X77.688 Y80.761 E1.25564 ; perimeter
G1 X77.834 Y80.388 E1.27229 ; perimeter
G1 X78.132 Y79.983 E1.29324 ; perimeter
G1 X78.524 Y79.668 E1.31418 ; perimeter
G1 X78.891 Y79.507 E1.33083 ; perimeter
G1 X78.985 Y79.466 E1.33513 ; perimeter
G1 X79.482 Y79.390 E1.35607 ; perimeter
G1 X79.983 Y79.445 E1.37702 ; perimeter
G1 X80.355 Y79.591 E1.39367 ; perimeter
G1 X80.451 Y79.628 E1.39797 ; perimeter
G1 X80.857 Y79.926 E1.41891 ; perimeter
G1 X81.171 Y80.319 E1.43986 ; perimeter
G1 X81.373 Y80.780 E1.46080 ; perimeter
G1 X81.450 Y81.277 E1.48175 ; perimeter
G1 X81.406 Y81.667 E1.49810 ; perimeter
G1 X81.394 Y81.777 E1.50269 ; perimeter
G1 X81.902 Y82.309 F7800.000 ; move inwards before travel
G1 F1800.000 E0.50269 ; retract
G1 Z1.400 ; lift plate during travel
G92 E0 ; reset extrusion distance
G1 X80.274 Y85.878 F7800.000 ; move to first perimeter point
G1 Z0.400 ; restore layer Z
G1 F1800.000 E1.00000 ; compensate retraction
G1 X80.974 Y86.169 F720.000 E1.03155 ; perimeter
G1 X81.576 Y86.630 E1.06310 ; perimeter
G1 X81.658 Y86.737 E1.06875 ; perimeter
G1 X82.037 Y87.231 E1.09466 ; perimeter
G1 X82.327 Y87.932 E1.12621 ; perimeter
G1 X82.426 Y88.683 E1.15776 ; perimeter
G1 X82.327 Y89.434 E1.18931 ; perimeter
G1 X82.275 Y89.560 E1.19495 ; perimeter
G1 X82.037 Y90.135 E1.22086 ; perimeter
G1 X81.576 Y90.736 E1.25241 ; perimeter
G1 X80.974 Y91.197 E1.28397 ; perimeter
G1 X79.522 Y91.799 E1.34938 ; perimeter
G1 X78.071 Y91.197 E1.41479 ; perimeter
G1 X77.469 Y90.736 E1.44634 ; perimeter
G1 X77.008 Y90.135 E1.47789 ; perimeter
G1 X76.407 Y88.683 E1.54330 ; perimeter
G1 X77.008 Y87.231 E1.60871 ; perimeter
G1 X77.469 Y86.630 E1.64026 ; perimeter
G1 X78.071 Y86.169 E1.67182 ; perimeter
G1 X78.771 Y85.878 E1.70337 ; perimeter
G1 X79.522 Y85.780 E1.73492 ; perimeter
G1 X80.165 Y85.864 E1.76188 ; perimeter
G1 X80.274 Y85.878 E1.76647 ; perimeter
G1 X80.816 Y85.382 F7800.000 ; move inwards before travel
G1 F1800.000 E0.76647 ; retract
G1 Z1.400 ; lift plate during travel
G92 E0 ; reset extrusion distance
G1 X97.618 Y90.622 F7800.000 ; move to first perimeter point
G1 Z0.400 ; restore layer Z
G1 F1800.000 E1.00000 ; compensate retraction
G1 X83.428 Y90.622 F900.000 E1.59070 ; perimeter
G1 X83.760 Y89.819 E1.62689 ; perimeter
G1 X83.910 Y88.683 E1.67457 ; perimeter
G1 X83.760 Y87.547 E1.72225 ; perimeter
G1 X83.322 Y86.489 E1.76993 ; perimeter
G1 X82.625 Y85.581 E1.81760 ; perimeter
G1 X81.716 Y84.883 E1.86528 ; perimeter
G1 X80.901 Y84.546 E1.90199 ; perimeter
G1 X81.984 Y83.679 E1.95975 ; perimeter
G1 X82.512 Y82.961 E1.99682 ; perimeter
G1 X82.835 Y82.131 E2.03390 ; perimeter
G1 X82.933 Y81.246 E2.07097 ; perimeter
G1 X82.799 Y80.366 E2.10804 ; perimeter
G1 X82.365 Y79.378 E2.15293 ; perimeter
G1 X96.572 Y79.378 E2.74433 ; perimeter
G1 X96.240 Y80.181 E2.78053 ; perimeter
G1 X96.090 Y81.317 E2.82820 ; perimeter
G1 X96.240 Y82.453 E2.87588 ; perimeter
G1 X96.678 Y83.511 E2.92356 ; perimeter
G1 X97.375 Y84.419 E2.97124 ; perimeter
G1 X98.284 Y85.117 E3.01891 ; perimeter
G1 X99.121 Y85.463 E3.05664 ; perimeter
G1 X98.071 Y86.265 E3.11162 ; perimeter
G1 X97.527 Y86.970 E3.14870 ; perimeter
G1 X97.184 Y87.792 E3.18577 ; perimeter
G1 X97.066 Y88.675 E3.22284 ; perimeter
G1 X97.180 Y89.558 E3.25991 ; perimeter
G1 X97.576 Y90.520 E3.30320 ; perimeter
G1 X97.618 Y90.622 E3.30779 ; perimeter
G1 F1800.000 E2.30779 ; retract
G1 Z1.400 ; lift plate during travel
G92 E0 ; reset extrusion distance
G1 X101.336 Y91.357 F7800.000 ; move to first perimeter point
G1 Z0.400 ; restore layer Z
G1 F1800.000 E1.00000 ; compensate retraction
G1 X102.361 Y90.575 F720.000 E1.05366 ; perimeter
G1 X103.152 Y89.549 E1.10761 ; perimeter
G1 X103.152 Y91.357 E1.18289 ; perimeter
G1 X101.446 Y91.357 E1.25389 ; perimeter
G1 X101.336 Y91.357 E1.25848 ; perimeter
G1 X99.612 Y91.357 F7800.000 ; move to first perimeter point
G1 X82.026 Y91.357 F900.000 E1.99053 ; perimeter
G1 X82.680 Y90.506 E2.03522 ; perimeter
G1 X83.044 Y89.627 E2.07483 ; perimeter
G1 X83.168 Y88.683 E2.11444 ; perimeter
G1 X83.044 Y87.739 E2.15406 ; perimeter
G1 X82.768 Y87.075 E2.18400 ; perimeter
G1 X82.680 Y86.860 E2.19367 ; perimeter
G1 X82.100 Y86.105 E2.23329 ; perimeter
G1 X81.345 Y85.526 E2.27290 ; perimeter
G1 X80.466 Y85.162 E2.31252 ; perimeter
G1 X79.522 Y85.038 E2.35213 ; perimeter
G1 X78.579 Y85.162 E2.39175 ; perimeter
G1 X77.700 Y85.526 E2.43136 ; perimeter
G1 X76.848 Y86.179 E2.47605 ; perimeter
G1 X76.848 Y82.211 E2.64123 ; perimeter
G1 X77.675 Y83.243 E2.69626 ; perimeter
G1 X78.236 Y83.656 E2.72527 ; perimeter
G1 X78.885 Y83.909 E2.75428 ; perimeter
G1 X79.578 Y83.986 E2.78329 ; perimeter
G1 X80.267 Y83.881 E2.81230 ; perimeter
G1 X80.905 Y83.601 E2.84130 ; perimeter
G1 X81.449 Y83.165 E2.87031 ; perimeter
G1 X81.862 Y82.603 E2.89932 ; perimeter
G1 X82.115 Y81.954 E2.92833 ; perimeter
G1 X82.191 Y81.261 E2.95734 ; perimeter
G1 X82.086 Y80.573 E2.98635 ; perimeter
G1 X81.806 Y79.935 E3.01536 ; perimeter
G1 X81.370 Y79.391 E3.04436 ; perimeter
G1 X80.352 Y78.643 E3.09695 ; perimeter
G1 X97.974 Y78.643 E3.83049 ; perimeter
G1 X97.320 Y79.494 E3.87517 ; perimeter
G1 X96.956 Y80.374 E3.91479 ; perimeter
G1 X96.832 Y81.317 E3.95440 ; perimeter
G1 X96.956 Y82.261 E3.99402 ; perimeter
G1 X97.320 Y83.140 E4.03363 ; perimeter
G1 X97.900 Y83.895 E4.07325 ; perimeter
G1 X98.655 Y84.474 E4.11286 ; perimeter
G1 X99.534 Y84.838 E4.15248 ; perimeter
G1 X100.478 Y84.962 E4.19209 ; perimeter
G1 X101.421 Y84.838 E4.23171 ; perimeter
G1 X102.300 Y84.474 E4.27132 ; perimeter
G1 X103.152 Y83.821 E4.31601 ; perimeter
G1 X103.152 Y87.825 E4.48269 ; perimeter
G1 X102.370 Y86.800 E4.53635 ; perimeter
G1 X101.818 Y86.374 E4.56536 ; perimeter
G1 X101.175 Y86.106 E4.59437 ; perimeter
G1 X100.484 Y86.014 E4.62338 ; perimeter
G1 X99.793 Y86.103 E4.65238 ; perimeter
G1 X99.148 Y86.368 E4.68139 ; perimeter
G1 X98.594 Y86.791 E4.71040 ; perimeter
G1 X98.169 Y87.343 E4.73941 ; perimeter
G1 X97.901 Y87.986 E4.76842 ; perimeter
G1 X97.808 Y88.677 E4.79743 ; perimeter
G1 X97.897 Y89.368 E4.82643 ; perimeter
G1 X98.163 Y90.012 E4.85544 ; perimeter
G1 X98.585 Y90.566 E4.88445 ; perimeter
G1 X99.524 Y91.290 E4.93380 ; perimeter
G1 X99.612 Y91.357 E4.93840 ; perimeter
G1 F1800.000 E3.93840 ; retract
G1 Z1.400 ; lift plate during travel
G92 E0 ; reset extrusion distance
G1 X78.628 Y78.643 F7800.000 ; move to first perimeter point
G1 Z0.400 ; restore layer Z
G1 F1800.000 E1.00000 ; compensate retraction
G1 X77.596 Y79.469 F720.000 E1.05504 ; perimeter
G1 X76.848 Y80.487 E1.10762 ; perimeter
G1 X76.848 Y78.643 E1.18440 ; perimeter
G1 X78.518 Y78.643 E1.25390 ; perimeter
G1 X78.628 Y78.643 E1.25849 ; perimeter
G1 F1800.000 E0.25849 ; retract
G1 Z1.400 ; lift plate during travel
G92 E0 ; reset extrusion distance
G1 X76.113 Y77.907 F7800.000 ; move to first perimeter point
G1 Z0.400 ; restore layer Z
G1 F1800.000 E1.00000 ; compensate retraction
G1 X103.888 Y77.907 F900.000 E2.15621 ; perimeter
G1 X103.888 Y92.093 E2.74673 ; perimeter
G1 X76.113 Y92.093 E3.90294 ; perimeter
G1 X76.113 Y78.017 E4.48887 ; perimeter
G1 X76.113 Y77.907 E4.49347 ; perimeter
G1 X76.750 Y78.275 F7800.000 ; move inwards before travel
G1 F1800.000 E3.49347 ; retract
G1 Z1.400 ; lift plate during travel
G92 E0 ; reset extrusion distance
G1 X84.728 Y90.120 F7800.000 ; move to first fill point
G1 Z0.400 ; restore layer Z
G1 F1800.000 E1.00000 ; compensate retraction
G1 X84.259 Y89.652 F1800.000 E1.02899 ; fill
G1 X84.387 Y88.685 E1.07168 ; fill
G1 X85.822 Y90.120 E1.16052 ; fill
G1 X86.916 Y90.120 E1.20840 ; fill
G1 X84.292 Y87.497 E1.37080 ; fill
G1 X83.589 Y85.699 E1.45531 ; fill
G1 X88.010 Y90.120 E1.72899 ; fill
G1 X89.103 Y90.120 E1.77688 ; fill
G1 X82.563 Y83.580 E2.18176 ; fill
G1 X82.993 Y82.916 E2.21639 ; fill
G1 X90.197 Y90.120 E2.66237 ; fill
G1 X91.291 Y90.120 E2.71026 ; fill
G1 X83.300 Y82.129 E3.20496 ; fill
G1 X83.423 Y81.158 E3.24782 ; fill
G1 X92.385 Y90.120 E3.80265 ; fill
G1 X93.479 Y90.120 E3.85053 ; fill
G1 X83.261 Y79.902 E4.48313 ; fill
G1 X84.333 Y79.880 E4.53006 ; fill
G1 X94.573 Y90.120 E5.16402 ; fill
G1 X95.667 Y90.120 E5.21191 ; fill
G1 X85.427 Y79.880 E5.84586 ; fill
G1 X86.521 Y79.880 E5.89375 ; fill
G1 X96.708 Y90.067 E6.52442 ; fill
G1 X96.568 Y88.833 E6.57879 ; fill
G1 X87.615 Y79.880 E7.13307 ; fill
G1 X88.709 Y79.880 E7.18095 ; fill
G1 X96.698 Y87.869 E7.67553 ; fill
G1 X97.012 Y87.089 E7.71232 ; fill
G1 X89.803 Y79.880 E8.15864 ; fill
G1 X90.897 Y79.880 E8.20653 ; fill
G1 X97.437 Y86.420 E8.61143 ; fill
G1 X96.411 Y84.301 E8.71452 ; fill
G1 X91.990 Y79.880 E8.98819 ; fill
G1 X93.084 Y79.880 E9.03608 ; fill
G1 X95.708 Y82.503 E9.19847 ; fill
G1 X95.613 Y81.315 E9.25064 ; fill
G1 X94.178 Y79.880 E9.33948 ; fill
G1 X95.272 Y79.880 E9.38737 ; fill
G1 X95.741 Y80.348 E9.41636 ; fill
G1 F1800.000 E8.41636 ; retract
G1 Z1.400 ; lift plate during travel
G92 E0 ; reset extrusion distance
G1 X80.022 Y84.647 F7800.000 ; move to first fill point
G1 Z0.400 ; restore layer Z
G1 F1800.000 E1.00000 ; compensate retraction
G1 X79.753 Y84.379 F600.000 E1.00905 ; fill
G1 X77.850 Y84.964 F7800.000 ; move to first fill point
