; generated by Slic3r 0.9.8-dev on 2013-03-02 at 15:41:03

; layer_height = 0.4
; perimeters = 3
; top_solid_layers = 3
; bottom_solid_layers = 3
; fill_density = 0.40
; perimeter_speed = 30
; infill_speed = 60
; travel_speed = 130
; scale = 1
; nozzle_diameter = 0.5
; filament_diameter = 3
; extrusion_multiplier = 1
; perimeters extrusion width = 0.53mm
; infill extrusion width = 0.53mm
; first layer extrusion width = 0.80mm

M190 S60 ; wait for bed temperature to be reached
M104 S185 ; set temperature
G28 ; home all axes
G92 E0 ;reset extruder
M109 S185 ; wait for temperature to be reached
G90 ; use absolute coordinates
G21 ; set units to millimeters
G92 E0 ; reset extrusion distance
M82 ; use absolute distances for extrusion
G1 F1800.000 E-1.00000 ; retract
G1 Z1.400 ; move to next layer (0) and lift
G92 E0 ; reset extrusion distance
G1 X107.800 Y107.740 F7800.000 ; move to first skirt point
G1 Z0.400 ; restore layer Z
G1 F1800.000 E1.00000 ; compensate retraction
G1 X107.690 Y107.990 F900.000 E1.01137 ; skirt
G1 X107.430 Y108.470 E1.03409 ; skirt
G1 X107.140 Y108.930 E1.05673 ; skirt
G1 X106.820 Y109.360 E1.07904 ; skirt
G1 X106.270 Y109.960 E1.11293 ; skirt
G1 X105.860 Y110.320 E1.13564 ; skirt
G1 X105.430 Y110.640 E1.15795 ; skirt
G1 X104.970 Y110.930 E1.18059 ; skirt
G1 X104.490 Y111.190 E1.20331 ; skirt
G1 X103.730 Y111.490 E1.23732 ; skirt
G1 X103.210 Y111.640 E1.25985 ; skirt
G1 X102.680 Y111.750 E1.28239 ; skirt
G1 X102.410 Y111.790 E1.29375 ; skirt
G1 X101.870 Y111.830 E1.31629 ; skirt
G1 X78.400 Y111.840 E2.29329 ; skirt
G1 X77.590 Y111.790 E2.32707 ; skirt
G1 X77.050 Y111.700 E2.34986 ; skirt
G1 X76.270 Y111.490 E2.38348 ; skirt
G1 X75.510 Y111.190 E2.41750 ; skirt
G1 X75.030 Y110.930 E2.44022 ; skirt
G1 X74.570 Y110.640 E2.46286 ; skirt
G1 X74.140 Y110.320 E2.48517 ; skirt
G1 X73.730 Y109.960 E2.50788 ; skirt
G1 X73.180 Y109.360 E2.54176 ; skirt
G1 X72.860 Y108.930 E2.56408 ; skirt
G1 X72.570 Y108.470 E2.58671 ; skirt
G1 X72.310 Y107.990 E2.60944 ; skirt
G1 X72.100 Y107.490 E2.63201 ; skirt
G1 X71.860 Y106.710 E2.66598 ; skirt
G1 X71.750 Y106.180 E2.68852 ; skirt
G1 X71.710 Y105.910 E2.69988 ; skirt
G1 X71.660 Y105.100 E2.73366 ; skirt
G1 X71.660 Y64.900 E4.40709 ; skirt
G1 X71.710 Y64.090 E4.44087 ; skirt
G1 X71.750 Y63.820 E4.45223 ; skirt
G1 X71.860 Y63.290 E4.47477 ; skirt
G1 X72.100 Y62.510 E4.50874 ; skirt
G1 X72.310 Y62.010 E4.53131 ; skirt
G1 X72.570 Y61.530 E4.55404 ; skirt
G1 X72.860 Y61.070 E4.57667 ; skirt
G1 X73.180 Y60.640 E4.59899 ; skirt
G1 X73.730 Y60.040 E4.63287 ; skirt
G1 X74.140 Y59.680 E4.65558 ; skirt
G1 X74.570 Y59.360 E4.67789 ; skirt
G1 X75.030 Y59.070 E4.70053 ; skirt
G1 X75.510 Y58.810 E4.72325 ; skirt
G1 X76.270 Y58.510 E4.75727 ; skirt
G1 X76.790 Y58.360 E4.77980 ; skirt
G1 X77.320 Y58.250 E4.80233 ; skirt
G1 X77.590 Y58.210 E4.81369 ; skirt
G1 X78.130 Y58.170 E4.83623 ; skirt
G1 X101.600 Y58.160 E5.81323 ; skirt
G1 X102.410 Y58.210 E5.84701 ; skirt
G1 X102.950 Y58.300 E5.86980 ; skirt
G1 X103.730 Y58.510 E5.90343 ; skirt
G1 X104.490 Y58.810 E5.93744 ; skirt
G1 X104.970 Y59.070 E5.96016 ; skirt
G1 X105.430 Y59.360 E5.98280 ; skirt
G1 X105.860 Y59.680 E6.00511 ; skirt
G1 X106.270 Y60.040 E6.02783 ; skirt
G1 X106.820 Y60.640 E6.06171 ; skirt
G1 X107.140 Y61.070 E6.08402 ; skirt
G1 X107.430 Y61.530 E6.10666 ; skirt
G1 X107.690 Y62.010 E6.12938 ; skirt
G1 X107.900 Y62.510 E6.15196 ; skirt
G1 X108.140 Y63.290 E6.18593 ; skirt
G1 X108.250 Y63.820 E6.20846 ; skirt
G1 X108.290 Y64.090 E6.21982 ; skirt
G1 X108.340 Y64.900 E6.25360 ; skirt
G1 X108.340 Y105.100 E7.92703 ; skirt
G1 X108.290 Y105.910 E7.96081 ; skirt
G1 X108.200 Y106.450 E7.98360 ; skirt
G1 X108.070 Y106.970 E8.00592 ; skirt
G1 X107.841 Y107.638 E8.03529 ; skirt
G1 X107.800 Y107.740 E8.03989 ; skirt
G1 F1800.000 E7.03989 ; retract
G1 Z1.400 ; move to next layer (0) and lift
G92 E0 ; reset extrusion distance
G1 X100.129 Y66.371 F7800.000 ; move to first perimeter point
G1 Z0.400 ; restore layer Z
G1 F1800.000 E1.00000 ; compensate retraction
G1 X100.129 Y103.629 F900.000 E2.55094 ; perimeter
G1 X79.871 Y103.629 E3.39421 ; perimeter
G1 X79.871 Y66.371 E4.94515 ; perimeter
G1 X100.018 Y66.371 E5.78383 ; perimeter
G1 X100.129 Y66.371 E5.78842 ; perimeter
G1 X100.864 Y65.636 F7800.000 ; move to first perimeter point
G1 X100.864 Y104.364 F900.000 E7.40060 ; perimeter
G1 X79.136 Y104.364 E8.30512 ; perimeter
G1 X79.136 Y65.636 E9.91730 ; perimeter
G1 X100.754 Y65.636 E10.81722 ; perimeter
G1 X100.864 Y65.636 E10.82182 ; perimeter
G1 X101.600 Y64.900 F7800.000 ; move to first perimeter point
G1 X101.600 Y105.100 F900.000 E12.49524 ; perimeter
G1 X78.400 Y105.100 E13.46100 ; perimeter
G1 X78.400 Y64.900 E15.13443 ; perimeter
G1 X101.490 Y64.900 E16.09560 ; perimeter
G1 X101.600 Y64.900 E16.10019 ; perimeter
G1 X101.232 Y65.537 F7800.000 ; move inwards before travel
G1 F1800.000 E15.10019 ; retract
G1 Z1.400 ; lift plate during travel
G92 E0 ; reset extrusion distance
G1 X80.841 Y103.127 F7800.000 ; move to first fill point
G1 Z0.400 ; restore layer Z
G1 F1800.000 E1.00000 ; compensate retraction
G1 X80.373 Y102.659 F1800.000 E1.02781 ; fill
G1 X80.373 Y101.610 E1.07188 ; fill
G1 X81.890 Y103.127 E1.16202 ; fill
G1 X82.940 Y103.127 E1.20609 ; fill
G1 X80.373 Y100.560 E1.35856 ; fill
G1 X80.373 Y99.511 E1.40263 ; fill
G1 X83.989 Y103.127 E1.61742 ; fill
G1 X85.039 Y103.127 E1.66149 ; fill
G1 X80.373 Y98.461 E1.93861 ; fill
G1 X80.373 Y97.412 E1.98268 ; fill
G1 X86.088 Y103.127 E2.32213 ; fill
G1 X87.138 Y103.127 E2.36620 ; fill
G1 X80.373 Y96.362 E2.76797 ; fill
G1 X80.373 Y95.313 E2.81204 ; fill
G1 X88.187 Y103.127 E3.27614 ; fill
G1 X89.237 Y103.127 E3.32022 ; fill
G1 X80.373 Y94.263 E3.84664 ; fill
G1 X80.373 Y93.214 E3.89071 ; fill
G1 X90.286 Y103.127 E4.47947 ; fill
G1 X91.336 Y103.127 E4.52354 ; fill
G1 X80.373 Y92.164 E5.17461 ; fill
G1 X80.373 Y91.115 E5.21868 ; fill
G1 X92.385 Y103.127 E5.93208 ; fill
G1 X93.435 Y103.127 E5.97615 ; fill
G1 X80.373 Y90.065 E6.75188 ; fill
G1 X80.373 Y89.016 E6.79595 ; fill
G1 X94.484 Y103.127 E7.63400 ; fill
G1 X95.534 Y103.127 E7.67808 ; fill
G1 X80.373 Y87.966 E8.57846 ; fill
G1 X80.373 Y86.917 E8.62253 ; fill
G1 X96.583 Y103.127 E9.58524 ; fill
G1 X97.633 Y103.127 E9.62931 ; fill
G1 X80.373 Y85.867 E10.65434 ; fill
G1 X80.373 Y84.818 E10.69842 ; fill
G1 X98.682 Y103.127 E11.78578 ; fill
G1 X99.627 Y103.023 E11.82571 ; fill
G1 X80.373 Y83.768 E12.96921 ; fill
G1 X80.373 Y82.719 E13.01329 ; fill
G1 X99.627 Y101.974 E14.15679 ; fill
G1 X99.627 Y100.924 E14.20086 ; fill
G1 X80.373 Y81.670 E15.34435 ; fill
G1 X80.373 Y80.620 E15.38842 ; fill
G1 X99.627 Y99.875 E16.53192 ; fill
G1 X99.627 Y98.825 E16.57599 ; fill
G1 X80.373 Y79.571 E17.71948 ; fill
G1 X80.373 Y78.521 E17.76356 ; fill
G1 X99.627 Y97.776 E18.90705 ; fill
G1 X99.627 Y96.726 E18.95112 ; fill
G1 X80.373 Y77.472 E20.09462 ; fill
G1 X80.373 Y76.422 E20.13869 ; fill
G1 X99.627 Y95.677 E21.28219 ; fill
G1 X99.627 Y94.627 E21.32626 ; fill
G1 X80.373 Y75.373 E22.46975 ; fill
G1 X80.373 Y74.323 E22.51382 ; fill
G1 X99.627 Y93.578 E23.65732 ; fill
G1 X99.627 Y92.528 E23.70140 ; fill
G1 X80.373 Y73.274 E24.84489 ; fill
G1 X80.373 Y72.224 E24.88897 ; fill
G1 X99.627 Y91.479 E26.03247 ; fill
G1 X99.627 Y90.429 E26.07654 ; fill
G1 X80.373 Y71.175 E27.22003 ; fill
G1 X80.373 Y70.125 E27.26411 ; fill
G1 X99.627 Y89.380 E28.40760 ; fill
G1 X99.627 Y88.330 E28.45167 ; fill
G1 X80.373 Y69.076 E29.59516 ; fill
G1 X80.373 Y68.026 E29.63924 ; fill
G1 X99.627 Y87.281 E30.78273 ; fill
G1 X99.627 Y86.232 E30.82680 ; fill
G1 X80.373 Y66.977 E31.97030 ; fill
G1 X81.318 Y66.873 E32.01023 ; fill
G1 X99.627 Y85.182 E33.09759 ; fill
G1 X99.627 Y84.133 E33.14166 ; fill
G1 X82.367 Y66.873 E34.16670 ; fill
G1 X83.417 Y66.873 E34.21077 ; fill
G1 X99.627 Y83.083 E35.17348 ; fill
G1 X99.627 Y82.034 E35.21755 ; fill
G1 X84.466 Y66.873 E36.11793 ; fill
G1 X85.516 Y66.873 E36.16200 ; fill
G1 X99.627 Y80.984 E37.00005 ; fill
G1 X99.627 Y79.935 E37.04413 ; fill
G1 X86.565 Y66.873 E37.81985 ; fill
G1 X87.615 Y66.873 E37.86393 ; fill
G1 X99.627 Y78.885 E38.57733 ; fill
G1 X99.627 Y77.836 E38.62139 ; fill
G1 X88.664 Y66.873 E39.27247 ; fill
G1 X89.714 Y66.873 E39.31654 ; fill
G1 X99.627 Y76.786 E39.90528 ; fill
G1 X99.627 Y75.737 E39.94936 ; fill
G1 X90.763 Y66.873 E40.47578 ; fill
G1 X91.813 Y66.873 E40.51985 ; fill
G1 X99.627 Y74.687 E40.98395 ; fill
G1 X99.627 Y73.638 E41.02802 ; fill
G1 X92.862 Y66.873 E41.42979 ; fill
G1 X93.912 Y66.873 E41.47386 ; fill
G1 X99.627 Y72.588 E41.81331 ; fill
G1 X99.627 Y71.539 E41.85738 ; fill
G1 X94.961 Y66.873 E42.13450 ; fill
G1 X96.011 Y66.873 E42.17857 ; fill
G1 X99.627 Y70.489 E42.39336 ; fill
G1 X99.627 Y69.440 E42.43743 ; fill
G1 X97.060 Y66.873 E42.58990 ; fill
G1 X98.110 Y66.873 E42.63397 ; fill
G1 X99.627 Y68.390 E42.72411 ; fill
G1 X99.627 Y67.341 E42.76818 ; fill
G1 X99.159 Y66.873 E42.79599 ; fill
G1 F1800.000 E41.79599 ; retract
G1 Z1.800 ; move to next layer (1) and lift
G92 E0 ; reset extrusion distance
G1 X100.698 Y65.802 F7800.000 ; move to first perimeter point
G1 Z0.800 ; restore layer Z
G1 F1800.000 E1.00000 ; compensate retraction
G1 X100.698 Y104.198 F1800.000 E2.12906 ; perimeter
G1 X79.302 Y104.198 E2.75823 ; perimeter
G1 X79.302 Y65.802 E3.88729 ; perimeter
G1 X100.620 Y65.802 E4.51417 ; perimeter
G1 X100.698 Y65.802 E4.51646 ; perimeter
G1 X101.218 Y65.282 F7800.000 ; move to first perimeter point
G1 X101.218 Y104.718 F1800.000 E5.67608 ; perimeter
G1 X78.782 Y104.718 E6.33581 ; perimeter
G1 X78.782 Y65.282 E7.49543 ; perimeter
G1 X101.140 Y65.282 E8.15287 ; perimeter
G1 X101.218 Y65.282 E8.15516 ; perimeter
G1 X101.737 Y64.763 F7800.000 ; move to first perimeter point
G1 X101.737 Y105.237 F1800.000 E9.34534 ; perimeter
G1 X78.262 Y105.237 E10.03563 ; perimeter
G1 X78.262 Y64.763 E11.22581 ; perimeter
G1 X101.660 Y64.763 E11.91381 ; perimeter
G1 X101.737 Y64.763 E11.91610 ; perimeter
G1 X101.478 Y65.213 F7800.000 ; move inwards before travel
G1 F1800.000 E10.91610 ; retract
G1 Z1.800 ; lift plate during travel
G92 E0 ; reset extrusion distance
G1 X100.344 Y103.513 F7800.000 ; move to first fill point
G1 Z0.800 ; restore layer Z
G1 F1800.000 E1.00000 ; compensate retraction
G1 X100.013 Y103.844 F3600.000 E1.01386 ; fill
G1 X99.273 Y103.844 E1.03576 ; fill
G1 X100.344 Y102.773 E1.08060 ; fill
G1 X100.344 Y102.033 E1.10251 ; fill
G1 X98.533 Y103.844 E1.17833 ; fill
G1 X97.793 Y103.844 E1.20023 ; fill
G1 X100.344 Y101.293 E1.30704 ; fill
G1 X100.344 Y100.553 E1.32894 ; fill
G1 X97.053 Y103.844 E1.46673 ; fill
G1 X96.314 Y103.844 E1.48863 ; fill
G1 X100.344 Y99.814 E1.65740 ; fill
G1 X100.344 Y99.074 E1.67931 ; fill
G1 X95.574 Y103.844 E1.87905 ; fill
G1 X94.834 Y103.844 E1.90096 ; fill
G1 X100.344 Y98.334 E2.13169 ; fill
G1 X100.344 Y97.594 E2.15360 ; fill
G1 X94.094 Y103.844 E2.41531 ; fill
G1 X93.354 Y103.844 E2.43721 ; fill
G1 X100.344 Y96.854 E2.72991 ; fill
G1 X100.344 Y96.114 E2.75181 ; fill
G1 X92.614 Y103.844 E3.07549 ; fill
G1 X91.874 Y103.844 E3.09740 ; fill
G1 X100.344 Y95.374 E3.45205 ; fill
G1 X100.344 Y94.634 E3.47396 ; fill
G1 X91.134 Y103.844 E3.85960 ; fill
G1 X90.394 Y103.844 E3.88151 ; fill
G1 X100.344 Y93.894 E4.29813 ; fill
G1 X100.344 Y93.154 E4.32004 ; fill
G1 X89.654 Y103.844 E4.76764 ; fill
G1 X88.914 Y103.844 E4.78955 ; fill
G1 X100.344 Y92.414 E5.26813 ; fill
G1 X100.344 Y91.674 E5.29004 ; fill
G1 X88.174 Y103.844 E5.79961 ; fill
G1 X87.434 Y103.844 E5.82151 ; fill
G1 X100.344 Y90.934 E6.36206 ; fill
G1 X100.344 Y90.194 E6.38397 ; fill
G1 X86.694 Y103.844 E6.95550 ; fill
G1 X85.955 Y103.844 E6.97741 ; fill
G1 X100.344 Y89.455 E7.57992 ; fill
G1 X100.344 Y88.715 E7.60183 ; fill
G1 X85.215 Y103.844 E8.23532 ; fill
G1 X84.475 Y103.844 E8.25723 ; fill
G1 X100.344 Y87.975 E8.92171 ; fill
G1 X100.344 Y87.235 E8.94361 ; fill
G1 X83.735 Y103.844 E9.63907 ; fill
G1 X82.995 Y103.844 E9.66098 ; fill
G1 X100.344 Y86.495 E10.38742 ; fill
G1 X100.344 Y85.755 E10.40933 ; fill
G1 X82.255 Y103.844 E11.16675 ; fill
G1 X81.515 Y103.844 E11.18866 ; fill
G1 X100.344 Y85.015 E11.97707 ; fill
G1 X100.344 Y84.275 E11.99897 ; fill
G1 X80.775 Y103.844 E12.81836 ; fill
G1 X80.035 Y103.844 E12.84027 ; fill
G1 X100.344 Y83.535 E13.69064 ; fill
G1 X100.344 Y82.795 E13.71254 ; fill
G1 X79.656 Y103.483 E14.57879 ; fill
G1 X79.656 Y102.743 E14.60070 ; fill
G1 X100.344 Y82.055 E15.46694 ; fill
G1 X100.344 Y81.315 E15.48884 ; fill
G1 X79.656 Y102.003 E16.35508 ; fill
G1 X79.656 Y101.263 E16.37699 ; fill
G1 X100.344 Y80.575 E17.24323 ; fill
G1 X100.344 Y79.835 E17.26514 ; fill
G1 X79.656 Y100.523 E18.13138 ; fill
G1 X79.656 Y99.784 E18.15329 ; fill
G1 X100.344 Y79.095 E19.01953 ; fill
G1 X100.344 Y78.355 E19.04144 ; fill
G1 X79.656 Y99.044 E19.90769 ; fill
G1 X79.656 Y98.304 E19.92959 ; fill
G1 X100.344 Y77.616 E20.79584 ; fill
G1 X100.344 Y76.876 E20.81774 ; fill
G1 X79.656 Y97.564 E21.68399 ; fill
G1 X79.656 Y96.824 E21.70589 ; fill
G1 X100.344 Y76.136 E22.57214 ; fill
G1 X100.344 Y75.396 E22.59405 ; fill
G1 X79.656 Y96.084 E23.46029 ; fill
G1 X79.656 Y95.344 E23.48220 ; fill
G1 X100.344 Y74.656 E24.34844 ; fill
G1 X100.344 Y73.916 E24.37035 ; fill
G1 X79.656 Y94.604 E25.23659 ; fill
G1 X79.656 Y93.864 E25.25850 ; fill
G1 X100.344 Y73.176 E26.12474 ; fill
G1 X100.344 Y72.436 E26.14665 ; fill
G1 X79.656 Y93.124 E27.01289 ; fill
G1 X79.656 Y92.384 E27.03479 ; fill
G1 X100.344 Y71.696 E27.90104 ; fill
G1 X100.344 Y70.956 E27.92294 ; fill
G1 X79.656 Y91.644 E28.78919 ; fill
G1 X79.656 Y90.904 E28.81110 ; fill
G1 X100.344 Y70.216 E29.67734 ; fill
G1 X100.344 Y69.476 E29.69925 ; fill
G1 X79.656 Y90.165 E30.56549 ; fill
G1 X79.656 Y89.425 E30.58740 ; fill
G1 X100.344 Y68.736 E31.45364 ; fill
G1 X100.344 Y67.997 E31.47555 ; fill
G1 X79.656 Y88.685 E32.34179 ; fill
G1 X79.656 Y87.945 E32.36370 ; fill
G1 X100.344 Y67.257 E33.22994 ; fill
G1 X100.344 Y66.517 E33.25185 ; fill
G1 X79.656 Y87.205 E34.11809 ; fill
G1 X79.656 Y86.465 E34.14000 ; fill
G1 X99.965 Y66.156 E34.99036 ; fill
G1 X99.225 Y66.156 E35.01227 ; fill
G1 X79.656 Y85.725 E35.83165 ; fill
G1 X79.656 Y84.985 E35.85356 ; fill
G1 X98.485 Y66.156 E36.64196 ; fill
G1 X97.745 Y66.156 E36.66387 ; fill
G1 X79.656 Y84.245 E37.42128 ; fill
G1 X79.656 Y83.505 E37.44319 ; fill
G1 X97.005 Y66.156 E38.16963 ; fill
G1 X96.265 Y66.156 E38.19153 ; fill
G1 X79.656 Y82.765 E38.88699 ; fill
G1 X79.656 Y82.025 E38.90890 ; fill
G1 X95.525 Y66.156 E39.57337 ; fill
G1 X94.785 Y66.156 E39.59528 ; fill
G1 X79.656 Y81.285 E40.22877 ; fill
G1 X79.656 Y80.545 E40.25068 ; fill
G1 X94.045 Y66.156 E40.85319 ; fill
G1 X93.305 Y66.156 E40.87510 ; fill
G1 X79.656 Y79.805 E41.44662 ; fill
G1 X79.656 Y79.066 E41.46853 ; fill
G1 X92.566 Y66.156 E42.00907 ; fill
G1 X91.826 Y66.156 E42.03098 ; fill
G1 X79.656 Y78.326 E42.54054 ; fill
G1 X79.656 Y77.586 E42.56245 ; fill
G1 X91.086 Y66.156 E43.04103 ; fill
G1 X90.346 Y66.156 E43.06294 ; fill
G1 X79.656 Y76.846 E43.51053 ; fill
G1 X79.656 Y76.106 E43.53244 ; fill
G1 X89.606 Y66.156 E43.94906 ; fill
G1 X88.866 Y66.156 E43.97097 ; fill
G1 X79.656 Y75.366 E44.35660 ; fill
G1 X79.656 Y74.626 E44.37851 ; fill
G1 X88.126 Y66.156 E44.73316 ; fill
G1 X87.386 Y66.156 E44.75507 ; fill
G1 X79.656 Y73.886 E45.07874 ; fill
G1 X79.656 Y73.146 E45.10065 ; fill
G1 X86.646 Y66.156 E45.39334 ; fill
G1 X85.906 Y66.156 E45.41525 ; fill
G1 X79.656 Y72.406 E45.67695 ; fill
G1 X79.656 Y71.666 E45.69886 ; fill
G1 X85.166 Y66.156 E45.92958 ; fill
G1 X84.426 Y66.156 E45.95149 ; fill
G1 X79.656 Y70.926 E46.15123 ; fill
G1 X79.656 Y70.186 E46.17314 ; fill
G1 X83.686 Y66.156 E46.34190 ; fill
G1 X82.946 Y66.156 E46.36381 ; fill
G1 X79.656 Y69.446 E46.50158 ; fill
G1 X79.656 Y68.707 E46.52349 ; fill
G1 X82.207 Y66.156 E46.63029 ; fill
G1 X81.467 Y66.156 E46.65220 ; fill
G1 X79.656 Y67.967 E46.72801 ; fill
G1 X79.656 Y67.227 E46.74992 ; fill
G1 X80.727 Y66.156 E46.79475 ; fill
G1 X79.987 Y66.156 E46.81666 ; fill
G1 X79.656 Y66.487 E46.83051 ; fill
G1 F1800.000 E45.83051 ; retract
G1 Z2.200 ; move to next layer (2) and lift
G92 E0 ; reset extrusion distance
