; generated by Slic3r 0.9.8-dev on 2013-01-11 at 20:14:41

; layer_height = 0.4
; perimeters = 3
; top_solid_layers = 3
; bottom_solid_layers = 3
; fill_density = 0.40
; perimeter_speed = 30
; infill_speed = 60
; travel_speed = 130
; scale = 1
; nozzle_diameter = 0.5
; filament_diameter = 3
; extrusion_multiplier = 1
; perimeters extrusion width = 0.53mm
; infill extrusion width = 0.53mm
; first layer extrusion width = 0.80mm

M190 S60 ; wait for bed temperature to be reached
M104 S180 ; set temperature
G28 ; home all axes
G92 E0 ;reset extruder
M109 S180 ; wait for temperature to be reached
G90 ; use absolute coordinates
G21 ; set units to millimeters
G92 E0 ; reset extrusion distance
M82 ; use absolute distances for extrusion
G1 F1800.000 E-1.00000 ; retract
G1 Z0.900 ; move to next layer (0) and lift
G92 E0 ; reset extrusion distance
G1 X144.620 Y109.990 F7800.000 ; move to first skirt point
G1 Z0.400 ; restore layer Z
G1 F1800.000 E1.00000 ; compensate retraction
G1 X144.560 Y110.880 F540.000 E1.03713 ; skirt
G1 X143.980 Y115.250 E1.22064 ; skirt
G1 X143.850 Y115.940 E1.24987 ; skirt
G1 X143.760 Y116.280 E1.26451 ; skirt
G1 X143.520 Y116.940 E1.29374 ; skirt
G1 X141.830 Y121.010 E1.47719 ; skirt
G1 X141.690 Y121.330 E1.49173 ; skirt
G1 X141.350 Y121.950 E1.52117 ; skirt
G1 X140.960 Y122.520 E1.54992 ; skirt
G1 X138.280 Y126.020 E1.73342 ; skirt
G1 X137.820 Y126.570 E1.76327 ; skirt
G1 X137.570 Y126.820 E1.77799 ; skirt
G1 X137.020 Y127.280 E1.80783 ; skirt
G1 X133.520 Y129.960 E1.99134 ; skirt
G1 X132.950 Y130.350 E2.02009 ; skirt
G1 X132.640 Y130.530 E2.03501 ; skirt
G1 X132.010 Y130.830 E2.06406 ; skirt
G1 X127.940 Y132.520 E2.24751 ; skirt
G1 X127.610 Y132.650 E2.26227 ; skirt
G1 X126.920 Y132.850 E2.29218 ; skirt
G1 X126.570 Y132.930 E2.30712 ; skirt
G1 X121.890 Y133.560 E2.50370 ; skirt
G1 X120.990 Y133.620 E2.54124 ; skirt
G1 X79.010 Y133.620 E4.28877 ; skirt
G1 X78.130 Y133.560 E4.32548 ; skirt
G1 X73.750 Y132.980 E4.50941 ; skirt
G1 X73.050 Y132.850 E4.53904 ; skirt
G1 X72.380 Y132.650 E4.56815 ; skirt
G1 X67.660 Y130.690 E4.78090 ; skirt
G1 X67.040 Y130.350 E4.81033 ; skirt
G1 X66.470 Y129.960 E4.83908 ; skirt
G1 X62.970 Y127.280 E5.02259 ; skirt
G1 X62.420 Y126.820 E5.05243 ; skirt
G1 X62.170 Y126.570 E5.06715 ; skirt
G1 X61.710 Y126.020 E5.09700 ; skirt
G1 X59.030 Y122.520 E5.28050 ; skirt
G1 X58.830 Y122.240 E5.29483 ; skirt
G1 X58.460 Y121.650 E5.32382 ; skirt
G1 X58.160 Y121.020 E5.35286 ; skirt
G1 X56.470 Y116.940 E5.53670 ; skirt
G1 X56.230 Y116.270 E5.56632 ; skirt
G1 X56.140 Y115.940 E5.58056 ; skirt
G1 X56.010 Y115.250 E5.60979 ; skirt
G1 X55.430 Y110.880 E5.79330 ; skirt
G1 X55.370 Y109.990 E5.83043 ; skirt
G1 X55.370 Y68.010 E7.57795 ; skirt
G1 X55.430 Y67.130 E7.61467 ; skirt
G1 X56.010 Y62.750 E7.79859 ; skirt
G1 X56.140 Y62.060 E7.82782 ; skirt
G1 X56.340 Y61.380 E7.85733 ; skirt
G1 X58.300 Y56.660 E8.07008 ; skirt
G1 X58.460 Y56.340 E8.08497 ; skirt
G1 X58.640 Y56.040 E8.09953 ; skirt
G1 X59.030 Y55.470 E8.12828 ; skirt
G1 X61.710 Y51.970 E8.31179 ; skirt
G1 X62.170 Y51.420 E8.34163 ; skirt
G1 X62.420 Y51.170 E8.35635 ; skirt
G1 X62.970 Y50.710 E8.38620 ; skirt
G1 X66.470 Y48.030 E8.56970 ; skirt
G1 X67.040 Y47.630 E8.59869 ; skirt
G1 X67.660 Y47.300 E8.62793 ; skirt
G1 X72.040 Y45.470 E8.82553 ; skirt
G1 X72.710 Y45.230 E8.85515 ; skirt
G1 X73.050 Y45.140 E8.86979 ; skirt
G1 X73.750 Y45.010 E8.89943 ; skirt
G1 X78.130 Y44.430 E9.08335 ; skirt
G1 X79.010 Y44.370 E9.12007 ; skirt
G1 X120.990 Y44.370 E10.86759 ; skirt
G1 X121.880 Y44.430 E10.90473 ; skirt
G1 X126.250 Y45.010 E11.08823 ; skirt
G1 X126.940 Y45.140 E11.11746 ; skirt
G1 X127.280 Y45.230 E11.13210 ; skirt
G1 X127.950 Y45.470 E11.16173 ; skirt
G1 X132.010 Y47.160 E11.34479 ; skirt
G1 X132.330 Y47.300 E11.35933 ; skirt
G1 X132.950 Y47.630 E11.38857 ; skirt
G1 X133.520 Y48.030 E11.41756 ; skirt
G1 X137.020 Y50.710 E11.60106 ; skirt
G1 X137.570 Y51.170 E11.63091 ; skirt
G1 X137.820 Y51.420 E11.64563 ; skirt
G1 X138.280 Y51.970 E11.67547 ; skirt
G1 X140.960 Y55.470 E11.85898 ; skirt
G1 X141.350 Y56.040 E11.88773 ; skirt
G1 X141.690 Y56.660 E11.91716 ; skirt
G1 X143.520 Y61.050 E12.11515 ; skirt
G1 X143.760 Y61.710 E12.14438 ; skirt
G1 X143.850 Y62.050 E12.15903 ; skirt
G1 X143.980 Y62.750 E12.18866 ; skirt
G1 X144.560 Y67.130 E12.37258 ; skirt
G1 X144.620 Y68.010 E12.40930 ; skirt
G1 X144.620 Y109.879 E14.15223 ; skirt
G1 X144.620 Y109.990 E14.15682 ; skirt
G1 F1800.000 E13.15682 ; retract
G1 Z0.900 ; lift plate during travel
G92 E0 ; reset extrusion distance
G1 X128.599 Y70.049 F7800.000 ; move to first perimeter point
G1 Z0.400 ; restore layer Z
G1 F1800.000 E1.00000 ; compensate retraction
G1 X127.812 Y71.949 F540.000 E1.08561 ; perimeter
G1 X126.560 Y73.580 E1.17121 ; perimeter
G1 X124.929 Y74.832 E1.25682 ; perimeter
G1 X123.029 Y75.619 E1.34243 ; perimeter
G1 X120.990 Y75.887 E1.42803 ; perimeter
G1 X118.951 Y75.619 E1.51364 ; perimeter
G1 X117.051 Y74.832 E1.59924 ; perimeter
G1 X115.420 Y73.580 E1.68485 ; perimeter
G1 X114.168 Y71.949 E1.77045 ; perimeter
G1 X113.381 Y70.049 E1.85606 ; perimeter
G1 X113.113 Y68.010 E1.94167 ; perimeter
G1 X113.381 Y65.971 E2.02727 ; perimeter
G1 X114.168 Y64.071 E2.11288 ; perimeter
G1 X115.420 Y62.440 E2.19848 ; perimeter
G1 X117.051 Y61.188 E2.28408 ; perimeter
G1 X118.951 Y60.401 E2.36969 ; perimeter
G1 X120.990 Y60.132 E2.45530 ; perimeter
G1 X123.029 Y60.401 E2.54090 ; perimeter
G1 X124.929 Y61.188 E2.62651 ; perimeter
G1 X126.561 Y62.439 E2.71211 ; perimeter
G1 X127.812 Y64.071 E2.79772 ; perimeter
G1 X128.599 Y65.971 E2.88332 ; perimeter
G1 X128.868 Y68.010 E2.96893 ; perimeter
G1 X128.614 Y69.939 E3.04994 ; perimeter
G1 X128.599 Y70.049 E3.05453 ; perimeter
G1 X127.883 Y69.857 F7800.000 ; move to first perimeter point
G1 X127.170 Y71.578 F540.000 E3.13208 ; perimeter
G1 X126.036 Y73.055 E3.20962 ; perimeter
G1 X124.558 Y74.189 E3.28716 ; perimeter
G1 X122.837 Y74.902 E3.36471 ; perimeter
G1 X120.990 Y75.145 E3.44225 ; perimeter
G1 X119.143 Y74.902 E3.51979 ; perimeter
G1 X117.422 Y74.189 E3.59733 ; perimeter
G1 X115.945 Y73.055 E3.67487 ; perimeter
G1 X114.811 Y71.578 E3.75242 ; perimeter
G1 X114.098 Y69.857 E3.82996 ; perimeter
G1 X113.855 Y68.010 E3.90750 ; perimeter
G1 X114.098 Y66.163 E3.98504 ; perimeter
G1 X114.811 Y64.442 E4.06259 ; perimeter
G1 X115.945 Y62.964 E4.14013 ; perimeter
G1 X117.422 Y61.830 E4.21767 ; perimeter
G1 X119.143 Y61.117 E4.29522 ; perimeter
G1 X120.990 Y60.874 E4.37276 ; perimeter
G1 X122.837 Y61.117 E4.45030 ; perimeter
G1 X124.558 Y61.830 E4.52784 ; perimeter
G1 X126.036 Y62.964 E4.60539 ; perimeter
G1 X127.170 Y64.442 E4.68293 ; perimeter
G1 X127.883 Y66.163 E4.76047 ; perimeter
G1 X128.126 Y68.010 E4.83801 ; perimeter
G1 X127.897 Y69.747 E4.91096 ; perimeter
G1 X127.883 Y69.857 E4.91555 ; perimeter
G1 X127.166 Y69.665 F7800.000 ; move to first perimeter point
G1 X126.527 Y71.207 F324.000 E4.98503 ; perimeter
G1 X125.511 Y72.531 E5.05451 ; perimeter
G1 X124.187 Y73.547 E5.12399 ; perimeter
G1 X122.645 Y74.186 E5.19347 ; perimeter
G1 X120.990 Y74.403 E5.26295 ; perimeter
G1 X119.335 Y74.186 E5.33243 ; perimeter
G1 X117.793 Y73.547 E5.40191 ; perimeter
G1 X116.469 Y72.531 E5.47139 ; perimeter
G1 X115.453 Y71.207 E5.54087 ; perimeter
G1 X114.814 Y69.665 E5.61035 ; perimeter
G1 X114.597 Y68.010 E5.67983 ; perimeter
G1 X114.814 Y66.355 E5.74931 ; perimeter
G1 X115.453 Y64.813 E5.81879 ; perimeter
G1 X116.469 Y63.489 E5.88827 ; perimeter
G1 X117.793 Y62.473 E5.95775 ; perimeter
G1 X119.335 Y61.834 E6.02723 ; perimeter
G1 X120.990 Y61.616 E6.09671 ; perimeter
G1 X122.645 Y61.834 E6.16619 ; perimeter
G1 X124.187 Y62.473 E6.23567 ; perimeter
G1 X125.511 Y63.489 E6.30515 ; perimeter
G1 X126.527 Y64.813 E6.37463 ; perimeter
G1 X127.166 Y66.355 E6.44411 ; perimeter
G1 X127.384 Y68.010 E6.51359 ; perimeter
G1 X127.180 Y69.555 E6.57847 ; perimeter
G1 X127.166 Y69.665 E6.58306 ; perimeter
G1 X127.663 Y70.207 F7800.000 ; move inwards before travel
G1 F1800.000 E5.58306 ; retract
G1 Z0.900 ; lift plate during travel
G92 E0 ; reset extrusion distance
G1 X134.333 Y60.307 F7800.000 ; move to first perimeter point
G1 Z0.400 ; restore layer Z
G1 F1800.000 E1.00000 ; compensate retraction
G1 X135.872 Y64.022 F540.000 E1.16742 ; perimeter
G1 X136.397 Y68.010 E1.33484 ; perimeter
G1 X135.872 Y71.997 E1.50226 ; perimeter
G1 X134.333 Y75.713 E1.66969 ; perimeter
G1 X131.884 Y78.904 E1.83711 ; perimeter
G1 X128.693 Y81.352 E2.00453 ; perimeter
G1 X124.978 Y82.891 E2.17195 ; perimeter
G1 X120.990 Y83.416 E2.33937 ; perimeter
G1 X117.744 Y82.989 E2.47566 ; perimeter
G1 X117.003 Y82.891 E2.50679 ; perimeter
G1 X113.287 Y81.352 E2.67422 ; perimeter
G1 X110.096 Y78.904 E2.84164 ; perimeter
G1 X107.648 Y75.713 E3.00906 ; perimeter
G1 X106.395 Y72.688 E3.14535 ; perimeter
G1 X106.109 Y71.997 E3.17648 ; perimeter
G1 X105.584 Y68.010 E3.34390 ; perimeter
G1 X106.109 Y64.022 E3.51132 ; perimeter
G1 X106.395 Y63.331 E3.54246 ; perimeter
G1 X107.648 Y60.307 E3.67875 ; perimeter
G1 X110.096 Y57.116 E3.84617 ; perimeter
G1 X113.287 Y54.667 E4.01359 ; perimeter
G1 X113.751 Y54.475 E4.03449 ; perimeter
G1 X117.003 Y53.128 E4.18101 ; perimeter
G1 X120.990 Y52.603 E4.34843 ; perimeter
G1 X124.978 Y53.128 E4.51585 ; perimeter
G1 X128.693 Y54.667 E4.68328 ; perimeter
G1 X131.884 Y57.116 E4.85070 ; perimeter
G1 X134.265 Y60.219 E5.01353 ; perimeter
G1 X134.333 Y60.307 E5.01812 ; perimeter
G1 X134.975 Y59.936 F7800.000 ; move to first perimeter point
G1 X136.588 Y63.830 F540.000 E5.19360 ; perimeter
G1 X137.139 Y68.010 E5.36909 ; perimeter
G1 X136.588 Y72.189 E5.54457 ; perimeter
G1 X134.975 Y76.084 E5.72006 ; perimeter
G1 X132.409 Y79.428 E5.89554 ; perimeter
G1 X129.064 Y81.995 E6.07103 ; perimeter
G1 X125.170 Y83.608 E6.24651 ; perimeter
G1 X120.990 Y84.158 E6.42199 ; perimeter
G1 X117.648 Y83.718 E6.56231 ; perimeter
G1 X116.811 Y83.608 E6.59748 ; perimeter
G1 X112.916 Y81.995 E6.77296 ; perimeter
G1 X109.572 Y79.428 E6.94845 ; perimeter
G1 X107.005 Y76.084 E7.12393 ; perimeter
G1 X105.715 Y72.970 E7.26425 ; perimeter
G1 X105.392 Y72.189 E7.29942 ; perimeter
G1 X104.842 Y68.010 E7.47490 ; perimeter
G1 X105.392 Y63.830 E7.65039 ; perimeter
G1 X105.715 Y63.050 E7.68555 ; perimeter
G1 X107.005 Y59.936 E7.82587 ; perimeter
G1 X109.572 Y56.591 E8.00136 ; perimeter
G1 X112.916 Y54.025 E8.17684 ; perimeter
G1 X113.469 Y53.796 E8.20178 ; perimeter
G1 X116.811 Y52.412 E8.35232 ; perimeter
G1 X120.990 Y51.861 E8.52781 ; perimeter
G1 X125.170 Y52.412 E8.70329 ; perimeter
G1 X129.064 Y54.025 E8.87878 ; perimeter
G1 X132.409 Y56.591 E9.05426 ; perimeter
G1 X134.908 Y59.848 E9.22515 ; perimeter
G1 X134.975 Y59.936 E9.22975 ; perimeter
G1 X135.618 Y59.565 F7800.000 ; move to first perimeter point
G1 X137.305 Y63.638 F540.000 E9.41329 ; perimeter
G1 X137.881 Y68.010 E9.59684 ; perimeter
G1 X137.305 Y72.381 E9.78039 ; perimeter
G1 X135.618 Y76.455 E9.96394 ; perimeter
G1 X132.934 Y79.953 E10.14748 ; perimeter
G1 X129.435 Y82.637 E10.33103 ; perimeter
G1 X125.362 Y84.325 E10.51458 ; perimeter
G1 X120.990 Y84.900 E10.69813 ; perimeter
G1 X117.552 Y84.448 E10.84248 ; perimeter
G1 X116.619 Y84.325 E10.88167 ; perimeter
G1 X112.545 Y82.637 E11.06522 ; perimeter
G1 X109.047 Y79.953 E11.24877 ; perimeter
G1 X106.363 Y76.455 E11.43232 ; perimeter
G1 X105.036 Y73.251 E11.57667 ; perimeter
G1 X104.675 Y72.381 E11.61586 ; perimeter
G1 X104.100 Y68.010 E11.79941 ; perimeter
G1 X104.675 Y63.638 E11.98296 ; perimeter
G1 X105.036 Y62.768 E12.02216 ; perimeter
G1 X106.363 Y59.565 E12.16651 ; perimeter
G1 X109.047 Y56.066 E12.35005 ; perimeter
G1 X112.545 Y53.382 E12.53360 ; perimeter
G1 X113.415 Y53.022 E12.57280 ; perimeter
G1 X116.619 Y51.695 E12.71715 ; perimeter
G1 X120.990 Y51.119 E12.90070 ; perimeter
G1 X125.362 Y51.695 E13.08424 ; perimeter
G1 X129.435 Y53.382 E13.26779 ; perimeter
G1 X132.934 Y56.066 E13.45134 ; perimeter
G1 X135.551 Y59.477 E13.63029 ; perimeter
G1 X135.618 Y59.565 E13.63489 ; perimeter
G1 X135.222 Y60.185 F7800.000 ; move inwards before travel
G1 F1800.000 E12.63489 ; retract
G1 Z0.900 ; lift plate during travel
G92 E0 ; reset extrusion distance
G1 X131.125 Y57.406 F7800.000 ; move to first fill point
G1 Z0.400 ; restore layer Z
G1 F1800.000 E1.00000 ; compensate retraction
G1 X131.594 Y57.875 F1080.000 E1.02823 ; fill
G1 F1800.000 E0.02823 ; retract
G1 Z0.900 ; lift plate during travel
G92 E0 ; reset extrusion distance
G1 X115.430 Y61.918 F7800.000 ; move to first fill point
G1 Z0.400 ; restore layer Z
G1 F1800.000 E1.00000 ; compensate retraction
G1 X110.688 Y57.175 F1080.000 E1.28543 ; fill
G1 X111.289 Y56.714 E1.31771 ; fill
G1 X116.032 Y61.456 E1.60314 ; fill
G1 X116.634 Y60.995 E1.63542 ; fill
G1 X111.891 Y56.252 E1.92085 ; fill
G1 X112.493 Y55.790 E1.95313 ; fill
G1 X117.316 Y60.613 E2.24338 ; fill
G1 X118.068 Y60.302 E2.27802 ; fill
G1 X113.095 Y55.328 E2.57733 ; fill
G1 X113.764 Y54.935 E2.61039 ; fill
G1 X118.820 Y59.990 E2.91464 ; fill
G1 X119.716 Y59.823 E2.95345 ; fill
G1 X114.517 Y54.623 E3.26639 ; fill
G1 X115.269 Y54.312 E3.30102 ; fill
G1 X120.656 Y59.699 E3.62526 ; fill
G1 X121.709 Y59.688 E3.67005 ; fill
G1 X116.021 Y54.000 E4.01238 ; fill
G1 X116.773 Y53.689 E4.04702 ; fill
G1 X122.933 Y59.849 E4.41779 ; fill
G1 X124.497 Y60.350 E4.48767 ; fill
G1 X117.665 Y53.518 E4.89882 ; fill
G1 X118.605 Y53.394 E4.93916 ; fill
G1 X135.606 Y70.395 E5.96231 ; fill
G1 X135.729 Y69.455 E6.00264 ; fill
G1 X119.545 Y53.271 E6.97667 ; fill
G1 X120.485 Y53.147 E7.01702 ; fill
G1 X135.853 Y68.515 E7.94193 ; fill
G1 X135.774 Y67.373 E7.99067 ; fill
G1 X121.627 Y53.226 E8.84207 ; fill
G1 X122.852 Y53.387 E8.89464 ; fill
G1 X135.613 Y66.148 E9.66263 ; fill
G1 X135.452 Y64.923 E9.71520 ; fill
G1 X124.077 Y53.548 E10.39977 ; fill
G1 X125.664 Y54.071 E10.47087 ; fill
G1 X134.929 Y63.336 E11.02847 ; fill
G1 X134.177 Y61.521 E11.11210 ; fill
G1 X127.479 Y54.823 E11.51518 ; fill
G1 F1800.000 E10.51518 ; retract
G1 Z0.900 ; lift plate during travel
G92 E0 ; reset extrusion distance
G1 X107.804 Y74.499 F7800.000 ; move to first fill point
G1 Z0.400 ; restore layer Z
G1 F1800.000 E1.00000 ; compensate retraction
G1 X114.501 Y81.196 F1080.000 E1.40308 ; fill
G1 X116.317 Y81.948 E1.48671 ; fill
G1 X107.052 Y72.683 E2.04433 ; fill
G1 X106.529 Y71.096 E2.11542 ; fill
G1 X117.904 Y82.471 E2.80000 ; fill
G1 X119.128 Y82.633 E2.85256 ; fill
G1 X106.367 Y69.872 E3.62055 ; fill
G1 X106.206 Y68.647 E3.67312 ; fill
G1 X120.353 Y82.794 E4.52453 ; fill
G1 X121.496 Y82.873 E4.57326 ; fill
G1 X106.127 Y67.504 E5.49818 ; fill
G1 X106.251 Y66.565 E5.53852 ; fill
G1 X122.435 Y82.749 E6.51255 ; fill
G1 X123.375 Y82.625 E6.55289 ; fill
G1 X106.375 Y65.625 E7.57603 ; fill
G1 X106.498 Y64.685 E7.61637 ; fill
G1 X113.330 Y71.517 E8.02753 ; fill
G1 X112.830 Y69.953 E8.09740 ; fill
G1 X106.669 Y63.792 E8.46817 ; fill
G1 X106.981 Y63.040 E8.50282 ; fill
G1 X112.669 Y68.728 E8.84513 ; fill
G1 X112.680 Y67.676 E8.88992 ; fill
G1 X107.292 Y62.288 E9.21416 ; fill
G1 X107.604 Y61.536 E9.24880 ; fill
G1 X112.803 Y66.736 E9.56174 ; fill
G1 X112.971 Y65.839 E9.60055 ; fill
G1 X107.915 Y60.784 E9.90479 ; fill
G1 X108.309 Y60.114 E9.93786 ; fill
G1 X113.282 Y65.087 E10.23716 ; fill
G1 X113.593 Y64.335 E10.27180 ; fill
G1 X108.771 Y59.512 E10.56205 ; fill
G1 X109.232 Y58.911 E10.59433 ; fill
G1 X113.975 Y63.653 E10.87976 ; fill
G1 X114.437 Y63.052 E10.91204 ; fill
G1 X109.694 Y58.309 E11.19747 ; fill
G1 X110.156 Y57.707 E11.22975 ; fill
G1 X114.899 Y62.450 E11.51518 ; fill
G1 F1800.000 E10.51518 ; retract
G1 Z0.900 ; lift plate during travel
G92 E0 ; reset extrusion distance
G1 X110.855 Y78.614 F7800.000 ; move to first fill point
G1 Z0.400 ; restore layer Z
G1 F1800.000 E1.00000 ; compensate retraction
G1 X110.386 Y78.145 F1080.000 E1.02824 ; fill
G1 F1800.000 E0.02824 ; retract
G1 Z0.900 ; lift plate during travel
G92 E0 ; reset extrusion distance
G1 X128.650 Y64.503 F7800.000 ; move to first fill point
G1 Z0.400 ; restore layer Z
G1 F1800.000 E1.00000 ; compensate retraction
G1 X135.482 Y71.335 F1080.000 E1.41116 ; fill
