; generated by Slic3r 0.9.8-dev on 2013-01-11 at 20:11:15

; layer_height = 0.4
; perimeters = 3
; top_solid_layers = 3
; bottom_solid_layers = 3
; fill_density = 0.40
; perimeter_speed = 30
; infill_speed = 60
; travel_speed = 130
; scale = 1
; nozzle_diameter = 0.5
; filament_diameter = 3
; extrusion_multiplier = 1
; perimeters extrusion width = 0.53mm
; infill extrusion width = 0.53mm
; first layer extrusion width = 0.80mm

M190 S60 ; wait for bed temperature to be reached
M104 S180 ; set temperature
G28 ; home all axes
G92 E0 ;reset extruder
M109 S180 ; wait for temperature to be reached
G90 ; use absolute coordinates
G21 ; set units to millimeters
G92 E0 ; reset extrusion distance
M82 ; use absolute distances for extrusion
G1 F1800.000 E-1.00000 ; retract
G1 Z0.900 ; move to next layer (0) and lift
G92 E0 ; reset extrusion distance
G1 X117.290 Y105.030 F7800.000 ; move to first skirt point
G1 Z0.400 ; restore layer Z
G1 F1800.000 E1.00000 ; compensate retraction
G1 X116.830 Y105.580 F540.000 E1.02985 ; skirt
G1 X116.580 Y105.830 E1.04456 ; skirt
G1 X116.030 Y106.290 E1.07441 ; skirt
G1 X112.530 Y108.970 E1.25792 ; skirt
G1 X111.960 Y109.360 E1.28667 ; skirt
G1 X111.340 Y109.700 E1.31610 ; skirt
G1 X106.950 Y111.530 E1.51409 ; skirt
G1 X106.280 Y111.770 E1.54371 ; skirt
G1 X105.580 Y111.940 E1.57370 ; skirt
G1 X100.900 Y112.570 E1.77027 ; skirt
G1 X100.180 Y112.620 E1.80032 ; skirt
G1 X99.830 Y112.620 E1.81489 ; skirt
G1 X99.120 Y112.570 E1.84452 ; skirt
G1 X94.740 Y111.990 E2.02844 ; skirt
G1 X94.040 Y111.860 E2.05807 ; skirt
G1 X93.700 Y111.770 E2.07272 ; skirt
G1 X93.040 Y111.530 E2.10195 ; skirt
G1 X88.970 Y109.840 E2.28540 ; skirt
G1 X88.650 Y109.700 E2.29994 ; skirt
G1 X88.030 Y109.360 E2.32937 ; skirt
G1 X87.460 Y108.970 E2.35812 ; skirt
G1 X83.960 Y106.290 E2.54163 ; skirt
G1 X83.410 Y105.830 E2.57147 ; skirt
G1 X83.160 Y105.580 E2.58619 ; skirt
G1 X82.700 Y105.030 E2.61604 ; skirt
G1 X80.020 Y101.530 E2.79954 ; skirt
G1 X79.820 Y101.250 E2.81387 ; skirt
G1 X79.450 Y100.660 E2.84286 ; skirt
G1 X79.150 Y100.030 E2.87190 ; skirt
G1 X77.460 Y95.950 E3.05574 ; skirt
G1 X77.330 Y95.620 E3.07050 ; skirt
G1 X77.130 Y94.950 E3.09961 ; skirt
G1 X77.000 Y94.260 E3.12884 ; skirt
G1 X76.420 Y89.890 E3.31234 ; skirt
G1 X76.370 Y89.180 E3.34197 ; skirt
G1 X76.370 Y88.820 E3.35696 ; skirt
G1 X76.420 Y88.120 E3.38617 ; skirt
G1 X77.000 Y83.740 E3.57009 ; skirt
G1 X77.130 Y83.050 E3.59932 ; skirt
G1 X77.330 Y82.370 E3.62883 ; skirt
G1 X79.150 Y77.960 E3.82742 ; skirt
G1 X79.450 Y77.330 E3.85647 ; skirt
G1 X79.630 Y77.030 E3.87103 ; skirt
G1 X80.020 Y76.460 E3.89978 ; skirt
G1 X82.700 Y72.960 E4.08329 ; skirt
G1 X83.160 Y72.410 E4.11314 ; skirt
G1 X83.410 Y72.160 E4.12785 ; skirt
G1 X83.960 Y71.700 E4.15770 ; skirt
G1 X87.460 Y69.020 E4.34120 ; skirt
G1 X88.030 Y68.620 E4.37019 ; skirt
G1 X88.650 Y68.290 E4.39943 ; skirt
G1 X93.030 Y66.460 E4.59703 ; skirt
G1 X93.360 Y66.330 E4.61180 ; skirt
G1 X94.040 Y66.130 E4.64130 ; skirt
G1 X94.740 Y66.000 E4.67094 ; skirt
G1 X99.120 Y65.420 E4.85486 ; skirt
G1 X99.820 Y65.370 E4.88407 ; skirt
G1 X100.180 Y65.370 E4.89906 ; skirt
G1 X100.890 Y65.420 E4.92869 ; skirt
G1 X105.260 Y66.000 E5.11219 ; skirt
G1 X105.950 Y66.130 E5.14142 ; skirt
G1 X106.290 Y66.220 E5.15606 ; skirt
G1 X106.960 Y66.460 E5.18569 ; skirt
G1 X111.020 Y68.150 E5.36875 ; skirt
G1 X111.340 Y68.290 E5.38329 ; skirt
G1 X111.960 Y68.620 E5.41253 ; skirt
G1 X112.530 Y69.020 E5.44152 ; skirt
G1 X116.030 Y71.700 E5.62502 ; skirt
G1 X116.580 Y72.160 E5.65487 ; skirt
G1 X116.830 Y72.410 E5.66959 ; skirt
G1 X117.290 Y72.960 E5.69943 ; skirt
G1 X119.970 Y76.460 E5.88294 ; skirt
G1 X120.360 Y77.030 E5.91169 ; skirt
G1 X120.540 Y77.340 E5.92661 ; skirt
G1 X120.840 Y77.970 E5.95566 ; skirt
G1 X122.530 Y82.040 E6.13911 ; skirt
G1 X122.770 Y82.700 E6.16834 ; skirt
G1 X122.860 Y83.040 E6.18298 ; skirt
G1 X122.990 Y83.740 E6.21262 ; skirt
G1 X123.570 Y88.120 E6.39654 ; skirt
G1 X123.620 Y88.820 E6.42575 ; skirt
G1 X123.620 Y89.180 E6.44074 ; skirt
G1 X123.570 Y89.890 E6.47037 ; skirt
G1 X122.990 Y94.260 E6.65388 ; skirt
G1 X122.860 Y94.950 E6.68310 ; skirt
G1 X122.660 Y95.620 E6.71221 ; skirt
G1 X120.840 Y100.020 E6.91042 ; skirt
G1 X120.540 Y100.650 E6.93947 ; skirt
G1 X120.360 Y100.960 E6.95439 ; skirt
G1 X119.970 Y101.530 E6.98314 ; skirt
G1 X117.357 Y104.942 E7.16205 ; skirt
G1 X117.290 Y105.030 E7.16664 ; skirt
G1 F1800.000 E6.16664 ; retract
G1 Z0.900 ; lift plate during travel
G92 E0 ; reset extrusion distance
G1 X105.570 Y94.570 F7800.000 ; move to first perimeter point
G1 Z0.400 ; restore layer Z
G1 F1800.000 E1.00000 ; compensate retraction
G1 X103.939 Y95.822 F540.000 E1.08560 ; perimeter
G1 X102.039 Y96.609 E1.17121 ; perimeter
G1 X100.000 Y96.878 E1.25681 ; perimeter
G1 X97.961 Y96.609 E1.34242 ; perimeter
G1 X96.061 Y95.822 E1.42803 ; perimeter
G1 X94.430 Y94.570 E1.51363 ; perimeter
G1 X93.178 Y92.939 E1.59924 ; perimeter
G1 X92.391 Y91.039 E1.68484 ; perimeter
G1 X92.122 Y89.000 E1.77045 ; perimeter
G1 X92.391 Y86.961 E1.85605 ; perimeter
G1 X93.178 Y85.061 E1.94166 ; perimeter
G1 X94.430 Y83.430 E2.02727 ; perimeter
G1 X96.061 Y82.178 E2.11287 ; perimeter
G1 X97.961 Y81.391 E2.19848 ; perimeter
G1 X100.000 Y81.122 E2.28408 ; perimeter
G1 X101.769 Y81.355 E2.35835 ; perimeter
G1 X102.039 Y81.391 E2.36969 ; perimeter
G1 X103.939 Y82.178 E2.45530 ; perimeter
G1 X105.570 Y83.430 E2.54090 ; perimeter
G1 X106.822 Y85.061 E2.62650 ; perimeter
G1 X107.609 Y86.961 E2.71211 ; perimeter
G1 X107.878 Y89.000 E2.79772 ; perimeter
G1 X107.609 Y91.039 E2.88332 ; perimeter
G1 X106.822 Y92.939 E2.96893 ; perimeter
G1 X105.637 Y94.483 E3.04994 ; perimeter
G1 X105.570 Y94.570 E3.05453 ; perimeter
G1 X105.046 Y94.046 F7800.000 ; move to first perimeter point
G1 X103.568 Y95.180 F540.000 E3.13207 ; perimeter
G1 X101.847 Y95.892 E3.20962 ; perimeter
G1 X100.000 Y96.136 E3.28716 ; perimeter
G1 X98.153 Y95.892 E3.36470 ; perimeter
G1 X96.432 Y95.180 E3.44224 ; perimeter
G1 X94.954 Y94.046 E3.51979 ; perimeter
G1 X93.820 Y92.568 E3.59733 ; perimeter
G1 X93.108 Y90.847 E3.67487 ; perimeter
G1 X92.864 Y89.000 E3.75242 ; perimeter
G1 X93.108 Y87.153 E3.82996 ; perimeter
G1 X93.820 Y85.432 E3.90750 ; perimeter
G1 X94.954 Y83.954 E3.98504 ; perimeter
G1 X96.432 Y82.820 E4.06258 ; perimeter
G1 X98.153 Y82.108 E4.14013 ; perimeter
G1 X100.000 Y81.864 E4.21767 ; perimeter
G1 X101.673 Y82.085 E4.28791 ; perimeter
G1 X101.847 Y82.108 E4.29521 ; perimeter
G1 X103.568 Y82.820 E4.37276 ; perimeter
G1 X105.046 Y83.954 E4.45030 ; perimeter
G1 X106.180 Y85.432 E4.52784 ; perimeter
G1 X106.892 Y87.153 E4.60538 ; perimeter
G1 X107.136 Y89.000 E4.68293 ; perimeter
G1 X106.892 Y90.847 E4.76047 ; perimeter
G1 X106.180 Y92.568 E4.83801 ; perimeter
G1 X105.113 Y93.958 E4.91096 ; perimeter
G1 X105.046 Y94.046 E4.91555 ; perimeter
G1 X104.521 Y93.521 F7800.000 ; move to first perimeter point
G1 X103.197 Y94.537 F324.000 E4.98503 ; perimeter
G1 X101.655 Y95.176 E5.05451 ; perimeter
G1 X100.000 Y95.394 E5.12399 ; perimeter
G1 X98.345 Y95.176 E5.19347 ; perimeter
G1 X96.803 Y94.537 E5.26295 ; perimeter
G1 X95.479 Y93.521 E5.33243 ; perimeter
G1 X94.463 Y92.197 E5.40191 ; perimeter
G1 X93.824 Y90.655 E5.47139 ; perimeter
G1 X93.606 Y89.000 E5.54087 ; perimeter
G1 X93.824 Y87.345 E5.61035 ; perimeter
G1 X94.463 Y85.803 E5.67983 ; perimeter
G1 X95.479 Y84.479 E5.74931 ; perimeter
G1 X96.803 Y83.463 E5.81879 ; perimeter
G1 X98.345 Y82.824 E5.88827 ; perimeter
G1 X100.000 Y82.606 E5.95775 ; perimeter
G1 X101.577 Y82.814 E6.02395 ; perimeter
G1 X101.655 Y82.824 E6.02723 ; perimeter
G1 X103.197 Y83.463 E6.09671 ; perimeter
G1 X104.521 Y84.479 E6.16619 ; perimeter
G1 X105.537 Y85.803 E6.23567 ; perimeter
G1 X106.176 Y87.345 E6.30515 ; perimeter
G1 X106.394 Y89.000 E6.37463 ; perimeter
G1 X106.176 Y90.655 E6.44410 ; perimeter
G1 X105.537 Y92.197 E6.51358 ; perimeter
G1 X104.588 Y93.433 E6.57847 ; perimeter
G1 X104.521 Y93.521 E6.58306 ; perimeter
G1 X104.680 Y94.239 F7800.000 ; move inwards before travel
G1 F1800.000 E5.58306 ; retract
G1 Z0.900 ; lift plate during travel
G92 E0 ; reset extrusion distance
G1 X100.000 Y73.594 F7800.000 ; move to first perimeter point
G1 Z0.400 ; restore layer Z
G1 F1800.000 E1.00000 ; compensate retraction
G1 X103.987 Y74.118 F540.000 E1.16742 ; perimeter
G1 X107.239 Y75.465 E1.31394 ; perimeter
G1 X107.703 Y75.658 E1.33484 ; perimeter
G1 X110.894 Y78.106 E1.50226 ; perimeter
G1 X113.342 Y81.297 E1.66969 ; perimeter
G1 X114.882 Y85.013 E1.83711 ; perimeter
G1 X115.406 Y89.000 E2.00453 ; perimeter
G1 X114.882 Y92.987 E2.17195 ; perimeter
G1 X113.342 Y96.703 E2.33937 ; perimeter
G1 X110.894 Y99.894 E2.50679 ; perimeter
G1 X107.703 Y102.342 E2.67422 ; perimeter
G1 X103.987 Y103.882 E2.84164 ; perimeter
G1 X103.246 Y103.979 E2.87277 ; perimeter
G1 X100.000 Y104.406 E3.00906 ; perimeter
G1 X96.013 Y103.882 E3.17648 ; perimeter
G1 X92.297 Y102.342 E3.34390 ; perimeter
G1 X89.106 Y99.894 E3.51132 ; perimeter
G1 X86.658 Y96.703 E3.67875 ; perimeter
G1 X85.405 Y93.678 E3.81503 ; perimeter
G1 X85.118 Y92.987 E3.84617 ; perimeter
G1 X84.594 Y89.000 E4.01359 ; perimeter
G1 X85.118 Y85.013 E4.18101 ; perimeter
G1 X85.405 Y84.322 E4.21215 ; perimeter
G1 X86.658 Y81.297 E4.34843 ; perimeter
G1 X89.106 Y78.106 E4.51585 ; perimeter
G1 X92.297 Y75.658 E4.68328 ; perimeter
G1 X96.013 Y74.118 E4.85070 ; perimeter
G1 X99.891 Y73.608 E5.01353 ; perimeter
G1 X100.000 Y73.594 E5.01812 ; perimeter
G1 X100.000 Y72.852 F7800.000 ; move to first perimeter point
G1 X104.180 Y73.402 F540.000 E5.19360 ; perimeter
G1 X107.521 Y74.786 E5.34415 ; perimeter
G1 X108.074 Y75.015 E5.36909 ; perimeter
G1 X111.419 Y77.581 E5.54457 ; perimeter
G1 X113.985 Y80.926 E5.72006 ; perimeter
G1 X115.598 Y84.820 E5.89554 ; perimeter
G1 X116.148 Y89.000 E6.07103 ; perimeter
G1 X115.598 Y93.180 E6.24651 ; perimeter
G1 X113.985 Y97.074 E6.42199 ; perimeter
G1 X111.419 Y100.419 E6.59748 ; perimeter
G1 X108.074 Y102.985 E6.77296 ; perimeter
G1 X104.180 Y104.598 E6.94845 ; perimeter
G1 X103.342 Y104.708 E6.98361 ; perimeter
G1 X100.000 Y105.148 E7.12393 ; perimeter
G1 X95.820 Y104.598 E7.29942 ; perimeter
G1 X91.926 Y102.985 E7.47490 ; perimeter
G1 X88.581 Y100.419 E7.65039 ; perimeter
G1 X86.015 Y97.074 E7.82587 ; perimeter
G1 X84.725 Y93.960 E7.96619 ; perimeter
G1 X84.402 Y93.180 E8.00136 ; perimeter
G1 X83.852 Y89.000 E8.17684 ; perimeter
G1 X84.402 Y84.820 E8.35232 ; perimeter
G1 X84.725 Y84.040 E8.38749 ; perimeter
G1 X86.015 Y80.926 E8.52781 ; perimeter
G1 X88.581 Y77.581 E8.70329 ; perimeter
G1 X91.926 Y75.015 E8.87878 ; perimeter
G1 X95.820 Y73.402 E9.05426 ; perimeter
G1 X99.891 Y72.866 E9.22515 ; perimeter
G1 X100.000 Y72.852 E9.22975 ; perimeter
G1 X100.000 Y72.110 F7800.000 ; move to first perimeter point
G1 X104.372 Y72.685 F540.000 E9.41329 ; perimeter
G1 X107.575 Y74.012 E9.55764 ; perimeter
G1 X108.445 Y74.372 E9.59684 ; perimeter
G1 X111.943 Y77.057 E9.78039 ; perimeter
G1 X114.628 Y80.555 E9.96394 ; perimeter
G1 X116.315 Y84.628 E10.14748 ; perimeter
G1 X116.890 Y89.000 E10.33103 ; perimeter
G1 X116.315 Y93.372 E10.51458 ; perimeter
G1 X114.628 Y97.445 E10.69813 ; perimeter
G1 X111.943 Y100.943 E10.88167 ; perimeter
G1 X108.445 Y103.628 E11.06522 ; perimeter
G1 X104.372 Y105.315 E11.24877 ; perimeter
G1 X103.438 Y105.438 E11.28797 ; perimeter
G1 X100.000 Y105.890 E11.43232 ; perimeter
G1 X95.628 Y105.315 E11.61586 ; perimeter
G1 X91.555 Y103.628 E11.79941 ; perimeter
G1 X88.057 Y100.943 E11.98296 ; perimeter
G1 X85.372 Y97.445 E12.16651 ; perimeter
G1 X84.045 Y94.242 E12.31086 ; perimeter
G1 X83.685 Y93.372 E12.35005 ; perimeter
G1 X83.110 Y89.000 E12.53360 ; perimeter
G1 X83.685 Y84.628 E12.71715 ; perimeter
G1 X84.045 Y83.758 E12.75635 ; perimeter
G1 X85.372 Y80.555 E12.90070 ; perimeter
G1 X88.057 Y77.057 E13.08424 ; perimeter
G1 X91.555 Y74.372 E13.26779 ; perimeter
G1 X95.628 Y72.685 E13.45134 ; perimeter
G1 X99.891 Y72.124 E13.63029 ; perimeter
G1 X100.000 Y72.110 E13.63489 ; perimeter
G1 X100.340 Y72.762 F7800.000 ; move inwards before travel
G1 F1800.000 E12.63489 ; retract
G1 Z0.900 ; lift plate during travel
G92 E0 ; reset extrusion distance
G1 X94.440 Y82.908 F7800.000 ; move to first fill point
G1 Z0.400 ; restore layer Z
G1 F1800.000 E1.00000 ; compensate retraction
G1 X89.697 Y78.166 F1080.000 E1.28543 ; fill
G1 X90.299 Y77.704 E1.31771 ; fill
G1 X95.042 Y82.447 E1.60314 ; fill
G1 X95.644 Y81.985 E1.63542 ; fill
G1 X90.901 Y77.242 E1.92085 ; fill
G1 X91.503 Y76.780 E1.95313 ; fill
G1 X96.326 Y81.603 E2.24338 ; fill
G1 X97.078 Y81.292 E2.27802 ; fill
G1 X92.104 Y76.319 E2.57733 ; fill
G1 X92.774 Y75.925 E2.61039 ; fill
G1 X97.830 Y80.980 E2.91464 ; fill
G1 X98.726 Y80.813 E2.95345 ; fill
G1 X93.526 Y75.613 E3.26639 ; fill
G1 X94.278 Y75.302 E3.30102 ; fill
G1 X99.666 Y80.689 E3.62526 ; fill
G1 X100.718 Y80.678 E3.67005 ; fill
G1 X95.030 Y74.990 E4.01238 ; fill
G1 X95.782 Y74.679 E4.04702 ; fill
G1 X101.943 Y80.840 E4.41779 ; fill
G1 X103.507 Y81.340 E4.48767 ; fill
G1 X96.675 Y74.508 E4.89882 ; fill
G1 X97.615 Y74.385 E4.93916 ; fill
G1 X114.615 Y91.385 E5.96231 ; fill
G1 X114.739 Y90.445 E6.00264 ; fill
G1 X98.555 Y74.261 E6.97667 ; fill
G1 X99.495 Y74.137 E7.01702 ; fill
G1 X114.863 Y89.505 E7.94193 ; fill
G1 X114.784 Y88.363 E7.99067 ; fill
G1 X100.637 Y74.216 E8.84207 ; fill
G1 X101.862 Y74.377 E8.89464 ; fill
G1 X114.623 Y87.138 E9.66263 ; fill
G1 X114.461 Y85.913 E9.71520 ; fill
G1 X103.087 Y74.539 E10.39977 ; fill
G1 X104.673 Y75.062 E10.47087 ; fill
G1 X113.938 Y84.327 E11.02847 ; fill
G1 X113.186 Y82.511 E11.11210 ; fill
G1 X106.489 Y75.814 E11.51518 ; fill
G1 F1800.000 E10.51518 ; retract
G1 Z0.900 ; lift plate during travel
G92 E0 ; reset extrusion distance
G1 X86.814 Y95.489 F7800.000 ; move to first fill point
G1 Z0.400 ; restore layer Z
G1 F1800.000 E1.00000 ; compensate retraction
G1 X93.511 Y102.186 F1080.000 E1.40308 ; fill
G1 X95.327 Y102.939 E1.48671 ; fill
G1 X86.061 Y93.673 E2.04433 ; fill
G1 X85.539 Y92.087 E2.11542 ; fill
G1 X96.913 Y103.461 E2.80000 ; fill
G1 X98.138 Y103.623 E2.85256 ; fill
G1 X85.377 Y90.862 E3.62055 ; fill
G1 X85.216 Y89.637 E3.67312 ; fill
G1 X99.363 Y103.784 E4.52453 ; fill
G1 X100.505 Y103.863 E4.57326 ; fill
G1 X85.137 Y88.495 E5.49818 ; fill
G1 X85.261 Y87.555 E5.53852 ; fill
G1 X101.445 Y103.739 E6.51255 ; fill
G1 X102.385 Y103.615 E6.55289 ; fill
G1 X85.385 Y86.615 E7.57603 ; fill
G1 X85.508 Y85.675 E7.61637 ; fill
G1 X92.340 Y92.507 E8.02753 ; fill
G1 X91.840 Y90.943 E8.09740 ; fill
G1 X85.679 Y84.782 E8.46817 ; fill
G1 X85.990 Y84.030 E8.50282 ; fill
G1 X91.678 Y89.718 E8.84513 ; fill
G1 X91.689 Y88.666 E8.88992 ; fill
G1 X86.302 Y83.278 E9.21416 ; fill
G1 X86.613 Y82.526 E9.24880 ; fill
G1 X91.813 Y87.726 E9.56174 ; fill
G1 X91.980 Y86.830 E9.60055 ; fill
G1 X86.925 Y81.774 E9.90479 ; fill
G1 X87.319 Y81.104 E9.93786 ; fill
G1 X92.292 Y86.078 E10.23716 ; fill
G1 X92.603 Y85.326 E10.27180 ; fill
G1 X87.780 Y80.503 E10.56205 ; fill
G1 X88.242 Y79.901 E10.59433 ; fill
G1 X92.985 Y84.644 E10.87976 ; fill
G1 X93.447 Y84.042 E10.91204 ; fill
G1 X88.704 Y79.299 E11.19747 ; fill
G1 X89.166 Y78.697 E11.22975 ; fill
G1 X93.908 Y83.440 E11.51518 ; fill
G1 F1800.000 E10.51518 ; retract
G1 Z0.900 ; lift plate during travel
G92 E0 ; reset extrusion distance
G1 X89.865 Y99.604 F7800.000 ; move to first fill point
G1 Z0.400 ; restore layer Z
G1 F1800.000 E1.00000 ; compensate retraction
G1 X89.396 Y99.135 F1080.000 E1.02824 ; fill
G1 F1800.000 E0.02824 ; retract
G1 Z0.900 ; lift plate during travel
G92 E0 ; reset extrusion distance
G1 X107.660 Y85.493 F7800.000 ; move to first fill point
G1 Z0.400 ; restore layer Z
G1 F1800.000 E1.00000 ; compensate retraction
G1 X114.492 Y92.325 F1080.000 E1.41116 ; fill
G1 X114.321 Y93.218 E1.44984 ; fill
G1 X108.160 Y87.057 E1.82062 ; fill
G1 X108.322 Y88.282 E1.87319 ; fill
G1 X114.010 Y93.970 E2.21551 ; fill
G1 X113.698 Y94.722 E2.25015 ; fill
G1 X108.311 Y89.334 E2.57439 ; fill
G1 X108.187 Y90.274 E2.61473 ; fill
G1 X113.387 Y95.474 E2.92767 ; fill
