; generated by Slic3r 0.9.10b on 2013-10-10 at 23:16:09

; layer_height = 0.4
; perimeters = 3
; top_solid_layers = 3
; bottom_solid_layers = 3
; fill_density = 0.4
; perimeter_speed = 30
; infill_speed = 60
; travel_speed = 130
; nozzle_diameter = 0.5
; filament_diameter = 3
; extrusion_multiplier = 1
; perimeters extrusion width = 0.53mm
; infill extrusion width = 0.53mm
; solid infill extrusion width = 0.53mm
; top infill extrusion width = 0.53mm
; first layer extrusion width = 0.80mm

G21 ; set units to millimeters
M190 S60 ; wait for bed temperature to be reached
M104 S185 ; set temperature
G28 ; home all axes
G1 Z5 F5000 ; lift nozzle
G92 E0 ;reset extruder
M109 S185 ; wait for temperature to be reached
G90 ; use absolute coordinates
G92 E0 ; reset extrusion distance
M82 ; use absolute distances for extrusion
G1 F1800.000 E-1.00000 ; retract
G1 Z0.900 F7800.000 ; move to next layer (0) and lift
G92 E0 ; reset extrusion distance
G1 X72.770 Y39.244 ; move to first skirt point
G1 Z0.400 ; restore layer Z
G1 F1800.000 E1.00000 ; compensate retraction
G1 X90.300 Y0.834 F1440.000 E2.75756 ; skirt
G1 X91.090 Y-0.466 E2.82089 ; skirt
G1 X92.140 Y-1.556 E2.88389 ; skirt
G1 X93.130 Y-2.196 E2.93296 ; skirt
G1 X93.120 Y-2.226 E2.93428 ; skirt
G1 X101.720 Y-7.186 E3.34755 ; skirt
G1 X102.930 Y-7.736 E3.40288 ; skirt
G1 X104.210 Y-8.036 E3.45761 ; skirt
G1 X105.530 Y-8.076 E3.51258 ; skirt
G1 X106.830 Y-7.866 E3.56740 ; skirt
G1 X108.070 Y-7.396 E3.62260 ; skirt
G1 X109.190 Y-6.696 E3.67758 ; skirt
G1 X110.150 Y-5.796 E3.73236 ; skirt
G1 X110.920 Y-4.726 E3.78723 ; skirt
G1 X126.930 Y22.984 E5.11942 ; skirt
G1 X127.610 Y24.614 E5.19294 ; skirt
G1 X127.840 Y26.354 E5.26600 ; skirt
G1 X127.840 Y52.354 E6.34832 ; skirt
G1 X127.780 Y53.184 E6.38296 ; skirt
G1 X127.630 Y54.014 E6.41807 ; skirt
G1 X95.430 Y181.014 E11.87205 ; skirt
G1 X95.000 Y182.204 E11.92472 ; skirt
G1 X94.360 Y183.304 E11.97770 ; skirt
G1 X93.520 Y184.254 E12.03049 ; skirt
G1 X92.520 Y185.034 E12.08328 ; skirt
G1 X91.380 Y185.614 E12.13652 ; skirt
G1 X90.160 Y185.974 E12.18947 ; skirt
G1 X88.900 Y186.094 E12.24216 ; skirt
G1 X78.900 Y186.094 E12.65844 ; skirt
G1 X77.590 Y185.964 E12.71324 ; skirt
G1 X76.320 Y185.574 E12.76854 ; skirt
G1 X75.160 Y184.954 E12.82329 ; skirt
G1 X74.140 Y184.114 E12.87830 ; skirt
G1 X73.300 Y183.094 E12.93330 ; skirt
G1 X72.680 Y181.934 E12.98806 ; skirt
G1 X72.290 Y180.664 E13.04336 ; skirt
G1 X72.160 Y179.354 E13.09816 ; skirt
G1 X72.160 Y42.044 E18.81404 ; skirt
G1 X72.320 Y40.614 E18.87394 ; skirt
G1 X72.736 Y39.348 E18.92937 ; skirt
G1 F1800.000 E17.92937 ; retract
G1 Z0.900 F7800.000 ; lift plate during travel
G92 E0 ; reset extrusion distance
G1 X80.739 Y43.891 ; move to first perimeter point
G1 Z0.400 ; restore layer Z
G1 F1800.000 E1.00000 ; compensate retraction
G1 X112.939 Y43.891 F1440.000 E2.34041 ; perimeter
G1 X112.939 Y28.543 E2.97930 ; perimeter
G1 X98.952 Y4.317 E4.14380 ; perimeter
G1 X104.427 Y1.156 E4.40697 ; perimeter
G1 X119.261 Y26.849 E5.64198 ; perimeter
G1 X119.261 Y50.517 E6.62723 ; perimeter
G1 X87.061 Y50.517 E7.96763 ; perimeter
G1 X87.061 Y177.517 E13.25433 ; perimeter
G1 X80.739 Y177.517 E13.51750 ; perimeter
G1 X80.739 Y44.001 E19.07544 ; perimeter
G1 F1800.000 E18.07544 ; retract
G1 Z0.900 F7800.000 ; lift plate during travel
G92 E0 ; reset extrusion distance
G1 X104.696 Y0.151 ; move to first perimeter point
G1 Z0.400 ; restore layer Z
G1 F1800.000 E1.00000 ; compensate retraction
G1 X119.997 Y26.652 F1440.000 E2.27384 ; perimeter
G1 X119.997 Y51.253 E3.29792 ; perimeter
G1 X87.797 Y51.253 E4.63832 ; perimeter
G1 X87.797 Y178.253 E9.92502 ; perimeter
G1 X80.003 Y178.253 E10.24943 ; perimeter
G1 X80.003 Y43.155 E15.87321 ; perimeter
G1 X112.203 Y43.155 E17.21362 ; perimeter
G1 X112.203 Y28.740 E17.81369 ; perimeter
G1 X97.947 Y4.047 E19.00060 ; perimeter
G1 X104.601 Y0.206 E19.32042 ; perimeter
G1 X104.965 Y-0.854 F7800.000 ; move to first perimeter point
G1 X120.732 Y26.455 F1440.000 E20.63309 ; perimeter
G1 X120.732 Y51.989 E21.69599 ; perimeter
G1 X88.532 Y51.989 E23.03639 ; perimeter
G1 X88.532 Y178.989 E28.32309 ; perimeter
G1 X79.268 Y178.989 E28.70875 ; perimeter
G1 X79.268 Y42.420 E34.39377 ; perimeter
G1 X111.468 Y42.420 E35.73418 ; perimeter
G1 X111.468 Y28.937 E36.29542 ; perimeter
G1 X96.942 Y3.778 E37.50475 ; perimeter
G1 X104.870 Y-0.799 E37.88581 ; perimeter
G1 X104.965 Y-0.118 F7800.000 ; move inwards before travel
G1 F1800.000 E36.88581 ; retract
G1 Z0.900 F7800.000 ; lift plate during travel
G92 E0 ; reset extrusion distance
G1 X105.470 Y4.029 ; move to first fill point
G1 Z0.400 ; restore layer Z
G1 F1800.000 E1.00000 ; compensate retraction
G1 X103.657 Y2.216 F2880.000 E1.10675 ; fill
G1 X102.997 Y2.597 E1.13846 ; fill
G1 X106.891 Y6.491 E1.36772 ; fill
G1 X108.313 Y8.952 E1.48606 ; fill
G1 X102.338 Y2.978 E1.83783 ; fill
G1 X101.678 Y3.358 E1.86954 ; fill
G1 X109.734 Y11.414 E2.34382 ; fill
G1 X111.155 Y13.876 E2.46216 ; fill
G1 X101.019 Y3.739 E3.05895 ; fill
G1 X100.359 Y4.120 E3.09066 ; fill
G1 X112.576 Y16.337 E3.80996 ; fill
G1 X113.998 Y18.799 E3.92829 ; fill
G1 X99.699 Y4.501 E4.77011 ; fill
G1 X101.060 Y6.902 E4.88503 ; fill
G1 X115.419 Y21.261 E5.73038 ; fill
G1 X116.840 Y23.722 E5.84872 ; fill
G1 X102.482 Y9.364 E6.69407 ; fill
G1 X103.903 Y11.826 E6.81241 ; fill
G1 X118.261 Y26.184 E7.65776 ; fill
G1 X118.728 Y27.691 E7.72343 ; fill
G1 X105.324 Y14.287 E8.51257 ; fill
G1 X106.745 Y16.749 E8.63091 ; fill
G1 X118.728 Y28.731 E9.33637 ; fill
G1 X118.728 Y29.772 E9.37969 ; fill
G1 X108.167 Y19.211 E10.00148 ; fill
G1 X109.588 Y21.672 E10.11981 ; fill
G1 X118.728 Y30.812 E10.65793 ; fill
G1 X118.728 Y31.853 E10.70124 ; fill
G1 X111.009 Y24.134 E11.15568 ; fill
G1 X112.430 Y26.596 E11.27402 ; fill
G1 X118.728 Y32.893 E11.64478 ; fill
G1 X118.728 Y33.933 E11.68809 ; fill
G1 X113.472 Y28.678 E11.99751 ; fill
G1 X113.472 Y29.718 E12.04083 ; fill
G1 X118.728 Y34.974 E12.35025 ; fill
G1 X118.728 Y36.014 E12.39356 ; fill
G1 X113.472 Y30.759 E12.70298 ; fill
G1 X113.472 Y31.799 E12.74629 ; fill
G1 X118.728 Y37.055 E13.05571 ; fill
G1 X118.728 Y38.095 E13.09903 ; fill
G1 X113.472 Y32.840 E13.40845 ; fill
G1 X113.472 Y33.880 E13.45176 ; fill
G1 X118.728 Y39.136 E13.76118 ; fill
G1 X118.728 Y40.176 E13.80450 ; fill
G1 X113.472 Y34.920 E14.11392 ; fill
G1 X113.472 Y35.961 E14.15723 ; fill
G1 X118.728 Y41.216 E14.46665 ; fill
G1 X118.728 Y42.257 E14.50997 ; fill
G1 X113.472 Y37.001 E14.81939 ; fill
G1 X113.472 Y38.042 E14.86270 ; fill
G1 X118.728 Y43.297 E15.17212 ; fill
G1 X118.728 Y44.338 E15.21543 ; fill
G1 X113.472 Y39.082 E15.52485 ; fill
G1 X113.472 Y40.123 E15.56817 ; fill
G1 X118.728 Y45.378 E15.87759 ; fill
G1 X118.728 Y46.418 E15.92090 ; fill
G1 X113.472 Y41.163 E16.23032 ; fill
G1 X113.472 Y42.203 E16.27364 ; fill
G1 X118.728 Y47.459 E16.58306 ; fill
G1 X118.728 Y48.499 E16.62637 ; fill
G1 X113.472 Y43.244 E16.93579 ; fill
G1 X113.472 Y44.284 E16.97911 ; fill
G1 X118.728 Y49.540 E17.28853 ; fill
G1 X118.132 Y49.984 E17.31948 ; fill
G1 X112.572 Y44.424 E17.64682 ; fill
G1 X111.531 Y44.424 E17.69014 ; fill
G1 X117.091 Y49.984 E18.01748 ; fill
G1 X116.051 Y49.984 E18.06080 ; fill
G1 X110.491 Y44.424 E18.38814 ; fill
G1 X109.451 Y44.424 E18.43146 ; fill
G1 X115.010 Y49.984 E18.75880 ; fill
G1 X113.970 Y49.984 E18.80211 ; fill
G1 X108.410 Y44.424 E19.12946 ; fill
G1 X107.370 Y44.424 E19.17277 ; fill
G1 X112.930 Y49.984 E19.50012 ; fill
G1 X111.889 Y49.984 E19.54343 ; fill
G1 X106.329 Y44.424 E19.87078 ; fill
G1 X105.289 Y44.424 E19.91409 ; fill
G1 X110.849 Y49.984 E20.24144 ; fill
G1 X109.808 Y49.984 E20.28475 ; fill
G1 X104.248 Y44.424 E20.61210 ; fill
G1 X103.208 Y44.424 E20.65541 ; fill
G1 X108.768 Y49.984 E20.98276 ; fill
G1 X107.728 Y49.984 E21.02607 ; fill
G1 X102.168 Y44.424 E21.35341 ; fill
G1 X101.127 Y44.424 E21.39673 ; fill
G1 X106.687 Y49.984 E21.72407 ; fill
G1 X105.647 Y49.984 E21.76739 ; fill
G1 X100.087 Y44.424 E22.09473 ; fill
G1 X99.046 Y44.424 E22.13805 ; fill
G1 X104.606 Y49.984 E22.46539 ; fill
G1 X103.566 Y49.984 E22.50871 ; fill
G1 X98.006 Y44.424 E22.83605 ; fill
G1 X96.966 Y44.424 E22.87936 ; fill
G1 X102.525 Y49.984 E23.20671 ; fill
G1 X101.485 Y49.984 E23.25002 ; fill
G1 X95.925 Y44.424 E23.57737 ; fill
G1 X94.885 Y44.424 E23.62068 ; fill
G1 X100.445 Y49.984 E23.94803 ; fill
G1 X99.404 Y49.984 E23.99134 ; fill
G1 X93.844 Y44.424 E24.31869 ; fill
G1 X92.804 Y44.424 E24.36200 ; fill
G1 X98.364 Y49.984 E24.68935 ; fill
G1 X97.323 Y49.984 E24.73266 ; fill
G1 X91.763 Y44.424 E25.06001 ; fill
G1 X90.723 Y44.424 E25.10332 ; fill
G1 X96.283 Y49.984 E25.43066 ; fill
G1 X95.243 Y49.984 E25.47398 ; fill
G1 X89.683 Y44.424 E25.80132 ; fill
G1 X88.642 Y44.424 E25.84464 ; fill
G1 X94.202 Y49.984 E26.17198 ; fill
G1 X93.162 Y49.984 E26.21530 ; fill
G1 X87.602 Y44.424 E26.54264 ; fill
G1 X86.561 Y44.424 E26.58596 ; fill
G1 X92.121 Y49.984 E26.91330 ; fill
G1 X91.081 Y49.984 E26.95662 ; fill
G1 X85.521 Y44.424 E27.28396 ; fill
G1 X84.481 Y44.424 E27.32727 ; fill
G1 X90.040 Y49.984 E27.65462 ; fill
G1 X89.000 Y49.984 E27.69793 ; fill
G1 X83.440 Y44.424 E28.02528 ; fill
G1 X82.400 Y44.424 E28.06859 ; fill
G1 X87.960 Y49.984 E28.39594 ; fill
G1 X86.919 Y49.984 E28.43925 ; fill
G1 X81.359 Y44.424 E28.76660 ; fill
G1 X81.272 Y45.378 E28.80645 ; fill
G1 X86.528 Y50.633 E29.11587 ; fill
G1 X86.528 Y51.674 E29.15919 ; fill
G1 X81.272 Y46.418 E29.46861 ; fill
G1 X81.272 Y47.458 E29.51192 ; fill
G1 X86.528 Y52.714 E29.82134 ; fill
G1 X86.528 Y53.754 E29.86466 ; fill
G1 X81.272 Y48.499 E30.17408 ; fill
G1 X81.272 Y49.539 E30.21739 ; fill
G1 X86.528 Y54.795 E30.52681 ; fill
G1 X86.528 Y55.835 E30.57012 ; fill
G1 X81.272 Y50.580 E30.87954 ; fill
G1 X81.272 Y51.620 E30.92286 ; fill
G1 X86.528 Y56.876 E31.23228 ; fill
G1 X86.528 Y57.916 E31.27559 ; fill
G1 X81.272 Y52.661 E31.58501 ; fill
G1 X81.272 Y53.701 E31.62833 ; fill
G1 X86.528 Y58.956 E31.93775 ; fill
G1 X86.528 Y59.997 E31.98106 ; fill
G1 X81.272 Y54.741 E32.29048 ; fill
G1 X81.272 Y55.782 E32.33380 ; fill
G1 X86.528 Y61.037 E32.64322 ; fill
G1 X86.528 Y62.078 E32.68653 ; fill
G1 X81.272 Y56.822 E32.99595 ; fill
G1 X81.272 Y57.863 E33.03926 ; fill
G1 X86.528 Y63.118 E33.34868 ; fill
G1 X86.528 Y64.159 E33.39200 ; fill
G1 X81.272 Y58.903 E33.70142 ; fill
G1 X81.272 Y59.943 E33.74473 ; fill
G1 X86.528 Y65.199 E34.05415 ; fill
G1 X86.528 Y66.239 E34.09747 ; fill
G1 X81.272 Y60.984 E34.40689 ; fill
G1 X81.272 Y62.024 E34.45020 ; fill
G1 X86.528 Y67.280 E34.75962 ; fill
G1 X86.528 Y68.320 E34.80294 ; fill
G1 X81.272 Y63.065 E35.11236 ; fill
G1 X81.272 Y64.105 E35.15567 ; fill
G1 X86.528 Y69.361 E35.46509 ; fill
G1 X86.528 Y70.401 E35.50840 ; fill
G1 X81.272 Y65.146 E35.81783 ; fill
G1 X81.272 Y66.186 E35.86114 ; fill
G1 X86.528 Y71.441 E36.17056 ; fill
G1 X86.528 Y72.482 E36.21387 ; fill
G1 X81.272 Y67.226 E36.52329 ; fill
G1 X81.272 Y68.267 E36.56661 ; fill
G1 X86.528 Y73.522 E36.87603 ; fill
G1 X86.528 Y74.563 E36.91934 ; fill
G1 X81.272 Y69.307 E37.22876 ; fill
G1 X81.272 Y70.348 E37.27208 ; fill
G1 X86.528 Y75.603 E37.58150 ; fill
G1 X86.528 Y76.644 E37.62481 ; fill
G1 X81.272 Y71.388 E37.93423 ; fill
G1 X81.272 Y72.428 E37.97754 ; fill
G1 X86.528 Y77.684 E38.28697 ; fill
G1 X86.528 Y78.724 E38.33028 ; fill
G1 X81.272 Y73.469 E38.63970 ; fill
G1 X81.272 Y74.509 E38.68301 ; fill
G1 X86.528 Y79.765 E38.99243 ; fill
G1 X86.528 Y80.805 E39.03575 ; fill
G1 X81.272 Y75.550 E39.34517 ; fill
G1 X81.272 Y76.590 E39.38848 ; fill
G1 X86.528 Y81.846 E39.69790 ; fill
G1 X86.528 Y82.886 E39.74122 ; fill
G1 X81.272 Y77.631 E40.05064 ; fill
G1 X81.272 Y78.671 E40.09395 ; fill
G1 X86.528 Y83.926 E40.40337 ; fill
G1 X86.528 Y84.967 E40.44668 ; fill
G1 X81.272 Y79.711 E40.75610 ; fill
G1 X81.272 Y80.752 E40.79942 ; fill
G1 X86.528 Y86.007 E41.10884 ; fill
G1 X86.528 Y87.048 E41.15215 ; fill
G1 X81.272 Y81.792 E41.46157 ; fill
G1 X81.272 Y82.833 E41.50489 ; fill
G1 X86.528 Y88.088 E41.81431 ; fill
G1 X86.528 Y89.129 E41.85762 ; fill
G1 X81.272 Y83.873 E42.16704 ; fill
G1 X81.272 Y84.913 E42.21036 ; fill
G1 X86.528 Y90.169 E42.51978 ; fill
G1 X86.528 Y91.209 E42.56309 ; fill
G1 X81.272 Y85.954 E42.87251 ; fill
G1 X81.272 Y86.994 E42.91582 ; fill
G1 X86.528 Y92.250 E43.22525 ; fill
G1 X86.528 Y93.290 E43.26856 ; fill
G1 X81.272 Y88.035 E43.57798 ; fill
G1 X81.272 Y89.075 E43.62129 ; fill
G1 X86.528 Y94.331 E43.93071 ; fill
G1 X86.528 Y95.371 E43.97403 ; fill
G1 X81.272 Y90.116 E44.28345 ; fill
G1 X81.272 Y91.156 E44.32676 ; fill
G1 X86.528 Y96.411 E44.63618 ; fill
G1 X86.528 Y97.452 E44.67950 ; fill
G1 X81.272 Y92.196 E44.98892 ; fill
G1 X81.272 Y93.237 E45.03223 ; fill
G1 X86.528 Y98.492 E45.34165 ; fill
G1 X86.528 Y99.533 E45.38496 ; fill
G1 X81.272 Y94.277 E45.69439 ; fill
G1 X81.272 Y95.318 E45.73770 ; fill
G1 X86.528 Y100.573 E46.04712 ; fill
G1 X86.528 Y101.614 E46.09043 ; fill
G1 X81.272 Y96.358 E46.39985 ; fill
G1 X81.272 Y97.398 E46.44317 ; fill
G1 X86.528 Y102.654 E46.75259 ; fill
G1 X86.528 Y103.694 E46.79590 ; fill
G1 X81.272 Y98.439 E47.10532 ; fill
G1 X81.272 Y99.479 E47.14864 ; fill
G1 X86.528 Y104.735 E47.45806 ; fill
G1 X86.528 Y105.775 E47.50137 ; fill
G1 X81.272 Y100.520 E47.81079 ; fill
G1 X81.272 Y101.560 E47.85410 ; fill
G1 X86.528 Y106.816 E48.16352 ; fill
G1 X86.528 Y107.856 E48.20684 ; fill
G1 X81.272 Y102.601 E48.51626 ; fill
G1 X81.272 Y103.641 E48.55957 ; fill
G1 X86.528 Y108.896 E48.86899 ; fill
G1 X86.528 Y109.937 E48.91231 ; fill
G1 X81.272 Y104.681 E49.22173 ; fill
G1 X81.272 Y105.722 E49.26504 ; fill
G1 X86.528 Y110.977 E49.57446 ; fill
G1 X86.528 Y112.018 E49.61778 ; fill
G1 X81.272 Y106.762 E49.92720 ; fill
G1 X81.272 Y107.803 E49.97051 ; fill
G1 X86.528 Y113.058 E50.27993 ; fill
G1 X86.528 Y114.099 E50.32324 ; fill
G1 X81.272 Y108.843 E50.63266 ; fill
G1 X81.272 Y109.883 E50.67598 ; fill
G1 X86.528 Y115.139 E50.98540 ; fill
G1 X86.528 Y116.179 E51.02871 ; fill
G1 X81.272 Y110.924 E51.33813 ; fill
G1 X81.272 Y111.964 E51.38145 ; fill
G1 X86.528 Y117.220 E51.69087 ; fill
G1 X86.528 Y118.260 E51.73418 ; fill
G1 X81.272 Y113.005 E52.04360 ; fill
G1 X81.272 Y114.045 E52.08692 ; fill
G1 X86.528 Y119.301 E52.39634 ; fill
G1 X86.528 Y120.341 E52.43965 ; fill
G1 X81.272 Y115.086 E52.74907 ; fill
G1 X81.272 Y116.126 E52.79238 ; fill
G1 X86.528 Y121.381 E53.10180 ; fill
G1 X86.528 Y122.422 E53.14512 ; fill
G1 X81.272 Y117.166 E53.45454 ; fill
G1 X81.272 Y118.207 E53.49785 ; fill
G1 X86.528 Y123.462 E53.80727 ; fill
G1 X86.528 Y124.503 E53.85059 ; fill
G1 X81.272 Y119.247 E54.16001 ; fill
G1 X81.272 Y120.288 E54.20332 ; fill
G1 X86.528 Y125.543 E54.51274 ; fill
G1 X86.528 Y126.584 E54.55606 ; fill
G1 X81.272 Y121.328 E54.86548 ; fill
G1 X81.272 Y122.368 E54.90879 ; fill
G1 X86.528 Y127.624 E55.21821 ; fill
G1 X86.528 Y128.664 E55.26152 ; fill
G1 X81.272 Y123.409 E55.57094 ; fill
G1 X81.272 Y124.449 E55.61426 ; fill
G1 X86.528 Y129.705 E55.92368 ; fill
G1 X86.528 Y130.745 E55.96699 ; fill
G1 X81.272 Y125.490 E56.27641 ; fill
G1 X81.272 Y126.530 E56.31973 ; fill
G1 X86.528 Y131.786 E56.62915 ; fill
G1 X86.528 Y132.826 E56.67246 ; fill
G1 X81.272 Y127.571 E56.98188 ; fill
G1 X81.272 Y128.611 E57.02520 ; fill
G1 X86.528 Y133.866 E57.33462 ; fill
G1 X86.528 Y134.907 E57.37793 ; fill
G1 X81.272 Y129.651 E57.68735 ; fill
G1 X81.272 Y130.692 E57.73066 ; fill
G1 X86.528 Y135.947 E58.04008 ; fill
G1 X86.528 Y136.988 E58.08340 ; fill
G1 X81.272 Y131.732 E58.39282 ; fill
G1 X81.272 Y132.773 E58.43613 ; fill
G1 X86.528 Y138.028 E58.74555 ; fill
G1 X86.528 Y139.069 E58.78887 ; fill
G1 X81.272 Y133.813 E59.09829 ; fill
G1 X81.272 Y134.854 E59.14160 ; fill
G1 X86.528 Y140.109 E59.45102 ; fill
G1 X86.528 Y141.149 E59.49434 ; fill
G1 X81.272 Y135.894 E59.80376 ; fill
G1 X81.272 Y136.934 E59.84707 ; fill
G1 X86.528 Y142.190 E60.15649 ; fill
G1 X86.528 Y143.230 E60.19980 ; fill
G1 X81.272 Y137.975 E60.50922 ; fill
G1 X81.272 Y139.015 E60.55254 ; fill
G1 X86.528 Y144.271 E60.86196 ; fill
G1 X86.528 Y145.311 E60.90527 ; fill
G1 X81.272 Y140.056 E61.21469 ; fill
G1 X81.272 Y141.096 E61.25801 ; fill
