; generated by Slic3r 0.9.8-dev on 2013-02-02 at 15:54:40

; layer_height = 0.4
; perimeters = 3
; top_solid_layers = 3
; bottom_solid_layers = 3
; fill_density = 0.40
; perimeter_speed = 30
; infill_speed = 60
; travel_speed = 130
; scale = 1
; nozzle_diameter = 0.5
; filament_diameter = 3
; extrusion_multiplier = 1
; perimeters extrusion width = 0.53mm
; infill extrusion width = 0.53mm
; first layer extrusion width = 0.80mm

M190 S60 ; wait for bed temperature to be reached
M104 S175 ; set temperature
G28 ; home all axes
G92 E0 ;reset extruder
M109 S175 ; wait for temperature to be reached
G90 ; use absolute coordinates
G21 ; set units to millimeters
G92 E0 ; reset extrusion distance
M82 ; use absolute distances for extrusion
G1 F1800.000 E-1.00000 ; retract
G1 Z1.400 ; move to next layer (0) and lift
G92 E0 ; reset extrusion distance
G1 X117.370 Y111.350 F7800.000 ; move to first skirt point
G1 Z0.400 ; restore layer Z
G1 F1800.000 E1.00000 ; compensate retraction
G1 X116.980 Y111.780 F900.000 E1.02417 ; skirt
G1 X116.350 Y112.370 E1.06010 ; skirt
G1 X115.880 Y112.710 E1.08424 ; skirt
G1 X115.110 Y113.220 E1.12269 ; skirt
G1 X114.340 Y113.630 E1.15900 ; skirt
G1 X113.790 Y113.840 E1.18351 ; skirt
G1 X113.230 Y114.010 E1.20787 ; skirt
G1 X111.770 Y114.290 E1.26976 ; skirt
G1 X110.960 Y114.340 E1.30354 ; skirt
G1 X68.760 Y114.330 E3.06022 ; skirt
G1 X68.220 Y114.290 E3.08276 ; skirt
G1 X67.950 Y114.250 E3.09412 ; skirt
G1 X66.760 Y114.010 E3.14466 ; skirt
G1 X66.200 Y113.840 E3.16902 ; skirt
G1 X65.650 Y113.630 E3.19353 ; skirt
G1 X64.880 Y113.220 E3.22984 ; skirt
G1 X64.110 Y112.710 E3.26829 ; skirt
G1 X63.640 Y112.370 E3.29244 ; skirt
G1 X63.210 Y111.980 E3.31660 ; skirt
G1 X62.620 Y111.350 E3.35253 ; skirt
G1 X61.930 Y110.360 E3.40276 ; skirt
G1 X61.470 Y109.570 E3.44082 ; skirt
G1 X61.230 Y109.010 E3.46618 ; skirt
G1 X61.130 Y108.730 E3.47856 ; skirt
G1 X60.960 Y108.140 E3.50412 ; skirt
G1 X60.780 Y107.200 E3.54396 ; skirt
G1 X60.680 Y106.460 E3.57504 ; skirt
G1 X60.660 Y105.960 E3.59587 ; skirt
G1 X60.660 Y64.030 E5.34132 ; skirt
G1 X60.680 Y63.530 E5.36215 ; skirt
G1 X60.740 Y63.030 E5.38311 ; skirt
G1 X60.960 Y61.850 E5.43308 ; skirt
G1 X61.130 Y61.260 E5.45864 ; skirt
G1 X61.230 Y60.980 E5.47101 ; skirt
G1 X61.470 Y60.420 E5.49637 ; skirt
G1 X61.770 Y59.890 E5.52173 ; skirt
G1 X62.280 Y59.110 E5.56052 ; skirt
G1 X62.620 Y58.640 E5.58467 ; skirt
G1 X63.010 Y58.210 E5.60883 ; skirt
G1 X63.640 Y57.620 E5.64476 ; skirt
G1 X64.630 Y56.930 E5.69500 ; skirt
G1 X65.420 Y56.470 E5.73305 ; skirt
G1 X66.260 Y56.130 E5.77077 ; skirt
G1 X66.850 Y55.960 E5.79633 ; skirt
G1 X68.030 Y55.740 E5.84630 ; skirt
G1 X68.530 Y55.680 E5.86726 ; skirt
G1 X69.030 Y55.660 E5.88809 ; skirt
G1 X110.960 Y55.660 E7.63354 ; skirt
G1 X111.460 Y55.680 E7.65437 ; skirt
G1 X111.960 Y55.740 E7.67533 ; skirt
G1 X113.140 Y55.960 E7.72530 ; skirt
G1 X113.730 Y56.130 E7.75086 ; skirt
G1 X114.570 Y56.470 E7.78858 ; skirt
G1 X115.360 Y56.930 E7.82663 ; skirt
G1 X115.880 Y57.280 E7.85273 ; skirt
G1 X116.350 Y57.620 E7.87687 ; skirt
G1 X116.780 Y58.010 E7.90104 ; skirt
G1 X117.370 Y58.640 E7.93697 ; skirt
G1 X117.710 Y59.110 E7.96112 ; skirt
G1 X118.220 Y59.880 E7.99956 ; skirt
G1 X118.630 Y60.650 E8.03588 ; skirt
G1 X118.840 Y61.200 E8.06039 ; skirt
G1 X119.010 Y61.760 E8.08475 ; skirt
G1 X119.290 Y63.220 E8.14663 ; skirt
G1 X119.340 Y64.030 E8.18041 ; skirt
G1 X119.330 Y106.230 E9.93710 ; skirt
G1 X119.290 Y106.770 E9.95964 ; skirt
G1 X119.250 Y107.040 E9.97100 ; skirt
G1 X119.010 Y108.230 E10.02153 ; skirt
G1 X118.740 Y109.060 E10.05787 ; skirt
G1 X118.630 Y109.340 E10.07039 ; skirt
G1 X118.220 Y110.110 E10.10670 ; skirt
G1 X117.436 Y111.261 E10.16469 ; skirt
G1 X117.370 Y111.350 E10.16929 ; skirt
G1 F1800.000 E9.16929 ; retract
G1 Z1.400 ; move to next layer (0) and lift
G92 E0 ; reset extrusion distance
G1 X68.871 Y106.129 F7800.000 ; move to first perimeter point
G1 Z0.400 ; restore layer Z
G1 F1800.000 E1.00000 ; compensate retraction
G1 X68.871 Y89.871 F900.000 E1.67676 ; perimeter
G1 X85.129 Y89.871 E2.35352 ; perimeter
G1 X85.129 Y106.129 E3.03028 ; perimeter
G1 X68.982 Y106.129 E3.70245 ; perimeter
G1 X68.871 Y106.129 E3.70704 ; perimeter
G1 X68.405 Y106.595 F7800.000 ; move to first perimeter point
G1 X68.222 Y106.322 F900.000 E3.72072 ; perimeter
G1 X68.136 Y105.888 E3.73915 ; perimeter
G1 X68.136 Y90.112 E4.39588 ; perimeter
G1 X68.222 Y89.678 E4.41430 ; perimeter
G1 X68.405 Y89.405 E4.42798 ; perimeter
G1 X68.678 Y89.222 E4.44166 ; perimeter
G1 X69.112 Y89.136 E4.46008 ; perimeter
G1 X84.888 Y89.136 E5.11681 ; perimeter
G1 X85.322 Y89.222 E5.13524 ; perimeter
G1 X85.595 Y89.405 E5.14891 ; perimeter
G1 X85.778 Y89.678 E5.16259 ; perimeter
G1 X85.864 Y90.112 E5.18102 ; perimeter
G1 X85.864 Y105.888 E5.83775 ; perimeter
G1 X85.778 Y106.322 E5.85617 ; perimeter
G1 X85.595 Y106.595 E5.86985 ; perimeter
G1 X85.322 Y106.778 E5.88353 ; perimeter
G1 X84.888 Y106.864 E5.90195 ; perimeter
G1 X69.112 Y106.864 E6.55868 ; perimeter
G1 X68.678 Y106.778 E6.57711 ; perimeter
G1 X68.496 Y106.657 E6.58619 ; perimeter
G1 X68.405 Y106.595 E6.59079 ; perimeter
G1 X67.874 Y107.126 F7800.000 ; move to first perimeter point
G1 X67.529 Y106.609 F900.000 E6.61665 ; perimeter
G1 X67.400 Y105.961 E6.64418 ; perimeter
G1 X67.400 Y90.039 E7.30694 ; perimeter
G1 X67.529 Y89.391 E7.33447 ; perimeter
G1 X67.874 Y88.874 E7.36033 ; perimeter
G1 X68.391 Y88.529 E7.38619 ; perimeter
G1 X69.039 Y88.400 E7.41372 ; perimeter
G1 X84.961 Y88.400 E8.07649 ; perimeter
G1 X85.609 Y88.529 E8.10402 ; perimeter
G1 X86.126 Y88.874 E8.12988 ; perimeter
G1 X86.471 Y89.391 E8.15574 ; perimeter
G1 X86.600 Y90.039 E8.18327 ; perimeter
G1 X86.600 Y105.961 E8.84603 ; perimeter
G1 X86.471 Y106.609 E8.87356 ; perimeter
G1 X86.126 Y107.126 E8.89942 ; perimeter
G1 X85.609 Y107.471 E8.92528 ; perimeter
G1 X84.961 Y107.600 E8.95282 ; perimeter
G1 X69.039 Y107.600 E9.61558 ; perimeter
G1 X68.391 Y107.471 E9.64311 ; perimeter
G1 X67.966 Y107.187 E9.66438 ; perimeter
G1 X67.874 Y107.126 E9.66897 ; perimeter
G1 X68.111 Y106.429 F7800.000 ; move inwards before travel
G1 X69.841 Y105.627 ; move to first fill point
G1 X69.373 Y105.159 F1800.000 E9.69696 ; fill
G1 X69.373 Y104.103 E9.74160 ; fill
G1 X70.897 Y105.627 E9.83271 ; fill
G1 X71.953 Y105.627 E9.87735 ; fill
G1 X69.373 Y103.047 E10.03159 ; fill
G1 X69.373 Y101.990 E10.07622 ; fill
G1 X73.010 Y105.627 E10.29359 ; fill
G1 X74.066 Y105.627 E10.33822 ; fill
G1 X69.373 Y100.934 E10.61870 ; fill
G1 X69.373 Y99.878 E10.66334 ; fill
G1 X75.122 Y105.627 E11.00695 ; fill
G1 X76.178 Y105.627 E11.05159 ; fill
G1 X69.373 Y98.822 E11.45832 ; fill
G1 X69.373 Y97.766 E11.50296 ; fill
G1 X77.234 Y105.627 E11.97281 ; fill
G1 X78.290 Y105.627 E12.01745 ; fill
G1 X69.373 Y96.710 E12.55043 ; fill
G1 X69.373 Y95.654 E12.59506 ; fill
G1 X79.346 Y105.627 E13.19116 ; fill
G1 X80.403 Y105.627 E13.23580 ; fill
G1 X69.373 Y94.597 E13.89503 ; fill
G1 X69.373 Y93.541 E13.93966 ; fill
G1 X81.459 Y105.627 E14.66201 ; fill
G1 X82.515 Y105.627 E14.70665 ; fill
G1 X69.373 Y92.485 E15.49212 ; fill
G1 X69.373 Y91.429 E15.53676 ; fill
G1 X83.571 Y105.627 E16.38535 ; fill
G1 X84.627 Y105.627 E16.42998 ; fill
G1 X69.373 Y90.373 E17.34169 ; fill
G1 X70.429 Y90.373 E17.38632 ; fill
G1 X84.627 Y104.571 E18.23492 ; fill
G1 X84.627 Y103.515 E18.27955 ; fill
G1 X71.485 Y90.373 E19.06503 ; fill
G1 X72.541 Y90.373 E19.10966 ; fill
G1 X84.627 Y102.459 E19.83202 ; fill
G1 X84.627 Y101.403 E19.87665 ; fill
G1 X73.597 Y90.373 E20.53587 ; fill
G1 X74.654 Y90.373 E20.58051 ; fill
G1 X84.627 Y100.346 E21.17661 ; fill
G1 X84.627 Y99.290 E21.22124 ; fill
G1 X75.710 Y90.373 E21.75422 ; fill
G1 X76.766 Y90.373 E21.79886 ; fill
G1 X84.627 Y98.234 E22.26871 ; fill
G1 X84.627 Y97.178 E22.31335 ; fill
G1 X77.822 Y90.373 E22.72008 ; fill
G1 X78.878 Y90.373 E22.76472 ; fill
G1 X84.627 Y96.122 E23.10832 ; fill
G1 X84.627 Y95.066 E23.15296 ; fill
G1 X79.934 Y90.373 E23.43344 ; fill
G1 X80.990 Y90.373 E23.47808 ; fill
G1 X84.627 Y94.010 E23.69544 ; fill
G1 X84.627 Y92.953 E23.74007 ; fill
G1 X82.047 Y90.373 E23.89431 ; fill
G1 X83.103 Y90.373 E23.93895 ; fill
G1 X84.627 Y91.897 E24.03006 ; fill
G1 X84.627 Y90.841 E24.07470 ; fill
G1 X84.159 Y90.373 E24.10268 ; fill
G1 F1800.000 E23.10268 ; retract
G1 Z1.400 ; move to next layer (0) and lift
G92 E0 ; reset extrusion distance
G1 X111.129 Y63.871 F7800.000 ; move to first perimeter point
G1 Z0.400 ; restore layer Z
G1 F1800.000 E1.00000 ; compensate retraction
G1 X111.129 Y80.129 F900.000 E1.67676 ; perimeter
G1 X94.871 Y80.129 E2.35352 ; perimeter
G1 X94.871 Y63.871 E3.03028 ; perimeter
G1 X111.018 Y63.871 E3.70245 ; perimeter
G1 X111.129 Y63.871 E3.70704 ; perimeter
G1 X111.595 Y63.405 F7800.000 ; move to first perimeter point
G1 X111.778 Y63.678 F900.000 E3.72072 ; perimeter
G1 X111.864 Y64.112 E3.73915 ; perimeter
G1 X111.864 Y79.888 E4.39587 ; perimeter
G1 X111.778 Y80.322 E4.41430 ; perimeter
G1 X111.595 Y80.595 E4.42798 ; perimeter
G1 X111.322 Y80.778 E4.44166 ; perimeter
G1 X110.888 Y80.864 E4.46008 ; perimeter
G1 X95.112 Y80.864 E5.11681 ; perimeter
G1 X94.678 Y80.778 E5.13524 ; perimeter
G1 X94.405 Y80.595 E5.14891 ; perimeter
G1 X94.222 Y80.322 E5.16259 ; perimeter
G1 X94.136 Y79.888 E5.18102 ; perimeter
G1 X94.136 Y64.112 E5.83775 ; perimeter
G1 X94.222 Y63.678 E5.85617 ; perimeter
G1 X94.405 Y63.405 E5.86985 ; perimeter
G1 X94.678 Y63.222 E5.88353 ; perimeter
G1 X95.112 Y63.136 E5.90195 ; perimeter
G1 X110.888 Y63.136 E6.55868 ; perimeter
G1 X111.322 Y63.222 E6.57711 ; perimeter
G1 X111.504 Y63.343 E6.58619 ; perimeter
G1 X111.595 Y63.405 E6.59079 ; perimeter
G1 X112.126 Y62.874 F7800.000 ; move to first perimeter point
G1 X112.471 Y63.391 F900.000 E6.61665 ; perimeter
G1 X112.600 Y64.039 E6.64418 ; perimeter
G1 X112.600 Y79.961 E7.30694 ; perimeter
G1 X112.471 Y80.609 E7.33447 ; perimeter
G1 X112.126 Y81.126 E7.36033 ; perimeter
G1 X111.609 Y81.471 E7.38619 ; perimeter
G1 X110.961 Y81.600 E7.41372 ; perimeter
G1 X95.039 Y81.600 E8.07648 ; perimeter
G1 X94.391 Y81.471 E8.10402 ; perimeter
G1 X93.874 Y81.126 E8.12988 ; perimeter
G1 X93.529 Y80.609 E8.15574 ; perimeter
G1 X93.400 Y79.961 E8.18327 ; perimeter
G1 X93.400 Y64.039 E8.84603 ; perimeter
G1 X93.529 Y63.391 E8.87356 ; perimeter
G1 X93.874 Y62.874 E8.89942 ; perimeter
G1 X94.391 Y62.529 E8.92528 ; perimeter
G1 X95.039 Y62.400 E8.95282 ; perimeter
G1 X110.961 Y62.400 E9.61558 ; perimeter
G1 X111.609 Y62.529 E9.64311 ; perimeter
G1 X112.034 Y62.813 E9.66438 ; perimeter
G1 X112.126 Y62.874 E9.66897 ; perimeter
G1 X111.889 Y63.571 F7800.000 ; move inwards before travel
G1 F1800.000 E8.66897 ; retract
G1 Z1.400 ; lift plate during travel
G92 E0 ; reset extrusion distance
G1 X95.841 Y79.627 F7800.000 ; move to first fill point
G1 Z0.400 ; restore layer Z
G1 F1800.000 E1.00000 ; compensate retraction
G1 X95.373 Y79.159 F1800.000 E1.02799 ; fill
G1 X95.373 Y78.103 E1.07262 ; fill
G1 X96.897 Y79.627 E1.16374 ; fill
G1 X97.953 Y79.627 E1.20838 ; fill
G1 X95.373 Y77.047 E1.36262 ; fill
G1 X95.373 Y75.990 E1.40725 ; fill
G1 X99.010 Y79.627 E1.62461 ; fill
G1 X100.066 Y79.627 E1.66925 ; fill
G1 X95.373 Y74.934 E1.94973 ; fill
G1 X95.373 Y73.878 E1.99437 ; fill
G1 X101.122 Y79.627 E2.33798 ; fill
G1 X102.178 Y79.627 E2.38261 ; fill
G1 X95.373 Y72.822 E2.78935 ; fill
G1 X95.373 Y71.766 E2.83399 ; fill
G1 X103.234 Y79.627 E3.30384 ; fill
G1 X104.290 Y79.627 E3.34848 ; fill
G1 X95.373 Y70.710 E3.88146 ; fill
G1 X95.373 Y69.654 E3.92609 ; fill
G1 X105.346 Y79.627 E4.52219 ; fill
G1 X106.403 Y79.627 E4.56683 ; fill
G1 X95.373 Y68.597 E5.22606 ; fill
G1 X95.373 Y67.541 E5.27069 ; fill
G1 X107.459 Y79.627 E5.99304 ; fill
G1 X108.515 Y79.627 E6.03768 ; fill
G1 X95.373 Y66.485 E6.82315 ; fill
G1 X95.373 Y65.429 E6.86779 ; fill
G1 X109.571 Y79.627 E7.71638 ; fill
G1 X110.627 Y79.627 E7.76101 ; fill
G1 X95.373 Y64.373 E8.67272 ; fill
G1 X96.429 Y64.373 E8.71735 ; fill
G1 X110.627 Y78.571 E9.56595 ; fill
G1 X110.627 Y77.515 E9.61058 ; fill
G1 X97.485 Y64.373 E10.39606 ; fill
G1 X98.541 Y64.373 E10.44069 ; fill
G1 X110.627 Y76.459 E11.16304 ; fill
G1 X110.627 Y75.403 E11.20768 ; fill
G1 X99.597 Y64.373 E11.86690 ; fill
G1 X100.654 Y64.373 E11.91154 ; fill
G1 X110.627 Y74.346 E12.50764 ; fill
G1 X110.627 Y73.290 E12.55227 ; fill
G1 X101.710 Y64.373 E13.08525 ; fill
G1 X102.766 Y64.373 E13.12989 ; fill
G1 X110.627 Y72.234 E13.59974 ; fill
G1 X110.627 Y71.178 E13.64438 ; fill
G1 X103.822 Y64.373 E14.05111 ; fill
G1 X104.878 Y64.373 E14.09575 ; fill
G1 X110.627 Y70.122 E14.43935 ; fill
G1 X110.627 Y69.066 E14.48399 ; fill
G1 X105.934 Y64.373 E14.76447 ; fill
G1 X106.990 Y64.373 E14.80910 ; fill
G1 X110.627 Y68.010 E15.02647 ; fill
G1 X110.627 Y66.953 E15.07110 ; fill
G1 X108.047 Y64.373 E15.22534 ; fill
G1 X109.103 Y64.373 E15.26998 ; fill
G1 X110.627 Y65.897 E15.36109 ; fill
G1 X110.627 Y64.841 E15.40572 ; fill
G1 X110.159 Y64.373 E15.43371 ; fill
G1 F1800.000 E14.43371 ; retract
G1 Z1.400 ; move to next layer (0) and lift
G92 E0 ; reset extrusion distance
G1 X94.871 Y106.129 F7800.000 ; move to first perimeter point
G1 Z0.400 ; restore layer Z
G1 F1800.000 E1.00000 ; compensate retraction
G1 X94.871 Y89.871 F900.000 E1.67676 ; perimeter
G1 X111.129 Y89.871 E2.35352 ; perimeter
G1 X111.129 Y106.129 E3.03028 ; perimeter
G1 X94.982 Y106.129 E3.70245 ; perimeter
G1 X94.871 Y106.129 E3.70704 ; perimeter
G1 X94.405 Y106.595 F7800.000 ; move to first perimeter point
G1 X94.222 Y106.322 F900.000 E3.72072 ; perimeter
G1 X94.136 Y105.888 E3.73915 ; perimeter
G1 X94.136 Y90.112 E4.39588 ; perimeter
G1 X94.222 Y89.678 E4.41430 ; perimeter
G1 X94.405 Y89.405 E4.42798 ; perimeter
G1 X94.678 Y89.222 E4.44166 ; perimeter
G1 X95.112 Y89.136 E4.46008 ; perimeter
G1 X110.888 Y89.136 E5.11681 ; perimeter
G1 X111.322 Y89.222 E5.13524 ; perimeter
G1 X111.595 Y89.405 E5.14891 ; perimeter
G1 X111.778 Y89.678 E5.16259 ; perimeter
G1 X111.864 Y90.112 E5.18102 ; perimeter
G1 X111.864 Y105.888 E5.83775 ; perimeter
G1 X111.778 Y106.322 E5.85617 ; perimeter
G1 X111.595 Y106.595 E5.86985 ; perimeter
G1 X111.322 Y106.778 E5.88353 ; perimeter
G1 X110.888 Y106.864 E5.90195 ; perimeter
G1 X95.112 Y106.864 E6.55868 ; perimeter
G1 X94.678 Y106.778 E6.57711 ; perimeter
G1 X94.496 Y106.657 E6.58619 ; perimeter
G1 X94.405 Y106.595 E6.59079 ; perimeter
G1 X93.874 Y107.126 F7800.000 ; move to first perimeter point
G1 X93.529 Y106.609 F900.000 E6.61665 ; perimeter
G1 X93.400 Y105.961 E6.64418 ; perimeter
G1 X93.400 Y90.039 E7.30694 ; perimeter
G1 X93.529 Y89.391 E7.33447 ; perimeter
G1 X93.874 Y88.874 E7.36033 ; perimeter
G1 X94.391 Y88.529 E7.38619 ; perimeter
G1 X95.039 Y88.400 E7.41372 ; perimeter
G1 X110.961 Y88.400 E8.07649 ; perimeter
G1 X111.609 Y88.529 E8.10402 ; perimeter
G1 X112.126 Y88.874 E8.12988 ; perimeter
G1 X112.471 Y89.391 E8.15574 ; perimeter
G1 X112.600 Y90.039 E8.18327 ; perimeter
G1 X112.600 Y105.961 E8.84603 ; perimeter
G1 X112.471 Y106.609 E8.87356 ; perimeter
G1 X112.126 Y107.126 E8.89942 ; perimeter
G1 X111.609 Y107.471 E8.92528 ; perimeter
G1 X110.961 Y107.600 E8.95282 ; perimeter
G1 X95.039 Y107.600 E9.61558 ; perimeter
G1 X94.391 Y107.471 E9.64311 ; perimeter
G1 X93.966 Y107.187 E9.66438 ; perimeter
G1 X93.874 Y107.126 E9.66897 ; perimeter
G1 X94.111 Y106.429 F7800.000 ; move inwards before travel
G1 X95.841 Y105.627 ; move to first fill point
G1 X95.373 Y105.159 F1800.000 E9.69696 ; fill
G1 X95.373 Y104.103 E9.74160 ; fill
G1 X96.897 Y105.627 E9.83271 ; fill
G1 X97.953 Y105.627 E9.87735 ; fill
G1 X95.373 Y103.047 E10.03159 ; fill
G1 X95.373 Y101.990 E10.07622 ; fill
G1 X99.010 Y105.627 E10.29359 ; fill
G1 X100.066 Y105.627 E10.33822 ; fill
G1 X95.373 Y100.934 E10.61870 ; fill
G1 X95.373 Y99.878 E10.66334 ; fill
G1 X101.122 Y105.627 E11.00695 ; fill
G1 X102.178 Y105.627 E11.05159 ; fill
G1 X95.373 Y98.822 E11.45832 ; fill
G1 X95.373 Y97.766 E11.50296 ; fill
G1 X103.234 Y105.627 E11.97281 ; fill
G1 X104.290 Y105.627 E12.01745 ; fill
G1 X95.373 Y96.710 E12.55043 ; fill
G1 X95.373 Y95.654 E12.59506 ; fill
