; generated by Slic3r 0.9.8-dev on 2012-12-30 at 00:07:41

; layer_height = 0.4
; perimeters = 3
; top_solid_layers = 3
; bottom_solid_layers = 3
; fill_density = 0.4
; perimeter_speed = 30
; infill_speed = 60
; travel_speed = 130
; scale = 1
; nozzle_diameter = 0.5
; filament_diameter = 3
; extrusion_multiplier = 1
; perimeters extrusion width = 0.53mm
; infill extrusion width = 0.53mm
; first layer extrusion width = 0.80mm

M107 ; disable fan
M190 S60 ; wait for bed temperature to be reached
M104 S185 ; set temperature
M104 S185 ; set extruder temperature
G28 ; home all axes
M109 S185 ; wait for temperature to be reached
G90 ; use absolute coordinates
G21 ; set units to millimeters
G92 E0 ; reset extrusion distance
M82 ; use absolute distances for extrusion
G1 F1800.000 E-1.00000 ; retract
G92 E0 ; reset extrusion distance
G1 Z0.400 F7800.000 ; move to next layer (0)
G1 X114.180 Y85.334 ; move to first skirt point
G1 F1800.000 E1.00000 ; compensate retraction
G1 X113.770 Y85.674 F600.000 E1.02217 ; skirt
G1 X113.340 Y85.974 E1.04400 ; skirt
G1 X112.890 Y86.244 E1.06584 ; skirt
G1 X112.410 Y86.484 E1.08818 ; skirt
G1 X111.920 Y86.674 E1.11006 ; skirt
G1 X111.420 Y86.834 E1.13191 ; skirt
G1 X110.640 Y86.994 E1.16506 ; skirt
G1 X110.380 Y87.024 E1.17595 ; skirt
G1 X102.770 Y87.514 E1.49340 ; skirt
G1 X101.980 Y87.524 E1.52628 ; skirt
G1 X101.720 Y87.504 E1.53714 ; skirt
G1 X101.200 Y87.424 E1.55904 ; skirt
G1 X100.420 Y87.244 E1.59236 ; skirt
G1 X99.920 Y87.074 E1.61435 ; skirt
G1 X99.200 Y86.744 E1.64732 ; skirt
G1 X98.530 Y86.334 E1.68002 ; skirt
G1 X98.100 Y86.014 E1.70233 ; skirt
G1 X97.520 Y85.474 E1.73532 ; skirt
G1 X97.000 Y84.874 E1.76837 ; skirt
G1 X96.560 Y84.224 E1.80104 ; skirt
G1 X96.200 Y83.514 E1.83418 ; skirt
G1 X96.000 Y83.024 E1.85621 ; skirt
G1 X95.920 Y82.774 E1.86714 ; skirt
G1 X95.730 Y82.004 E1.90015 ; skirt
G1 X95.640 Y81.214 E1.93325 ; skirt
G1 X95.630 Y80.424 E1.96614 ; skirt
G1 X95.720 Y79.634 E1.99924 ; skirt
G1 X95.770 Y79.374 E2.01026 ; skirt
G1 X95.910 Y78.864 E2.03227 ; skirt
G1 X96.180 Y78.124 E2.06507 ; skirt
G1 X96.530 Y77.414 E2.09802 ; skirt
G1 X96.970 Y76.754 E2.13104 ; skirt
G1 X97.480 Y76.144 E2.16414 ; skirt
G1 X98.060 Y75.604 E2.19712 ; skirt
G1 X98.480 Y75.284 E2.21910 ; skirt
G1 X98.700 Y75.134 E2.23019 ; skirt
G1 X99.390 Y74.744 E2.26318 ; skirt
G1 X99.870 Y74.534 E2.28499 ; skirt
G1 X100.370 Y74.354 E2.30711 ; skirt
G1 X100.880 Y74.224 E2.32902 ; skirt
G1 X101.400 Y74.124 E2.35106 ; skirt
G1 X101.670 Y74.094 E2.36237 ; skirt
G1 X109.250 Y73.604 E2.67857 ; skirt
G1 X110.040 Y73.594 E2.71146 ; skirt
G1 X110.830 Y73.684 E2.74456 ; skirt
G1 X111.600 Y73.864 E2.77747 ; skirt
G1 X112.350 Y74.134 E2.81065 ; skirt
G1 X113.060 Y74.494 E2.84379 ; skirt
G1 X113.500 Y74.774 E2.86550 ; skirt
G1 X114.130 Y75.264 E2.89873 ; skirt
G1 X114.690 Y75.824 E2.93169 ; skirt
G1 X115.190 Y76.444 E2.96485 ; skirt
G1 X115.600 Y77.114 E2.99755 ; skirt
G1 X115.940 Y77.834 E3.03069 ; skirt
G1 X116.120 Y78.334 E3.05282 ; skirt
G1 X116.190 Y78.584 E3.06362 ; skirt
G1 X116.350 Y79.364 E3.09677 ; skirt
G1 X116.380 Y79.624 E3.10766 ; skirt
G1 X116.410 Y80.154 E3.12976 ; skirt
G1 X116.410 Y80.684 E3.15182 ; skirt
G1 X116.360 Y81.214 E3.17398 ; skirt
G1 X116.210 Y81.994 E3.20705 ; skirt
G1 X115.970 Y82.744 E3.23983 ; skirt
G1 X115.870 Y82.994 E3.25104 ; skirt
G1 X115.640 Y83.464 E3.27282 ; skirt
G1 X115.230 Y84.144 E3.30587 ; skirt
G1 X114.740 Y84.774 E3.33910 ; skirt
G1 X114.260 Y85.258 E3.36747 ; skirt
G1 X114.180 Y85.334 E3.37207 ; skirt
G1 F1800.000 E2.37207 ; retract
G92 E0 ; reset extrusion distance
G1 X103.177 Y80.745 F7800.000 ; move to first perimeter point
G1 F1800.000 E1.00000 ; compensate retraction
G1 X109.686 Y80.330 F600.000 E1.27150 ; perimeter
G1 F1800.000 E0.27150 ; retract
G92 E0 ; reset extrusion distance
G1 X102.411 Y80.794 F7800.000 ; move to first perimeter point
G1 F1800.000 E1.00000 ; compensate retraction
G1 X103.177 Y80.745 F600.000 E1.03194 ; perimeter
G1 X102.361 Y80.797 F7800.000 ; move to first perimeter point
G1 X102.411 Y80.794 F600.000 E1.03401 ; perimeter
G1 X102.361 Y80.797 F7800.000 ; move to first perimeter point
G1 X102.361 Y80.797 F600.000 E1.03401 ; perimeter
G1 F1800.000 E0.03401 ; retract
G92 E0 ; reset extrusion distance
G1 Z0.800 F7800.000 ; move to next layer (1)
M106 S255 ; enable fan
G1 Z1.200 ; move to next layer (2)
G1 Z1.600 ; move to next layer (3)
G1 Z2.000 ; move to next layer (4)
G1 Z2.400 ; move to next layer (5)
G1 Z2.800 ; move to next layer (6)
G1 Z3.200 ; move to next layer (7)
G1 Z3.600 ; move to next layer (8)
G1 Z4.000 ; move to next layer (9)
G1 Z4.400 ; move to next layer (10)
G1 Z4.800 ; move to next layer (11)
G1 Z5.200 ; move to next layer (12)
G1 Z5.600 ; move to next layer (13)
G1 Z6.000 ; move to next layer (14)
G1 Z6.400 ; move to next layer (15)
G1 Z6.800 ; move to next layer (16)
G1 Z7.200 ; move to next layer (17)
G1 Z7.600 ; move to next layer (18)
G1 Z8.000 ; move to next layer (19)
G1 Z8.400 ; move to next layer (20)
G1 Z8.800 ; move to next layer (21)
G1 Z9.200 ; move to next layer (22)
M107 ; disable fan
M104 S0 ; turn off temperature
G28 X0  ; home X axis
M84     ; disable motors
; filament used = 1.7mm (0.0cm3)

; acceleration = 0
; bed_size = 200,200
; bed_temperature = 60
; bottom_solid_layers = 3
; bridge_fan_speed = 100
; bridge_flow_ratio = 1
; bridge_speed = 60
; brim_width = 0
; complete_objects = 0
; cooling = 1
; disable_fan_first_layers = 2
; duplicate = 1
; duplicate_distance = 6
; duplicate_grid = 1,1
; end_gcode = M104 S0 ; turn off temperature\nG28 X0  ; home X axis\nM84     ; disable motors
; external_perimeter_speed = 100%
; extra_perimeters = 1
; extruder_clearance_height = 20
; extruder_clearance_radius = 20
; extruder_offset = 0x0
; extrusion_axis = E
; extrusion_multiplier = 1
; extrusion_width = 0
; fan_always_on = 1
; fan_below_layer_time = 60
; filament_diameter = 3
; fill_angle = 45
; fill_density = 0.4
; fill_pattern = rectilinear
; first_layer_bed_temperature = 60
; first_layer_extrusion_width = 200%
; first_layer_height = 100%
; first_layer_speed = 30%
; first_layer_temperature = 185
; g0 = 0
; gap_fill_speed = 20
; gcode_arcs = 0
; gcode_comments = 1
; gcode_flavor = reprap
; infill_acceleration = 50
; infill_every_layers = 1
; infill_extruder = 1
; infill_extrusion_width = 0
; infill_speed = 60
; layer_gcode = 
; layer_height = 0.4
; max_fan_speed = 100
; min_fan_speed = 35
; min_print_speed = 10
; min_skirt_length = 0
; notes = 
; nozzle_diameter = 0.5
; only_retract_when_crossing_perimeters = 0
; output_filename_format = [input_filename_base].gcode
; perimeter_acceleration = 25
; perimeter_extruder = 1
; perimeter_extrusion_width = 0
; perimeter_speed = 30
; perimeters = 3
; post_process = 
; print_center = 100,89
; randomize_start = 1
; retract_before_travel = 2
; retract_length = 1
; retract_length_toolchange = 3
; retract_lift = 0
; retract_restart_extra = 0
; retract_restart_extra_toolchange = 0
; retract_speed = 30
; rotate = 0
; scale = 1
; skirt_distance = 6
; skirt_height = 1
; skirts = 1
; slowdown_below_layer_time = 15
; small_perimeter_speed = 30
; solid_fill_pattern = rectilinear
; solid_infill_below_area = 70
; solid_infill_every_layers = 0
; solid_infill_speed = 60
; start_gcode = M104 S185 ; set extruder temperature\nG28 ; home all axes
; support_material = 0
; support_material_angle = 0
; support_material_extruder = 1
; support_material_extrusion_width = 0
; support_material_pattern = rectilinear
; support_material_spacing = 2.5
; support_material_speed = 60
; support_material_threshold = 45
; temperature = 185
; threads = 2
; top_solid_infill_speed = 50
; top_solid_layers = 3
; travel_speed = 130
; use_relative_e_distances = 0
; vibration_limit = 0
; z_offset = 0
