; generated by Slic3r 0.9.8-dev on 2013-01-13 at 16:30:07

; layer_height = 0.4
; perimeters = 3
; top_solid_layers = 3
; bottom_solid_layers = 3
; fill_density = 0.40
; perimeter_speed = 30
; infill_speed = 60
; travel_speed = 130
; scale = 1
; nozzle_diameter = 0.5
; filament_diameter = 3
; extrusion_multiplier = 1
; perimeters extrusion width = 0.53mm
; infill extrusion width = 0.53mm
; first layer extrusion width = 0.80mm

M190 S60 ; wait for bed temperature to be reached
M104 S175 ; set temperature
G28 ; home all axes
G92 E0 ;reset extruder
M109 S175 ; wait for temperature to be reached
G90 ; use absolute coordinates
G21 ; set units to millimeters
G92 E0 ; reset extrusion distance
M82 ; use absolute distances for extrusion
G1 F1800.000 E-1.00000 ; retract
G1 Z1.400 ; move to next layer (0) and lift
G92 E0 ; reset extrusion distance
G1 X113.853 Y115.782 F7800.000 ; move to first skirt point
G1 Z0.400 ; restore layer Z
G1 F1800.000 E1.00000 ; compensate retraction
G1 X113.613 Y116.282 F900.000 E1.02309 ; skirt
G1 X113.473 Y116.522 E1.03465 ; skirt
G1 X113.163 Y116.982 E1.05774 ; skirt
G1 X112.823 Y117.422 E1.08089 ; skirt
G1 X112.443 Y117.822 E1.10386 ; skirt
G1 X112.033 Y118.202 E1.12713 ; skirt
G1 X111.373 Y118.692 E1.16135 ; skirt
G1 X111.133 Y118.842 E1.17313 ; skirt
G1 X110.643 Y119.102 E1.19622 ; skirt
G1 X110.143 Y119.322 E1.21896 ; skirt
G1 X109.613 Y119.502 E1.24226 ; skirt
G1 X108.803 Y119.682 E1.27680 ; skirt
G1 X107.983 Y119.772 E1.31114 ; skirt
G1 X92.923 Y119.782 E1.93805 ; skirt
G1 X92.113 Y119.732 E1.97183 ; skirt
G1 X91.573 Y119.642 E1.99462 ; skirt
G1 X90.783 Y119.432 E2.02865 ; skirt
G1 X90.283 Y119.242 E2.05092 ; skirt
G1 X89.793 Y119.002 E2.07363 ; skirt
G1 X89.323 Y118.732 E2.09619 ; skirt
G1 X88.873 Y118.422 E2.11894 ; skirt
G1 X88.453 Y118.082 E2.14143 ; skirt
G1 X87.873 Y117.502 E2.17558 ; skirt
G1 X87.373 Y116.862 E2.20939 ; skirt
G1 X87.083 Y116.402 E2.23202 ; skirt
G1 X86.833 Y115.922 E2.25455 ; skirt
G1 X75.643 Y92.262 E3.34406 ; skirt
G1 X75.403 Y91.682 E3.37019 ; skirt
G1 X75.213 Y91.072 E3.39678 ; skirt
G1 X75.143 Y90.762 E3.41001 ; skirt
G1 X74.243 Y85.192 E3.64489 ; skirt
G1 X74.213 Y84.882 E3.65785 ; skirt
G1 X74.203 Y84.262 E3.68366 ; skirt
G1 X74.213 Y83.952 E3.69657 ; skirt
G1 X74.283 Y83.342 E3.72213 ; skirt
G1 X74.493 Y82.442 E3.76061 ; skirt
G1 X76.323 Y76.502 E4.01934 ; skirt
G1 X77.463 Y73.042 E4.17099 ; skirt
G1 X77.923 Y71.962 E4.21985 ; skirt
G1 X78.963 Y69.912 E4.31554 ; skirt
G1 X79.423 Y69.062 E4.35578 ; skirt
G1 X79.803 Y68.452 E4.38569 ; skirt
G1 X80.293 Y67.742 E4.42161 ; skirt
G1 X80.643 Y67.282 E4.44567 ; skirt
G1 X81.053 Y66.792 E4.47226 ; skirt
G1 X83.363 Y64.272 E4.61457 ; skirt
G1 X84.083 Y63.562 E4.65666 ; skirt
G1 X84.693 Y63.022 E4.69057 ; skirt
G1 X87.133 Y61.152 E4.81854 ; skirt
G1 X88.153 Y60.442 E4.87028 ; skirt
G1 X89.193 Y59.822 E4.92068 ; skirt
G1 X89.963 Y59.442 E4.95642 ; skirt
G1 X90.893 Y59.092 E4.99779 ; skirt
G1 X91.203 Y59.002 E5.01123 ; skirt
G1 X92.073 Y58.812 E5.04830 ; skirt
G1 X92.613 Y58.732 E5.07102 ; skirt
G1 X95.383 Y58.402 E5.18714 ; skirt
G1 X96.353 Y58.362 E5.22756 ; skirt
G1 X104.583 Y58.582 E5.57027 ; skirt
G1 X107.703 Y58.852 E5.70064 ; skirt
G1 X108.193 Y58.932 E5.72130 ; skirt
G1 X108.673 Y59.052 E5.74190 ; skirt
G1 X109.713 Y59.382 E5.78732 ; skirt
G1 X110.533 Y59.742 E5.82460 ; skirt
G1 X111.153 Y60.062 E5.85364 ; skirt
G1 X112.033 Y60.582 E5.89619 ; skirt
G1 X114.993 Y62.672 E6.04703 ; skirt
G1 X115.553 Y63.102 E6.07642 ; skirt
G1 X116.303 Y63.822 E6.11970 ; skirt
G1 X116.903 Y64.462 E6.15622 ; skirt
G1 X119.253 Y67.092 E6.30304 ; skirt
G1 X120.133 Y68.302 E6.36532 ; skirt
G1 X120.593 Y69.012 E6.40054 ; skirt
G1 X121.083 Y69.962 E6.44503 ; skirt
G1 X122.133 Y72.112 E6.54463 ; skirt
G1 X122.413 Y72.782 E6.57486 ; skirt
G1 X122.583 Y73.252 E6.59567 ; skirt
G1 X123.733 Y76.692 E6.74666 ; skirt
G1 X125.553 Y82.742 E7.00965 ; skirt
G1 X125.673 Y83.332 E7.03472 ; skirt
G1 X125.743 Y83.932 E7.05986 ; skirt
G1 X125.753 Y84.542 E7.08526 ; skirt
G1 X125.713 Y85.142 E7.11029 ; skirt
G1 X124.833 Y90.782 E7.34791 ; skirt
G1 X124.753 Y91.132 E7.36285 ; skirt
G1 X124.533 Y91.802 E7.39221 ; skirt
G1 X113.898 Y115.682 E8.48037 ; skirt
G1 X113.853 Y115.782 E8.48497 ; skirt
G1 F1800.000 E7.48497 ; retract
G1 Z1.400 ; move to next layer (0) and lift
G92 E0 ; reset extrusion distance
G1 X93.398 Y66.697 F7800.000 ; move to first perimeter point
G1 Z0.400 ; restore layer Z
G1 F1800.000 E1.00000 ; compensate retraction
G1 X91.578 Y70.055 F900.000 E1.15897 ; perimeter
G1 X91.401 Y70.414 E1.17565 ; perimeter
G1 X91.239 Y70.850 E1.19501 ; perimeter
G1 X90.968 Y71.707 E1.23242 ; perimeter
G1 X90.892 Y72.043 E1.24676 ; perimeter
G1 X90.860 Y72.309 E1.25792 ; perimeter
G1 X90.759 Y73.491 E1.30730 ; perimeter
G1 X90.793 Y74.729 E1.35887 ; perimeter
G1 X90.916 Y75.454 E1.38946 ; perimeter
G1 X91.220 Y76.688 E1.44236 ; perimeter
G1 X91.384 Y77.297 E1.46861 ; perimeter
G1 X91.577 Y77.831 E1.49227 ; perimeter
G1 X91.803 Y78.268 E1.51276 ; perimeter
G1 X91.974 Y78.524 E1.52558 ; perimeter
G1 X92.305 Y78.949 E1.54799 ; perimeter
G1 X92.964 Y79.691 E1.58928 ; perimeter
G1 X94.134 Y80.844 E1.65767 ; perimeter
G1 X94.295 Y81.047 E1.66846 ; perimeter
G1 X94.428 Y81.257 E1.67881 ; perimeter
G1 X94.524 Y81.425 E1.68686 ; perimeter
G1 X94.333 Y81.949 E1.71007 ; perimeter
G1 X94.430 Y83.032 E1.75533 ; perimeter
G1 X95.124 Y83.852 E1.80007 ; perimeter
G1 X95.831 Y84.189 E1.83266 ; perimeter
G1 X96.411 Y84.256 E1.85699 ; perimeter
G1 X103.800 Y84.250 E2.16458 ; perimeter
G1 X104.240 Y84.182 E2.18309 ; perimeter
G1 X104.904 Y83.886 E2.21335 ; perimeter
G1 X105.625 Y83.085 E2.25820 ; perimeter
G1 X105.758 Y81.948 E2.30586 ; perimeter
G1 X105.534 Y81.378 E2.33136 ; perimeter
G1 X105.720 Y81.062 E2.34662 ; perimeter
G1 X105.865 Y80.871 E2.35659 ; perimeter
G1 X106.997 Y79.717 E2.42390 ; perimeter
G1 X107.718 Y78.881 E2.46985 ; perimeter
G1 X108.081 Y78.401 E2.49491 ; perimeter
G1 X108.261 Y78.104 E2.50936 ; perimeter
G1 X108.403 Y77.813 E2.52283 ; perimeter
G1 X108.578 Y77.340 E2.54382 ; perimeter
G1 X108.840 Y76.404 E2.58430 ; perimeter
G1 X109.103 Y75.303 E2.63142 ; perimeter
G1 X109.194 Y74.739 E2.65518 ; perimeter
G1 X109.215 Y74.438 E2.66776 ; perimeter
G1 X109.242 Y73.504 E2.70667 ; perimeter
G1 X109.129 Y72.120 E2.76447 ; perimeter
G1 X109.035 Y71.676 E2.78334 ; perimeter
G1 X108.687 Y70.590 E2.83083 ; perimeter
G1 X108.463 Y70.087 E2.85376 ; perimeter
G1 X107.766 Y68.805 E2.91450 ; perimeter
G1 X106.322 Y66.622 E3.02347 ; perimeter
G1 X108.167 Y67.889 E3.11667 ; perimeter
G1 X108.463 Y68.143 E3.13287 ; perimeter
G1 X109.013 Y68.714 E3.16592 ; perimeter
G1 X109.240 Y68.908 E3.17835 ; perimeter
G1 X109.543 Y69.110 E3.19349 ; perimeter
G1 X109.893 Y69.266 E3.20941 ; perimeter
G1 X110.228 Y69.356 E3.22387 ; perimeter
G1 X110.304 Y69.420 E3.22800 ; perimeter
G1 X110.788 Y69.933 E3.25738 ; perimeter
G1 X111.232 Y70.468 E3.28632 ; perimeter
G1 X111.444 Y70.778 E3.30193 ; perimeter
G1 X111.890 Y71.524 E3.33810 ; perimeter
G1 X112.130 Y71.816 E3.35385 ; perimeter
G1 X112.492 Y72.121 E3.37357 ; perimeter
G1 X112.948 Y72.344 E3.39469 ; perimeter
G1 X113.078 Y72.516 E3.40367 ; perimeter
G1 X113.456 Y73.076 E3.43181 ; perimeter
G1 X113.734 Y73.619 E3.45721 ; perimeter
G1 X113.835 Y73.912 E3.47010 ; perimeter
G1 X113.970 Y74.529 E3.49639 ; perimeter
G1 X114.082 Y74.883 E3.51184 ; perimeter
G1 X114.313 Y75.313 E3.53218 ; perimeter
G1 X114.630 Y75.667 E3.55195 ; perimeter
G1 X114.796 Y75.801 E3.56082 ; perimeter
G1 X114.903 Y76.176 E3.57706 ; perimeter
G1 X115.104 Y77.032 E3.61366 ; perimeter
G1 X115.141 Y77.375 E3.62801 ; perimeter
G1 X115.122 Y78.006 E3.65432 ; perimeter
G1 X115.266 Y78.622 E3.68065 ; perimeter
G1 X115.634 Y79.213 E3.70961 ; perimeter
G1 X115.823 Y79.373 E3.71994 ; perimeter
G1 X115.681 Y81.044 E3.78975 ; perimeter
G1 X115.596 Y81.543 E3.81081 ; perimeter
G1 X115.516 Y81.808 E3.82231 ; perimeter
G1 X115.460 Y81.926 E3.82776 ; perimeter
G1 X115.127 Y82.330 E3.84957 ; perimeter
G1 X114.809 Y82.889 E3.87635 ; perimeter
G1 X114.551 Y85.071 E3.96781 ; perimeter
G1 X116.624 Y85.512 E4.05604 ; perimeter
G1 X116.150 Y86.086 E4.08706 ; perimeter
G1 X115.908 Y86.442 E4.10497 ; perimeter
G1 X115.693 Y87.037 E4.13130 ; perimeter
G1 X115.684 Y87.810 E4.16346 ; perimeter
G1 X115.970 Y88.526 E4.19557 ; perimeter
G1 X116.437 Y89.058 E4.22505 ; perimeter
G1 X115.765 Y89.545 E4.25961 ; perimeter
G1 X115.324 Y89.802 E4.28085 ; perimeter
G1 X115.049 Y90.000 E4.29495 ; perimeter
G1 X114.647 Y90.419 E4.31914 ; perimeter
G1 X114.309 Y91.172 E4.35350 ; perimeter
G1 X114.327 Y92.302 E4.40054 ; perimeter
G1 X113.972 Y92.309 E4.41534 ; perimeter
G1 X113.747 Y92.339 E4.42479 ; perimeter
G1 X113.389 Y92.421 E4.44006 ; perimeter
G1 X112.807 Y92.684 E4.46666 ; perimeter
G1 X112.021 Y93.695 E4.51996 ; perimeter
G1 X111.158 Y93.703 E4.55590 ; perimeter
G1 X110.873 Y93.729 E4.56778 ; perimeter
G1 X110.429 Y93.817 E4.58663 ; perimeter
G1 X109.792 Y94.063 E4.61505 ; perimeter
G1 X109.542 Y94.349 E4.63088 ; perimeter
G1 X109.302 Y94.565 E4.64432 ; perimeter
G1 X109.036 Y95.105 E4.66935 ; perimeter
G1 X108.843 Y95.386 E4.68356 ; perimeter
G1 X107.962 Y96.385 E4.73900 ; perimeter
G1 X107.357 Y97.154 E4.77973 ; perimeter
G1 X106.963 Y97.781 E4.81058 ; perimeter
G1 X106.745 Y98.207 E4.83047 ; perimeter
G1 X106.629 Y98.467 E4.84233 ; perimeter
G1 X106.438 Y99.018 E4.86663 ; perimeter
G1 X106.324 Y99.484 E4.88660 ; perimeter
G1 X106.268 Y99.883 E4.90336 ; perimeter
G1 X106.222 Y100.750 E4.93951 ; perimeter
G1 X106.235 Y111.576 E5.39016 ; perimeter
G1 X94.401 Y111.576 E5.88276 ; perimeter
G1 X94.398 Y100.332 E6.35082 ; perimeter
G1 X94.377 Y99.961 E6.36631 ; perimeter
G1 X94.332 Y99.607 E6.38115 ; perimeter
G1 X94.247 Y99.174 E6.39953 ; perimeter
G1 X94.117 Y98.731 E6.41873 ; perimeter
G1 X93.830 Y98.035 E6.45010 ; perimeter
G1 X93.612 Y97.625 E6.46941 ; perimeter
G1 X93.013 Y96.783 E6.51240 ; perimeter
G1 X92.710 Y96.412 E6.53238 ; perimeter
G1 X91.755 Y95.335 E6.59229 ; perimeter
G1 X91.583 Y95.085 E6.60492 ; perimeter
G1 X91.394 Y94.696 E6.62291 ; perimeter
G1 X91.183 Y94.446 E6.63653 ; perimeter
G1 X90.723 Y93.958 E6.66447 ; perimeter
G1 X91.219 Y93.660 E6.68856 ; perimeter
G1 X89.411 Y90.383 E6.84435 ; perimeter
G1 X86.423 Y91.900 E6.98386 ; perimeter
G1 X85.646 Y92.371 E7.02170 ; perimeter
G1 X85.609 Y91.063 E7.07620 ; perimeter
G1 X85.240 Y90.359 E7.10930 ; perimeter
G1 X84.863 Y89.977 E7.13162 ; perimeter
G1 X84.596 Y89.789 E7.14523 ; perimeter
G1 X84.149 Y89.521 E7.16693 ; perimeter
G1 X83.521 Y89.047 E7.19968 ; perimeter
G1 X83.953 Y88.565 E7.22664 ; perimeter
G1 X84.283 Y87.802 E7.26126 ; perimeter
G1 X84.239 Y86.923 E7.29791 ; perimeter
G1 X83.979 Y86.362 E7.32365 ; perimeter
G1 X83.777 Y86.073 E7.33831 ; perimeter
G1 X83.300 Y85.488 E7.36974 ; perimeter
G1 X83.942 Y85.403 E7.39667 ; perimeter
G1 X85.053 Y84.571 E7.45448 ; perimeter
G1 X85.184 Y83.234 E7.51037 ; perimeter
G1 X84.936 Y82.554 E7.54051 ; perimeter
G1 X84.524 Y81.986 E7.56970 ; perimeter
G1 X84.461 Y81.860 E7.57560 ; perimeter
G1 X84.393 Y81.630 E7.58556 ; perimeter
G1 X84.309 Y81.107 E7.60762 ; perimeter
G1 X84.194 Y79.430 E7.67758 ; perimeter
G1 X84.360 Y79.288 E7.68669 ; perimeter
G1 X84.725 Y78.717 E7.71490 ; perimeter
G1 X84.869 Y78.142 E7.73959 ; perimeter
G1 X84.877 Y77.781 E7.75459 ; perimeter
G1 X84.857 Y77.394 E7.77072 ; perimeter
G1 X84.873 Y77.172 E7.78001 ; perimeter
G1 X84.943 Y76.807 E7.79546 ; perimeter
G1 X85.173 Y75.869 E7.83567 ; perimeter
G1 X85.570 Y75.516 E7.85778 ; perimeter
G1 X85.838 Y75.118 E7.87776 ; perimeter
G1 X85.993 Y74.735 E7.89495 ; perimeter
G1 X86.174 Y73.971 E7.92763 ; perimeter
G1 X86.319 Y73.570 E7.94538 ; perimeter
G1 X86.593 Y73.065 E7.96930 ; perimeter
G1 X87.029 Y72.442 E8.00097 ; perimeter
G1 X87.543 Y72.187 E8.02483 ; perimeter
G1 X87.931 Y71.839 E8.04655 ; perimeter
G1 X88.182 Y71.500 E8.06410 ; perimeter
G1 X88.455 Y71.027 E8.08681 ; perimeter
G1 X88.776 Y70.554 E8.11064 ; perimeter
G1 X89.423 Y69.819 E8.15141 ; perimeter
G1 X89.760 Y69.486 E8.17109 ; perimeter
G1 X89.984 Y69.430 E8.18074 ; perimeter
G1 X90.352 Y69.278 E8.19729 ; perimeter
G1 X90.692 Y69.058 E8.21417 ; perimeter
G1 X90.931 Y68.849 E8.22737 ; perimeter
G1 X91.432 Y68.293 E8.25853 ; perimeter
G1 X91.810 Y67.931 E8.28030 ; perimeter
G1 X93.311 Y66.765 E8.35942 ; perimeter
G1 X93.398 Y66.697 E8.36402 ; perimeter
G1 X93.247 Y66.194 F7800.000 ; move to first perimeter point
G1 X93.563 Y66.152 F900.000 E8.37727 ; perimeter
G1 X94.020 Y66.139 E8.39630 ; perimeter
G1 X94.781 Y66.248 E8.42832 ; perimeter
G1 X94.249 Y67.160 E8.47228 ; perimeter
G1 X93.473 Y68.356 E8.53163 ; perimeter
G1 X93.373 Y68.281 E8.53684 ; perimeter
G1 X92.229 Y70.398 E8.63701 ; perimeter
G1 X91.996 Y70.912 E8.66051 ; perimeter
G1 X91.681 Y71.893 E8.70340 ; perimeter
G1 X91.619 Y72.161 E8.71485 ; perimeter
G1 X91.590 Y72.395 E8.72467 ; perimeter
G1 X91.495 Y73.507 E8.77113 ; perimeter
G1 X91.510 Y74.415 E8.80895 ; perimeter
G1 X91.552 Y74.855 E8.82734 ; perimeter
G1 X91.681 Y75.503 E8.85483 ; perimeter
G1 X92.088 Y77.082 E8.92271 ; perimeter
G1 X92.251 Y77.537 E8.94282 ; perimeter
G1 X92.432 Y77.885 E8.95917 ; perimeter
G1 X92.713 Y78.284 E8.97947 ; perimeter
G1 X93.318 Y78.993 E9.01829 ; perimeter
G1 X94.340 Y80.000 E9.07800 ; perimeter
G1 X94.753 Y80.435 E9.10298 ; perimeter
G1 X94.997 Y80.777 E9.12045 ; perimeter
G1 X95.357 Y81.407 E9.15068 ; perimeter
G1 X95.226 Y81.647 E9.16203 ; perimeter
G1 X95.080 Y82.046 E9.17974 ; perimeter
G1 X95.142 Y82.734 E9.20849 ; perimeter
G1 X95.584 Y83.257 E9.23696 ; perimeter
G1 X96.040 Y83.475 E9.25803 ; perimeter
G1 X96.436 Y83.520 E9.27461 ; perimeter
G1 X103.735 Y83.515 E9.57846 ; perimeter
G1 X104.030 Y83.470 E9.59088 ; perimeter
G1 X104.461 Y83.277 E9.61054 ; perimeter
G1 X104.922 Y82.767 E9.63915 ; perimeter
G1 X105.006 Y82.046 E9.66938 ; perimeter
G1 X104.827 Y81.590 E9.68974 ; perimeter
G1 X104.698 Y81.390 E9.69967 ; perimeter
G1 X104.799 Y81.194 E9.70886 ; perimeter
G1 X105.033 Y80.771 E9.72896 ; perimeter
G1 X105.304 Y80.395 E9.74824 ; perimeter
G1 X106.458 Y79.216 E9.81695 ; perimeter
G1 X107.321 Y78.198 E9.87249 ; perimeter
G1 X107.615 Y77.750 E9.89479 ; perimeter
G1 X107.805 Y77.327 E9.91410 ; perimeter
G1 X108.004 Y76.688 E9.94199 ; perimeter
G1 X108.381 Y75.162 E10.00741 ; perimeter
G1 X108.462 Y74.663 E10.02844 ; perimeter
G1 X108.505 Y73.556 E10.07457 ; perimeter
G1 X108.422 Y72.430 E10.12157 ; perimeter
G1 X108.370 Y72.053 E10.13742 ; perimeter
G1 X108.074 Y71.075 E10.17994 ; perimeter
G1 X107.909 Y70.628 E10.19977 ; perimeter
G1 X107.134 Y69.181 E10.26813 ; perimeter
G1 X106.574 Y68.336 E10.31029 ; perimeter
G1 X105.740 Y66.963 E10.37717 ; perimeter
G1 X105.357 Y66.283 E10.40965 ; perimeter
G1 X106.519 Y66.254 E10.45802 ; perimeter
G1 X106.818 Y66.290 E10.47055 ; perimeter
G1 X107.052 Y66.365 E10.48078 ; perimeter
G1 X107.471 Y66.565 E10.50013 ; perimeter
G1 X108.306 Y67.082 E10.54099 ; perimeter
G1 X108.624 Y67.313 E10.55737 ; perimeter
G1 X108.887 Y67.534 E10.57167 ; perimeter
G1 X109.516 Y68.176 E10.60908 ; perimeter
G1 X109.684 Y68.320 E10.61831 ; perimeter
G1 X109.899 Y68.463 E10.62904 ; perimeter
G1 X110.142 Y68.571 E10.64011 ; perimeter
G1 X110.518 Y68.664 E10.65622 ; perimeter
G1 X110.793 Y68.870 E10.67052 ; perimeter
G1 X111.342 Y69.450 E10.70378 ; perimeter
G1 X111.813 Y70.016 E10.73444 ; perimeter
G1 X112.068 Y70.389 E10.75323 ; perimeter
G1 X112.485 Y71.089 E10.78715 ; perimeter
G1 X112.655 Y71.297 E10.79836 ; perimeter
G1 X112.903 Y71.506 E10.81184 ; perimeter
G1 X113.154 Y71.636 E10.82359 ; perimeter
G1 X113.359 Y71.711 E10.83270 ; perimeter
G1 X113.452 Y71.806 E10.83823 ; perimeter
G1 X113.669 Y72.079 E10.85276 ; perimeter
G1 X114.015 Y72.581 E10.87811 ; perimeter
G1 X114.301 Y73.092 E10.90250 ; perimeter
G1 X114.455 Y73.441 E10.91838 ; perimeter
G1 X114.542 Y73.708 E10.93010 ; perimeter
G1 X114.684 Y74.347 E10.95732 ; perimeter
G1 X114.762 Y74.596 E10.96819 ; perimeter
G1 X114.920 Y74.887 E10.98198 ; perimeter
G1 X115.138 Y75.132 E10.99563 ; perimeter
