; generated by Slic3r 0.9.8-dev on 2012-12-30 at 19:39:10

; layer_height = 0.4
; perimeters = 3
; top_solid_layers = 3
; bottom_solid_layers = 3
; fill_density = 0
; perimeter_speed = 30
; infill_speed = 60
; travel_speed = 130
; scale = 1
; nozzle_diameter = 0.5
; filament_diameter = 3
; extrusion_multiplier = 1
; perimeters extrusion width = 0.53mm
; infill extrusion width = 0.53mm
; first layer extrusion width = 0.80mm

M190 S60 ; wait for bed temperature to be reached
M104 S185 ; set temperature
M104 S185 ; set extruder temperature
G28 ; home all axes
M109 S185 ; wait for temperature to be reached
G90 ; use absolute coordinates
G21 ; set units to millimeters
G92 E0 ; reset extrusion distance
M82 ; use absolute distances for extrusion
G1 F1800.000 E-1.00000 ; retract
G92 E0 ; reset extrusion distance
G1 Z0.400 F7800.000 ; move to next layer (0)
G1 X127.070 Y106.941 ; move to first skirt point
G1 F1800.000 E1.00000 ; compensate retraction
G1 X126.590 Y107.201 F540.000 E1.02272 ; skirt
G1 X126.340 Y107.311 E1.03409 ; skirt
G1 X125.570 Y107.581 E1.06806 ; skirt
G1 X125.050 Y107.711 E1.09037 ; skirt
G1 X124.510 Y107.801 E1.11316 ; skirt
G1 X123.700 Y107.851 E1.14694 ; skirt
G1 X94.100 Y107.851 E2.37912 ; skirt
G1 X92.620 Y107.791 E2.44078 ; skirt
G1 X91.970 Y107.731 E2.46795 ; skirt
G1 X90.820 Y107.571 E2.51628 ; skirt
G1 X90.230 Y107.461 E2.54127 ; skirt
G1 X89.110 Y107.201 E2.58913 ; skirt
G1 X88.480 Y107.021 E2.61641 ; skirt
G1 X87.410 Y106.661 E2.66340 ; skirt
G1 X86.790 Y106.421 E2.69108 ; skirt
G1 X85.770 Y105.961 E2.73765 ; skirt
G1 X85.190 Y105.661 E2.76484 ; skirt
G1 X84.230 Y105.111 E2.81089 ; skirt
G1 X83.710 Y104.781 E2.83653 ; skirt
G1 X82.800 Y104.141 E2.88284 ; skirt
G1 X82.320 Y103.771 E2.90807 ; skirt
G1 X81.470 Y103.051 E2.95444 ; skirt
G1 X80.970 Y102.581 E2.98301 ; skirt
G1 X80.190 Y101.771 E3.02982 ; skirt
G1 X79.750 Y101.261 E3.05786 ; skirt
G1 X79.050 Y100.371 E3.10499 ; skirt
G1 X78.690 Y99.881 E3.13030 ; skirt
G1 X78.060 Y98.911 E3.17845 ; skirt
G1 X77.780 Y98.431 E3.20158 ; skirt
G1 X77.160 Y97.261 E3.25670 ; skirt
G1 X76.790 Y96.451 E3.29377 ; skirt
G1 X76.180 Y94.821 E3.36622 ; skirt
G1 X75.990 Y94.191 E3.39361 ; skirt
G1 X75.700 Y93.061 E3.44218 ; skirt
G1 X75.580 Y92.511 E3.46561 ; skirt
G1 X75.390 Y91.381 E3.51331 ; skirt
G1 X75.310 Y90.741 E3.54016 ; skirt
G1 X75.230 Y89.621 E3.58690 ; skirt
G1 X75.220 Y88.901 E3.61687 ; skirt
G1 X75.260 Y87.781 E3.66353 ; skirt
G1 X75.300 Y87.231 E3.68648 ; skirt
G1 X75.430 Y86.131 E3.73259 ; skirt
G1 X75.550 Y85.411 E3.76298 ; skirt
G1 X75.800 Y84.321 E3.80953 ; skirt
G1 X76.300 Y82.711 E3.87971 ; skirt
G1 X76.540 Y82.071 E3.90816 ; skirt
G1 X76.990 Y81.041 E3.95495 ; skirt
G1 X77.300 Y80.421 E3.98381 ; skirt
G1 X77.860 Y79.431 E4.03115 ; skirt
G1 X78.160 Y78.951 E4.05472 ; skirt
G1 X78.810 Y78.001 E4.10263 ; skirt
G1 X79.140 Y77.561 E4.12553 ; skirt
G1 X79.700 Y76.871 E4.16252 ; skirt
G1 X80.020 Y76.501 E4.18288 ; skirt
G1 X80.980 Y75.501 E4.24059 ; skirt
G1 X81.860 Y74.691 E4.29038 ; skirt
G1 X82.370 Y74.271 E4.31788 ; skirt
G1 X83.300 Y73.571 E4.36633 ; skirt
G1 X83.810 Y73.221 E4.39208 ; skirt
G1 X84.780 Y72.621 E4.43956 ; skirt
G1 X85.310 Y72.331 E4.46471 ; skirt
G1 X86.330 Y71.821 E4.51218 ; skirt
G1 X86.970 Y71.531 E4.54143 ; skirt
G1 X88.010 Y71.141 E4.58767 ; skirt
G1 X88.560 Y70.961 E4.61176 ; skirt
G1 X89.630 Y70.661 E4.65802 ; skirt
G1 X90.300 Y70.511 E4.68660 ; skirt
G1 X91.400 Y70.321 E4.73307 ; skirt
G1 X92.070 Y70.241 E4.76116 ; skirt
G1 X93.180 Y70.161 E4.80748 ; skirt
G1 X93.780 Y70.151 E4.83246 ; skirt
G1 X94.900 Y70.171 E4.87909 ; skirt
G1 X95.550 Y70.211 E4.90620 ; skirt
G1 X96.680 Y70.341 E4.95355 ; skirt
G1 X97.310 Y70.441 E4.98010 ; skirt
G1 X98.440 Y70.681 E5.02819 ; skirt
G1 X98.940 Y70.811 E5.04970 ; skirt
G1 X100.250 Y71.211 E5.10672 ; skirt
G1 X101.080 Y71.521 E5.14360 ; skirt
G1 X101.580 Y71.731 E5.16617 ; skirt
G1 X102.730 Y72.271 E5.21906 ; skirt
G1 X103.350 Y72.601 E5.24830 ; skirt
G1 X104.410 Y73.241 E5.29984 ; skirt
G1 X104.920 Y73.591 E5.32559 ; skirt
G1 X127.910 Y90.511 E6.51385 ; skirt
G1 X128.320 Y90.871 E6.53657 ; skirt
G1 X128.710 Y91.261 E6.55953 ; skirt
G1 X129.060 Y91.691 E6.58261 ; skirt
G1 X129.370 Y92.141 E6.60535 ; skirt
G1 X129.650 Y92.611 E6.62813 ; skirt
G1 X129.890 Y93.101 E6.65084 ; skirt
G1 X130.080 Y93.621 E6.67389 ; skirt
G1 X130.240 Y94.141 E6.69653 ; skirt
G1 X130.390 Y94.951 E6.73083 ; skirt
G1 X130.440 Y95.771 E6.76502 ; skirt
G1 X130.430 Y101.381 E6.99855 ; skirt
G1 X130.390 Y101.921 E7.02110 ; skirt
G1 X130.350 Y102.191 E7.03246 ; skirt
G1 X130.170 Y102.981 E7.06619 ; skirt
G1 X129.900 Y103.751 E7.10015 ; skirt
G1 X129.790 Y104.001 E7.11152 ; skirt
G1 X129.530 Y104.481 E7.13425 ; skirt
G1 X129.080 Y105.161 E7.16819 ; skirt
G1 X128.560 Y105.781 E7.20188 ; skirt
G1 X127.960 Y106.331 E7.23576 ; skirt
G1 X127.530 Y106.651 E7.25807 ; skirt
G1 X127.164 Y106.883 E7.27611 ; skirt
G1 X127.070 Y106.941 E7.28071 ; skirt
G1 F1800.000 E6.28071 ; retract
G92 E0 ; reset extrusion distance
G1 X94.143 Y99.648 F7800.000 ; move to first perimeter point
G1 F1800.000 E1.00000 ; compensate retraction
G1 X93.042 Y99.598 F540.000 E1.04585 ; perimeter
G1 X92.022 Y99.457 E1.08874 ; perimeter
G1 X91.041 Y99.227 E1.13066 ; perimeter
G1 X90.104 Y98.911 E1.17183 ; perimeter
G1 X89.212 Y98.512 E1.21250 ; perimeter
G1 X88.369 Y98.033 E1.25288 ; perimeter
G1 X87.577 Y97.475 E1.29321 ; perimeter
G1 X86.838 Y96.842 E1.33371 ; perimeter
G1 X86.158 Y96.133 E1.37460 ; perimeter
G1 X85.538 Y95.352 E1.41612 ; perimeter
G1 X84.977 Y94.490 E1.45894 ; perimeter
G1 X84.611 Y93.812 E1.49098 ; perimeter
G1 X84.286 Y93.096 E1.52373 ; perimeter
G1 X83.922 Y92.090 E1.56826 ; perimeter
G1 X83.661 Y91.093 E1.61115 ; perimeter
G1 X83.499 Y90.100 E1.65307 ; perimeter
G1 X83.432 Y89.113 E1.69424 ; perimeter
G1 X83.459 Y88.136 E1.73491 ; perimeter
G1 X83.580 Y87.174 E1.77529 ; perimeter
G1 X83.791 Y86.228 E1.81562 ; perimeter
G1 X84.094 Y85.304 E1.85612 ; perimeter
G1 X84.488 Y84.404 E1.89701 ; perimeter
G1 X84.973 Y83.532 E1.93853 ; perimeter
G1 X85.555 Y82.684 E1.98135 ; perimeter
G1 X86.041 Y82.087 E2.01339 ; perimeter
G1 X86.578 Y81.512 E2.04614 ; perimeter
G1 X87.368 Y80.791 E2.09067 ; perimeter
G1 X88.189 Y80.169 E2.13356 ; perimeter
G1 X89.045 Y79.638 E2.17548 ; perimeter
G1 X89.931 Y79.199 E2.21665 ; perimeter
G1 X90.844 Y78.851 E2.25732 ; perimeter
G1 X91.779 Y78.593 E2.29770 ; perimeter
G1 X92.734 Y78.427 E2.33803 ; perimeter
G1 X93.704 Y78.353 E2.37853 ; perimeter
G1 X94.686 Y78.373 E2.41942 ; perimeter
G1 X95.677 Y78.487 E2.46094 ; perimeter
G1 X96.683 Y78.700 E2.50376 ; perimeter
G1 X97.421 Y78.921 E2.53580 ; perimeter
G1 X98.155 Y79.196 E2.56845 ; perimeter
G1 X99.181 Y79.680 E2.61568 ; perimeter
G1 X100.117 Y80.239 E2.66104 ; perimeter
G1 X100.972 Y80.872 E2.70533 ; perimeter
G1 X101.745 Y81.575 E2.74885 ; perimeter
G1 X102.435 Y82.344 E2.79184 ; perimeter
G1 X103.040 Y83.174 E2.83460 ; perimeter
G1 X103.557 Y84.062 E2.87739 ; perimeter
G1 X103.985 Y85.005 E2.92047 ; perimeter
G1 X104.319 Y85.999 E2.96412 ; perimeter
G1 X104.567 Y87.088 E3.01063 ; perimeter
G1 X105.268 Y91.007 E3.17635 ; perimeter
G1 X105.720 Y92.442 E3.23899 ; perimeter
G1 X106.193 Y93.560 E3.28952 ; perimeter
G1 X106.646 Y94.394 E3.32904 ; perimeter
G1 X107.180 Y95.163 E3.36800 ; perimeter
G1 X107.626 Y95.671 E3.39613 ; perimeter
G1 X108.122 Y96.127 E3.42420 ; perimeter
G1 X108.689 Y96.530 E3.45315 ; perimeter
G1 X109.326 Y96.862 E3.48305 ; perimeter
G1 X109.992 Y97.087 E3.51230 ; perimeter
G1 X110.434 Y97.181 E3.53111 ; perimeter
G1 X111.103 Y97.242 E3.55911 ; perimeter
G1 X122.229 Y97.242 E4.02224 ; perimeter
G1 X122.229 Y99.648 E4.12239 ; perimeter
G1 X94.253 Y99.648 E5.28697 ; perimeter
G1 X94.143 Y99.648 E5.29156 ; perimeter
G1 X94.126 Y100.384 F7800.000 ; move to first perimeter point
G1 X92.975 Y100.332 F540.000 E5.33951 ; perimeter
G1 X91.887 Y100.181 E5.38524 ; perimeter
G1 X90.839 Y99.935 E5.43004 ; perimeter
G1 X89.836 Y99.597 E5.47413 ; perimeter
G1 X88.880 Y99.169 E5.51774 ; perimeter
G1 X87.975 Y98.655 E5.56107 ; perimeter
G1 X87.124 Y98.057 E5.60434 ; perimeter
G1 X86.333 Y97.377 E5.64778 ; perimeter
G1 X85.603 Y96.618 E5.69160 ; perimeter
G1 X84.940 Y95.782 E5.73602 ; perimeter
G1 X84.344 Y94.865 E5.78153 ; perimeter
G1 X83.952 Y94.140 E5.81586 ; perimeter
G1 X83.604 Y93.374 E5.85088 ; perimeter
G1 X83.218 Y92.309 E5.89803 ; perimeter
G1 X82.941 Y91.246 E5.94376 ; perimeter
G1 X82.767 Y90.184 E5.98855 ; perimeter
G1 X82.696 Y89.127 E6.03264 ; perimeter
G1 X82.725 Y88.080 E6.07625 ; perimeter
G1 X82.854 Y87.047 E6.11958 ; perimeter
G1 X83.081 Y86.033 E6.16285 ; perimeter
G1 X83.406 Y85.041 E6.20629 ; perimeter
G1 X83.828 Y84.077 E6.25011 ; perimeter
G1 X84.347 Y83.144 E6.29453 ; perimeter
G1 X84.966 Y82.243 E6.34004 ; perimeter
G1 X85.486 Y81.603 E6.37437 ; perimeter
G1 X86.060 Y80.989 E6.40939 ; perimeter
G1 X86.897 Y80.225 E6.45654 ; perimeter
G1 X87.772 Y79.562 E6.50227 ; perimeter
G1 X88.687 Y78.995 E6.54706 ; perimeter
G1 X89.636 Y78.524 E6.59116 ; perimeter
G1 X90.615 Y78.151 E6.63476 ; perimeter
G1 X91.618 Y77.875 E6.67809 ; perimeter
G1 X92.643 Y77.696 E6.72136 ; perimeter
G1 X93.683 Y77.617 E6.76480 ; perimeter
G1 X94.736 Y77.638 E6.80862 ; perimeter
G1 X95.796 Y77.760 E6.85304 ; perimeter
G1 X96.865 Y77.987 E6.89855 ; perimeter
G1 X97.655 Y78.223 E6.93288 ; perimeter
G1 X98.441 Y78.518 E6.96783 ; perimeter
G1 X99.527 Y79.030 E7.01782 ; perimeter
G1 X100.525 Y79.626 E7.06619 ; perimeter
G1 X101.439 Y80.303 E7.11355 ; perimeter
G1 X102.268 Y81.056 E7.16015 ; perimeter
G1 X103.008 Y81.880 E7.20627 ; perimeter
G1 X103.657 Y82.771 E7.25215 ; perimeter
G1 X104.212 Y83.724 E7.29806 ; perimeter
G1 X104.670 Y84.735 E7.34426 ; perimeter
G1 X105.028 Y85.799 E7.39099 ; perimeter
G1 X105.288 Y86.942 E7.43977 ; perimeter
G1 X105.984 Y90.831 E7.60423 ; perimeter
G1 X106.412 Y92.188 E7.66346 ; perimeter
G1 X106.856 Y93.241 E7.71104 ; perimeter
G1 X107.273 Y94.008 E7.74738 ; perimeter
G1 X107.760 Y94.709 E7.78293 ; perimeter
G1 X108.152 Y95.156 E7.80768 ; perimeter
G1 X108.586 Y95.554 E7.83220 ; perimeter
G1 X109.074 Y95.901 E7.85710 ; perimeter
G1 X109.616 Y96.183 E7.88253 ; perimeter
G1 X110.187 Y96.377 E7.90764 ; perimeter
G1 X110.544 Y96.453 E7.92282 ; perimeter
G1 X111.137 Y96.507 E7.94762 ; perimeter
G1 X122.965 Y96.507 E8.43998 ; perimeter
G1 X122.965 Y100.384 E8.60138 ; perimeter
G1 X94.236 Y100.384 E9.79727 ; perimeter
G1 X94.126 Y100.384 E9.80186 ; perimeter
G1 X94.109 Y101.119 F7800.000 ; move to first perimeter point
G1 X92.908 Y101.065 F540.000 E9.85192 ; perimeter
G1 X91.752 Y100.905 E9.90049 ; perimeter
G1 X90.637 Y100.644 E9.94817 ; perimeter
G1 X89.567 Y100.283 E9.99517 ; perimeter
G1 X88.547 Y99.826 E10.04171 ; perimeter
G1 X87.580 Y99.277 E10.08799 ; perimeter
G1 X86.672 Y98.638 E10.13421 ; perimeter
G1 X85.827 Y97.912 E10.18060 ; perimeter
G1 X85.048 Y97.103 E10.22734 ; perimeter
G1 X84.342 Y96.212 E10.27465 ; perimeter
G1 X83.711 Y95.241 E10.32285 ; perimeter
G1 X83.293 Y94.467 E10.35948 ; perimeter
G1 X82.922 Y93.652 E10.39676 ; perimeter
G1 X82.515 Y92.528 E10.44653 ; perimeter
G1 X82.220 Y91.399 E10.49510 ; perimeter
G1 X82.036 Y90.268 E10.54278 ; perimeter
G1 X81.959 Y89.142 E10.58978 ; perimeter
G1 X81.991 Y88.024 E10.63632 ; perimeter
G1 X82.128 Y86.921 E10.68260 ; perimeter
G1 X82.371 Y85.837 E10.72882 ; perimeter
G1 X82.718 Y84.779 E10.77521 ; perimeter
G1 X83.168 Y83.750 E10.82195 ; perimeter
G1 X83.721 Y82.757 E10.86927 ; perimeter
G1 X84.376 Y81.802 E10.91746 ; perimeter
G1 X84.931 Y81.120 E10.95409 ; perimeter
G1 X85.543 Y80.465 E10.99137 ; perimeter
G1 X86.426 Y79.659 E11.04114 ; perimeter
G1 X87.356 Y78.954 E11.08971 ; perimeter
G1 X88.329 Y78.351 E11.13739 ; perimeter
G1 X89.341 Y77.850 E11.18439 ; perimeter
G1 X90.385 Y77.451 E11.23093 ; perimeter
G1 X91.457 Y77.156 E11.27721 ; perimeter
G1 X92.551 Y76.966 E11.32344 ; perimeter
G1 X93.662 Y76.881 E11.36982 ; perimeter
G1 X94.785 Y76.903 E11.41656 ; perimeter
G1 X95.914 Y77.033 E11.46388 ; perimeter
G1 X97.047 Y77.274 E11.51207 ; perimeter
G1 X97.890 Y77.525 E11.54870 ; perimeter
G1 X98.728 Y77.840 E11.58596 ; perimeter
G1 X99.874 Y78.380 E11.63869 ; perimeter
G1 X100.934 Y79.013 E11.69008 ; perimeter
G1 X101.907 Y79.734 E11.74050 ; perimeter
G1 X102.790 Y80.537 E11.79020 ; perimeter
G1 X103.580 Y81.417 E11.83943 ; perimeter
G1 X104.273 Y82.369 E11.88844 ; perimeter
G1 X104.866 Y83.386 E11.93747 ; perimeter
G1 X105.355 Y84.465 E11.98678 ; perimeter
G1 X105.737 Y85.600 E12.03661 ; perimeter
G1 X106.009 Y86.795 E12.08764 ; perimeter
G1 X106.699 Y90.655 E12.25085 ; perimeter
G1 X107.103 Y91.933 E12.30666 ; perimeter
G1 X107.520 Y92.921 E12.35131 ; perimeter
G1 X107.900 Y93.621 E12.38446 ; perimeter
G1 X108.341 Y94.255 E12.41661 ; perimeter
G1 X108.679 Y94.641 E12.43797 ; perimeter
G1 X109.050 Y94.982 E12.45893 ; perimeter
G1 X109.458 Y95.272 E12.47980 ; perimeter
G1 X109.905 Y95.504 E12.50075 ; perimeter
G1 X110.382 Y95.666 E12.52173 ; perimeter
G1 X110.654 Y95.724 E12.53328 ; perimeter
G1 X111.170 Y95.771 E12.55486 ; perimeter
G1 X123.700 Y95.771 E13.07646 ; perimeter
G1 X123.700 Y101.119 E13.29910 ; perimeter
G1 X94.220 Y101.119 E14.52631 ; perimeter
G1 X94.109 Y101.119 E14.53090 ; perimeter
G1 X93.761 Y100.472 F7800.000 ; move inwards before travel
G1 F1800.000 E13.53090 ; retract
G92 E0 ; reset extrusion distance
G1 X87.579 Y96.542 F7800.000 ; move to first fill point
G1 F1800.000 E1.00000 ; compensate retraction
G1 X87.107 Y96.069 F1080.000 E1.02802 ; fill
G1 F1800.000 E0.02802 ; retract
G92 E0 ; reset extrusion distance
G1 X84.787 Y92.701 F7800.000 ; move to first fill point
G1 F1800.000 E1.00000 ; compensate retraction
G1 X90.495 Y98.410 F1080.000 E1.33844 ; fill
G1 X92.012 Y98.879 E1.40499 ; fill
G1 X84.256 Y91.123 E1.86480 ; fill
G1 X84.003 Y89.822 E1.92037 ; fill
G1 X93.270 Y99.089 E2.46977 ; fill
G1 X94.374 Y99.146 E2.51614 ; fill
G1 X83.939 Y88.710 E3.13484 ; fill
G1 X83.990 Y87.714 E3.17665 ; fill
G1 X95.423 Y99.147 E3.85445 ; fill
G1 X96.470 Y99.147 E3.89837 ; fill
G1 X84.129 Y86.806 E4.63003 ; fill
G1 X84.340 Y85.968 E4.66622 ; fill
G1 X97.518 Y99.147 E5.44751 ; fill
G1 X98.566 Y99.147 E5.49143 ; fill
G1 X84.610 Y85.191 E6.31881 ; fill
G1 X84.932 Y84.465 E6.35210 ; fill
G1 X99.614 Y99.147 E7.22254 ; fill
G1 X100.661 Y99.147 E7.26646 ; fill
G1 X85.306 Y83.792 E8.17681 ; fill
G1 X85.724 Y83.162 E8.20848 ; fill
G1 X101.709 Y99.147 E9.15614 ; fill
G1 X102.757 Y99.147 E9.20006 ; fill
G1 X86.175 Y82.566 E10.18309 ; fill
G1 X86.667 Y82.010 E10.21421 ; fill
G1 X103.804 Y99.147 E11.23019 ; fill
G1 X104.852 Y99.147 E11.27411 ; fill
G1 X87.199 Y81.494 E12.32070 ; fill
G1 X87.759 Y81.006 E12.35183 ; fill
G1 X105.900 Y99.147 E13.42732 ; fill
G1 X106.947 Y99.147 E13.47124 ; fill
G1 X88.355 Y80.554 E14.57350 ; fill
G1 X89.000 Y80.152 E14.60538 ; fill
G1 X107.995 Y99.147 E15.73149 ; fill
G1 X109.043 Y99.147 E15.77541 ; fill
G1 X89.687 Y79.791 E16.92293 ; fill
G1 X90.420 Y79.476 E16.95637 ; fill
G1 X107.115 Y96.171 E17.94615 ; fill
G1 X107.238 Y96.295 F7800.000 ; move to first fill point
G1 X110.090 Y99.147 F1080.000 E18.11522 ; fill
G1 X111.138 Y99.147 E18.15914 ; fill
G1 X109.551 Y97.560 E18.25319 ; fill
G1 X110.777 Y97.738 E18.30512 ; fill
G1 X112.186 Y99.147 E18.38861 ; fill
G1 X113.233 Y99.147 E18.43254 ; fill
G1 X111.830 Y97.744 E18.51572 ; fill
G1 X112.878 Y97.744 E18.55964 ; fill
G1 X114.281 Y99.147 E18.64282 ; fill
G1 X115.329 Y99.147 E18.68674 ; fill
G1 X113.926 Y97.744 E18.76993 ; fill
G1 X114.973 Y97.744 E18.81385 ; fill
G1 X116.376 Y99.147 E18.89703 ; fill
G1 X117.424 Y99.147 E18.94095 ; fill
G1 X116.021 Y97.744 E19.02413 ; fill
G1 X117.069 Y97.744 E19.06805 ; fill
G1 X118.472 Y99.147 E19.15123 ; fill
G1 X119.519 Y99.147 E19.19515 ; fill
G1 X118.116 Y97.744 E19.27833 ; fill
G1 X119.164 Y97.744 E19.32225 ; fill
G1 X120.567 Y99.147 E19.40543 ; fill
G1 X121.615 Y99.147 E19.44936 ; fill
G1 X120.212 Y97.744 E19.53254 ; fill
G1 X121.259 Y97.744 E19.57646 ; fill
G1 X121.728 Y98.212 E19.60422 ; fill
G1 F1800.000 E18.60422 ; retract
