; generated by Slic3r 1.0.1 on 2014-09-10 at 08:15:10

; layer_height = 0.4
; perimeters = 3
; top_solid_layers = 3
; bottom_solid_layers = 3
; fill_density = 0.4
; perimeter_speed = 30
; infill_speed = 60
; travel_speed = 130
; nozzle_diameter = 0.5
; filament_diameter = 3
; extrusion_multiplier = 1
; perimeters extrusion width = 0.50mm
; infill extrusion width = 0.53mm
; solid infill extrusion width = 0.53mm
; top infill extrusion width = 0.53mm
; first layer extrusion width = 0.70mm

G21 ; set units to millimeters
M190 S60 ; wait for bed temperature to be reached
M104 S185 ; set temperature
G28 ; home all axes
G1 Z5 F5000 ; lift nozzle
G92 E0 ;reset extruder
M109 S185 ; wait for temperature to be reached
G90 ; use absolute coordinates
G92 E0 ; reset extrusion distance
M82 ; use absolute distances for extrusion
G1 F1800.000 E-1.00000 ; retract
G1 Z0.850 F7800.000 ; move to next layer (0) and lift
G92 E0 ; reset extrusion distance
G1 X75.140 Y76.190 F7800.000 ; move to first skirt point
G1 Z0.350 F7800.000 ; restore layer Z
G1 E1.00000 F1800.000 ; compensate retraction
G1 X75.850 Y75.560 E1.03088 F540.000 ; skirt
G1 X76.470 Y75.090 E1.05620 ; skirt
G1 X77.190 Y74.620 E1.08417 ; skirt
G1 X77.980 Y74.240 E1.11269 ; skirt
G1 X78.740 Y73.930 E1.13940 ; skirt
G1 X79.580 Y73.650 E1.16820 ; skirt
G1 X80.460 Y73.480 E1.19736 ; skirt
G1 X81.210 Y73.390 E1.22194 ; skirt
G1 X82.000 Y73.340 E1.24770 ; skirt
G1 X118.000 Y73.340 E2.41896 ; skirt
G1 X118.860 Y73.400 E2.44701 ; skirt
G1 X119.630 Y73.500 E2.47227 ; skirt
G1 X120.480 Y73.670 E2.50048 ; skirt
G1 X121.300 Y73.940 E2.52856 ; skirt
G1 X122.030 Y74.240 E2.55424 ; skirt
G1 X122.800 Y74.620 E2.58218 ; skirt
G1 X123.520 Y75.090 E2.61015 ; skirt
G1 X124.140 Y75.560 E2.63547 ; skirt
G1 X124.850 Y76.180 E2.66613 ; skirt
G1 X125.460 Y76.890 E2.69659 ; skirt
G1 X125.930 Y77.520 E2.72216 ; skirt
G1 X126.370 Y78.200 E2.74851 ; skirt
G1 X126.730 Y78.940 E2.77529 ; skirt
G1 X127.030 Y79.660 E2.80066 ; skirt
G1 X127.310 Y80.460 E2.82824 ; skirt
G1 X127.480 Y81.290 E2.85581 ; skirt
G1 X127.590 Y82.070 E2.88143 ; skirt
G1 X127.660 Y83.000 E2.91178 ; skirt
G1 X127.660 Y95.000 E3.30220 ; skirt
G1 X127.590 Y95.940 E3.33287 ; skirt
G1 X127.480 Y96.710 E3.35817 ; skirt
G1 X127.310 Y97.520 E3.38510 ; skirt
G1 X127.050 Y98.300 E3.41185 ; skirt
G1 X126.750 Y99.030 E3.43753 ; skirt
G1 X126.370 Y99.800 E3.46547 ; skirt
G1 X125.900 Y100.520 E3.49344 ; skirt
G1 X125.430 Y101.140 E3.51875 ; skirt
G1 X124.830 Y101.830 E3.54850 ; skirt
G1 X124.140 Y102.430 E3.57825 ; skirt
G1 X123.520 Y102.900 E3.60357 ; skirt
G1 X122.800 Y103.370 E3.63154 ; skirt
G1 X122.030 Y103.750 E3.65948 ; skirt
G1 X121.300 Y104.050 E3.68516 ; skirt
G1 X120.510 Y104.310 E3.71222 ; skirt
G1 X119.700 Y104.480 E3.73914 ; skirt
G1 X118.920 Y104.590 E3.76477 ; skirt
G1 X117.990 Y104.660 E3.79512 ; skirt
G1 X81.990 Y104.660 E4.96638 ; skirt
G1 X81.050 Y104.590 E4.99705 ; skirt
G1 X80.280 Y104.480 E5.02236 ; skirt
G1 X79.450 Y104.310 E5.04992 ; skirt
G1 X78.660 Y104.030 E5.07719 ; skirt
G1 X77.940 Y103.730 E5.10257 ; skirt
G1 X77.200 Y103.370 E5.12934 ; skirt
G1 X76.520 Y102.930 E5.15569 ; skirt
G1 X75.890 Y102.460 E5.18127 ; skirt
G1 X75.180 Y101.850 E5.21172 ; skirt
G1 X74.560 Y101.140 E5.24239 ; skirt
G1 X74.090 Y100.520 E5.26770 ; skirt
G1 X73.620 Y99.800 E5.29568 ; skirt
G1 X73.240 Y99.030 E5.32361 ; skirt
G1 X72.940 Y98.300 E5.34929 ; skirt
G1 X72.660 Y97.470 E5.37779 ; skirt
G1 X72.500 Y96.620 E5.40593 ; skirt
G1 X72.400 Y95.840 E5.43152 ; skirt
G1 X72.340 Y94.990 E5.45924 ; skirt
G1 X72.340 Y82.990 E5.84966 ; skirt
G1 X72.400 Y82.130 E5.87771 ; skirt
G1 X72.500 Y81.360 E5.90297 ; skirt
G1 X72.660 Y80.530 E5.93048 ; skirt
G1 X72.930 Y79.720 E5.95825 ; skirt
G1 X73.210 Y79.030 E5.98248 ; skirt
G1 X73.580 Y78.270 E6.00998 ; skirt
G1 X74.030 Y77.560 E6.03733 ; skirt
G1 X74.520 Y76.900 E6.06408 ; skirt
G1 X75.075 Y76.264 E6.09154 ; skirt
G1 F1800.000 E5.09154 ; retract
G1 Z0.850 F7800.000 ; lift plate during travel
G92 E0 ; reset extrusion distance
G1 X92.690 Y93.690 F7800.000 ; move to first perimeter point
G1 Z0.350 F7800.000 ; restore layer Z
G1 E1.00000 F1800.000 ; compensate retraction
G1 X93.073 Y93.395 E1.01574 F324.000 ; perimeter
G1 X93.463 Y93.234 E1.02945 ; perimeter
G1 X93.520 Y93.210 E1.03148 ; perimeter
G1 X94.000 Y93.147 E1.04722 ; perimeter
G1 X94.480 Y93.210 E1.06295 ; perimeter
G1 X94.869 Y93.371 E1.07666 ; perimeter
G1 X94.927 Y93.395 E1.07869 ; perimeter
G1 X95.310 Y93.690 E1.09443 ; perimeter
G1 X95.605 Y94.073 E1.11017 ; perimeter
G1 X95.790 Y94.520 E1.12591 ; perimeter
G1 X95.853 Y95.000 E1.14165 ; perimeter
G1 X95.790 Y95.480 E1.15738 ; perimeter
G1 X95.605 Y95.927 E1.17312 ; perimeter
G1 X95.310 Y96.310 E1.18886 ; perimeter
G1 X94.927 Y96.605 E1.20460 ; perimeter
G1 X94.480 Y96.790 E1.22034 ; perimeter
G1 X94.000 Y96.853 E1.23608 ; perimeter
G1 X93.520 Y96.790 E1.25182 ; perimeter
G1 X93.073 Y96.605 E1.26755 ; perimeter
G1 X92.690 Y96.310 E1.28329 ; perimeter
G1 X92.395 Y95.927 E1.29903 ; perimeter
G1 X92.371 Y95.869 E1.30106 ; perimeter
G1 X92.210 Y95.480 E1.31477 ; perimeter
G1 X92.147 Y95.000 E1.33051 ; perimeter
G1 X92.210 Y94.520 E1.34625 ; perimeter
G1 X92.395 Y94.073 E1.36198 ; perimeter
G1 X92.630 Y93.768 E1.37452 ; perimeter
G1 X92.585 Y93.217 F7800.000 ; move inwards before travel
G1 X92.128 Y93.128 F7800.000 ; move to first perimeter point
G1 X92.677 Y92.708 E1.39700 F324.000 ; perimeter
G1 X93.315 Y92.443 E1.41948 ; perimeter
G1 X94.000 Y92.353 E1.44196 ; perimeter
G1 X94.685 Y92.443 E1.46444 ; perimeter
G1 X95.323 Y92.708 E1.48692 ; perimeter
G1 X95.872 Y93.128 E1.50941 ; perimeter
G1 X96.292 Y93.677 E1.53189 ; perimeter
G1 X96.557 Y94.315 E1.55437 ; perimeter
G1 X96.647 Y95.000 E1.57685 ; perimeter
G1 X96.557 Y95.685 E1.59933 ; perimeter
G1 X96.292 Y96.323 E1.62182 ; perimeter
G1 X95.872 Y96.872 E1.64430 ; perimeter
G1 X95.323 Y97.292 E1.66678 ; perimeter
G1 X94.685 Y97.557 E1.68926 ; perimeter
G1 X94.000 Y97.647 E1.71174 ; perimeter
G1 X93.315 Y97.557 E1.73422 ; perimeter
G1 X92.677 Y97.292 E1.75671 ; perimeter
G1 X92.128 Y96.872 E1.77919 ; perimeter
G1 X91.708 Y96.323 E1.80167 ; perimeter
G1 X91.443 Y95.685 E1.82415 ; perimeter
G1 X91.353 Y95.000 E1.84663 ; perimeter
G1 X91.443 Y94.315 E1.86912 ; perimeter
G1 X91.708 Y93.677 E1.89160 ; perimeter
G1 X92.068 Y93.206 E1.91087 ; perimeter
G1 X92.755 Y93.326 F7800.000 ; move inwards before travel
G1 F1800.000 E0.91087 ; retract
G1 Z0.850 F7800.000 ; lift plate during travel
G92 E0 ; reset extrusion distance
G1 X83.790 Y94.520 F7800.000 ; move to first perimeter point
G1 Z0.350 F7800.000 ; restore layer Z
G1 E1.00000 F1800.000 ; compensate retraction
G1 X83.853 Y95.000 E1.01574 F324.000 ; perimeter
G1 X83.790 Y95.480 E1.03148 ; perimeter
G1 X83.605 Y95.927 E1.04722 ; perimeter
G1 X83.310 Y96.310 E1.06295 ; perimeter
G1 X82.927 Y96.605 E1.07869 ; perimeter
G1 X82.480 Y96.790 E1.09443 ; perimeter
G1 X82.000 Y96.853 E1.11017 ; perimeter
G1 X81.582 Y96.798 E1.12388 ; perimeter
G1 X81.520 Y96.790 E1.12591 ; perimeter
G1 X81.073 Y96.605 E1.14165 ; perimeter
G1 X80.690 Y96.310 E1.15738 ; perimeter
G1 X80.395 Y95.927 E1.17312 ; perimeter
G1 X80.210 Y95.480 E1.18886 ; perimeter
G1 X80.147 Y95.000 E1.20460 ; perimeter
G1 X80.155 Y94.938 E1.20663 ; perimeter
G1 X80.210 Y94.520 E1.22034 ; perimeter
G1 X80.395 Y94.073 E1.23608 ; perimeter
G1 X80.690 Y93.690 E1.25182 ; perimeter
G1 X81.073 Y93.395 E1.26755 ; perimeter
G1 X81.520 Y93.210 E1.28329 ; perimeter
G1 X82.000 Y93.147 E1.29903 ; perimeter
G1 X82.418 Y93.202 E1.31274 ; perimeter
G1 X82.480 Y93.210 E1.31477 ; perimeter
G1 X82.927 Y93.395 E1.33051 ; perimeter
G1 X83.310 Y93.690 E1.34625 ; perimeter
G1 X83.605 Y94.073 E1.36198 ; perimeter
G1 X83.752 Y94.429 E1.37452 ; perimeter
G1 X84.251 Y94.666 F7800.000 ; move inwards before travel
G1 X84.557 Y94.315 F7800.000 ; move to first perimeter point
G1 X84.647 Y95.000 E1.39700 F324.000 ; perimeter
G1 X84.557 Y95.685 E1.41948 ; perimeter
G1 X84.292 Y96.323 E1.44196 ; perimeter
G1 X83.872 Y96.872 E1.46444 ; perimeter
G1 X83.323 Y97.292 E1.48692 ; perimeter
G1 X82.685 Y97.557 E1.50941 ; perimeter
G1 X82.000 Y97.647 E1.53189 ; perimeter
G1 X81.315 Y97.557 E1.55437 ; perimeter
G1 X80.677 Y97.292 E1.57685 ; perimeter
G1 X80.128 Y96.872 E1.59933 ; perimeter
G1 X79.708 Y96.323 E1.62182 ; perimeter
G1 X79.443 Y95.685 E1.64430 ; perimeter
G1 X79.353 Y95.000 E1.66678 ; perimeter
G1 X79.443 Y94.315 E1.68926 ; perimeter
G1 X79.708 Y93.677 E1.71174 ; perimeter
G1 X80.128 Y93.128 E1.73422 ; perimeter
G1 X80.677 Y92.708 E1.75671 ; perimeter
G1 X81.315 Y92.443 E1.77919 ; perimeter
G1 X82.000 Y92.353 E1.80167 ; perimeter
G1 X82.685 Y92.443 E1.82415 ; perimeter
G1 X83.323 Y92.708 E1.84663 ; perimeter
G1 X83.872 Y93.128 E1.86912 ; perimeter
G1 X84.292 Y93.677 E1.89160 ; perimeter
G1 X84.519 Y94.224 E1.91087 ; perimeter
G1 X84.072 Y94.759 F7800.000 ; move inwards before travel
G1 F1800.000 E0.91087 ; retract
G1 Z0.850 F7800.000 ; lift plate during travel
G92 E0 ; reset extrusion distance
G1 X82.480 Y84.790 F7800.000 ; move to first perimeter point
G1 Z0.350 F7800.000 ; restore layer Z
G1 E1.00000 F1800.000 ; compensate retraction
G1 X82.000 Y84.853 E1.01574 F324.000 ; perimeter
G1 X81.582 Y84.798 E1.02945 ; perimeter
G1 X81.520 Y84.790 E1.03148 ; perimeter
G1 X81.073 Y84.605 E1.04722 ; perimeter
G1 X80.690 Y84.310 E1.06295 ; perimeter
G1 X80.395 Y83.927 E1.07869 ; perimeter
G1 X80.210 Y83.480 E1.09443 ; perimeter
G1 X80.147 Y83.000 E1.11017 ; perimeter
G1 X80.155 Y82.938 E1.11220 ; perimeter
G1 X80.210 Y82.520 E1.12591 ; perimeter
G1 X80.395 Y82.073 E1.14165 ; perimeter
G1 X80.690 Y81.690 E1.15738 ; perimeter
G1 X81.073 Y81.395 E1.17312 ; perimeter
G1 X81.520 Y81.210 E1.18886 ; perimeter
G1 X82.000 Y81.147 E1.20460 ; perimeter
G1 X82.418 Y81.202 E1.21831 ; perimeter
G1 X82.480 Y81.210 E1.22034 ; perimeter
G1 X82.927 Y81.395 E1.23608 ; perimeter
G1 X83.310 Y81.690 E1.25182 ; perimeter
G1 X83.605 Y82.073 E1.26755 ; perimeter
G1 X83.790 Y82.520 E1.28329 ; perimeter
G1 X83.853 Y83.000 E1.29903 ; perimeter
G1 X83.790 Y83.480 E1.31477 ; perimeter
G1 X83.605 Y83.927 E1.33051 ; perimeter
G1 X83.310 Y84.310 E1.34625 ; perimeter
G1 X82.927 Y84.605 E1.36198 ; perimeter
G1 X82.571 Y84.752 E1.37452 ; perimeter
G1 X82.334 Y85.251 F7800.000 ; move inwards before travel
G1 X82.685 Y85.557 F7800.000 ; move to first perimeter point
G1 X82.000 Y85.647 E1.39700 F324.000 ; perimeter
G1 X81.315 Y85.557 E1.41948 ; perimeter
G1 X80.677 Y85.292 E1.44196 ; perimeter
G1 X80.128 Y84.872 E1.46444 ; perimeter
G1 X79.708 Y84.323 E1.48693 ; perimeter
G1 X79.443 Y83.685 E1.50941 ; perimeter
G1 X79.353 Y83.000 E1.53189 ; perimeter
G1 X79.443 Y82.315 E1.55437 ; perimeter
G1 X79.708 Y81.677 E1.57685 ; perimeter
G1 X80.128 Y81.128 E1.59933 ; perimeter
G1 X80.677 Y80.708 E1.62182 ; perimeter
G1 X81.315 Y80.443 E1.64430 ; perimeter
G1 X82.000 Y80.353 E1.66678 ; perimeter
G1 X82.685 Y80.443 E1.68926 ; perimeter
G1 X83.323 Y80.708 E1.71174 ; perimeter
G1 X83.872 Y81.128 E1.73423 ; perimeter
G1 X84.292 Y81.677 E1.75671 ; perimeter
G1 X84.557 Y82.315 E1.77919 ; perimeter
G1 X84.647 Y83.000 E1.80167 ; perimeter
G1 X84.557 Y83.685 E1.82415 ; perimeter
G1 X84.292 Y84.323 E1.84663 ; perimeter
G1 X83.872 Y84.872 E1.86912 ; perimeter
G1 X83.323 Y85.292 E1.89160 ; perimeter
G1 X82.776 Y85.519 E1.91087 ; perimeter
G1 X82.241 Y85.072 F7800.000 ; move inwards before travel
G1 F1800.000 E0.91087 ; retract
G1 Z0.850 F7800.000 ; lift plate during travel
G92 E0 ; reset extrusion distance
G1 X92.210 Y83.480 F7800.000 ; move to first perimeter point
G1 Z0.350 F7800.000 ; restore layer Z
G1 E1.00000 F1800.000 ; compensate retraction
G1 X92.147 Y83.000 E1.01574 F324.000 ; perimeter
G1 X92.155 Y82.938 E1.01777 ; perimeter
G1 X92.210 Y82.520 E1.03148 ; perimeter
G1 X92.395 Y82.073 E1.04722 ; perimeter
G1 X92.690 Y81.690 E1.06295 ; perimeter
G1 X93.073 Y81.395 E1.07869 ; perimeter
G1 X93.520 Y81.210 E1.09443 ; perimeter
G1 X94.000 Y81.147 E1.11017 ; perimeter
G1 X94.418 Y81.202 E1.12388 ; perimeter
G1 X94.480 Y81.210 E1.12591 ; perimeter
G1 X94.927 Y81.395 E1.14165 ; perimeter
G1 X95.310 Y81.690 E1.15738 ; perimeter
G1 X95.605 Y82.073 E1.17312 ; perimeter
G1 X95.790 Y82.520 E1.18886 ; perimeter
G1 X95.853 Y83.000 E1.20460 ; perimeter
G1 X95.790 Y83.480 E1.22034 ; perimeter
G1 X95.605 Y83.927 E1.23608 ; perimeter
G1 X95.310 Y84.310 E1.25181 ; perimeter
G1 X94.927 Y84.605 E1.26755 ; perimeter
G1 X94.480 Y84.790 E1.28329 ; perimeter
G1 X94.000 Y84.853 E1.29903 ; perimeter
G1 X93.582 Y84.798 E1.31274 ; perimeter
G1 X93.520 Y84.790 E1.31477 ; perimeter
G1 X93.073 Y84.605 E1.33051 ; perimeter
G1 X92.690 Y84.310 E1.34625 ; perimeter
G1 X92.395 Y83.927 E1.36198 ; perimeter
G1 X92.248 Y83.571 E1.37452 ; perimeter
G1 X91.749 Y83.334 F7800.000 ; move inwards before travel
G1 X91.443 Y83.685 F7800.000 ; move to first perimeter point
G1 X91.353 Y83.000 E1.39700 F324.000 ; perimeter
G1 X91.443 Y82.315 E1.41948 ; perimeter
G1 X91.708 Y81.677 E1.44196 ; perimeter
G1 X92.128 Y81.128 E1.46444 ; perimeter
G1 X92.677 Y80.708 E1.48692 ; perimeter
G1 X93.315 Y80.443 E1.50941 ; perimeter
G1 X94.000 Y80.353 E1.53189 ; perimeter
G1 X94.685 Y80.443 E1.55437 ; perimeter
G1 X95.323 Y80.708 E1.57685 ; perimeter
G1 X95.872 Y81.128 E1.59933 ; perimeter
G1 X96.292 Y81.677 E1.62182 ; perimeter
G1 X96.557 Y82.315 E1.64430 ; perimeter
G1 X96.647 Y83.000 E1.66678 ; perimeter
G1 X96.557 Y83.685 E1.68926 ; perimeter
G1 X96.292 Y84.323 E1.71174 ; perimeter
G1 X95.872 Y84.872 E1.73423 ; perimeter
G1 X95.323 Y85.292 E1.75671 ; perimeter
G1 X94.685 Y85.557 E1.77919 ; perimeter
G1 X94.000 Y85.647 E1.80167 ; perimeter
G1 X93.315 Y85.557 E1.82415 ; perimeter
G1 X92.677 Y85.292 E1.84663 ; perimeter
G1 X92.128 Y84.872 E1.86912 ; perimeter
G1 X91.708 Y84.323 E1.89160 ; perimeter
G1 X91.481 Y83.776 E1.91087 ; perimeter
G1 X91.928 Y83.241 F7800.000 ; move inwards before travel
G1 F1800.000 E0.91087 ; retract
G1 Z0.850 F7800.000 ; lift plate during travel
G92 E0 ; reset extrusion distance
G1 X104.147 Y83.000 F7800.000 ; move to first perimeter point
G1 Z0.350 F7800.000 ; restore layer Z
G1 E1.00000 F1800.000 ; compensate retraction
G1 X104.210 Y82.520 E1.01574 F324.000 ; perimeter
G1 X104.395 Y82.073 E1.03148 ; perimeter
G1 X104.690 Y81.690 E1.04722 ; perimeter
G1 X105.073 Y81.395 E1.06295 ; perimeter
G1 X105.463 Y81.234 E1.07666 ; perimeter
G1 X105.520 Y81.210 E1.07869 ; perimeter
G1 X106.000 Y81.147 E1.09443 ; perimeter
G1 X106.480 Y81.210 E1.11017 ; perimeter
G1 X106.869 Y81.371 E1.12388 ; perimeter
G1 X106.927 Y81.395 E1.12591 ; perimeter
G1 X107.310 Y81.690 E1.14165 ; perimeter
G1 X107.605 Y82.073 E1.15738 ; perimeter
G1 X107.790 Y82.520 E1.17312 ; perimeter
G1 X107.853 Y83.000 E1.18886 ; perimeter
G1 X107.790 Y83.480 E1.20460 ; perimeter
G1 X107.605 Y83.927 E1.22034 ; perimeter
G1 X107.310 Y84.310 E1.23608 ; perimeter
G1 X106.927 Y84.605 E1.25181 ; perimeter
G1 X106.480 Y84.790 E1.26755 ; perimeter
G1 X106.000 Y84.853 E1.28329 ; perimeter
G1 X105.520 Y84.790 E1.29903 ; perimeter
G1 X105.073 Y84.605 E1.31477 ; perimeter
G1 X104.690 Y84.310 E1.33051 ; perimeter
G1 X104.395 Y83.927 E1.34625 ; perimeter
G1 X104.210 Y83.480 E1.36198 ; perimeter
G1 X104.160 Y83.098 E1.37452 ; perimeter
G1 X103.739 Y82.740 F7800.000 ; move inwards before travel
G1 X103.353 Y83.000 F7800.000 ; move to first perimeter point
G1 X103.443 Y82.315 E1.39700 F324.000 ; perimeter
G1 X103.708 Y81.677 E1.41948 ; perimeter
G1 X104.128 Y81.128 E1.44196 ; perimeter
G1 X104.677 Y80.708 E1.46444 ; perimeter
G1 X105.315 Y80.443 E1.48693 ; perimeter
G1 X106.000 Y80.353 E1.50941 ; perimeter
G1 X106.685 Y80.443 E1.53189 ; perimeter
G1 X107.323 Y80.708 E1.55437 ; perimeter
G1 X107.872 Y81.128 E1.57685 ; perimeter
G1 X108.292 Y81.677 E1.59933 ; perimeter
G1 X108.557 Y82.315 E1.62182 ; perimeter
G1 X108.647 Y83.000 E1.64430 ; perimeter
G1 X108.557 Y83.685 E1.66678 ; perimeter
G1 X108.292 Y84.323 E1.68926 ; perimeter
G1 X107.872 Y84.872 E1.71174 ; perimeter
G1 X107.323 Y85.292 E1.73423 ; perimeter
