; generated by Slic3r 0.9.8-dev on 2013-03-02 at 11:16:37

; layer_height = 0.4
; perimeters = 3
; top_solid_layers = 3
; bottom_solid_layers = 3
; fill_density = 0.40
; perimeter_speed = 30
; infill_speed = 60
; travel_speed = 130
; scale = 1
; nozzle_diameter = 0.5
; filament_diameter = 3
; extrusion_multiplier = 1
; perimeters extrusion width = 0.53mm
; infill extrusion width = 0.53mm
; first layer extrusion width = 0.80mm

M190 S60 ; wait for bed temperature to be reached
M104 S185 ; set temperature
G28 ; home all axes
G92 E0 ;reset extruder
M109 S185 ; wait for temperature to be reached
G90 ; use absolute coordinates
G21 ; set units to millimeters
G92 E0 ; reset extrusion distance
M82 ; use absolute distances for extrusion
G1 F1800.000 E-1.00000 ; retract
G1 Z1.400 ; move to next layer (0) and lift
G92 E0 ; reset extrusion distance
G1 X102.790 Y102.710 F7800.000 ; move to first skirt point
G1 Z0.400 ; restore layer Z
G1 F1800.000 E1.00000 ; compensate retraction
G1 X102.640 Y102.940 F900.000 E1.01143 ; skirt
G1 X102.310 Y103.370 E1.03399 ; skirt
G1 X101.760 Y103.970 E1.06788 ; skirt
G1 X101.140 Y104.490 E1.10156 ; skirt
G1 X100.460 Y104.940 E1.13550 ; skirt
G1 X99.740 Y105.300 E1.16901 ; skirt
G1 X99.230 Y105.490 E1.19167 ; skirt
G1 X98.710 Y105.640 E1.21420 ; skirt
G1 X97.910 Y105.790 E1.24808 ; skirt
G1 X97.100 Y105.840 E1.28186 ; skirt
G1 X82.900 Y105.840 E1.87297 ; skirt
G1 X82.090 Y105.790 E1.90676 ; skirt
G1 X81.550 Y105.700 E1.92955 ; skirt
G1 X80.770 Y105.490 E1.96317 ; skirt
G1 X80.010 Y105.190 E1.99718 ; skirt
G1 X79.530 Y104.930 E2.01991 ; skirt
G1 X79.070 Y104.640 E2.04255 ; skirt
G1 X78.640 Y104.320 E2.06486 ; skirt
G1 X78.430 Y104.140 E2.07637 ; skirt
G1 X78.040 Y103.770 E2.09875 ; skirt
G1 X77.520 Y103.150 E2.13243 ; skirt
G1 X77.210 Y102.700 E2.15518 ; skirt
G1 X76.810 Y101.990 E2.18910 ; skirt
G1 X76.510 Y101.230 E2.22312 ; skirt
G1 X76.360 Y100.710 E2.24565 ; skirt
G1 X76.250 Y100.180 E2.26818 ; skirt
G1 X76.210 Y99.910 E2.27954 ; skirt
G1 X76.160 Y99.100 E2.31332 ; skirt
G1 X76.160 Y70.900 E3.48722 ; skirt
G1 X76.210 Y70.090 E3.52100 ; skirt
G1 X76.300 Y69.550 E3.54379 ; skirt
G1 X76.430 Y69.030 E3.56610 ; skirt
G1 X76.700 Y68.260 E3.60007 ; skirt
G1 X76.810 Y68.010 E3.61144 ; skirt
G1 X77.070 Y67.530 E3.63417 ; skirt
G1 X77.520 Y66.850 E3.66811 ; skirt
G1 X78.040 Y66.230 E3.70179 ; skirt
G1 X78.640 Y65.680 E3.73568 ; skirt
G1 X79.070 Y65.360 E3.75799 ; skirt
G1 X79.530 Y65.070 E3.78062 ; skirt
G1 X80.010 Y64.810 E3.80335 ; skirt
G1 X80.260 Y64.700 E3.81472 ; skirt
G1 X81.030 Y64.430 E3.84869 ; skirt
G1 X81.550 Y64.300 E3.87100 ; skirt
G1 X82.090 Y64.210 E3.89379 ; skirt
G1 X82.900 Y64.160 E3.92757 ; skirt
G1 X97.170 Y64.160 E4.52159 ; skirt
G1 X97.970 Y64.210 E4.55496 ; skirt
G1 X98.750 Y64.350 E4.58795 ; skirt
G1 X99.270 Y64.500 E4.61048 ; skirt
G1 X100.010 Y64.790 E4.64356 ; skirt
G1 X100.710 Y65.170 E4.67672 ; skirt
G1 X101.370 Y65.630 E4.71021 ; skirt
G1 X101.770 Y65.980 E4.73233 ; skirt
G1 X102.150 Y66.360 E4.75470 ; skirt
G1 X102.650 Y66.980 E4.78786 ; skirt
G1 X102.940 Y67.430 E4.81015 ; skirt
G1 X103.200 Y67.900 E4.83251 ; skirt
G1 X103.420 Y68.380 E4.85449 ; skirt
G1 X103.600 Y68.880 E4.87661 ; skirt
G1 X103.740 Y69.400 E4.89902 ; skirt
G1 X103.870 Y70.190 E4.93235 ; skirt
G1 X103.930 Y71.220 E4.97530 ; skirt
G1 X103.840 Y99.120 E6.13672 ; skirt
G1 X103.810 Y99.660 E6.15923 ; skirt
G1 X103.750 Y100.200 E6.18185 ; skirt
G1 X103.640 Y100.730 E6.20438 ; skirt
G1 X103.480 Y101.250 E6.22703 ; skirt
G1 X103.290 Y101.750 E6.24929 ; skirt
G1 X103.060 Y102.240 E6.27183 ; skirt
G1 X102.847 Y102.616 E6.28980 ; skirt
G1 X102.790 Y102.710 E6.29439 ; skirt
G1 F1800.000 E5.29439 ; retract
G1 Z1.400 ; move to next layer (0) and lift
G92 E0 ; reset extrusion distance
G1 X84.371 Y91.054 F7800.000 ; move to first perimeter point
G1 Z0.400 ; restore layer Z
G1 F1800.000 E1.00000 ; compensate retraction
G1 X84.371 Y72.371 F900.000 E1.77771 ; perimeter
G1 X89.705 Y72.371 E1.99975 ; perimeter
G1 X89.186 Y73.626 E2.05628 ; perimeter
G1 X89.028 Y74.826 E2.10667 ; perimeter
G1 X89.186 Y76.026 E2.15707 ; perimeter
G1 X89.307 Y76.320 E2.17031 ; perimeter
G1 X89.649 Y77.145 E2.20746 ; perimeter
G1 X90.386 Y78.105 E2.25786 ; perimeter
G1 X91.346 Y78.842 E2.30825 ; perimeter
G1 X92.465 Y79.305 E2.35865 ; perimeter
G1 X93.665 Y79.463 E2.40904 ; perimeter
G1 X94.865 Y79.305 E2.45944 ; perimeter
G1 X95.629 Y78.989 E2.49384 ; perimeter
G1 X95.629 Y97.629 E3.26976 ; perimeter
G1 X90.190 Y97.629 E3.49615 ; perimeter
G1 X90.658 Y96.552 E3.54503 ; perimeter
G1 X90.837 Y95.354 E3.59542 ; perimeter
G1 X90.699 Y94.152 E3.64582 ; perimeter
G1 X90.255 Y93.025 E3.69621 ; perimeter
G1 X89.535 Y92.052 E3.74661 ; perimeter
G1 X88.587 Y91.299 E3.79700 ; perimeter
G1 X87.477 Y90.817 E3.84740 ; perimeter
G1 X86.279 Y90.638 E3.89779 ; perimeter
G1 X85.077 Y90.776 E3.94818 ; perimeter
G1 X84.474 Y91.013 E3.97515 ; perimeter
G1 X84.371 Y91.054 E3.97975 ; perimeter
G1 X84.516 Y91.787 F7800.000 ; move to first perimeter point
G1 X84.310 Y91.869 F900.000 E3.98896 ; perimeter
G1 X83.636 Y92.368 E4.02391 ; perimeter
G1 X83.636 Y71.636 E4.88696 ; perimeter
G1 X91.245 Y71.636 E5.20371 ; perimeter
G1 X90.291 Y72.878 E5.26892 ; perimeter
G1 X89.902 Y73.818 E5.31125 ; perimeter
G1 X89.770 Y74.826 E5.35358 ; perimeter
G1 X89.902 Y75.834 E5.39591 ; perimeter
G1 X89.987 Y76.039 E5.40512 ; perimeter
G1 X90.291 Y76.774 E5.43824 ; perimeter
G1 X90.911 Y77.580 E5.48057 ; perimeter
G1 X91.717 Y78.200 E5.52291 ; perimeter
G1 X92.657 Y78.589 E5.56524 ; perimeter
G1 X93.665 Y78.721 E5.60757 ; perimeter
G1 X94.673 Y78.589 E5.64990 ; perimeter
G1 X95.613 Y78.200 E5.69223 ; perimeter
G1 X96.364 Y77.623 E5.73167 ; perimeter
G1 X96.364 Y98.364 E6.59509 ; perimeter
G1 X88.678 Y98.364 E6.91507 ; perimeter
G1 X89.540 Y97.280 E6.97272 ; perimeter
G1 X89.945 Y96.347 E7.01505 ; perimeter
G1 X90.095 Y95.342 E7.05738 ; perimeter
G1 X90.070 Y95.122 E7.06659 ; perimeter
G1 X89.979 Y94.331 E7.09971 ; perimeter
G1 X89.606 Y93.385 E7.14205 ; perimeter
G1 X89.001 Y92.568 E7.18438 ; perimeter
G1 X88.205 Y91.935 E7.22671 ; perimeter
G1 X87.272 Y91.530 E7.26904 ; perimeter
G1 X86.267 Y91.380 E7.31137 ; perimeter
G1 X85.256 Y91.496 E7.35370 ; perimeter
G1 X84.619 Y91.747 E7.38223 ; perimeter
G1 X84.516 Y91.787 E7.38682 ; perimeter
G1 X84.786 Y92.472 F7800.000 ; move to first perimeter point
G1 X84.670 Y92.517 F900.000 E7.39200 ; perimeter
G1 X84.009 Y93.007 E7.42627 ; perimeter
G1 X82.900 Y94.402 E7.50044 ; perimeter
G1 X82.900 Y70.900 E8.47877 ; perimeter
G1 X97.177 Y70.900 E9.07308 ; perimeter
G1 X97.197 Y71.208 E9.08591 ; perimeter
G1 X97.100 Y71.220 E9.08997 ; perimeter
G1 X97.100 Y74.167 E9.21262 ; perimeter
G1 X95.895 Y72.596 E9.29503 ; perimeter
G1 X95.242 Y72.095 E9.32930 ; perimeter
G1 X94.481 Y71.780 E9.36357 ; perimeter
G1 X93.665 Y71.673 E9.39784 ; perimeter
G1 X92.849 Y71.780 E9.43211 ; perimeter
G1 X92.088 Y72.095 E9.46637 ; perimeter
G1 X91.435 Y72.596 E9.50064 ; perimeter
G1 X90.934 Y73.249 E9.53491 ; perimeter
G1 X90.619 Y74.010 E9.56918 ; perimeter
G1 X90.512 Y74.826 E9.60345 ; perimeter
G1 X90.619 Y75.642 E9.63772 ; perimeter
G1 X90.667 Y75.757 E9.64290 ; perimeter
G1 X90.934 Y76.403 E9.67199 ; perimeter
G1 X91.435 Y77.056 E9.70625 ; perimeter
G1 X92.088 Y77.557 E9.74052 ; perimeter
G1 X92.849 Y77.872 E9.77479 ; perimeter
G1 X93.665 Y77.979 E9.80906 ; perimeter
G1 X94.481 Y77.872 E9.84333 ; perimeter
G1 X95.242 Y77.557 E9.87760 ; perimeter
G1 X95.895 Y77.056 E9.91186 ; perimeter
G1 X97.100 Y75.485 E9.99428 ; perimeter
G1 X97.100 Y99.100 E10.97730 ; perimeter
G1 X82.900 Y99.100 E11.56841 ; perimeter
G1 X82.900 Y96.072 E11.69445 ; perimeter
G1 X83.932 Y97.466 E11.76667 ; perimeter
G1 X84.577 Y97.979 E11.80093 ; perimeter
G1 X85.332 Y98.307 E11.83520 ; perimeter
G1 X86.567 Y98.491 E11.88721 ; perimeter
G1 X87.730 Y98.033 E11.93922 ; perimeter
G1 X88.391 Y97.543 E11.97349 ; perimeter
G1 X88.904 Y96.898 E12.00775 ; perimeter
G1 X89.232 Y96.143 E12.04202 ; perimeter
G1 X89.353 Y95.329 E12.07629 ; perimeter
G1 X89.260 Y94.511 E12.11056 ; perimeter
G1 X88.958 Y93.745 E12.14483 ; perimeter
G1 X88.468 Y93.084 E12.17910 ; perimeter
G1 X87.823 Y92.571 E12.21336 ; perimeter
G1 X87.068 Y92.243 E12.24763 ; perimeter
G1 X86.254 Y92.122 E12.28190 ; perimeter
G1 X85.436 Y92.215 E12.31617 ; perimeter
G1 X84.889 Y92.431 E12.34066 ; perimeter
G1 X84.786 Y92.472 E12.34526 ; perimeter
G1 X84.210 Y92.014 F7800.000 ; move inwards before travel
G1 F1800.000 E11.34526 ; retract
G1 Z1.400 ; lift plate during travel
G92 E0 ; reset extrusion distance
G1 X83.235 Y95.514 F7800.000 ; move to first perimeter point
G1 Z0.400 ; restore layer Z
G1 F1800.000 E1.00000 ; compensate retraction
G1 X83.133 Y95.222 F720.000 E1.01286 ; perimeter
G1 X83.584 Y94.334 E1.05433 ; perimeter
G1 X83.235 Y95.514 F7800.000 ; move to first perimeter point
G1 X83.507 Y96.176 F720.000 E1.08409 ; perimeter
G1 F1800.000 E0.08409 ; retract
G1 Z1.400 ; lift plate during travel
G92 E0 ; reset extrusion distance
G1 X96.613 Y75.033 F7800.000 ; move to first perimeter point
G1 Z0.400 ; restore layer Z
G1 F1800.000 E1.00000 ; compensate retraction
G1 X96.297 Y75.722 F720.000 E1.03154 ; perimeter
G1 X96.613 Y74.619 F7800.000 ; move to first perimeter point
G1 X96.732 Y74.826 F720.000 E1.04150 ; perimeter
G1 X96.613 Y75.033 E1.05145 ; perimeter
G1 X96.613 Y74.619 F7800.000 ; move to first perimeter point
G1 X96.297 Y73.930 F720.000 E1.08300 ; perimeter
G1 F1800.000 E0.08300 ; retract
G1 Z1.400 ; lift plate during travel
G92 E0 ; reset extrusion distance
G1 X92.053 Y79.790 F7800.000 ; move to first fill point
G1 Z0.400 ; restore layer Z
G1 F1800.000 E1.00000 ; compensate retraction
G1 X95.127 Y82.864 F1800.000 E1.18222 ; fill
G1 X95.127 Y81.817 E1.22612 ; fill
G1 X93.259 Y79.949 E1.33685 ; fill
G1 X94.224 Y79.867 E1.37746 ; fill
G1 X95.127 Y80.770 E1.43097 ; fill
G1 F1800.000 E0.43097 ; retract
G1 Z1.400 ; lift plate during travel
G92 E0 ; reset extrusion distance
G1 X91.585 Y97.127 F7800.000 ; move to first fill point
G1 Z0.400 ; restore layer Z
G1 F1800.000 E1.00000 ; compensate retraction
G1 X91.117 Y96.659 F1800.000 E1.02776 ; fill
G1 X91.253 Y95.748 E1.06638 ; fill
G1 X92.633 Y97.127 E1.14816 ; fill
G1 X93.680 Y97.127 E1.19205 ; fill
G1 X91.300 Y94.748 E1.33309 ; fill
G1 X91.085 Y93.485 E1.38675 ; fill
G1 X94.727 Y97.127 E1.60260 ; fill
G1 X95.127 Y96.480 E1.63449 ; fill
G1 X84.873 Y86.225 E2.24227 ; fill
G1 X84.873 Y85.178 E2.28617 ; fill
G1 X95.127 Y95.433 E2.89395 ; fill
G1 X95.127 Y94.385 E2.93784 ; fill
G1 X84.873 Y84.131 E3.54562 ; fill
G1 X84.873 Y83.083 E3.58952 ; fill
G1 X95.127 Y93.338 E4.19730 ; fill
G1 X95.127 Y92.291 E4.24119 ; fill
G1 X84.873 Y82.036 E4.84897 ; fill
G1 X84.873 Y80.988 E4.89286 ; fill
G1 X95.127 Y91.243 E5.50064 ; fill
G1 X95.127 Y90.196 E5.54454 ; fill
G1 X84.873 Y79.941 E6.15232 ; fill
G1 X84.873 Y78.894 E6.19621 ; fill
G1 X95.127 Y89.148 E6.80399 ; fill
G1 X95.127 Y88.101 E6.84789 ; fill
G1 X84.873 Y77.846 E7.45567 ; fill
G1 X84.873 Y76.799 E7.49956 ; fill
G1 X95.127 Y87.054 E8.10734 ; fill
G1 X95.127 Y86.006 E8.15124 ; fill
G1 X84.873 Y75.752 E8.75902 ; fill
G1 X84.873 Y74.704 E8.80291 ; fill
G1 X95.127 Y84.959 E9.41069 ; fill
G1 X95.127 Y83.912 E9.45458 ; fill
G1 X84.873 Y73.657 E10.06236 ; fill
G1 X85.136 Y72.873 E10.09703 ; fill
G1 X88.701 Y76.438 E10.30835 ; fill
G1 X88.542 Y75.232 E10.35933 ; fill
G1 X86.183 Y72.873 E10.49918 ; fill
G1 X87.230 Y72.873 E10.54307 ; fill
G1 X88.624 Y74.267 E10.62568 ; fill
G1 X88.746 Y73.341 E10.66481 ; fill
G1 X88.278 Y72.873 E10.69257 ; fill
G1 F1800.000 E9.69257 ; retract
G1 Z1.400 ; lift plate during travel
G92 E0 ; reset extrusion distance
G1 X87.955 Y90.355 F7800.000 ; move to first fill point
G1 Z0.400 ; restore layer Z
G1 F1800.000 E1.00000 ; compensate retraction
G1 X84.873 Y87.273 F1800.000 E1.18269 ; fill
G1 X84.873 Y88.320 E1.22658 ; fill
G1 X86.711 Y90.158 E1.33552 ; fill
G1 X85.727 Y90.222 E1.37682 ; fill
G1 X84.873 Y89.367 E1.42747 ; fill
G1 F1800.000 E0.42747 ; retract
G1 Z1.400 ; lift plate during travel
G92 E0 ; reset extrusion distance
G1 X83.902 Y98.566 F7800.000 ; move to first fill point
G1 Z0.400 ; restore layer Z
G1 F1800.000 E1.00000 ; compensate retraction
G1 X83.434 Y98.098 F600.000 E1.02757 ; fill
G1 F1800.000 E0.02757 ; retract
G1 Z1.400 ; lift plate during travel
G92 E0 ; reset extrusion distance
G1 X92.210 Y71.620 F7800.000 ; move to first fill point
G1 Z0.400 ; restore layer Z
G1 F1800.000 E1.00000 ; compensate retraction
G1 X91.942 Y71.351 F600.000 E1.00905 ; fill
G1 F1800.000 E0.00905 ; retract
G1 Z1.400 ; lift plate during travel
G92 E0 ; reset extrusion distance
G1 X96.181 Y71.902 F7800.000 ; move to first fill point
G1 Z0.400 ; restore layer Z
G1 F1800.000 E1.00000 ; compensate retraction
G1 X95.712 Y71.434 F600.000 E1.02759 ; fill
G1 F1800.000 E0.02759 ; retract
G1 Z1.800 ; move to next layer (1) and lift
G92 E0 ; reset extrusion distance
G1 X95.172 Y72.215 F7800.000 ; move to first perimeter point
G1 Z0.800 ; restore layer Z
G1 F1800.000 E1.00000 ; compensate retraction
G1 X95.797 Y72.694 F1440.000 E1.02314 ; perimeter
G1 X96.124 Y73.120 E1.03894 ; perimeter
G1 X96.276 Y73.319 E1.04628 ; perimeter
G1 X96.577 Y74.046 E1.06943 ; perimeter
G1 X96.680 Y74.826 E1.09257 ; perimeter
G1 X96.577 Y75.606 E1.11571 ; perimeter
G1 X96.276 Y76.333 E1.13885 ; perimeter
G1 X95.797 Y76.958 E1.16200 ; perimeter
G1 X95.598 Y77.110 E1.16935 ; perimeter
G1 X95.172 Y77.437 E1.18514 ; perimeter
G1 X94.445 Y77.738 E1.20828 ; perimeter
G1 X93.665 Y77.841 E1.23142 ; perimeter
G1 X93.417 Y77.808 E1.23877 ; perimeter
G1 X92.885 Y77.738 E1.25457 ; perimeter
G1 X92.158 Y77.437 E1.27771 ; perimeter
G1 X91.533 Y76.958 E1.30085 ; perimeter
G1 X91.206 Y76.532 E1.31664 ; perimeter
G1 X91.054 Y76.333 E1.32399 ; perimeter
G1 X90.753 Y75.606 E1.34714 ; perimeter
G1 X90.650 Y74.826 E1.37028 ; perimeter
G1 X90.753 Y74.046 E1.39342 ; perimeter
G1 X91.054 Y73.319 E1.41656 ; perimeter
G1 X91.533 Y72.694 E1.43970 ; perimeter
G1 X91.732 Y72.542 E1.44705 ; perimeter
G1 X92.158 Y72.215 E1.46285 ; perimeter
G1 X92.885 Y71.914 E1.48599 ; perimeter
G1 X93.665 Y71.811 E1.50913 ; perimeter
G1 X94.445 Y71.914 E1.53227 ; perimeter
G1 X95.100 Y72.185 E1.55312 ; perimeter
G1 X95.172 Y72.215 E1.55542 ; perimeter
G1 X95.633 Y71.975 F7800.000 ; move inwards before travel
G1 F1800.000 E0.55542 ; retract
G1 Z1.800 ; lift plate during travel
G92 E0 ; reset extrusion distance
G1 X87.030 Y92.377 F7800.000 ; move to first perimeter point
G1 Z0.800 ; restore layer Z
G1 F1800.000 E1.00000 ; compensate retraction
G1 X87.752 Y92.690 F1440.000 E1.02314 ; perimeter
G1 X88.368 Y93.180 E1.04628 ; perimeter
G1 X88.836 Y93.813 E1.06943 ; perimeter
G1 X89.125 Y94.545 E1.09257 ; perimeter
G1 X89.214 Y95.327 E1.11571 ; perimeter
G1 X89.098 Y96.105 E1.13885 ; perimeter
G1 X88.785 Y96.827 E1.16200 ; perimeter
G1 X88.450 Y97.247 E1.17779 ; perimeter
G1 X88.295 Y97.443 E1.18514 ; perimeter
G1 X87.662 Y97.911 E1.20828 ; perimeter
G1 X86.930 Y98.200 E1.23142 ; perimeter
G1 X86.148 Y98.289 E1.25457 ; perimeter
G1 X85.370 Y98.173 E1.27771 ; perimeter
G1 X84.648 Y97.860 E1.30085 ; perimeter
G1 X84.032 Y97.370 E1.32399 ; perimeter
G1 X83.564 Y96.737 E1.34713 ; perimeter
G1 X83.126 Y95.626 E1.38226 ; perimeter
G1 X83.302 Y94.445 E1.41738 ; perimeter
G1 X83.615 Y93.723 E1.44052 ; perimeter
G1 X83.950 Y93.303 E1.45631 ; perimeter
G1 X84.105 Y93.107 E1.46366 ; perimeter
G1 X84.738 Y92.639 E1.48681 ; perimeter
G1 X85.470 Y92.350 E1.50995 ; perimeter
G1 X86.252 Y92.261 E1.53309 ; perimeter
G1 X86.953 Y92.365 E1.55394 ; perimeter
G1 X87.030 Y92.377 E1.55623 ; perimeter
G1 X87.419 Y92.032 F7800.000 ; move inwards before travel
G1 F1800.000 E0.55623 ; retract
G1 Z1.800 ; lift plate during travel
G92 E0 ; reset extrusion distance
G1 X83.802 Y71.802 F7800.000 ; move to first perimeter point
G1 Z0.800 ; restore layer Z
G1 F1800.000 E1.00000 ; compensate retraction
G1 X90.908 Y71.802 F1800.000 E1.20896 ; perimeter
G1 X90.146 Y72.794 E1.24576 ; perimeter
