; generated by Slic3r 1.0.1 on 2014-10-04 at 06:49:55

; layer_height = 0.4
; perimeters = 3
; top_solid_layers = 3
; bottom_solid_layers = 3
; fill_density = 0.4
; perimeter_speed = 30
; infill_speed = 60
; travel_speed = 130
; nozzle_diameter = 0.5
; filament_diameter = 3
; extrusion_multiplier = 1
; perimeters extrusion width = 0.50mm
; infill extrusion width = 0.53mm
; solid infill extrusion width = 0.53mm
; top infill extrusion width = 0.53mm
; first layer extrusion width = 0.70mm

G21 ; set units to millimeters
M190 S60 ; wait for bed temperature to be reached
M104 S185 ; set temperature
G28 ; home all axes
G1 Z5 F5000 ; lift nozzle
G92 E0 ;reset extruder
M109 S185 ; wait for temperature to be reached
G90 ; use absolute coordinates
G92 E0 ; reset extrusion distance
M82 ; use absolute distances for extrusion
G1 F1800.000 E-1.00000 ; retract
G1 Z0.850 F7800.000 ; move to next layer (0) and lift
G92 E0 ; reset extrusion distance
G1 X75.160 Y76.160 F7800.000 ; move to first skirt point
G1 Z0.350 F7800.000 ; restore layer Z
G1 E1.00000 F1800.000 ; compensate retraction
G1 X87.160 Y64.160 E1.55214 F540.000 ; skirt
G1 X87.890 Y63.530 E1.58351 ; skirt
G1 X88.520 Y63.060 E1.60909 ; skirt
G1 X89.220 Y62.610 E1.63616 ; skirt
G1 X89.970 Y62.240 E1.66337 ; skirt
G1 X90.700 Y61.940 E1.68905 ; skirt
G1 X91.520 Y61.670 E1.71714 ; skirt
G1 X92.360 Y61.500 E1.74502 ; skirt
G1 X93.120 Y61.400 E1.76996 ; skirt
G1 X93.990 Y61.340 E1.79833 ; skirt
G1 X105.990 Y61.340 E2.18875 ; skirt
G1 X106.840 Y61.400 E2.21648 ; skirt
G1 X107.620 Y61.500 E2.24206 ; skirt
G1 X108.470 Y61.660 E2.27020 ; skirt
G1 X109.300 Y61.940 E2.29870 ; skirt
G1 X110.030 Y62.240 E2.32438 ; skirt
G1 X110.800 Y62.620 E2.35232 ; skirt
G1 X111.520 Y63.090 E2.38029 ; skirt
G1 X112.140 Y63.560 E2.40561 ; skirt
G1 X112.830 Y64.160 E2.43536 ; skirt
G1 X124.830 Y76.160 E2.98750 ; skirt
G1 X125.460 Y76.890 E3.01887 ; skirt
G1 X125.930 Y77.520 E3.04444 ; skirt
G1 X126.370 Y78.200 E3.07079 ; skirt
G1 X126.730 Y78.940 E3.09757 ; skirt
G1 X127.030 Y79.660 E3.12294 ; skirt
G1 X127.310 Y80.460 E3.15052 ; skirt
G1 X127.480 Y81.290 E3.17809 ; skirt
G1 X127.590 Y82.070 E3.20371 ; skirt
G1 X127.660 Y83.000 E3.23406 ; skirt
G1 X127.660 Y95.000 E3.62448 ; skirt
G1 X127.590 Y95.940 E3.65515 ; skirt
G1 X127.480 Y96.710 E3.68045 ; skirt
G1 X127.310 Y97.520 E3.70738 ; skirt
G1 X127.050 Y98.300 E3.73413 ; skirt
G1 X126.750 Y99.030 E3.75981 ; skirt
G1 X126.370 Y99.800 E3.78775 ; skirt
G1 X125.900 Y100.520 E3.81572 ; skirt
G1 X125.430 Y101.140 E3.84103 ; skirt
G1 X124.830 Y101.830 E3.87078 ; skirt
G1 X112.830 Y113.830 E4.42293 ; skirt
G1 X112.140 Y114.430 E4.45268 ; skirt
G1 X111.520 Y114.900 E4.47799 ; skirt
G1 X110.800 Y115.370 E4.50596 ; skirt
G1 X110.030 Y115.750 E4.53390 ; skirt
G1 X109.300 Y116.050 E4.55958 ; skirt
G1 X108.520 Y116.310 E4.58633 ; skirt
G1 X107.710 Y116.480 E4.61326 ; skirt
G1 X106.940 Y116.590 E4.63856 ; skirt
G1 X106.000 Y116.660 E4.66923 ; skirt
G1 X94.000 Y116.660 E5.05965 ; skirt
G1 X93.070 Y116.590 E5.09000 ; skirt
G1 X92.290 Y116.480 E5.11562 ; skirt
G1 X91.460 Y116.310 E5.14319 ; skirt
G1 X90.660 Y116.030 E5.17077 ; skirt
G1 X89.940 Y115.730 E5.19614 ; skirt
G1 X89.200 Y115.370 E5.22292 ; skirt
G1 X88.520 Y114.930 E5.24927 ; skirt
G1 X87.890 Y114.460 E5.27484 ; skirt
G1 X87.160 Y113.830 E5.30621 ; skirt
G1 X75.160 Y101.830 E5.85835 ; skirt
G1 X74.560 Y101.140 E5.88810 ; skirt
G1 X74.090 Y100.520 E5.91342 ; skirt
G1 X73.620 Y99.800 E5.94139 ; skirt
G1 X73.240 Y99.030 E5.96933 ; skirt
G1 X72.940 Y98.300 E5.99501 ; skirt
G1 X72.660 Y97.470 E6.02351 ; skirt
G1 X72.500 Y96.620 E6.05165 ; skirt
G1 X72.400 Y95.840 E6.07723 ; skirt
G1 X72.340 Y94.990 E6.10495 ; skirt
G1 X72.340 Y82.990 E6.49538 ; skirt
G1 X72.400 Y82.130 E6.52343 ; skirt
G1 X72.500 Y81.360 E6.54869 ; skirt
G1 X72.670 Y80.500 E6.57721 ; skirt
G1 X72.960 Y79.660 E6.60612 ; skirt
G1 X73.260 Y78.940 E6.63150 ; skirt
G1 X73.620 Y78.200 E6.65827 ; skirt
G1 X74.060 Y77.520 E6.68463 ; skirt
G1 X74.530 Y76.890 E6.71020 ; skirt
G1 X75.096 Y76.235 E6.73836 ; skirt
G1 F1800.000 E5.73836 ; retract
G1 Z0.850 F7800.000 ; lift plate during travel
G92 E0 ; reset extrusion distance
G1 X92.866 Y93.866 F7800.000 ; move to first perimeter point
G1 Z0.350 F7800.000 ; restore layer Z
G1 E1.00000 F1800.000 ; compensate retraction
G1 X93.198 Y93.612 E1.01362 F324.000 ; perimeter
G1 X93.585 Y93.452 E1.02723 ; perimeter
G1 X94.000 Y93.397 E1.04085 ; perimeter
G1 X94.415 Y93.452 E1.05446 ; perimeter
G1 X94.802 Y93.612 E1.06808 ; perimeter
G1 X95.134 Y93.866 E1.08169 ; perimeter
G1 X95.388 Y94.198 E1.09531 ; perimeter
G1 X95.548 Y94.585 E1.10892 ; perimeter
G1 X95.603 Y95.000 E1.12254 ; perimeter
G1 X95.548 Y95.415 E1.13615 ; perimeter
G1 X95.388 Y95.802 E1.14977 ; perimeter
G1 X95.134 Y96.134 E1.16338 ; perimeter
G1 X94.802 Y96.388 E1.17700 ; perimeter
G1 X94.415 Y96.548 E1.19061 ; perimeter
G1 X94.000 Y96.603 E1.20423 ; perimeter
G1 X93.585 Y96.548 E1.21784 ; perimeter
G1 X93.198 Y96.388 E1.23146 ; perimeter
G1 X92.866 Y96.134 E1.24507 ; perimeter
G1 X92.612 Y95.802 E1.25869 ; perimeter
G1 X92.452 Y95.415 E1.27230 ; perimeter
G1 X92.397 Y95.000 E1.28592 ; perimeter
G1 X92.452 Y94.585 E1.29953 ; perimeter
G1 X92.612 Y94.198 E1.31315 ; perimeter
G1 X92.806 Y93.945 E1.32356 ; perimeter
G1 X92.776 Y93.458 F7800.000 ; move inwards before travel
G1 X92.128 Y93.128 F7800.000 ; move to first perimeter point
G1 X92.677 Y92.708 E1.34604 F324.000 ; perimeter
G1 X93.315 Y92.443 E1.36852 ; perimeter
G1 X94.000 Y92.353 E1.39100 ; perimeter
G1 X94.685 Y92.443 E1.41348 ; perimeter
G1 X95.323 Y92.708 E1.43596 ; perimeter
G1 X95.872 Y93.128 E1.45845 ; perimeter
G1 X96.292 Y93.677 E1.48093 ; perimeter
G1 X96.557 Y94.315 E1.50341 ; perimeter
G1 X96.647 Y95.000 E1.52589 ; perimeter
G1 X96.557 Y95.685 E1.54837 ; perimeter
G1 X96.292 Y96.323 E1.57086 ; perimeter
G1 X95.872 Y96.872 E1.59334 ; perimeter
G1 X95.323 Y97.292 E1.61582 ; perimeter
G1 X94.685 Y97.557 E1.63830 ; perimeter
G1 X94.000 Y97.647 E1.66078 ; perimeter
G1 X93.315 Y97.557 E1.68326 ; perimeter
G1 X92.677 Y97.292 E1.70575 ; perimeter
G1 X92.128 Y96.872 E1.72823 ; perimeter
G1 X91.708 Y96.323 E1.75071 ; perimeter
G1 X91.443 Y95.685 E1.77319 ; perimeter
G1 X91.353 Y95.000 E1.79567 ; perimeter
G1 X91.443 Y94.315 E1.81816 ; perimeter
G1 X91.708 Y93.677 E1.84064 ; perimeter
G1 X92.068 Y93.206 E1.85991 ; perimeter
G1 X92.755 Y93.326 F7800.000 ; move inwards before travel
G1 X92.673 Y93.437 F7800.000 ; move to first fill point
G1 X92.589 Y93.353 E1.86188 F360.000 ; fill
G1 X92.857 Y93.147 E1.86747 F360.000 ; fill
G1 X92.941 Y93.231 E1.86944 F360.000 ; fill
G1 X93.179 Y92.996 E1.87498 F360.000 ; fill
G1 X93.269 Y93.086 E1.87710 F360.000 ; fill
G1 X93.533 Y92.877 E1.88268 F360.000 ; fill
G1 X93.638 Y92.982 E1.88514 F360.000 ; fill
G1 X93.951 Y92.822 E1.89096 F360.000 ; fill
G1 X94.073 Y92.944 E1.89382 F360.000 ; fill
G1 X94.481 Y92.879 E1.90066 F360.000 ; fill
G1 X94.658 Y93.056 E1.90481 F360.000 ; fill
G1 X95.483 Y93.408 F7800.000 ; move to first fill point
G1 X95.592 Y93.517 E1.90735 F360.000 ; fill
G1 X95.944 Y94.342 F7800.000 ; move to first fill point
G1 X96.121 Y94.519 E1.91150 F360.000 ; fill
G1 X96.056 Y94.927 E1.91834 F360.000 ; fill
G1 X96.178 Y95.049 E1.92120 F360.000 ; fill
G1 X96.018 Y95.362 E1.92702 F360.000 ; fill
G1 X96.123 Y95.467 E1.92949 F360.000 ; fill
G1 X95.914 Y95.731 E1.93506 F360.000 ; fill
G1 X96.004 Y95.821 E1.93718 F360.000 ; fill
G1 X95.769 Y96.059 E1.94272 F360.000 ; fill
G1 X95.853 Y96.143 E1.94469 F360.000 ; fill
G1 X95.647 Y96.411 E1.95028 F360.000 ; fill
G1 X95.563 Y96.327 E1.95225 F360.000 ; fill
G1 X95.327 Y96.563 E1.95779 F360.000 ; fill
G1 X95.411 Y96.647 E1.95976 F360.000 ; fill
G1 X95.143 Y96.853 E1.96535 F360.000 ; fill
G1 X95.059 Y96.769 E1.96732 F360.000 ; fill
G1 X94.821 Y97.004 E1.97286 F360.000 ; fill
G1 X94.731 Y96.914 E1.97498 F360.000 ; fill
G1 X94.467 Y97.123 E1.98055 F360.000 ; fill
G1 X94.362 Y97.018 E1.98302 F360.000 ; fill
G1 X94.049 Y97.178 E1.98884 F360.000 ; fill
G1 X93.927 Y97.056 E1.99170 F360.000 ; fill
G1 X93.519 Y97.121 E1.99854 F360.000 ; fill
G1 X93.342 Y96.944 E2.00269 F360.000 ; fill
G1 X92.517 Y96.592 F7800.000 ; move to first fill point
G1 X92.408 Y96.483 E2.00523 F360.000 ; fill
G1 X92.056 Y95.658 F7800.000 ; move to first fill point
G1 X91.879 Y95.481 E2.00938 F360.000 ; fill
G1 X91.944 Y95.073 E2.01622 F360.000 ; fill
G1 X91.822 Y94.951 E2.01908 F360.000 ; fill
G1 X91.982 Y94.638 E2.02490 F360.000 ; fill
G1 X91.877 Y94.533 E2.02736 F360.000 ; fill
G1 X92.086 Y94.269 E2.03294 F360.000 ; fill
G1 X91.996 Y94.179 E2.03506 F360.000 ; fill
G1 X92.231 Y93.941 E2.04060 F360.000 ; fill
G1 X92.147 Y93.857 E2.04257 F360.000 ; fill
G1 X92.353 Y93.589 E2.04816 F360.000 ; fill
G1 X92.437 Y93.673 E2.05013 F360.000 ; fill
G1 X92.673 Y93.437 E2.05567 F360.000 ; fill
G1 F1800.000 E1.05567 ; retract
G1 Z0.850 F7800.000 ; lift plate during travel
G92 E0 ; reset extrusion distance
G1 X94.000 Y105.397 F7800.000 ; move to first perimeter point
G1 Z0.350 F7800.000 ; restore layer Z
G1 E1.00000 F1800.000 ; compensate retraction
G1 X94.415 Y105.452 E1.01362 F324.000 ; perimeter
G1 X94.802 Y105.612 E1.02723 ; perimeter
G1 X95.134 Y105.866 E1.04085 ; perimeter
G1 X95.388 Y106.198 E1.05446 ; perimeter
G1 X95.548 Y106.585 E1.06808 ; perimeter
G1 X95.603 Y107.000 E1.08169 ; perimeter
G1 X95.548 Y107.415 E1.09531 ; perimeter
G1 X95.388 Y107.802 E1.10892 ; perimeter
G1 X95.134 Y108.134 E1.12254 ; perimeter
G1 X94.802 Y108.388 E1.13615 ; perimeter
G1 X94.415 Y108.548 E1.14977 ; perimeter
G1 X94.000 Y108.603 E1.16338 ; perimeter
G1 X93.585 Y108.548 E1.17700 ; perimeter
G1 X93.198 Y108.388 E1.19061 ; perimeter
G1 X92.866 Y108.134 E1.20423 ; perimeter
G1 X92.612 Y107.802 E1.21784 ; perimeter
G1 X92.452 Y107.415 E1.23146 ; perimeter
G1 X92.397 Y107.000 E1.24507 ; perimeter
G1 X92.452 Y106.585 E1.25869 ; perimeter
G1 X92.612 Y106.198 E1.27230 ; perimeter
G1 X92.866 Y105.866 E1.28592 ; perimeter
G1 X93.198 Y105.612 E1.29953 ; perimeter
G1 X93.585 Y105.452 E1.31315 ; perimeter
G1 X93.902 Y105.410 E1.32356 ; perimeter
G1 X94.225 Y105.044 F7800.000 ; move inwards before travel
G1 X94.000 Y104.353 F7800.000 ; move to first perimeter point
G1 X94.685 Y104.443 E1.34604 F324.000 ; perimeter
G1 X95.323 Y104.708 E1.36852 ; perimeter
G1 X95.872 Y105.128 E1.39100 ; perimeter
G1 X96.292 Y105.677 E1.41348 ; perimeter
G1 X96.557 Y106.315 E1.43596 ; perimeter
G1 X96.647 Y107.000 E1.45845 ; perimeter
G1 X96.557 Y107.685 E1.48093 ; perimeter
G1 X96.292 Y108.323 E1.50341 ; perimeter
G1 X95.872 Y108.872 E1.52589 ; perimeter
G1 X95.323 Y109.292 E1.54837 ; perimeter
G1 X94.685 Y109.557 E1.57086 ; perimeter
G1 X94.000 Y109.647 E1.59334 ; perimeter
G1 X93.315 Y109.557 E1.61582 ; perimeter
G1 X92.677 Y109.292 E1.63830 ; perimeter
G1 X92.128 Y108.872 E1.66078 ; perimeter
G1 X91.708 Y108.323 E1.68326 ; perimeter
G1 X91.443 Y107.685 E1.70575 ; perimeter
G1 X91.353 Y107.000 E1.72823 ; perimeter
G1 X91.443 Y106.315 E1.75071 ; perimeter
G1 X91.708 Y105.677 E1.77319 ; perimeter
G1 X92.128 Y105.128 E1.79567 ; perimeter
G1 X92.677 Y104.708 E1.81816 ; perimeter
G1 X93.315 Y104.443 E1.84064 ; perimeter
G1 X93.902 Y104.366 E1.85991 ; perimeter
G1 X94.303 Y104.936 F7800.000 ; move inwards before travel
G1 X94.481 Y104.879 F7800.000 ; move to first fill point
G1 X94.658 Y105.056 E1.86406 F360.000 ; fill
G1 X94.481 Y104.879 F7800.000 ; move to first fill point
G1 X94.073 Y104.944 E1.87090 F360.000 ; fill
G1 X93.951 Y104.822 E1.87376 F360.000 ; fill
G1 X93.638 Y104.982 E1.87959 F360.000 ; fill
G1 X93.533 Y104.877 E1.88205 F360.000 ; fill
G1 X93.269 Y105.086 E1.88763 F360.000 ; fill
G1 X93.179 Y104.996 E1.88974 F360.000 ; fill
G1 X92.941 Y105.231 E1.89528 F360.000 ; fill
G1 X92.857 Y105.147 E1.89725 F360.000 ; fill
G1 X92.589 Y105.353 E1.90284 F360.000 ; fill
G1 X92.673 Y105.437 E1.90481 F360.000 ; fill
G1 X92.437 Y105.673 E1.91035 F360.000 ; fill
G1 X92.353 Y105.589 E1.91232 F360.000 ; fill
G1 X92.147 Y105.857 E1.91791 F360.000 ; fill
G1 X92.231 Y105.941 E1.91988 F360.000 ; fill
G1 X91.996 Y106.179 E1.92542 F360.000 ; fill
G1 X92.086 Y106.269 E1.92754 F360.000 ; fill
G1 X91.877 Y106.533 E1.93312 F360.000 ; fill
G1 X91.982 Y106.638 E1.93558 F360.000 ; fill
G1 X91.822 Y106.951 E1.94140 F360.000 ; fill
G1 X91.944 Y107.073 E1.94426 F360.000 ; fill
G1 X91.879 Y107.481 E1.95110 F360.000 ; fill
G1 X92.056 Y107.658 E1.95525 F360.000 ; fill
G1 X92.408 Y108.483 F7800.000 ; move to first fill point
G1 X92.517 Y108.592 E1.95779 F360.000 ; fill
G1 X93.342 Y108.944 F7800.000 ; move to first fill point
G1 X93.519 Y109.121 E1.96194 F360.000 ; fill
G1 X93.927 Y109.056 E1.96878 F360.000 ; fill
G1 X94.049 Y109.178 E1.97164 F360.000 ; fill
G1 X94.362 Y109.018 E1.97746 F360.000 ; fill
G1 X94.467 Y109.123 E1.97993 F360.000 ; fill
G1 X94.731 Y108.914 E1.98550 F360.000 ; fill
G1 X94.821 Y109.004 E1.98762 F360.000 ; fill
G1 X95.059 Y108.769 E1.99316 F360.000 ; fill
G1 X95.143 Y108.853 E1.99513 F360.000 ; fill
G1 X95.411 Y108.647 E2.00072 F360.000 ; fill
G1 X95.327 Y108.563 E2.00269 F360.000 ; fill
G1 X95.563 Y108.327 E2.00823 F360.000 ; fill
G1 X95.647 Y108.411 E2.01020 F360.000 ; fill
G1 X95.853 Y108.143 E2.01579 F360.000 ; fill
G1 X95.769 Y108.059 E2.01776 F360.000 ; fill
G1 X96.004 Y107.821 E2.02330 F360.000 ; fill
G1 X95.914 Y107.731 E2.02542 F360.000 ; fill
G1 X96.123 Y107.467 E2.03100 F360.000 ; fill
G1 X96.018 Y107.362 E2.03346 F360.000 ; fill
G1 X96.178 Y107.049 E2.03928 F360.000 ; fill
G1 X96.056 Y106.927 E2.04214 F360.000 ; fill
G1 X96.121 Y106.519 E2.04898 F360.000 ; fill
G1 X95.944 Y106.342 E2.05313 F360.000 ; fill
G1 X95.592 Y105.517 F7800.000 ; move to first fill point
G1 X95.483 Y105.408 E2.05567 F360.000 ; fill
G1 F1800.000 E1.05567 ; retract
G1 Z0.850 F7800.000 ; lift plate during travel
G92 E0 ; reset extrusion distance
G1 X104.452 Y106.585 F7800.000 ; move to first perimeter point
G1 Z0.350 F7800.000 ; restore layer Z
G1 E1.00000 F1800.000 ; compensate retraction
G1 X104.612 Y106.198 E1.01362 F324.000 ; perimeter
G1 X104.866 Y105.866 E1.02723 ; perimeter
G1 X105.198 Y105.612 E1.04085 ; perimeter
G1 X105.585 Y105.452 E1.05446 ; perimeter
G1 X106.000 Y105.397 E1.06808 ; perimeter
G1 X106.415 Y105.452 E1.08169 ; perimeter
G1 X106.802 Y105.612 E1.09531 ; perimeter
G1 X107.134 Y105.866 E1.10892 ; perimeter
G1 X107.388 Y106.198 E1.12254 ; perimeter
G1 X107.548 Y106.585 E1.13615 ; perimeter
G1 X107.603 Y107.000 E1.14977 ; perimeter
G1 X107.548 Y107.415 E1.16338 ; perimeter
G1 X107.388 Y107.802 E1.17700 ; perimeter
G1 X107.134 Y108.134 E1.19061 ; perimeter
G1 X106.802 Y108.388 E1.20423 ; perimeter
G1 X106.415 Y108.548 E1.21784 ; perimeter
G1 X106.000 Y108.603 E1.23146 ; perimeter
G1 X105.585 Y108.548 E1.24507 ; perimeter
G1 X105.198 Y108.388 E1.25869 ; perimeter
G1 X104.866 Y108.134 E1.27230 ; perimeter
G1 X104.612 Y107.802 E1.28592 ; perimeter
G1 X104.452 Y107.415 E1.29953 ; perimeter
G1 X104.397 Y107.000 E1.31315 ; perimeter
G1 X104.439 Y106.683 E1.32356 ; perimeter
G1 X104.169 Y106.277 F7800.000 ; move inwards before travel
G1 X103.443 Y106.315 F7800.000 ; move to first perimeter point
G1 X103.708 Y105.677 E1.34604 F324.000 ; perimeter
G1 X104.128 Y105.128 E1.36852 ; perimeter
G1 X104.677 Y104.708 E1.39100 ; perimeter
G1 X105.315 Y104.443 E1.41348 ; perimeter
G1 X106.000 Y104.353 E1.43596 ; perimeter
G1 X106.685 Y104.443 E1.45845 ; perimeter
G1 X107.323 Y104.708 E1.48093 ; perimeter
G1 X107.872 Y105.128 E1.50341 ; perimeter
G1 X108.292 Y105.677 E1.52589 ; perimeter
G1 X108.557 Y106.315 E1.54837 ; perimeter
G1 X108.647 Y107.000 E1.57086 ; perimeter
G1 X108.557 Y107.685 E1.59334 ; perimeter
G1 X108.292 Y108.323 E1.61582 ; perimeter
G1 X107.872 Y108.872 E1.63830 ; perimeter
G1 X107.323 Y109.292 E1.66078 ; perimeter
G1 X106.685 Y109.557 E1.68326 ; perimeter
G1 X106.000 Y109.647 E1.70575 ; perimeter
G1 X105.315 Y109.557 E1.72823 ; perimeter
G1 X104.677 Y109.292 E1.75071 ; perimeter
G1 X104.128 Y108.872 E1.77319 ; perimeter
G1 X103.708 Y108.323 E1.79567 ; perimeter
