; generated by Slic3r 0.9.10b on 2013-08-31 at 16:38:07

; layer_height = 0.4
; perimeters = 3
; top_solid_layers = 3
; bottom_solid_layers = 3
; fill_density = 0.4
; perimeter_speed = 30
; infill_speed = 60
; travel_speed = 130
; nozzle_diameter = 0.5
; filament_diameter = 3
; extrusion_multiplier = 1
; perimeters extrusion width = 0.53mm
; infill extrusion width = 0.53mm
; solid infill extrusion width = 0.53mm
; top infill extrusion width = 0.53mm
; first layer extrusion width = 1.00mm

G21 ; set units to millimeters
M107
M190 S60 ; wait for bed temperature to be reached
M104 S180 ; set temperature
G28 ; home all axes
G1 Z5 F5000 ; lift nozzle
M109 S180 ; wait for temperature to be reached
G90 ; use absolute coordinates
G92 E0
M82 ; use absolute distances for extrusion
G1 F1800.000 E-1.00000
G1 Z1.000 F7800.000
G92 E0
G1 X22.100 Y50.264
G1 Z0.500
G1 F1800.000 E1.00000
G1 X23.400 Y49.874 F540.000 E1.08570
G1 X24.740 Y49.744 E1.17072
G1 X31.170 Y49.744 E1.57674
G1 X31.950 Y49.784 E1.62606
G1 X32.730 Y49.924 E1.67610
G1 X48.930 Y53.684 E2.72625
G1 X50.160 Y54.094 E2.80812
G1 X51.290 Y54.724 E2.88982
G1 X52.280 Y55.564 E2.97180
G1 X53.100 Y56.564 E3.05346
G1 X53.720 Y57.704 E3.13540
G1 X54.110 Y58.944 E3.21749
G1 X58.530 Y79.504 E4.54542
G1 X58.640 Y80.184 E4.58892
G1 X58.680 Y80.864 E4.63193
G1 X58.700 Y82.354 E4.72603
G1 X58.580 Y83.764 E4.81538
G1 X58.160 Y85.114 E4.90466
G1 X57.480 Y86.364 E4.99452
G1 X56.560 Y87.434 E5.08362
G1 X55.440 Y88.304 E5.17318
G1 X54.170 Y88.924 E5.26242
G1 X52.790 Y89.264 E5.35216
G1 X51.380 Y89.324 E5.44128
G1 X24.310 Y87.624 E7.15400
G1 X23.030 Y87.424 E7.23580
G1 X21.810 Y86.984 E7.31770
G1 X20.690 Y86.324 E7.39979
G1 X19.720 Y85.464 E7.48165
G1 X18.920 Y84.434 E7.56400
G1 X18.330 Y83.284 E7.64562
G1 X17.970 Y82.034 E7.72776
G1 X17.850 Y80.744 E7.80956
G1 X17.850 Y56.634 E9.33200
G1 X17.980 Y55.294 E9.41702
G1 X18.370 Y53.994 E9.50272
G1 X19.010 Y52.804 E9.58804
G1 X19.870 Y51.764 E9.67326
G1 X20.910 Y50.904 E9.75847
G1 X21.983 Y50.327 E9.83534
G1 F1800.000 E8.83534
G1 Z1.000 F7800.000
G92 E0
G1 X26.080 Y57.973
G1 Z0.500
G1 F1800.000 E1.00000
G1 X28.401 Y57.973 F540.000 E1.14662
G1 X28.401 Y59.795 E1.26166
G1 X26.080 Y59.795 E1.40828
G1 X26.080 Y58.107 E1.51487
G1 X25.187 Y57.080 F7800.000
G1 X29.294 Y57.080 F540.000 E1.77423
G1 X29.294 Y60.688 E2.00201
G1 X25.187 Y60.688 E2.26137
G1 X25.187 Y57.214 E2.48070
G1 X25.960 Y57.527 F7800.000
G1 X26.947 Y59.149
G1 X26.726 Y58.927 F360.000 E2.49011
G1 X27.018 Y58.619 E2.50286
G1 X27.548 Y59.149 E2.52534
G1 X27.755 Y58.756 E2.53868
G1 X27.619 Y58.619 E2.54448
G1 X26.080 Y57.973 F7800.000
G1 X29.832 Y57.973 F540.000 E2.78146
G1 X29.832 Y59.295 E2.86493
G1 X26.080 Y59.295 E3.10190
G1 X26.080 Y58.107 E3.17692
G1 X25.187 Y57.080 F7800.000
G1 X30.725 Y57.080 F540.000 E3.52664
G1 X30.725 Y60.188 E3.72285
G1 X25.187 Y60.188 E4.07256
G1 X25.187 Y57.214 E4.26032
G1 X25.960 Y57.527 F7800.000
G1 X26.807 Y58.649
G1 X26.777 Y58.619 F360.000 E4.26158
G1 X27.380 Y58.619 E4.27975
G1 X27.410 Y58.649 E4.28101
G1 X27.983 Y58.619 E4.29832
G1 X28.012 Y58.649 E4.29958
G1 X28.586 Y58.619 E4.31689
G1 X28.615 Y58.649 E4.31815
G1 F1800.000 E3.31815
G1 Z1.000 F7800.000
G92 E0
G1 X23.498 Y53.634
G1 X21.740 Y55.391
G1 X21.740 Y81.996
G1 X26.547 Y69.655
G1 Z0.500
G1 F1800.000 E1.00000
G1 X28.124 Y69.354 F540.000 E1.10141
G1 X26.547 Y69.655 F7800.000
G1 X26.547 Y69.655 F1800.000
G1 F1800.000 E0.10141
G1 Z1.000 F7800.000
G92 E0
G1 X27.639 Y66.924
G1 Z0.500
G1 F1800.000 E1.00000
G1 X27.751 Y66.621 F540.000 E1.02044
G1 X27.751 Y66.621 F7800.000
G1 X30.808 Y63.913 F540.000 E1.27828
G1 X32.960 Y62.337 E1.44674
G1 X32.960 Y62.337 F7800.000
G1 X36.087 Y60.363 F540.000 E1.68026
G1 X39.594 Y58.788 E1.92303
G1 F1800.000 E0.92303
G1 Z1.000 F7800.000
G92 E0
G1 X40.652 Y56.857
G1 X41.240 Y75.220
G1 X41.240 Y81.996
G1 X39.483 Y83.754
G1 X23.498 Y83.754
G1 X21.740 Y81.996
G1 X27.939 Y70.492
G1 Z0.500
G1 F1800.000 E1.00000
G1 X29.143 Y69.228 F540.000 E1.11018
G1 X29.319 Y69.269 E1.12158
G1 X27.939 Y70.492 F7800.000
G1 X27.988 Y70.665 F540.000 E1.13297
G1 F1800.000 E0.13297
G1 Z1.000 F7800.000
G92 E0
G1 X21.740 Y81.996
G1 X23.498 Y83.754
G1 X39.483 Y83.754
G1 X41.240 Y81.996
G1 X41.240 Y75.220
G1 X40.652 Y56.857
G1 X42.851 Y60.576
G1 Z0.500
G1 F1800.000 E1.00000
G1 X46.136 Y60.608 F540.000 E1.20748
G1 X47.380 Y60.394 E1.28715
G1 F1800.000 E0.28715
G1 Z1.000 F7800.000
G92 E0
G1 X42.890 Y60.634
G1 Z0.500
G1 F1800.000 E1.00000
G1 X42.603 Y60.926 F540.000 E1.02584
G1 X42.851 Y60.576 F7800.000
G1 X42.703 Y60.469 F540.000 E1.03735
G1 F1800.000 E0.03735
G1 Z1.000 F7800.000
G92 E0
G1 X31.451 Y59.701
G1 Z0.500
G1 F1800.000 E1.00000
G1 X31.438 Y59.646 F540.000 E1.00355
G1 X31.438 Y59.646 F7800.000
G1 X31.234 Y59.353 F540.000 E1.02606
G1 X31.453 Y59.232 F7800.000
G1 X30.842 Y59.273 F540.000 E1.06471
G1 X30.842 Y59.273 F7800.000
G1 X28.353 Y58.638 F540.000 E1.22693
G1 X28.353 Y58.638 F7800.000
G1 X27.381 Y58.365 F540.000 E1.29069
G1 X27.381 Y58.365 F7800.000
G1 X27.125 Y58.346 F540.000 E1.30685
G1 X27.125 Y58.346 F7800.000
G1 X26.897 Y58.210 F540.000 E1.32366
G1 F1800.000 E0.32366
G1 Z1.000 F7800.000
G92 E0
G1 X23.498 Y53.634
G1 X28.356 Y60.036
G1 Z0.500
G1 F1800.000 E1.00000
G1 X28.627 Y59.836 F540.000 E1.02124
G1 X28.790 Y59.745 E1.03304
G1 X29.137 Y59.608 E1.05660
G1 X29.503 Y59.535 E1.08017
G1 X29.876 Y59.526 E1.10373
G1 X30.244 Y59.584 E1.12730
G1 X30.423 Y59.637 E1.13909
G1 X30.764 Y59.789 E1.16266
G1 X31.073 Y59.999 E1.18622
G1 X31.339 Y60.260 E1.20978
G1 X31.556 Y60.564 E1.23335
G1 X31.727 Y60.936 E1.25922
G1 X31.814 Y61.261 E1.28046
G1 X31.839 Y61.446 E1.29226
G1 X31.839 Y61.819 E1.31582
G1 X31.773 Y62.187 E1.33939
G1 X31.643 Y62.537 E1.36295
G1 X31.455 Y62.859 E1.38652
G1 X31.212 Y63.142 E1.41008
G1 X31.043 Y63.289 E1.42419
G1 X30.764 Y63.477 E1.44543
G1 X30.597 Y63.560 E1.45723
G1 X29.953 Y63.815 E1.50098
G1 X29.953 Y63.731 E1.50628
G1 X29.689 Y63.744 E1.52296
G1 X29.503 Y63.731 E1.53475
G1 X29.282 Y63.693 E1.54886
G1 X28.960 Y63.596 E1.57010
G1 X28.627 Y63.429 E1.59367
G1 X28.444 Y63.301 E1.60778
G1 X28.194 Y63.075 E1.62902
G1 X27.964 Y62.781 E1.65259
G1 X27.870 Y62.620 E1.66438
G1 X27.725 Y62.276 E1.68795
G1 X27.643 Y61.912 E1.71151
G1 X27.626 Y61.539 E1.73508
G1 X27.676 Y61.170 E1.75864
G1 X27.790 Y60.814 E1.78221
G1 X27.964 Y60.484 E1.80577
G1 X28.073 Y60.332 E1.81756
G1 X28.258 Y60.128 E1.83500
G1 X27.596 Y59.526 F7800.000
G1 X27.732 Y59.394 F540.000 E1.84697
G1 X27.995 Y59.186 E1.86814
G1 X27.995 Y59.167 E1.86939
G1 X28.389 Y58.947 E1.89791
G1 X28.632 Y58.838 E1.91469
G1 X29.141 Y58.687 E1.94823
G1 X29.669 Y58.629 E1.98177
G1 X30.199 Y58.664 E2.01531
G1 X30.715 Y58.792 E2.04885
G1 X30.962 Y58.890 E2.06563
G1 X31.264 Y59.049 E2.08722
G1 X31.639 Y59.307 E2.11595
G1 X31.837 Y59.485 E2.13273
G1 X32.182 Y59.888 E2.16627
G1 X32.451 Y60.346 E2.19981
G1 X32.635 Y60.844 E2.23335
G1 X32.704 Y61.179 E2.25494
G1 X32.740 Y61.633 E2.28366
G1 X32.693 Y62.162 E2.31720
G1 X32.554 Y62.674 E2.35074
G1 X32.327 Y63.154 E2.38428
G1 X32.018 Y63.587 E2.41782
G1 X31.837 Y63.781 E2.43460
G1 X31.426 Y64.117 E2.46814
G1 X30.962 Y64.376 E2.50168
G1 X30.460 Y64.549 E2.53522
G1 X30.199 Y64.602 E2.55200
G1 X29.859 Y64.633 E2.57359
G1 X29.404 Y64.619 E2.60232
G1 X29.141 Y64.578 E2.61910
G1 X28.632 Y64.428 E2.65264
G1 X28.157 Y64.190 E2.68618
G1 X27.732 Y63.872 E2.71972
G1 X27.369 Y63.484 E2.75326
G1 X27.080 Y63.038 E2.78680
G1 X26.966 Y62.798 E2.80358
G1 X26.804 Y62.292 E2.83712
G1 X26.734 Y61.766 E2.87066
G1 X26.757 Y61.235 E2.90420
G1 X26.874 Y60.717 E2.93774
G1 X27.080 Y60.227 E2.97127
G1 X27.214 Y59.998 E2.98806
G1 X27.504 Y59.624 E3.01797
G1 X26.889 Y58.969 F7800.000
G1 X27.136 Y58.728 F540.000 E3.03974
G1 X27.403 Y58.510 E3.06152
G1 X27.688 Y58.316 E3.08330
G1 X28.095 Y58.100 E3.11237
G1 X28.630 Y57.895 E3.14858
G1 X28.964 Y57.811 E3.17035
G1 X29.305 Y57.758 E3.19213
G1 X29.649 Y57.735 E3.21391
G1 X29.994 Y57.743 E3.23568
G1 X30.337 Y57.781 E3.25746
G1 X30.675 Y57.849 E3.27924
G1 X31.006 Y57.947 E3.30102
G1 X31.326 Y58.074 E3.32279
G1 X31.635 Y58.228 E3.34457
G1 X31.928 Y58.410 E3.36635
G1 X32.291 Y58.693 E3.39542
G1 X32.697 Y59.098 E3.43163
G1 X32.910 Y59.369 E3.45340
G1 X33.097 Y59.659 E3.47518
G1 X33.259 Y59.964 E3.49696
G1 X33.392 Y60.282 E3.51874
G1 X33.497 Y60.610 E3.54051
G1 X33.573 Y60.946 E3.56229
G1 X33.619 Y61.288 E3.58407
G1 X33.634 Y61.633 E3.60585
G1 X33.619 Y61.977 E3.62762
G1 X33.573 Y62.319 E3.64940
G1 X33.497 Y62.656 E3.67118
G1 X33.392 Y62.984 E3.69295
G1 X33.259 Y63.302 E3.71473
G1 X33.097 Y63.607 E3.73651
G1 X32.910 Y63.896 E3.75829
G1 X32.697 Y64.168 E3.78006
G1 X32.461 Y64.420 E3.80184
G1 X32.205 Y64.650 E3.82362
G1 X31.928 Y64.856 E3.84540
G1 X31.635 Y65.037 E3.86717
G1 X31.326 Y65.192 E3.88895
G1 X30.740 Y65.403 E3.92829
G1 X30.337 Y65.485 E3.95428
G1 X29.994 Y65.523 E3.97606
G1 X29.649 Y65.530 E3.99784
G1 X29.305 Y65.507 E4.01961
G1 X28.964 Y65.454 E4.04139
G1 X28.630 Y65.371 E4.06317
G1 X28.304 Y65.259 E4.08495
G1 X27.989 Y65.118 E4.10672
G1 X27.688 Y64.950 E4.12850
G1 X27.403 Y64.756 E4.15028
G1 X27.136 Y64.538 E4.17206
G1 X26.889 Y64.296 E4.19383
G1 X26.665 Y64.034 E4.21561
G1 X26.465 Y63.754 E4.23739
G1 X26.240 Y63.352 E4.26646
G1 X26.023 Y62.821 E4.30266
G1 X25.932 Y62.488 E4.32444
G1 X25.872 Y62.149 E4.34622
G1 X25.841 Y61.805 E4.36800
G1 X25.841 Y61.460 E4.38977
G1 X25.872 Y61.117 E4.41155
G1 X25.932 Y60.777 E4.43333
G1 X26.023 Y60.445 E4.45511
G1 X26.142 Y60.121 E4.47688
G1 X26.290 Y59.809 E4.49866
G1 X26.465 Y59.512 E4.52044
G1 X26.802 Y59.071 E4.55551
G1 X27.225 Y59.047 F7800.000
G1 X29.570 Y60.180
G1 X31.184 Y61.794 F1080.000 E4.70228
G1 X30.767 Y62.662 E4.76419
G1 X28.706 Y60.601 E4.95159
G1 X28.283 Y61.463 E5.01333
G1 X29.905 Y63.085 E5.16076
G1 F1800.000 E4.16076
G1 Z1.000 F7800.000
G92 E0
G1 X38.201 Y56.289
G1 X37.533 Y53.634
G1 X23.498 Y53.634
G1 X21.740 Y55.391
G1 X21.740 Y81.996
G1 X26.972 Y77.486
G1 Z0.500
G1 F1800.000 E1.00000
G1 X36.009 Y77.486 F540.000 E1.57061
G1 X36.009 Y78.522 E1.63607
G1 X26.972 Y78.522 E2.20668
G1 X26.972 Y77.619 E2.26368
G1 X26.080 Y76.593 F7800.000
G1 X36.901 Y76.593 F540.000 E2.94703
G1 X36.901 Y79.415 E3.12522
G1 X26.080 Y79.415 E3.80858
G1 X26.080 Y76.727 E3.97831
G1 X25.187 Y75.700 F7800.000
G1 X37.794 Y75.700 F540.000 E4.77441
G1 X37.794 Y80.307 E5.06534
G1 X25.187 Y80.307 E5.86143
G1 X25.187 Y75.834 E6.14391
G1 X25.960 Y76.147 F7800.000
G1 F1800.000 E5.14391
G1 Z1.000 F7800.000
G92 E0
G1 X21.740 Y81.996
G1 X21.740 Y55.391
G1 X23.498 Y53.634
G1 X37.533 Y53.634
G1 X38.201 Y56.289
G1 X31.571 Y66.388
G1 Z0.500
G1 F1800.000 E1.00000
G1 X31.903 Y66.072 F540.000 E1.02891
G1 X31.678 Y66.420 F7800.000
G1 X31.731 Y66.606 F540.000 E1.04110
G1 X31.731 Y66.606 F7800.000
G1 X31.802 Y66.683 F540.000 E1.04773
G1 X31.571 Y66.388 F7800.000
G1 X30.918 Y66.294 F540.000 E1.08940
G1 X30.918 Y66.294 F7800.000
G1 X30.652 Y66.183 F540.000 E1.10758
G1 X30.652 Y66.183 F7800.000
G1 X30.459 Y66.232 F540.000 E1.12014
G1 F1800.000 E0.12014
G1 Z1.000 F7800.000
G92 E0
G1 X30.792 Y60.308
G1 Z0.500
G1 F1800.000 E1.00000
G1 X30.072 Y60.183 F540.000 E1.04615
G1 X30.072 Y60.183 F7800.000
G1 X29.122 Y60.090 F540.000 E1.10637
G1 X29.122 Y60.090 F7800.000
G1 X28.836 Y60.162 F540.000 E1.12503
M106 S255
G1 F1800.000 E0.12503
G1 Z1.400 F7800.000
G92 E0
G1 X28.441 Y59.835
G1 Z0.900
G1 F1800.000 E1.00000
G1 X26.040 Y59.835 F611.656 E1.07063
G1 X26.040 Y57.933 E1.12655
G1 X28.441 Y57.933 E1.19718
G1 X28.441 Y59.757 E1.25081
G1 X28.961 Y60.355 F7800.000
G1 X25.520 Y60.355 F611.656 E1.35200
G1 X25.520 Y57.414 E1.43848
G1 X28.961 Y57.414 E1.53967
G1 X28.961 Y60.277 E1.62386
G1 X29.481 Y60.874 F7800.000
G1 X25.000 Y60.874 F611.656 E1.75560
G1 X25.000 Y56.894 E1.87265
G1 X29.481 Y56.894 E2.00439
G1 X29.481 Y60.796 E2.11915
G1 X29.031 Y60.614 F7800.000
G1 X28.065 Y59.242
G1 X27.849 Y59.458 F1223.313 E2.12821
G1 X27.107 Y59.458 E2.15022
G1 X28.065 Y58.501 E2.19041
G1 X27.514 Y58.310 E2.20770
G1 X26.416 Y59.408 E2.25377
G1 X26.416 Y58.666 E2.27578
G1 X26.773 Y58.310 E2.29074
G1 F1800.000 E1.29074
G1 Z1.400 F7800.000
G92 E0
G1 X26.040 Y57.933
G1 Z0.900
G1 F1800.000 E1.00000
G1 X29.872 Y57.933 F611.656 E1.11270
G1 X29.872 Y59.335 E1.15393
G1 X26.040 Y59.335 E1.26663
G1 X26.040 Y58.011 E1.30556
G1 X25.520 Y57.414 F7800.000
G1 X30.392 Y57.414 F611.656 E1.44882
G1 X30.392 Y59.855 E1.52060
G1 X25.520 Y59.855 E1.66387
G1 X25.520 Y57.491 E1.73336
G1 X25.000 Y56.894 F7800.000
G1 X30.912 Y56.894 F611.656 E1.90718
G1 X30.912 Y60.374 E2.00952
G1 X25.000 Y60.374 E2.18335
G1 X25.000 Y56.972 E2.28340
G1 X25.450 Y57.154 F7800.000
G1 X29.010 Y58.587
G1 X28.915 Y58.681 F600.000 E2.28896
G1 X27.973 Y58.587 E2.32825
G1 X27.878 Y58.681 E2.33382
G1 X26.936 Y58.587 E2.37311
G1 X26.841 Y58.681 E2.37867
G1 F1800.000 E1.37867
G1 Z1.400 F7800.000
G92 E0
G1 X23.498 Y53.634
G1 X21.740 Y55.391
G1 X21.740 Y81.996
G1 X25.646 Y69.716
G1 Z0.900
G1 F1800.000 E1.00000
G1 X26.540 Y69.551 F611.656 E1.02673
G1 X25.646 Y69.716 F7800.000
G1 X25.646 Y69.716 F1800.000
G1 F1800.000 E0.02673
G1 Z1.400 F7800.000
G92 E0
G1 X27.695 Y65.670
G1 Z0.900
G1 F1800.000 E1.00000
G1 X27.721 Y65.521 F611.656 E1.00444
G1 X27.721 Y65.521 F7800.000
G1 X27.866 Y65.488 F611.656 E1.00882
G1 X27.866 Y65.488 F7800.000
G1 X27.919 Y65.359 F611.656 E1.01292
G1 X27.919 Y65.359 F7800.000
G1 X28.221 Y65.143 F611.656 E1.02383
G1 X28.221 Y65.143 F7800.000
G1 X28.613 Y64.777 F611.656 E1.03959
G1 X28.606 Y64.576 E1.04552
G1 F1800.000 E0.04552
G1 Z1.400 F7800.000
G92 E0
G1 X38.697 Y58.453
G1 Z0.900
G1 F1800.000 E1.00000
G1 X38.717 Y58.453 F611.656 E1.00061
G1 X38.717 Y58.453 F7800.000
G1 X38.761 Y58.449 F611.656 E1.00191
G1 X38.761 Y58.449 F7800.000
G1 X39.165 Y58.262 F611.656 E1.01500
G1 X39.165 Y58.262 F7800.000
G1 X39.924 Y58.027 F611.656 E1.03836
G1 F1800.000 E0.03836
G1 Z1.400 F7800.000
G92 E0
G1 X40.652 Y56.857
G1 X41.240 Y75.220
G1 X41.240 Y81.996
G1 X39.483 Y83.754
G1 X23.498 Y83.754
G1 X21.740 Y81.996
G1 X27.556 Y71.771
G1 Z0.900
G1 F1800.000 E1.00000
G1 X27.230 Y72.182 F611.656 E1.01543
G1 X27.556 Y71.771 F7800.000
G1 X30.208 Y68.941 F611.656 E1.12947
G1 F1800.000 E0.12947
G1 Z1.400 F7800.000
G92 E0
G1 X26.700 Y72.741
G1 Z0.900
G1 F1800.000 E1.00000
G1 X26.710 Y72.758 F611.656 E1.00057
G1 F1800.000 E0.00057
G1 Z1.400 F7800.000
G92 E0
G1 X21.740 Y81.996
G1 X23.498 Y83.754
G1 X39.483 Y83.754
G1 X41.240 Y81.996
G1 X41.240 Y75.220
G1 X40.652 Y56.857
G1 X46.660 Y60.015
G1 Z0.900
G1 F1800.000 E1.00000
G1 X47.621 Y59.939 F611.656 E1.02836
G1 X46.660 Y60.015 F7800.000
G1 X46.366 Y60.053 F611.656 E1.03707
G1 X46.366 Y60.053 F7800.000
G1 X46.179 Y60.052 F611.656 E1.04257
G1 X46.179 Y60.052 F7800.000
G1 X46.132 Y60.072 F611.656 E1.04408
G1 X46.132 Y60.072 F7800.000
G1 X45.996 Y60.273 F611.656 E1.05123
G1 F1800.000 E0.05123
G1 Z1.400 F7800.000
G92 E0
G1 X29.153 Y58.511
G1 Z0.900
G1 F1800.000 E1.00000
G1 X28.489 Y58.347 F611.656 E1.02011
G1 X28.489 Y58.347 F7800.000
G1 X27.949 Y58.159 F611.656 E1.03694
G1 X27.949 Y58.159 F7800.000
G1 X27.851 Y58.197 F611.656 E1.04002
G1 X27.851 Y58.197 F7800.000
G1 X27.716 Y58.088 F611.656 E1.04511
G1 F1800.000 E0.04511
G1 Z1.400 F7800.000
G92 E0
G1 X28.416 Y59.222
G1 Z0.900
G1 F1800.000 E1.00000
G1 X28.725 Y59.074 F611.656 E1.01006
G1 X28.955 Y58.995 E1.01722
G1 X29.191 Y58.936 E1.02438
G1 X29.634 Y58.867 E1.03754
G1 X29.634 Y58.886 E1.03807
G1 X29.918 Y58.888 E1.04643
G1 X30.160 Y58.915 E1.05358
G1 X30.398 Y58.963 E1.06074
G1 X30.858 Y59.122 E1.07504
G1 X31.283 Y59.358 E1.08934
G1 X31.478 Y59.504 E1.09649
G1 X31.757 Y59.772 E1.10787
G1 X31.975 Y60.036 E1.11794
G1 X32.108 Y60.240 E1.12509
G1 X32.316 Y60.679 E1.13939
G1 X32.390 Y60.911 E1.14655
G1 X32.462 Y61.291 E1.15793
G1 X32.486 Y61.633 E1.16800
G1 X32.476 Y61.876 E1.17515
G1 X32.390 Y62.355 E1.18945
G1 X32.260 Y62.719 E1.20083
G1 X32.108 Y63.026 E1.21090
G1 X31.825 Y63.422 E1.22519
G1 X31.478 Y63.762 E1.23949
G1 X31.076 Y64.035 E1.25379
G1 X30.724 Y64.197 E1.26517
G1 X30.398 Y64.302 E1.27524
G1 X29.918 Y64.377 E1.28953
G1 X29.432 Y64.367 E1.30383
G1 X28.955 Y64.271 E1.31813
G1 X28.503 Y64.092 E1.33242
G1 X28.291 Y63.973 E1.33958
